P3
400 225
255
174 188 186
207 216 224
207 217 227
204 214 224
172 186 184
97 124 74
97 125 75
96 123 74
95 122 73
95 122 73
94 121 72
97 124 74
98 125 75
95 122 73
97 125 76
97 125 75
98 125 75
99 126 76
95 123 74
95 122 72
94 121 73
97 124 75
93 120 72
99 126 76
94 122 74
97 124 75
95 123 74
96 123 73
98 125 75
101 128 77
96 123 73
96 123 74
139 157 140
209 219 228
208 218 227
206 215 225
209 218 229
206 215 225
198 209 218
211 220 230
208 217 224
203 213 223
208 218 230
205 214 222
204 214 223
174 188 186
131 151 128
98 126 76
97 125 75
102 129 77
96 123 74
94 121 72
99 126 76
95 122 73
95 122 74
97 124 74
99 127 76
97 124 75
100 127 77
95 122 73
94 121 73
159 175 170
199 210 218
208 218 228
203 213 222
203 212 220
210 219 228
204 213 222
208 217 226
200 210 218
197 207 215
207 216 225
203 213 223
209 219 231
203 212 220
210 219 228
209 219 229
205 215 225
206 215 223
199 209 217
205 214 221
200 210 218
205 215 224
209 218 227
206 216 226
204 214 223
208 218 226
206 216 227
208 217 227
205 215 223
200 210 218
91 118 71
99 127 76
99 126 75
97 124 74
95 122 73
96 123 74
95 123 74
98 125 75
98 126 75
97 124 74
93 120 71
93 120 72
98 125 74
94 122 73
96 123 73
110 135 96
147 165 150
175 189 190
206 216 226
207 216 225
202 213 222
205 215 225
203 213 222
210 218 225
204 214 224
209 219 229
208 218 229
211 220 231
214 222 231
205 215 222
101 128 79
96 124 74
93 120 72
95 122 73
96 123 74
97 124 75
96 123 74
96 123 74
97 125 76
97 124 74
93 120 72
99 126 76
93 120 72
94 121 73
96 124 75
96 123 73
98 126 75
96 123 75
94 121 72
98 126 76
95 123 73
98 125 75
98 126 76
97 124 74
94 122 73
96 124 74
98 126 76
98 126 76
97 124 74
96 123 73
192 203 208
204 213 222
206 217 228
203 213 220
207 217 226
202 212 219
198 208 217
202 212 221
205 215 225
209 219 231
205 215 224
207 217 226
206 215 224
209 218 227
199 210 220
202 211 218
208 217 227
199 211 222
199 210 217
200 211 220
203 213 222
209 219 229
208 217 226
195 205 212
199 209 217
202 212 220
209 218 226
207 216 225
208 218 229
202 212 221
139 157 140
95 123 74
98 125 74
95 123 74
97 124 74
96 124 75
97 125 76
95 122 74
91 118 70
94 121 72
96 123 74
99 126 77
95 122 72
94 120 72
97 125 75
96 124 74
93 120 72
97 125 74
94 122 74
97 124 74
100 126 82
131 151 128
153 168 154
180 193 192
191 202 206
204 213 223
208 218 229
204 214 225
205 215 224
205 215 224
124 146 118
98 125 75
99 127 77
95 122 74
94 121 73
98 126 75
95 123 74
95 122 73
96 123 74
97 125 75
97 124 75
99 126 75
94 121 73
98 126 76
98 125 75
98 125 75
96 124 74
97 124 74
96 123 74
100 127 76
95 122 73
99 126 76
94 122 73
98 125 76
94 121 72
95 122 73
95 122 73
99 126 76
99 126 76
131 151 126
203 214 224
203 214 224
206 216 227
210 219 229
208 218 226
211 220 230
202 212 221
202 213 221
210 219 229
205 216 227
204 214 223
203 213 224
196 207 213
201 212 221
208 217 226
208 217 227
208 217 225
207 216 225
207 216 225
204 214 222
205 215 224
199 209 217
207 217 227
203 213 222
198 209 217
203 213 221
202 213 225
201 211 220
177 190 191
98 125 75
94 121 72
94 122 73
98 126 76
94 121 72
93 120 72
97 124 74
93 121 73
96 123 73
95 123 74
98 126 76
97 124 75
98 125 74
96 123 74
98 125 75
96 124 74
98 126 76
99 126 75
98 126 75
98 125 75
96 124 74
97 124 74
96 124 74
98 125 75
96 123 74
97 125 75
97 124 74
116 139 108
204 215 225
205 215 225
204 214 222
195 206 213
200 210 218
205 215 224
203 213 222
204 214 222
202 212 220
202 212 219
211 219 227
205 214 223
210 218 227
204 214 221
209 218 228
207 217 227
200 212 222
205 214 221
211 220 230
194 205 211
206 215 224
202 213 222
200 211 220
205 214 223
207 217 225
214 223 233
198 208 213
103 129 87
99 127 77
98 126 75
96 123 74
94 121 72
95 122 74
98 125 75
94 121 73
94 121 72
94 121 73
92 119 70
96 123 74
100 128 77
94 121 72
95 122 73
98 126 75
97 125 75
97 124 74
97 125 75
96 123 74
97 124 75
96 124 74
99 127 76
96 124 74
96 123 74
101 128 82
202 212 219
203 212 221
203 213 222
203 213 223
199 209 215
209 218 228
197 208 215
200 210 217
204 215 224
205 214 222
203 214 224
207 216 225
203 213 221
196 207 215
206 216 224
209 218 228
202 212 219
208 218 228
209 218 228
205 215 224
207 216 224
207 218 229
205 214 223
208 218 229
184 196 199
97 124 74
94 122 73
93 121 73
97 125 75
99 127 76
97 124 75
99 126 76
96 124 74
100 128 77
96 124 74
97 124 74
96 124 75
98 126 76
100 128 77
98 126 76
92 119 71
96 124 74
98 126 75
99 127 77
96 124 75
95 123 74
93 120 72
94 121 72
184 196 198
95 122 73
113 136 103
167 182 174
192 204 210
183 195 199
94 121 72
97 124 74
95 123 74
97 124 74
96 123 73
94 121 72
97 124 74
95 122 73
98 126 76
98 125 75
97 124 75
97 124 74
98 126 76
95 122 73
99 127 76
98 126 76
92 119 71
95 122 73
98 126 76
97 124 75
95 122 74
96 124 75
98 125 75
95 122 73
99 126 76
96 123 74
94 122 73
139 157 140
206 216 228
210 218 225
208 216 224
207 217 227
199 209 217
205 215 223
204 213 221
204 214 223
209 219 231
211 219 227
204 213 222
204 214 224
200 211 220
207 217 228
195 205 211
163 178 169
108 132 95
96 123 73
96 123 74
95 123 74
93 120 72
93 119 70
95 122 73
93 120 72
98 125 75
98 125 75
97 125 75
94 122 73
162 177 171
202 212 221
207 217 226
213 222 233
208 216 226
206 215 223
202 212 222
208 217 224
197 207 215
200 211 219
204 213 222
203 214 224
202 212 222
203 212 220
205 214 223
206 215 224
205 216 228
207 217 227
205 215 223
207 216 224
211 219 228
205 215 223
207 217 226
197 208 217
202 212 221
202 212 219
212 220 230
205 214 223
204 214 223
190 201 205
96 123 74
92 119 71
97 124 74
97 125 76
94 122 73
97 124 74
94 121 73
98 126 76
96 123 73
98 126 76
94 122 73
98 125 75
97 124 75
96 123 74
95 122 73
93 120 72
95 123 74
98 125 75
107 132 93
145 162 145
173 187 184
204 214 224
208 217 226
199 209 217
201 211 218
203 213 222
201 212 221
202 211 219
201 211 219
190 202 207
95 122 73
96 123 74
95 121 72
98 125 75
97 125 76
97 125 75
95 122 73
94 121 73
93 120 72
99 126 76
97 125 75
96 124 75
96 123 74
97 125 75
96 124 75
96 124 74
98 125 74
95 122 72
98 125 75
96 124 74
96 124 75
96 123 74
98 126 76
98 125 75
95 122 73
96 124 74
97 125 75
98 126 75
98 125 75
100 126 81
196 206 213
204 213 221
207 216 226
208 217 225
209 218 228
209 218 228
206 216 226
202 212 220
208 218 228
211 219 228
212 220 229
203 214 225
207 216 225
205 215 225
206 215 224
195 206 214
209 218 228
203 213 222
197 208 215
203 213 222
205 215 225
202 212 222
200 210 219
209 219 228
210 220 232
202 211 220
208 217 226
199 209 216
205 214 223
199 209 218
105 130 90
96 123 74
100 127 76
97 125 75
97 125 75
98 125 76
95 122 73
101 128 77
93 120 72
96 124 75
95 122 73
98 125 75
99 126 76
96 122 73
96 124 74
98 125 75
96 123 74
94 121 72
97 125 75
98 125 75
98 126 76
94 122 73
97 125 75
97 124 75
95 122 73
92 119 71
120 141 112
134 153 136
161 176 167
169 183 183
125 146 119
101 127 81
101 128 76
97 124 75
94 122 73
97 123 73
97 124 74
94 122 74
100 128 77
95 122 73
99 126 75
98 125 75
94 121 72
95 122 73
96 123 74
97 124 74
96 124 74
93 120 72
98 125 75
100 127 76
97 125 75
95 122 72
95 122 74
97 124 75
96 123 74
95 122 73
97 125 75
95 123 74
95 122 73
166 179 174
198 209 216
204 214 222
203 213 221
207 217 227
208 218 228
205 215 223
209 218 228
207 216 226
213 221 231
203 213 222
207 217 227
209 218 227
201 211 221
209 219 228
203 213 221
209 218 226
199 210 219
207 217 226
203 212 220
204 214 223
208 217 226
213 222 234
203 213 222
198 208 214
205 214 222
206 215 224
199 209 216
205 215 224
133 154 132
96 123 74
95 123 74
98 126 75
97 125 76
97 125 75
97 124 75
96 123 73
96 123 74
96 123 74
97 124 75
96 124 74
92 119 71
96 124 74
100 127 75
99 126 76
93 120 71
98 126 76
94 121 72
100 127 77
97 124 75
98 125 76
96 123 73
97 125 75
95 122 73
96 123 74
96 124 74
99 127 76
182 194 196
208 217 226
207 217 227
203 212 219
205 215 225
204 214 222
205 215 224
200 209 215
210 219 230
202 212 221
209 219 229
201 211 222
206 215 222
206 216 226
205 215 224
202 212 220
202 212 220
205 214 223
204 214 222
198 209 216
206 216 225
208 217 224
208 217 226
207 217 226
201 211 218
196 208 216
213 222 233
152 168 155
97 124 74
96 123 74
97 125 75
97 124 75
99 127 76
94 121 73
98 126 76
98 126 76
96 123 74
95 122 73
98 126 76
97 124 75
97 124 75
94 121 73
97 125 75
97 124 75
100 127 76
98 125 75
97 125 75
95 122 73
95 122 73
98 126 75
96 124 74
93 121 73
95 122 73
169 182 177
201 212 222
205 215 223
205 214 221
198 210 219
205 215 225
210 218 226
215 224 234
206 214 221
207 216 224
204 214 222
209 218 228
209 218 229
214 223 234
210 219 228
204 214 224
207 217 228
213 221 232
210 219 231
207 216 225
201 211 219
205 215 225
208 217 226
202 212 221
200 210 217
132 152 128
93 120 71
97 125 76
95 122 73
94 122 73
96 124 74
97 124 74
95 122 73
97 125 75
95 122 72
93 121 72
97 125 75
95 123 74
95 122 73
98 125 76
95 122 73
96 123 73
100 127 77
96 124 75
97 125 75
98 126 77
95 122 73
96 124 75
155 171 158
209 219 229
98 126 76
94 121 73
100 127 77
93 119 71
147 164 149
120 141 112
97 125 75
97 125 75
96 123 74
95 122 73
95 122 73
100 127 76
96 123 75
95 123 74
94 121 72
99 126 75
95 122 73
98 125 74
97 124 74
95 122 73
98 126 76
96 124 75
93 119 70
97 124 74
95 123 74
98 125 75
99 126 76
96 123 74
94 121 72
99 127 76
94 121 73
96 123 74
132 152 129
199 209 220
206 216 226
202 212 221
200 211 219
210 220 231
212 221 232
213 222 232
203 214 224
202 212 219
206 215 225
206 216 227
208 217 226
206 215 224
208 217 226
198 209 218
206 216 226
207 215 224
190 202 205
133 151 131
104 131 86
97 125 75
95 122 73
97 124 74
95 123 74
95 123 73
94 120 72
100 127 77
96 124 75
161 176 166
211 221 232
204 214 225
202 212 221
205 215 224
204 213 222
211 219 228
203 213 222
203 213 222
210 219 228
207 217 226
201 211 220
210 219 229
199 209 215
209 218 228
205 214 224
207 216 224
204 214 222
201 210 217
207 218 230
202 212 220
207 217 226
210 219 230
198 209 218
205 215 226
199 209 218
209 218 227
196 206 214
205 216 226
197 207 212
92 119 72
98 125 75
94 121 72
95 122 73
96 123 73
97 125 75
97 124 74
97 124 74
96 124 75
97 124 74
99 126 76
98 125 75
96 123 75
94 121 72
95 122 73
96 124 74
97 125 74
98 126 76
97 124 74
96 124 74
95 122 72
103 129 82
127 147 123
167 182 179
198 209 216
208 217 227
206 216 227
205 215 224
206 215 224
189 201 203
96 123 74
94 121 72
96 123 73
97 124 75
95 122 73
97 125 75
95 123 74
96 123 73
97 125 75
96 123 74
97 125 75
93 121 73
94 122 73
97 124 74
95 122 74
96 123 74
98 125 74
95 123 73
95 122 73
94 122 73
99 127 77
97 124 75
99 126 75
92 119 72
96 123 74
98 126 76
96 124 74
97 124 74
94 121 73
131 151 126
208 218 229
200 210 216
211 220 229
206 215 222
209 218 226
198 207 213
206 215 224
208 217 227
204 213 223
203 213 223
202 212 221
210 220 230
195 206 214
205 215 225
202 212 220
206 215 224
206 215 223
205 215 224
205 215 224
200 209 215
204 214 223
196 207 216
205 214 221
205 214 223
204 215 225
203 213 223
208 217 226
201 212 220
206 215 224
193 204 206
98 126 76
95 122 73
98 125 75
93 120 71
95 122 73
94 121 72
97 125 75
98 125 75
97 124 75
94 121 72
98 125 75
97 124 75
99 127 76
96 123 74
96 123 74
93 120 71
98 125 76
96 124 74
97 125 75
95 123 74
99 126 76
94 121 72
96 123 74
96 123 74
96 122 73
95 122 73
99 126 76
93 121 73
95 122 73
140 159 143
207 216 225
201 210 217
195 205 208
178 192 191
153 170 156
138 156 135
126 146 120
93 120 71
97 124 75
95 123 74
93 121 72
96 123 73
98 125 75
97 125 75
98 125 75
94 120 71
96 123 74
95 122 74
99 126 75
96 123 74
97 124 74
99 127 77
100 128 77
100 128 77
97 125 75
94 122 73
97 124 74
98 126 76
96 123 76
199 210 219
201 212 221
204 214 222
205 215 223
209 219 229
197 207 215
200 211 220
197 208 218
201 211 220
203 213 223
207 216 225
202 213 222
204 213 222
201 211 220
204 213 221
204 214 223
201 211 221
201 212 221
213 222 232
202 212 221
204 214 223
203 214 224
207 217 226
207 217 226
205 214 224
208 218 227
207 216 225
199 209 217
196 206 212
97 125 75
93 121 73
100 127 76
98 125 75
99 126 75
96 123 73
97 125 76
94 121 73
97 124 75
92 120 72
98 125 75
96 124 74
94 121 73
96 124 74
97 124 74
96 123 74
96 123 73
98 125 75
96 124 74
98 125 75
97 124 74
97 125 75
96 123 74
98 125 75
97 124 75
98 125 75
95 122 74
108 132 96
206 216 223
208 217 228
215 223 233
204 214 224
205 215 223
208 218 229
202 212 220
205 215 226
209 218 227
208 217 227
203 212 222
205 215 226
211 219 228
207 216 225
211 220 229
210 219 229
208 217 226
207 216 225
200 209 217
206 216 224
203 213 222
207 216 225
208 218 229
208 217 226
200 211 220
207 215 223
193 204 211
97 124 74
99 127 76
98 126 76
97 124 74
98 125 75
93 120 72
96 124 75
93 120 71
96 124 74
96 123 74
98 125 75
89 117 70
96 124 74
96 124 74
96 124 74
91 118 70
99 126 75
97 125 75
97 125 75
99 126 75
96 124 75
97 124 75
98 126 75
96 123 74
97 124 74
127 147 124
208 217 227
204 214 223
207 216 224
206 215 221
205 215 223
203 213 222
212 222 234
210 219 228
205 215 225
208 217 226
203 212 220
209 218 228
194 206 215
198 209 217
208 218 227
202 212 219
208 217 227
210 220 231
205 214 224
201 211 221
205 215 223
205 215 224
202 212 221
203 213 221
152 167 154
95 122 73
97 125 75
96 124 74
96 124 74
96 124 74
97 124 75
95 122 73
98 125 75
102 130 78
95 123 74
92 120 72
95 121 72
94 121 73
99 126 76
95 122 73
93 120 72
99 127 76
95 122 72
93 121 72
96 124 75
96 123 74
97 125 75
118 140 104
201 211 217
208 217 227
94 121 72
96 123 73
101 129 78
97 124 75
97 124 74
199 209 216
184 197 199
146 163 146
98 125 78
93 121 72
96 123 73
96 123 74
94 121 73
99 126 76
97 123 74
97 123 73
96 123 74
98 126 76
98 126 76
94 122 73
99 127 76
94 122 73
95 122 74
95 122 73
96 124 74
99 126 76
95 122 74
95 122 73
97 124 75
98 125 75
95 122 73
96 123 74
113 136 105
200 209 216
211 221 232
198 209 217
204 213 221
202 213 224
203 213 222
196 207 214
208 216 224
203 213 221
205 215 224
209 218 226
210 219 229
204 214 223
203 213 222
205 215 224
200 211 219
205 215 224
204 214 224
203 214 224
199 211 221
173 187 183
122 143 115
95 122 73
96 123 73
95 122 73
94 120 71
90 117 70
100 127 77
159 174 165
203 213 221
206 215 225
201 211 220
205 214 221
204 214 224
198 209 217
203 212 219
208 218 229
204 213 221
206 216 226
206 216 227
206 216 226
208 217 224
201 211 220
204 215 227
206 216 225
205 215 225
205 215 224
204 213 221
203 213 221
204 213 221
201 212 223
212 221 232
200 209 216
197 208 215
203 213 222
207 217 227
203 213 223
195 207 213
99 127 76
98 125 75
94 121 72
98 125 75
96 124 75
93 119 72
98 125 75
98 125 75
95 122 73
97 124 74
97 124 75
94 121 73
95 122 73
93 119 70
98 125 75
96 123 73
94 121 73
94 121 72
94 121 72
94 121 72
97 125 75
94 121 73
96 123 74
100 128 77
96 123 74
125 145 118
155 171 157
190 201 203
206 216 224
162 176 169
97 124 75
98 126 76
93 121 72
96 123 74
97 124 75
96 123 74
94 121 73
97 124 74
96 124 74
96 123 74
94 122 73
98 126 76
96 123 74
95 122 73
95 122 73
98 126 75
97 125 75
97 124 75
95 123 74
98 125 75
98 126 76
97 124 75
97 124 74
94 122 73
94 122 73
94 120 71
97 124 74
95 123 74
94 121 72
149 166 154
212 220 230
204 213 222
201 211 220
201 211 220
207 216 224
202 212 219
203 213 222
212 220 229
212 221 233
202 212 220
206 216 223
207 217 228
207 216 225
202 212 221
206 216 227
204 214 223
199 209 217
204 214 222
197 207 217
206 215 225
210 218 226
205 216 227
208 217 227
213 222 232
204 213 221
202 212 221
204 215 225
211 219 226
210 219 228
172 185 180
98 126 76
97 124 74
97 124 74
95 121 72
93 120 72
100 127 76
97 125 75
94 121 72
97 125 76
94 121 72
97 125 75
100 128 77
97 124 74
100 127 77
96 124 75
96 123 74
100 128 77
95 122 73
98 126 76
93 120 71
96 123 74
96 124 74
98 125 75
96 124 74
95 123 74
97 125 75
95 122 73
98 126 75
95 123 73
177 190 187
203 213 222
201 211 218
205 214 222
202 213 225
211 220 228
203 213 224
207 216 224
200 210 217
181 193 192
177 190 190
162 178 171
129 149 126
122 143 113
102 130 81
95 123 74
93 120 71
100 127 76
98 125 75
100 128 77
96 123 73
97 125 75
94 122 74
98 125 75
98 125 76
97 125 75
98 125 74
94 122 73
98 126 76
146 162 149
202 212 222
206 216 225
202 212 220
197 208 216
201 211 219
200 210 217
205 215 224
200 211 218
193 204 210
207 217 227
205 215 222
205 215 223
208 218 228
203 213 223
208 217 227
209 218 227
207 216 224
212 221 231
202 211 218
207 216 225
210 219 229
208 218 228
207 217 227
202 212 221
214 223 232
206 216 224
207 216 225
203 213 222
139 156 141
94 121 73
100 127 76
97 125 75
94 120 72
96 123 73
98 125 75
95 122 74
97 125 75
97 124 75
98 126 75
99 126 76
95 123 74
99 126 76
98 126 76
95 123 74
91 117 69
95 123 73
96 123 74
100 127 77
95 122 73
97 124 74
94 121 72
95 122 74
95 122 74
97 125 75
97 124 74
94 122 73
173 187 183
201 212 221
204 214 225
208 217 226
199 210 216
205 214 224
208 217 227
202 212 220
207 217 227
205 215 225
205 215 224
204 213 222
210 220 231
209 218 227
201 212 221
206 215 223
206 215 225
203 214 225
204 213 221
211 220 232
204 215 226
203 213 223
205 214 222
213 222 232
203 214 223
209 219 230
210 219 229
142 160 145
97 125 75
98 126 76
97 125 75
97 124 74
92 120 71
96 124 74
94 121 72
96 124 75
100 128 77
96 123 74
95 122 73
92 119 71
96 123 74
94 122 73
97 125 76
98 126 76
100 127 77
101 129 78
96 123 74
97 124 74
93 120 73
99 127 76
97 125 75
99 126 75
95 122 74
179 192 194
206 216 225
212 221 231
203 213 221
205 215 225
209 218 227
206 216 225
203 214 224
204 215 226
202 212 220
205 216 225
208 218 229
208 217 226
202 212 220
205 215 224
201 210 217
197 208 215
207 217 228
209 218 226
208 217 226
203 213 222
211 221 231
203 214 222
208 218 229
194 205 210
108 132 95
99 127 77
96 123 73
96 123 73
95 122 73
99 126 76
91 117 69
94 121 72
97 125 75
96 123 74
92 119 71
95 122 73
99 126 76
94 121 72
98 126 76
100 127 77
95 122 73
99 127 77
95 122 72
97 124 75
97 125 75
97 125 75
98 126 76
181 193 193
210 219 229
200 210 219
92 119 71
94 121 72
96 123 74
94 121 71
98 126 76
178 191 193
203 213 223
204 213 222
196 207 212
162 176 169
112 137 100
97 124 74
96 123 74
96 123 74
97 124 74
94 120 71
98 126 75
97 124 74
95 122 73
93 121 72
96 123 74
98 125 76
96 123 73
95 122 73
92 119 71
96 123 74
100 127 76
97 125 75
95 123 73
96 123 73
92 120 73
95 123 75
118 141 109
209 218 228
206 215 223
205 215 226
209 218 227
204 215 224
198 208 215
206 216 227
203 213 222
210 219 227
206 215 224
208 217 225
205 215 224
201 210 217
208 219 230
204 214 225
209 219 228
205 215 226
210 219 229
209 218 228
204 215 225
207 216 224
202 211 219
193 204 209
169 182 175
116 139 104
94 121 73
94 122 73
99 126 76
158 174 164
209 217 225
203 212 218
207 217 226
202 213 223
213 222 231
202 213 223
211 220 231
199 209 215
206 216 225
203 213 222
195 207 216
205 214 223
208 218 227
204 213 221
202 211 219
199 210 218
207 216 226
203 213 221
206 215 223
207 216 225
199 209 217
200 211 221
204 214 224
203 213 221
210 220 230
206 215 223
206 216 226
204 213 219
189 201 203
95 123 74
97 125 75
94 122 73
95 123 73
98 126 76
95 123 74
97 124 74
95 122 74
94 122 73
96 124 74
97 124 75
98 126 76
99 127 76
95 122 72
94 121 73
97 124 74
98 125 76
97 125 75
97 124 75
96 124 75
97 124 74
96 123 74
98 126 76
94 122 73
97 125 76
97 124 74
99 127 76
96 124 74
106 132 91
158 173 163
163 178 170
117 139 108
100 127 76
99 126 76
98 125 75
100 127 77
94 121 73
99 126 76
97 124 74
98 125 75
99 127 76
96 124 75
97 125 75
97 124 74
94 121 72
96 123 74
95 122 73
97 124 74
94 122 73
99 127 76
96 124 74
96 124 74
97 125 75
97 124 74
97 125 75
98 126 76
97 124 75
97 125 75
93 120 72
177 190 188
205 214 224
203 213 222
205 214 223
200 211 222
207 217 228
206 215 222
199 208 215
214 222 232
205 215 223
208 216 224
197 208 216
204 213 221
207 216 224
203 213 220
202 213 222
203 214 226
204 214 223
206 216 223
205 214 222
198 208 215
198 209 218
201 212 221
201 211 220
206 216 227
209 218 228
197 208 216
201 211 219
209 219 230
208 218 228
135 154 134
94 120 72
96 124 74
99 126 75
96 124 74
97 125 75
97 124 75
96 124 75
96 123 74
96 124 74
100 128 77
95 123 74
98 125 76
98 125 75
97 124 74
93 121 73
96 124 75
95 122 73
94 121 73
96 124 75
99 127 76
98 125 75
97 123 74
96 124 75
98 125 75
97 125 76
94 121 73
98 125 76
92 119 71
95 122 76
202 211 217
210 218 226
204 214 224
211 221 232
212 220 229
205 215 224
198 209 217
202 211 219
201 211 220
198 208 215
206 215 224
208 216 224
207 216 225
201 211 219
200 211 218
188 200 204
180 193 193
167 180 175
144 161 144
131 151 131
109 133 93
98 125 75
91 118 70
99 126 75
97 124 75
93 120 71
96 123 74
99 126 76
95 122 73
184 197 197
208 216 225
207 217 226
203 213 223
204 214 224
207 217 227
203 214 223
200 210 218
203 214 225
213 221 231
204 214 222
205 214 222
207 216 225
201 211 219
200 210 218
206 215 226
199 209 217
207 217 226
210 219 229
202 212 219
203 213 222
203 214 225
204 214 224
205 215 225
202 212 222
204 214 223
201 211 219
206 216 225
200 210 219
101 125 86
95 122 74
96 123 74
98 126 76
96 124 75
96 123 74
96 123 74
94 121 72
94 121 73
95 122 73
97 124 74
98 125 75
98 126 76
98 126 75
96 124 75
98 126 76
99 127 76
94 122 73
99 127 77
97 124 75
93 120 72
98 125 75
99 127 76
95 122 73
96 124 74
97 125 75
98 125 75
120 141 114
205 215 224
199 209 217
192 203 209
207 217 226
205 215 224
201 211 219
200 210 219
215 223 231
206 215 224
207 216 225
210 219 228
206 215 224
207 216 223
204 213 222
203 213 222
205 214 223
207 216 226
208 217 228
206 215 224
205 214 223
206 216 226
205 215 225
206 215 224
197 207 214
202 213 223
204 214 223
185 196 200
98 126 78
97 124 74
95 122 73
95 123 73
96 123 73
98 125 75
96 123 73
95 122 73
95 123 74
96 123 74
96 123 74
94 122 73
95 122 74
96 123 74
98 126 76
95 122 73
94 121 72
95 123 74
96 123 74
96 123 73
94 122 73
97 125 75
98 125 75
98 126 76
95 122 73
141 159 141
208 216 223
208 218 227
211 220 231
203 214 225
195 206 214
203 213 224
207 217 226
204 214 224
211 220 229
205 214 221
204 213 221
205 215 225
203 213 222
204 214 223
207 216 226
204 213 222
206 216 226
196 207 214
202 212 219
203 213 221
206 216 225
203 212 219
208 217 227
201 210 217
137 157 136
93 120 71
95 122 73
92 119 71
96 124 74
98 125 75
90 117 70
96 123 73
96 123 74
97 124 74
96 123 74
97 125 76
92 120 73
96 123 74
94 121 72
96 123 74
98 126 76
97 124 74
90 117 70
97 124 74
94 122 73
93 120 71
97 125 75
148 165 153
196 207 216
207 216 225
207 216 224
95 123 75
96 123 74
99 127 76
96 123 75
94 122 73
164 179 174
204 215 224
202 212 221
206 215 224
206 216 227
202 213 222
167 182 179
113 135 102
96 123 74
100 128 77
95 121 73
98 126 76
95 122 73
92 119 71
95 122 73
97 124 74
100 127 77
93 120 72
101 128 77
97 124 75
95 123 74
93 120 71
95 122 74
98 125 75
92 119 71
96 123 74
98 125 76
94 121 72
201 211 219
204 214 222
209 218 227
210 219 227
207 216 224
200 211 220
204 214 221
203 213 223
209 218 227
202 212 221
198 209 217
203 213 221
210 219 229
201 212 222
198 208 217
206 215 223
204 214 223
208 216 223
203 213 221
207 216 224
201 211 219
204 214 223
197 207 214
205 215 224
202 212 220
175 189 189
150 165 150
108 132 93
161 177 171
212 221 233
208 217 225
197 208 217
204 213 223
204 214 224
197 207 213
210 219 227
213 222 234
205 215 225
208 218 228
208 217 226
209 218 228
205 214 224
206 216 225
205 214 221
212 221 230
206 216 227
208 218 228
205 215 226
208 217 226
205 215 224
206 215 224
203 213 222
205 214 224
204 214 222
207 216 224
208 217 224
204 214 223
174 188 185
98 125 75
98 125 75
96 123 74
99 127 76
95 122 74
98 125 76
100 127 76
94 121 73
96 124 75
96 123 74
96 123 74
97 125 76
97 124 75
94 122 73
94 121 72
95 122 73
94 122 73
99 127 77
97 124 75
97 124 74
97 124 74
99 127 76
93 120 72
95 122 73
96 123 74
92 119 71
97 125 75
99 126 75
98 126 76
175 189 187
201 211 220
207 217 226
188 199 203
166 180 174
136 155 134
102 129 83
99 126 76
92 119 71
98 125 75
94 121 73
93 119 71
98 126 76
96 123 74
93 120 72
98 126 76
97 125 75
98 125 75
100 128 77
91 118 69
97 125 76
92 119 71
97 124 74
97 124 75
96 124 75
97 125 75
92 119 71
96 123 75
96 124 74
99 127 77
183 196 197
201 212 220
199 208 213
200 210 217
203 213 223
204 213 222
207 216 226
202 213 223
208 218 229
198 209 217
202 212 223
203 213 222
205 214 221
197 207 215
209 218 228
212 221 232
198 209 217
210 219 228
205 214 222
212 221 232
203 213 221
206 217 227
210 220 231
205 215 224
203 213 221
199 209 218
206 216 227
195 206 213
201 211 220
201 211 220
109 134 96
93 120 72
94 122 73
99 127 76
98 125 75
98 125 75
98 126 75
96 124 74
98 125 75
95 123 74
96 124 74
94 121 72
98 125 75
97 124 74
98 125 75
98 126 76
96 124 74
97 124 75
96 123 73
95 122 74
100 128 77
96 123 74
96 123 75
94 121 73
98 126 76
95 122 74
99 127 77
98 125 75
99 127 76
125 146 120
206 216 225
212 220 229
206 215 223
206 216 225
206 216 227
199 210 220
207 217 228
204 214 222
203 212 219
211 221 231
203 214 224
204 214 224
200 210 216
206 215 224
202 213 223
204 213 221
210 219 228
199 210 221
210 218 227
203 213 222
207 216 224
208 218 227
188 200 202
177 190 189
166 181 175
146 164 148
139 157 138
117 139 106
107 132 91
199 210 219
210 219 228
207 216 223
201 211 219
205 215 225
205 215 225
205 215 225
200 211 219
206 216 224
206 215 225
206 215 222
206 216 226
202 212 221
204 215 225
206 215 225
211 220 231
206 216 226
213 222 231
208 218 229
206 215 224
203 213 223
199 209 218
207 217 227
198 209 219
211 220 230
203 213 222
203 213 222
206 217 228
170 184 178
99 127 76
93 120 72
99 127 76
96 123 74
92 119 72
97 124 74
98 126 76
96 123 73
94 121 73
98 125 75
96 123 74
97 124 74
95 122 73
98 126 76
96 124 75
95 122 73
96 124 75
96 124 74
99 126 76
96 123 74
97 124 75
97 125 74
97 125 75
97 124 74
95 122 72
98 125 75
97 124 74
154 170 161
205 215 225
207 216 226
210 218 225
203 214 224
203 212 220
205 215 225
202 213 223
201 210 217
203 212 220
210 219 230
204 214 222
206 215 225
202 212 221
206 215 224
201 211 220
207 216 224
203 213 221
207 216 226
203 213 220
201 211 218
202 212 222
200 211 220
205 215 225
201 211 221
203 213 222
208 218 229
138 156 135
94 121 73
94 122 73
95 122 73
96 123 73
96 124 74
97 124 74
98 125 75
98 126 76
99 126 76
94 121 73
95 123 74
99 126 76
96 123 74
96 124 74
95 122 73
98 125 75
95 122 73
95 122 73
97 125 75
97 124 75
98 126 75
96 123 74
96 123 73
93 120 71
100 125 80
194 205 212
211 220 230
211 221 232
206 216 227
208 218 229
206 216 226
204 212 218
205 215 223
204 213 222
205 215 225
198 209 216
206 216 225
205 214 222
198 209 218
196 207 215
216 224 234
206 215 223
208 217 226
210 218 227
206 215 224
206 216 227
211 219 228
202 212 220
205 216 226
174 186 181
97 124 75
91 118 70
95 123 74
94 122 73
98 126 76
93 120 72
91 118 70
95 123 75
99 126 76
97 125 75
95 122 74
97 125 74
99 126 76
94 122 73
98 125 75
98 125 74
97 125 75
94 121 72
97 125 74
97 124 74
96 124 74
96 123 74
133 152 129
205 215 224
206 216 226
208 217 226
197 207 213
99 127 76
96 123 74
95 122 73
97 125 75
97 125 74
156 172 160
207 216 224
204 214 221
208 217 226
208 218 229
198 210 218
202 212 222
203 212 219
190 200 200
141 160 143
97 123 76
97 125 75
99 126 76
94 121 73
96 123 74
96 124 75
96 124 74
99 127 77
98 125 75
100 128 77
98 126 76
95 122 73
97 124 74
94 122 73
95 123 74
96 123 74
99 126 76
97 125 75
200 210 217
210 219 230
205 216 226
199 209 217
203 213 221
207 216 225
203 213 223
199 210 218
204 213 220
205 215 223
200 209 215
201 211 221
202 213 222
198 209 217
200 210 218
204 214 223
207 216 224
201 211 218
208 218 229
203 213 222
207 216 225
210 220 230
204 214 223
205 215 225
197 207 213
206 216 225
209 218 228
205 215 224
170 185 185
174 188 186
201 212 221
204 214 222
205 215 224
200 211 221
197 207 214
209 218 226
208 217 226
211 220 230
199 209 218
203 213 222
205 214 223
201 211 220
203 214 227
205 214 224
207 216 224
204 214 222
204 214 222
206 216 225
211 220 229
207 215 224
203 213 220
198 209 217
204 213 221
208 218 228
204 215 225
207 216 226
202 212 222
166 180 173
94 121 72
95 122 73
95 122 72
97 124 75
97 125 75
96 124 74
96 123 74
95 123 74
97 124 73
98 126 76
98 125 75
99 126 76
96 124 74
92 119 71
100 128 77
95 122 73
94 121 72
92 120 72
96 123 74
96 124 74
96 124 75
98 125 75
95 122 72
97 124 75
97 124 74
98 125 75
100 127 77
96 124 74
96 123 74
191 201 204
206 216 225
195 205 213
205 214 224
207 217 226
210 218 227
195 206 214
179 191 189
148 164 150
112 135 100
98 126 76
95 123 74
97 124 74
99 127 76
97 124 74
94 122 73
90 116 69
98 125 75
94 121 73
95 123 74
95 122 73
95 123 74
96 124 74
98 125 75
96 123 74
94 122 73
97 124 75
97 124 74
96 123 73
91 117 70
195 204 209
200 210 217
205 215 224
203 213 220
202 213 223
207 216 225
203 213 222
196 207 215
209 218 225
208 218 229
206 216 225
205 214 224
210 219 229
205 215 226
197 208 217
211 220 231
202 212 220
207 216 226
200 211 220
203 212 222
209 218 228
203 213 223
195 206 215
203 213 221
210 218 228
205 214 222
209 219 229
207 217 228
198 208 216
195 206 212
98 126 75
94 121 73
100 127 77
97 125 75
98 125 76
94 122 73
97 124 75
97 125 75
95 122 72
98 125 75
94 122 74
95 122 73
91 118 70
93 121 73
97 125 75
96 123 74
97 124 74
96 123 74
98 125 75
95 123 74
95 122 73
95 121 72
94 122 73
97 124 75
95 123 74
95 122 74
97 124 75
97 124 75
100 127 76
153 169 158
207 216 226
209 218 227
207 216 225
205 216 228
203 213 222
202 212 221
205 215 224
206 216 227
201 211 222
211 220 229
200 211 219
204 213 221
202 211 217
210 219 228
201 212 221
202 213 223
206 216 226
205 215 225
208 217 225
210 219 228
204 215 225
201 211 217
208 217 226
207 216 225
201 211 221
209 218 228
206 216 224
198 209 217
170 184 179
108 133 95
143 162 144
155 171 157
158 173 166
171 185 184
187 199 201
212 221 230
209 218 229
211 220 231
202 213 224
208 218 229
201 213 224
204 214 224
198 209 216
202 212 220
199 210 219
202 212 220
203 212 221
210 219 228
212 220 229
205 214 221
207 216 226
198 208 216
205 214 222
200 209 217
207 216 225
212 220 228
203 213 222
113 136 103
97 125 75
94 121 72
98 125 75
93 121 73
95 122 73
98 126 77
96 124 74
98 126 76
94 121 72
92 118 71
98 126 75
99 126 76
98 126 76
97 125 75
99 126 75
98 126 75
97 124 75
97 124 74
99 126 76
98 125 75
93 120 72
98 125 75
98 125 75
95 123 74
95 122 73
98 126 76
112 135 98
203 213 220
196 206 214
210 219 228
206 216 226
203 214 224
202 213 224
202 212 221
211 220 231
206 215 223
206 216 225
209 218 227
202 212 220
209 218 226
205 215 224
207 216 225
206 215 223
201 212 220
202 212 223
206 217 227
202 212 220
207 217 226
207 216 225
205 215 225
197 208 216
208 218 229
208 218 227
185 197 200
98 126 76
100 128 77
98 126 76
96 123 74
98 126 76
92 120 72
96 124 75
98 125 76
94 121 72
95 122 73
96 124 74
98 126 75
96 123 74
96 123 74
97 125 75
97 125 74
98 126 76
94 121 72
95 122 73
95 123 74
95 122 73
94 122 72
94 121 73
97 125 75
96 123 74
156 171 161
203 212 220
212 221 231
209 218 227
205 216 226
210 218 226
200 210 217
208 218 228
206 216 226
199 209 217
208 218 227
201 211 221
208 217 224
204 214 223
212 221 232
203 214 224
200 210 216
203 212 220
202 212 220
203 212 220
205 215 224
207 216 224
207 217 228
204 214 225
195 206 213
111 135 98
98 126 76
95 123 74
96 123 75
98 125 75
97 124 74
97 124 74
96 123 74
98 125 76
97 124 75
96 124 75
94 121 72
98 126 76
96 123 73
95 123 73
100 128 77
97 125 76
96 124 75
97 124 74
94 121 72
100 126 81
116 138 110
129 149 124
138 157 140
152 168 156
138 157 139
126 147 122
103 128 87
96 123 72
97 124 75
94 122 73
96 124 74
95 122 73
153 169 154
201 212 222
196 208 216
202 212 221
207 217 226
203 213 221
208 218 230
203 213 222
200 210 216
204 214 223
201 211 216
151 167 154
122 144 112
99 127 76
95 122 72
95 122 72
96 123 73
98 126 76
95 122 73
95 122 73
97 125 75
93 120 72
96 123 74
96 123 74
99 126 75
92 119 71
100 128 77
98 125 75
188 199 201
200 211 218
198 208 216
207 216 225
201 212 220
206 216 226
199 209 217
201 210 218
213 222 233
197 207 213
199 209 216
203 213 220
202 213 223
206 215 223
206 215 224
204 213 222
207 216 224
207 216 225
208 217 226
201 211 219
205 214 224
201 211 220
203 213 220
206 215 222
209 218 228
209 218 228
204 213 221
199 209 216
170 183 177
97 124 75
113 136 101
150 166 154
191 203 209
204 213 221
204 214 223
205 215 225
205 216 226
203 214 225
206 216 225
207 216 224
203 213 222
209 218 228
212 221 232
206 215 223
203 213 221
207 216 224
201 212 221
203 212 220
201 211 219
198 208 216
207 216 225
209 219 231
210 218 227
203 213 221
207 217 227
210 219 230
206 215 223
171 184 181
95 122 73
96 123 74
96 123 74
97 124 75
98 125 75
98 126 76
98 125 75
96 124 74
94 122 73
95 122 73
97 125 75
95 122 73
98 125 75
99 126 76
99 127 77
94 121 72
93 121 72
97 124 74
94 121 72
97 124 75
95 122 73
97 125 75
95 122 73
99 126 75
97 125 75
97 124 74
96 123 73
98 125 75
93 120 72
188 200 203
204 214 224
202 212 222
204 214 223
201 211 218
210 219 229
199 209 216
201 211 218
200 211 221
205 215 225
196 206 212
159 174 166
145 162 145
106 130 89
96 123 74
97 125 74
97 125 75
96 123 74
95 123 74
95 123 74
96 123 73
96 123 74
98 126 75
96 123 74
95 123 74
100 127 76
94 121 72
99 127 76
96 123 73
119 142 108
206 217 229
206 216 226
202 211 216
211 219 229
209 218 228
204 214 223
210 219 229
202 211 220
210 219 229
206 215 225
206 215 222
208 218 227
202 212 220
206 216 227
207 217 228
212 221 232
206 216 228
201 211 219
199 210 218
199 209 216
204 213 222
199 209 216
202 212 220
202 213 222
202 212 221
208 217 227
197 206 215
205 215 223
201 212 221
175 189 187
93 120 71
96 123 74
96 123 74
97 124 75
98 126 76
98 126 75
96 123 74
94 122 73
93 120 72
96 124 74
97 124 74
97 125 75
98 125 74
97 125 75
97 124 74
96 123 74
98 125 76
97 125 76
96 123 73
91 118 70
97 124 74
97 125 75
99 127 76
99 127 76
94 121 72
96 123 74
96 124 75
96 123 75
98 125 75
187 199 204
205 215 224
202 212 221
208 218 228
203 212 219
207 217 227
206 216 225
202 212 221
207 216 225
207 216 225
206 215 224
206 216 226
206 216 227
210 220 231
203 214 224
207 217 226
204 214 224
208 217 226
207 216 226
205 215 225
208 218 228
203 213 222
201 211 221
204 214 225
199 209 215
204 214 224
207 217 226
199 209 217
200 210 217
144 161 146
96 123 74
94 121 72
97 125 75
94 121 72
96 124 75
93 120 72
98 126 75
106 130 94
120 142 111
132 151 128
150 167 154
165 180 173
178 191 190
183 195 197
196 207 214
203 214 223
207 216 224
203 213 223
204 214 221
207 216 224
211 220 230
206 216 226
205 214 223
208 218 228
198 209 217
192 203 211
208 217 228
186 197 199
95 122 73
91 118 71
94 122 73
98 126 76
94 121 72
95 122 73
97 124 75
95 122 73
95 122 73
96 124 74
98 125 75
95 122 72
98 126 75
98 126 75
99 126 75
96 124 74
96 123 74
94 121 71
94 121 72
99 126 75
94 122 73
97 125 75
96 124 74
100 128 78
98 126 76
97 125 75
98 126 76
173 186 182
199 210 219
207 216 225
207 217 226
200 209 216
197 207 215
209 218 228
205 214 223
203 213 222
202 212 221
210 221 233
208 217 226
207 217 225
204 213 222
202 212 220
204 214 223
199 210 219
203 212 221
209 218 227
206 214 221
211 220 231
202 212 220
201 211 219
203 214 224
204 214 222
202 212 218
205 215 224
133 152 129
96 124 75
95 123 73
95 123 73
98 125 75
99 127 77
94 121 72
95 122 73
93 120 71
96 124 74
97 124 74
94 121 73
99 127 77
98 125 75
98 125 75
94 121 72
92 119 71
97 124 75
94 122 73
95 122 73
93 121 72
96 123 74
97 125 75
98 126 77
97 125 75
117 139 105
203 213 221
201 212 221
202 212 221
198 208 216
206 215 225
202 212 219
201 212 222
203 213 221
203 213 222
206 215 224
206 215 223
203 213 223
205 215 227
199 210 218
209 219 231
208 218 226
194 204 210
210 220 230
205 215 224
205 215 224
206 215 223
206 215 225
202 212 219
210 219 230
150 166 151
98 126 76
99 126 76
96 124 75
99 126 76
96 123 74
97 124 75
98 125 75
96 122 73
91 117 69
93 120 72
95 122 73
97 125 75
107 131 94
128 149 122
134 154 133
151 167 151
159 174 165
179 193 192
175 188 192
183 195 198
204 213 219
201 211 218
162 177 170
96 124 75
100 127 77
97 125 75
96 124 75
97 126 76
99 126 76
97 125 75
92 119 71
97 125 75
94 121 72
111 134 100
204 213 221
210 218 227
206 216 225
209 219 229
211 220 228
209 218 226
199 210 216
199 209 218
206 216 223
207 216 225
197 208 217
205 215 225
171 185 183
126 147 120
97 124 74
97 124 74
98 125 75
97 124 74
97 125 75
98 125 75
99 127 77
94 121 73
97 125 75
97 125 75
97 124 75
98 125 75
96 123 74
190 202 205
198 209 217
211 220 229
203 213 222
204 213 223
206 215 225
209 219 230
206 216 226
200 210 218
204 213 221
196 207 215
203 212 221
207 217 227
207 216 225
207 216 225
202 212 221
205 215 224
210 219 230
203 213 221
204 214 224
207 216 225
203 213 220
206 216 225
204 213 222
200 210 218
205 214 221
205 215 224
200 211 220
169 182 176
94 122 73
98 125 75
98 125 75
93 119 71
108 133 93
156 172 164
194 205 212
211 219 228
209 218 228
204 214 223
200 210 220
211 220 230
214 223 233
206 215 223
203 213 224
197 208 217
196 207 214
200 209 217
206 215 224
205 215 223
207 216 225
209 218 227
208 217 224
207 216 225
210 220 230
205 214 223
197 209 217
199 209 217
164 179 169
94 120 71
99 127 76
95 122 73
94 122 73
100 128 77
98 125 75
94 122 73
98 125 75
94 120 71
96 123 74
96 123 74
99 127 76
97 124 75
93 120 72
94 121 72
98 126 76
96 123 75
97 125 76
98 126 76
94 121 72
96 123 73
94 120 71
95 122 74
100 128 77
93 121 72
94 122 74
95 122 73
96 123 73
97 124 74
205 215 225
210 219 228
205 215 224
200 210 217
203 212 221
209 218 226
197 209 217
207 217 227
205 214 220
206 216 226
204 213 221
201 211 220
202 212 221
205 214 221
190 202 205
161 175 167
118 141 108
98 125 77
97 125 76
98 126 76
98 126 76
95 122 73
95 122 73
94 121 73
98 126 76
96 124 75
95 122 74
96 123 75
94 121 73
143 161 143
207 216 224
201 212 222
201 211 220
197 207 212
210 220 230
210 219 229
200 210 219
205 214 222
200 210 220
207 216 224
202 211 216
212 221 231
202 212 221
206 216 225
206 215 224
203 213 222
202 212 221
209 219 229
207 216 223
206 216 224
197 208 217
200 210 218
203 213 223
206 215 225
206 216 227
209 218 228
197 208 216
205 214 221
204 214 224
145 164 149
94 121 72
97 124 75
92 119 71
97 124 75
97 124 75
98 126 76
98 126 76
93 120 72
99 127 76
95 123 74
95 123 74
99 127 76
97 124 74
95 122 73
95 123 74
97 124 74
96 123 73
98 125 75
95 122 72
96 123 73
94 121 73
95 122 73
97 124 74
97 124 75
97 125 75
95 122 73
97 125 74
94 121 73
119 141 112
209 218 230
202 212 221
210 219 229
201 211 219
212 221 231
196 206 212
201 212 220
201 212 220
200 210 219
208 217 225
207 216 224
212 221 231
208 218 227
205 215 225
202 212 220
203 212 220
207 217 227
197 208 215
205 215 223
198 209 216
208 218 229
195 205 212
206 215 224
206 216 225
209 218 229
204 215 225
205 214 223
201 211 221
203 213 220
99 124 80
95 122 73
100 128 77
97 125 75
94 121 73
93 120 72
95 122 73
96 123 74
99 126 75
97 124 74
92 119 71
98 125 75
96 124 74
95 123 74
97 124 74
96 124 74
98 125 75
110 134 96
121 143 115
135 155 135
145 162 145
150 166 153
161 176 167
178 191 193
185 196 198
193 204 207
191 203 210
215 223 234
135 154 133
96 123 74
94 122 72
98 125 75
96 124 74
93 120 72
95 122 74
95 123 74
93 120 72
98 125 75
98 125 75
98 125 75
93 120 73
95 123 74
93 120 72
96 123 74
97 125 75
94 121 72
94 121 72
101 129 78
96 124 74
92 119 71
99 127 76
96 123 74
96 123 73
95 122 73
97 125 76
104 129 89
208 217 226
205 215 224
200 210 218
199 210 217
209 218 226
206 217 227
207 217 228
204 214 222
205 214 223
201 211 218
204 214 224
198 208 216
201 211 220
207 217 226
204 213 219
207 216 223
204 213 221
208 217 228
207 217 226
202 212 220
201 210 216
204 213 221
209 219 229
199 209 218
201 210 217
204 214 222
173 186 184
95 123 74
95 122 73
96 123 74
95 123 74
98 126 76
97 124 74
100 127 76
93 120 72
97 125 75
98 126 76
95 123 74
97 124 75
96 123 74
95 123 74
98 126 76
95 122 73
97 124 74
94 122 73
97 124 75
96 124 74
97 124 74
94 121 72
94 121 72
94 121 73
94 121 72
175 188 187
205 216 227
203 214 224
200 211 219
207 217 227
205 215 224
200 210 218
203 213 220
204 215 224
201 211 219
205 215 224
203 213 221
210 219 227
208 216 224
209 217 226
205 215 224
199 209 218
201 211 220
198 207 213
198 208 214
208 217 225
210 220 232
209 218 228
208 218 229
177 190 188
100 127 79
95 123 74
94 122 73
105 130 87
106 130 96
125 147 117
139 157 138
137 155 138
161 176 169
173 186 183
182 194 193
197 208 213
204 213 221
201 212 221
210 219 228
203 212 221
212 221 232
202 212 221
202 212 220
209 218 227
203 213 222
201 211 219
189 201 202
100 127 79
95 122 74
100 127 77
96 123 73
96 123 73
95 123 74
98 126 76
97 124 75
97 125 74
95 122 73
95 122 73
110 134 97
208 217 226
200 211 219
200 210 219
200 211 222
199 209 219
210 219 229
203 213 220
202 212 219
211 219 227
207 216 225
204 214 223
205 215 225
195 206 215
211 220 231
189 200 203
145 162 147
116 138 105
100 127 76
95 122 73
96 123 74
97 124 74
98 126 75
94 121 72
96 123 74
94 121 72
95 122 73
97 125 75
176 189 189
203 213 223
208 217 225
198 208 216
206 216 226
196 206 213
206 216 226
203 213 220
207 216 224
200 211 219
208 217 225
204 213 222
209 218 228
208 219 230
201 212 222
198 209 217
197 208 218
211 220 230
204 214 224
205 215 225
203 213 222
204 213 222
212 221 231
204 214 222
210 218 228
197 209 218
199 209 219
206 216 227
169 183 180
97 124 75
94 121 72
97 125 75
94 122 73
99 126 76
99 127 77
96 123 73
127 148 122
161 175 165
191 202 207
201 211 220
205 216 226
209 218 228
199 210 218
205 215 225
194 206 213
205 215 223
196 206 213
203 213 222
199 210 217
199 210 220
201 211 218
203 213 222
197 207 215
200 210 218
206 215 223
205 214 222
203 213 223
145 162 148
97 125 75
95 122 73
95 123 74
97 124 75
97 125 75
94 121 72
93 120 73
94 121 72
93 120 72
94 122 73
95 122 74
94 122 73
99 127 76
94 121 72
94 121 72
96 123 74
98 125 75
100 127 77
95 122 72
95 121 72
96 123 73
98 126 76
98 125 75
95 122 73
95 122 72
98 126 76
94 120 72
96 123 74
116 139 104
209 218 227
203 212 219
207 216 226
205 215 226
204 213 222
206 215 224
199 210 218
205 216 226
208 218 227
203 213 222
207 217 227
210 220 230
206 216 225
208 217 227
200 210 218
199 209 218
200 211 219
199 209 215
172 184 182
146 164 150
113 134 105
98 126 75
94 121 72
94 122 73
96 123 73
95 122 73
93 121 73
95 122 73
96 124 75
146 163 152
206 215 224
206 215 224
206 216 225
196 207 215
203 213 221
205 215 226
198 208 214
204 215 225
208 218 229
200 210 218
205 215 226
208 217 226
207 216 226
202 212 221
205 215 223
204 214 221
199 210 218
207 218 229
202 213 223
198 209 217
197 208 216
207 217 227
198 209 217
188 199 204
206 216 227
204 214 224
204 215 226
203 212 220
211 220 230
116 139 104
94 121 72
95 122 73
93 121 72
98 126 76
95 123 74
95 122 73
97 125 75
98 125 75
94 121 72
99 126 76
96 123 74
95 122 73
96 123 74
95 122 73
96 124 75
96 123 74
99 127 77
97 125 75
99 127 77
97 124 73
98 125 75
96 123 74
96 124 75
93 120 72
96 123 73
96 124 74
97 124 74
94 121 72
143 162 148
204 215 226
210 220 230
201 211 220
199 209 218
207 217 226
205 215 224
203 213 222
204 214 221
208 218 227
201 212 221
204 214 222
202 212 218
200 210 217
207 217 227
207 217 226
203 213 221
207 216 224
207 217 226
208 219 231
203 213 223
205 215 224
204 214 222
211 220 229
205 215 225
200 210 218
209 218 227
204 214 224
208 218 229
160 175 167
97 125 75
96 123 74
99 126 75
95 121 72
95 123 74
98 125 75
94 121 73
99 126 76
94 121 73
98 126 76
98 125 75
98 125 76
97 124 74
95 123 74
100 127 76
97 124 75
97 124 74
95 122 73
98 125 75
96 123 75
95 123 74
99 126 77
99 127 76
96 124 74
95 122 73
96 124 74
95 122 74
129 150 124
197 208 214
183 195 196
174 187 187
171 184 181
159 173 163
149 167 154
157 174 164
138 156 139
138 156 135
121 143 113
116 139 104
96 123 74
93 119 71
95 122 73
95 123 73
94 120 71
94 122 73
94 121 73
98 125 75
98 125 75
97 125 75
93 120 72
99 126 76
94 122 74
98 125 75
96 124 75
96 124 74
154 170 160
200 211 220
207 216 224
202 212 220
205 215 226
203 213 222
206 216 227
206 215 223
201 212 222
198 208 213
198 209 217
205 214 221
198 209 218
198 207 213
202 212 219
207 216 224
208 217 227
205 215 225
208 217 227
201 212 221
208 218 227
205 214 221
205 215 224
202 212 220
202 213 220
202 212 219
199 209 215
120 141 114
95 122 73
100 127 77
99 126 76
97 124 74
98 125 75
94 121 72
96 123 74
97 125 75
97 125 76
100 127 77
96 123 74
95 122 73
100 127 76
98 126 76
97 124 74
95 122 74
96 123 74
97 125 75
96 124 75
98 126 76
92 119 71
98 126 76
92 119 71
95 122 73
137 155 131
198 209 218
195 206 214
207 217 227
207 215 222
209 218 229
207 217 227
199 209 218
209 218 227
202 212 220
200 210 218
203 213 221
209 218 227
203 213 222
202 212 219
199 210 219
201 211 218
200 210 217
196 206 212
190 200 202
180 192 193
175 189 185
178 190 187
161 176 167
163 178 170
191 201 203
183 195 194
188 200 203
197 208 213
202 213 222
200 210 218
204 213 220
202 211 218
201 211 220
202 212 222
209 219 229
201 211 220
206 215 224
209 218 224
201 211 220
205 215 224
210 220 230
207 216 225
203 213 221
210 218 228
209 217 225
198 209 219
198 209 215
116 137 107
95 121 72
97 125 75
97 124 75
95 122 73
96 123 74
95 123 73
94 121 72
99 127 77
95 123 74
98 125 75
97 125 75
96 123 74
199 211 220
210 219 228
199 210 217
203 213 220
204 214 224
203 213 223
203 212 220
205 215 224
208 217 226
204 214 223
205 214 223
204 213 222
202 212 221
205 215 225
200 210 216
201 210 219
199 209 216
173 186 181
134 153 129
96 124 75
96 123 74
98 125 76
96 123 74
95 122 73
99 126 76
97 124 75
97 124 74
175 188 185
207 217 228
203 214 224
204 214 223
203 213 222
195 206 214
210 219 230
208 217 225
202 212 220
205 215 223
205 215 225
205 214 222
201 212 219
206 216 226
204 214 224
201 211 217
201 210 218
206 216 226
208 217 226
205 214 222
204 214 223
204 214 223
203 214 224
201 211 219
207 216 225
206 215 224
212 220 228
204 214 224
174 187 183
94 122 73
97 125 75
99 126 76
98 125 75
96 123 73
95 122 73
97 125 75
94 121 73
98 126 75
97 125 76
133 152 130
166 180 173
183 195 198
206 215 224
212 220 230
204 215 225
205 215 225
203 213 222
205 215 223
208 218 228
203 214 224
208 217 228
210 219 229
202 212 221
205 214 223
205 214 224
207 217 228
207 216 225
154 168 157
98 126 76
98 125 75
96 123 74
99 126 75
98 126 75
97 125 75
98 126 76
95 123 74
95 122 73
99 126 76
96 124 74
95 122 74
94 122 74
97 124 75
99 127 76
93 121 72
93 120 71
99 127 77
95 122 73
97 124 74
98 125 75
97 125 75
97 124 75
95 122 73
95 122 73
95 122 73
94 121 72
98 125 75
129 148 126
208 217 225
208 218 228
207 215 223
204 214 224
202 212 222
211 220 230
207 217 228
202 212 222
206 215 226
202 213 223
200 211 221
211 220 228
209 218 227
204 215 224
199 209 219
208 217 227
197 207 214
202 212 220
212 221 231
204 213 223
198 208 215
190 202 206
174 187 184
143 160 149
119 142 107
96 123 74
95 122 73
98 125 75
97 125 75
174 188 189
198 208 217
202 212 221
196 206 214
209 218 228
202 212 221
200 211 222
202 212 219
205 216 228
204 214 224
201 211 219
206 215 222
199 209 218
207 217 227
207 216 226
199 210 217
210 220 229
197 208 217
201 210 217
204 213 220
205 215 226
209 218 227
200 210 218
196 206 211
203 212 219
208 217 227
199 210 219
201 212 222
202 212 219
197 208 213
95 122 73
93 120 71
94 121 72
96 123 74
93 120 71
96 124 75
93 120 72
96 123 74
97 125 76
96 124 75
96 124 75
96 123 74
95 122 73
98 125 75
98 125 75
91 118 70
98 126 76
97 125 75
96 124 74
97 124 75
95 122 73
94 121 72
99 127 76
97 125 75
98 126 76
96 123 74
95 122 73
95 123 74
98 125 75
182 193 195
207 216 225
206 216 226
203 213 221
202 212 221
199 210 220
197 208 215
204 215 225
202 212 221
202 213 222
208 217 227
203 212 219
205 214 223
200 210 219
209 218 227
201 211 220
203 214 224
208 217 226
200 210 218
198 208 214
199 210 218
202 212 222
203 213 223
205 214 223
201 212 220
209 218 228
206 215 225
200 211 221
211 220 230
126 146 123
95 122 73
95 122 73
96 124 75
97 124 74
94 121 72
96 123 73
96 123 74
98 125 75
97 124 75
98 125 75
95 122 73
97 124 75
97 124 74
99 127 76
96 124 75
98 126 76
98 125 75
92 118 71
91 118 70
99 126 76
97 124 74
89 116 69
96 123 74
95 122 73
96 123 74
96 124 74
98 125 75
156 171 164
201 210 216
204 214 223
206 215 222
207 216 225
201 211 221
206 215 222
205 214 224
201 212 220
205 215 225
203 212 221
192 202 207
208 218 227
199 209 214
196 207 213
191 203 207
188 199 203
174 186 184
162 177 168
157 172 164
156 171 160
154 170 158
143 160 145
138 157 135
131 150 127
121 141 112
129 149 125
115 136 108
205 215 223
201 211 218
207 216 225
205 215 223
207 216 225
206 215 223
204 214 223
206 214 221
207 217 227
206 215 224
204 213 222
203 214 222
202 212 220
208 217 225
203 213 222
204 214 223
201 212 221
206 216 224
204 214 223
202 212 220
203 213 223
211 220 231
200 210 218
197 208 214
198 209 215
195 207 215
161 176 169
95 121 72
98 126 76
96 124 74
94 121 72
97 125 75
93 120 71
96 124 75
97 125 75
93 120 72
94 120 71
95 123 74
95 122 74
94 122 73
95 123 74
98 125 74
94 121 72
97 125 75
97 124 75
93 120 72
96 123 75
95 122 73
94 121 72
98 126 75
96 124 75
99 126 78
183 195 199
197 207 215
194 204 208
192 203 209
190 201 204
172 185 184
167 180 176
180 192 193
171 185 179
159 174 162
151 167 157
137 156 137
142 159 147
126 146 119
119 141 112
124 146 116
115 138 101
93 120 71
97 124 74
96 124 75
95 122 73
96 124 75
96 123 74
95 123 74
174 187 182
204 215 225
202 213 222
202 212 220
204 214 222
204 214 221
200 210 218
206 215 223
207 217 225
203 214 224
207 217 226
205 215 225
200 210 217
201 211 220
212 221 231
211 220 229
202 212 219
199 209 218
203 213 221
207 216 227
207 217 227
209 218 228
205 215 224
150 167 151
99 126 76
96 124 74
94 121 72
95 122 73
91 118 71
95 123 74
100 128 77
95 123 73
97 125 75
98 125 75
98 126 76
97 124 74
95 123 73
178 191 192
206 215 224
200 211 219
199 209 217
210 220 229
207 217 227
210 219 229
210 218 226
206 215 223
198 209 219
207 217 226
205 215 224
194 205 212
204 213 221
207 216 226
201 211 219
204 214 224
207 217 226
204 214 222
190 202 207
149 165 151
110 134 94
96 123 74
96 124 74
97 124 74
94 121 72
92 119 71
175 187 182
205 214 223
205 215 223
204 213 221
207 216 226
196 206 214
205 215 224
207 215 224
197 208 215
206 216 226
199 209 217
195 205 212
206 216 225
208 217 225
200 210 218
204 212 219
208 218 229
205 214 222
205 214 222
196 207 216
197 208 218
208 217 226
212 221 232
202 213 222
205 214 222
202 212 220
206 217 228
208 217 227
175 187 182
96 123 73
94 122 73
97 125 76
94 122 73
94 121 72
95 122 73
93 120 71
97 124 74
95 123 74
99 126 76
96 123 74
99 127 76
96 123 74
132 152 128
172 185 181
199 209 214
203 213 224
203 213 224
205 215 223
207 218 229
204 214 222
205 214 223
191 202 208
201 211 220
199 210 218
210 218 228
206 216 226
205 215 225
144 161 145
95 122 73
96 124 75
97 125 75
95 122 74
92 118 70
95 122 73
97 124 74
97 124 75
96 123 74
96 124 74
95 122 73
99 127 77
99 127 76
99 127 77
100 127 76
90 117 70
94 121 73
94 121 72
97 124 74
98 125 75
94 120 72
94 121 72
98 125 75
96 123 73
96 123 74
95 122 72
93 120 71
94 121 72
148 165 151
206 215 223
201 211 220
207 215 222
204 214 223
209 219 231
208 218 228
201 211 221
203 212 219
199 210 218
207 216 225
201 210 218
203 213 222
206 215 224
202 212 219
208 217 226
208 217 225
195 205 213
204 214 223
200 210 215
205 215 224
209 219 229
201 211 221
210 219 228
202 213 223
199 208 216
190 202 206
174 187 184
140 159 143
113 136 101
181 193 196
209 218 227
211 220 231
209 219 229
204 214 222
200 210 217
202 212 222
208 217 226
207 217 225
200 210 215
207 216 226
203 212 220
205 215 224
204 215 226
206 216 227
199 210 218
205 214 224
204 214 223
209 218 227
200 210 218
193 205 213
194 206 214
200 211 219
209 218 228
200 211 220
202 213 223
198 208 217
202 213 224
209 219 229
172 186 183
92 119 71
96 124 74
96 123 74
94 121 73
92 119 71
96 123 74
97 124 75
96 123 74
94 121 73
94 121 73
93 120 73
93 120 71
92 119 72
95 122 73
95 122 73
94 120 72
93 121 72
95 123 73
96 124 74
95 121 72
96 123 74
95 122 73
97 124 75
97 124 75
96 124 75
97 125 75
93 120 72
98 125 75
114 137 101
202 212 221
210 219 230
199 209 216
200 210 217
212 221 231
205 214 222
205 214 222
202 213 223
201 211 219
209 218 227
197 208 218
205 214 222
201 212 223
201 211 218
200 210 219
208 217 225
203 213 223
205 214 222
209 218 227
204 212 218
203 213 221
203 213 222
202 213 224
200 210 219
205 214 223
207 216 225
210 218 227
202 211 220
181 194 196
97 124 74
92 120 72
94 121 72
94 121 73
96 123 74
94 121 72
92 119 71
93 121 72
97 124 75
94 121 73
95 122 73
96 123 74
93 119 71
96 123 74
97 124 74
93 120 71
98 126 76
94 122 73
96 124 74
96 124 75
96 124 74
95 123 74
96 123 74
94 121 72
97 124 74
96 123 74
95 122 73
98 125 77
201 211 217
207 217 227
207 217 225
212 220 230
206 216 226
206 215 223
202 212 221
212 220 229
201 211 219
203 213 221
198 209 216
201 211 218
202 212 219
203 213 222
202 212 220
200 210 219
204 213 222
205 214 222
204 213 221
201 211 220
208 217 225
203 212 221
208 217 226
207 216 226
203 212 220
200 210 219
206 215 222
169 183 176
96 123 74
96 123 74
97 124 76
115 138 100
117 139 108
108 132 93
119 141 111
132 151 128
136 154 134
141 159 141
134 154 134
145 162 146
135 154 135
152 169 155
143 161 146
157 172 164
154 170 161
152 168 154
142 160 145
151 167 155
142 159 145
159 174 165
154 170 158
159 174 167
166 180 173
169 184 178
164 178 171
154 170 158
153 169 160
164 179 172
171 183 176
158 174 164
161 176 168
156 171 161
165 180 173
167 181 174
163 177 170
163 177 167
171 185 183
170 184 181
169 183 176
170 183 179
178 191 190
181 194 194
177 189 190
183 196 197
179 192 193
185 197 198
186 198 201
198 208 215
207 216 224
155 171 162
98 125 74
94 122 73
91 117 70
99 126 75
95 123 74
98 126 76
91 118 70
96 124 75
94 122 73
98 125 75
93 120 71
93 120 72
92 120 72
97 125 75
96 123 73
99 127 76
96 124 74
98 125 76
97 124 74
98 125 75
94 121 72
96 123 74
95 122 73
130 150 129
197 207 214
199 210 219
201 211 219
205 216 226
206 214 222
205 215 224
197 207 214
207 217 227
202 212 220
209 219 229
206 215 223
212 221 231
206 215 225
204 213 221
207 217 226
203 212 220
207 216 224
209 219 228
202 212 220
201 211 218
198 208 214
202 212 220
177 190 187
96 124 73
95 122 73
94 121 72
99 126 76
96 123 74
95 122 73
94 122 73
95 123 73
98 125 75
91 118 70
95 123 73
97 125 76
98 126 76
96 123 73
172 185 184
203 213 222
198 208 218
208 217 227
209 218 227
209 218 227
199 209 216
200 211 220
211 220 232
199 209 216
197 208 216
198 209 219
204 214 222
204 214 224
202 212 222
209 219 230
198 208 216
203 214 223
208 218 228
196 207 215
202 212 219
197 208 216
153 167 157
131 151 126
96 123 74
95 122 73
95 122 73
163 177 170
203 214 223
202 213 222
209 218 227
198 209 218
201 210 216
204 214 222
207 217 227
208 216 226
201 212 222
201 211 221
199 209 217
200 211 220
194 206 214
202 211 219
196 206 213
201 212 221
209 219 229
201 211 219
209 218 226
207 217 226
204 214 223
206 216 226
200 211 220
205 214 222
203 214 223
206 216 225
205 214 221
180 192 191
97 125 75
95 122 73
95 122 73
100 128 77
96 123 74
95 122 74
94 121 72
94 122 73
98 125 75
92 119 72
97 124 74
94 121 72
95 122 74
98 126 76
94 122 74
96 123 73
131 150 130
159 174 164
193 204 209
207 216 225
201 212 220
206 215 224
194 204 211
195 206 214
205 214 223
204 213 221
205 214 223
207 216 226
154 170 157
95 123 74
95 123 74
95 122 74
95 123 74
99 127 77
96 124 74
91 118 71
99 127 76
97 124 74
94 122 73
97 125 75
97 124 74
95 121 72
95 122 73
97 124 74
94 121 72
95 122 73
95 122 73
95 122 72
92 119 72
92 118 70
94 121 71
96 123 74
94 121 72
94 121 72
98 126 76
94 121 72
97 125 75
159 174 166
204 213 222
199 209 218
202 211 219
202 212 221
206 216 227
199 210 219
205 214 222
202 212 221
206 216 227
203 213 222
206 215 225
207 216 225
209 219 230
198 208 216
198 209 218
209 218 225
200 210 216
205 215 225
210 220 229
201 212 222
206 215 223
204 214 222
206 217 227
201 211 219
205 214 223
203 212 220
204 213 222
206 215 223
198 208 214
108 133 94
143 160 145
171 185 181
192 203 206
205 215 225
198 208 215
206 216 227
207 216 225
206 216 225
197 208 216
200 210 218
204 214 223
205 215 226
199 209 215
204 214 224
201 211 218
206 216 224
204 214 223
204 213 221
204 215 226
204 214 224
203 213 222
202 212 219
205 215 225
206 216 224
195 205 209
207 217 226
209 218 229
198 208 216
141 159 143
96 124 74
94 121 73
95 123 74
98 125 76
95 123 74
93 121 72
97 124 74
94 121 72
97 124 75
94 122 73
97 124 74
96 123 73
95 122 73
96 123 74
94 121 73
95 122 73
97 125 75
97 125 74
96 123 74
95 122 73
95 122 73
95 123 73
95 122 73
96 124 74
97 125 75
93 120 71
99 126 75
96 123 74
142 160 144
201 212 219
208 217 224
196 207 213
204 213 221
202 212 221
205 215 224
204 214 224
211 220 230
206 216 227
197 208 217
208 217 225
202 212 218
204 214 223
203 213 221
201 211 221
198 209 218
198 208 217
199 209 216
206 215 224
199 210 218
198 209 216
198 208 215
202 211 220
206 215 225
199 209 217
200 209 217
209 218 226
205 215 223
154 170 158
95 123 73
97 124 74
99 127 76
93 121 72
95 122 73
96 123 73
95 123 73
96 123 73
94 121 72
96 123 74
96 124 75
97 125 75
94 122 73
97 125 75
96 123 74
96 124 74
96 123 73
99 126 76
94 121 73
91 118 71
95 123 74
94 121 72
96 123 74
98 125 75
94 121 73
95 122 73
98 125 75
147 165 151
206 216 225
207 216 225
207 217 227
196 207 214
201 211 220
212 220 228
205 214 222
208 217 226
209 219 228
201 211 219
195 206 215
192 204 213
209 218 227
208 217 227
199 209 217
208 218 229
203 212 220
203 213 220
194 205 213
204 214 223
204 214 221
208 217 226
210 219 229
203 213 222
202 212 220
209 219 228
201 211 218
110 133 97
94 121 72
95 123 74
95 122 73
94 121 72
94 121 72
94 122 73
96 123 74
97 124 75
93 120 72
97 124 75
93 120 72
98 125 74
92 119 70
100 128 77
96 123 74
97 124 75
98 125 75
97 124 74
93 120 72
97 124 74
92 119 72
97 124 74
95 123 74
95 122 73
94 121 73
161 175 167
203 212 220
201 212 222
203 213 223
203 213 220
206 215 226
208 217 225
207 216 225
205 215 224
199 210 219
201 211 219
204 213 222
202 212 221
204 214 222
202 212 220
201 211 219
214 222 233
202 212 220
201 212 222
201 211 221
199 210 218
206 216 226
205 214 224
208 216 225
204 215 225
192 203 207
103 128 87
98 125 75
97 125 75
93 120 72
90 117 69
93 120 72
94 121 72
96 123 74
95 123 74
96 123 74
98 125 75
97 124 74
97 124 75
98 125 75
94 122 73
97 125 75
99 126 75
95 122 73
97 124 74
96 123 73
96 123 73
96 123 73
96 123 73
104 130 85
195 205 209
201 211 220
206 217 227
203 213 220
203 213 221
201 210 217
209 219 229
203 213 220
204 213 220
203 213 220
198 209 218
205 215 223
205 215 226
206 217 228
204 213 221
202 211 219
207 216 225
203 213 222
206 216 225
201 211 219
206 215 225
205 215 224
189 200 205
111 134 100
96 123 74
95 123 73
94 121 72
95 121 72
97 124 74
96 123 74
97 125 76
99 126 76
98 125 75
96 123 73
96 124 74
94 121 73
94 121 73
95 122 74
149 166 157
207 216 225
207 217 226
194 205 213
212 221 231
201 211 219
205 215 227
199 209 217
205 215 225
206 215 224
209 218 227
200 210 219
198 209 216
206 216 226
197 208 216
199 209 218
204 214 223
205 215 224
205 215 225
207 217 226
201 211 220
204 214 222
206 216 225
205 215 225
187 199 204
142 160 143
103 128 86
150 167 154
206 216 225
207 217 228
206 214 220
198 208 216
204 215 225
207 216 227
205 213 221
208 217 228
200 210 218
201 212 222
207 217 227
208 219 229
213 221 230
203 213 221
200 211 220
195 205 213
205 215 224
200 210 218
204 213 223
200 211 220
211 220 230
198 208 214
210 220 230
197 207 213
207 217 226
208 218 228
208 218 229
165 179 174
95 122 73
95 122 73
96 123 73
92 119 71
94 122 73
95 122 74
98 125 75
97 125 76
96 123 74
96 124 75
93 120 72
95 122 73
98 126 76
96 123 73
97 125 75
98 126 76
97 125 75
96 123 74
98 124 79
124 145 121
161 176 166
196 207 213
202 212 221
205 215 226
206 216 225
206 215 223
204 214 223
211 220 228
138 157 137
99 127 77
95 122 73
96 123 74
95 123 74
97 124 74
98 125 75
96 123 73
96 123 74
97 124 75
93 120 72
94 121 73
97 125 75
97 125 74
97 124 74
94 122 73
94 121 72
95 122 73
96 124 74
95 123 74
96 123 74
96 122 73
99 126 76
97 125 75
96 124 74
97 125 75
97 124 75
97 124 74
95 122 73
159 174 166
211 220 231
205 216 225
203 213 223
205 214 222
201 211 220
197 208 216
202 211 220
202 211 218
207 216 226
202 212 221
202 212 220
202 211 217
205 215 225
208 217 226
207 217 229
204 214 223
205 214 222
207 216 226
205 215 226
204 215 225
211 220 231
204 214 224
200 210 218
207 216 225
201 210 218
200 210 217
205 215 224
199 209 218
177 191 190
96 123 73
95 122 72
97 125 76
95 122 73
110 133 95
140 157 140
166 179 175
190 201 204
214 223 233
199 210 219
200 210 217
201 211 220
202 212 220
205 214 223
205 216 228
209 218 227
199 210 217
198 208 216
210 219 229
205 214 221
207 216 225
203 212 220
200 210 219
201 211 220
194 205 213
212 222 233
200 210 218
198 209 218
206 216 225
122 144 115
97 124 74
95 122 72
95 123 73
99 127 76
94 121 73
96 123 74
95 123 74
96 123 74
95 122 73
96 123 74
96 123 74
95 122 73
95 122 73
95 122 74
94 121 73
98 125 75
94 121 73
97 124 74
94 121 72
97 124 75
95 122 72
94 122 73
95 123 74
94 121 73
96 123 74
95 122 74
92 119 71
98 125 75
174 186 184
213 221 231
210 219 229
198 209 218
198 209 216
204 214 225
200 210 217
210 219 228
208 217 227
204 213 221
209 218 226
207 217 226
208 218 228
205 214 222
208 217 225
205 215 226
200 210 219
196 207 214
206 215 222
204 214 221
206 215 223
207 217 226
197 207 212
203 213 222
203 214 224
201 212 219
203 213 222
205 216 226
194 205 212
105 130 90
96 123 74
96 123 74
99 127 76
97 125 75
93 119 71
95 122 73
94 121 73
98 125 75
94 121 73
95 122 73
95 122 73
96 123 73
94 122 73
97 125 75
96 123 74
93 120 72
96 124 74
96 124 75
97 124 75
99 126 76
94 121 72
96 123 73
97 125 76
96 123 74
98 126 77
93 120 72
98 126 76
187 198 201
204 214 224
201 211 219
207 216 224
196 206 214
197 208 216
205 215 226
208 218 228
207 217 228
203 213 222
209 218 228
202 212 220
205 214 222
207 217 228
204 214 223
203 214 222
207 216 225
208 217 226
211 219 227
204 214 223
205 215 226
204 214 224
206 215 224
205 216 228
203 212 219
203 213 223
199 209 215
154 170 161
97 124 74
95 123 74
95 122 73
98 125 76
95 122 73
94 121 72
97 124 75
96 123 74
95 122 73
97 124 74
95 122 73
96 124 74
95 122 73
94 121 72
93 121 72
97 125 75
97 125 75
95 123 74
95 122 73
92 119 71
98 125 75
97 124 74
95 122 73
97 124 74
95 122 72
106 130 93
196 206 212
201 211 219
209 218 227
206 215 223
201 211 220
200 211 221
205 214 222
206 217 227
204 214 224
207 217 226
205 215 222
199 209 217
207 216 226
213 222 230
201 211 220
196 206 214
206 215 222
207 216 226
205 215 225
200 210 218
201 211 218
207 216 225
197 207 216
206 215 225
208 217 227
143 161 141
96 123 73
97 124 75
96 124 75
96 123 74
97 124 75
96 123 74
94 122 73
97 124 74
95 121 72
96 124 74
97 124 75
95 123 74
91 118 71
98 126 75
100 127 77
96 123 74
96 123 74
94 120 72
99 127 76
95 123 74
96 123 74
97 124 74
98 126 76
170 184 178
203 212 220
210 219 228
201 211 218
208 217 225
207 216 226
198 208 214
206 215 224
208 217 225
207 217 227
204 214 226
209 219 230
209 218 228
200 210 218
203 213 220
204 214 224
211 220 229
200 209 219
210 220 231
206 215 224
206 215 223
203 212 221
210 219 228
135 153 131
92 119 72
94 121 72
95 122 74
97 124 74
98 125 75
95 122 74
93 120 73
95 122 73
98 125 75
97 125 75
96 124 74
94 121 72
95 122 72
94 121 73
91 119 71
141 159 141
202 212 221
208 217 225
205 215 224
201 212 222
209 219 228
206 215 225
206 216 226
198 208 217
207 216 226
204 214 223
206 216 225
204 214 221
206 215 224
199 209 218
201 211 220
201 211 220
204 214 225
211 220 230
203 213 224
201 211 220
203 213 221
199 209 217
205 214 222
204 213 222
197 208 216
197 208 215
177 190 191
182 195 197
202 212 223
207 217 227
206 215 225
203 213 221
200 210 219
201 212 221
206 215 225
203 212 219
204 214 223
199 210 218
204 213 221
209 218 227
200 211 221
205 215 224
203 213 223
203 213 221
204 215 225
201 211 221
203 213 222
201 210 217
199 209 217
198 208 215
198 209 218
203 214 224
211 220 232
206 215 224
173 186 182
96 123 73
95 122 73
99 126 76
96 123 73
95 122 73
96 123 74
92 119 71
95 122 73
94 122 73
96 123 74
96 123 74
95 123 74
98 125 75
94 121 72
95 122 73
98 126 75
96 123 74
95 123 74
98 125 75
99 127 76
96 123 74
103 129 83
133 151 132
180 192 189
197 207 213
205 215 224
206 215 224
205 214 221
135 153 133
96 124 74
91 117 70
96 123 74
95 122 73
98 126 76
97 124 74
98 124 74
93 120 71
96 124 74
94 121 72
95 122 73
96 123 74
94 121 72
94 122 74
98 125 75
96 123 74
93 120 71
93 120 71
96 124 75
97 124 75
95 123 74
95 122 74
95 122 73
96 123 74
99 126 76
97 124 74
91 118 71
95 122 73
178 191 191
206 216 224
198 209 218
211 220 231
206 215 223
205 215 224
204 214 224
204 215 227
197 207 214
191 202 209
199 208 214
198 209 219
197 207 213
200 211 220
206 216 224
197 207 214
205 215 224
203 212 220
206 216 224
203 212 219
197 208 214
204 213 223
199 209 217
205 215 224
200 210 218
202 212 220
203 213 223
201 211 219
208 217 227
170 183 180
93 120 72
94 121 72
99 127 76
96 123 73
95 122 73
95 123 73
97 124 74
95 122 73
103 128 88
132 151 130
165 179 170
183 196 198
200 210 218
204 213 221
198 209 217
204 213 221
205 215 223
205 215 226
206 215 222
202 212 220
198 208 215
201 212 222
209 219 230
209 218 228
207 216 223
197 209 217
200 210 217
206 216 228
193 203 208
96 123 74
97 124 74
92 119 71
95 122 73
93 120 72
97 124 74
92 120 72
96 123 73
94 121 72
95 123 75
95 122 72
94 120 71
97 124 75
94 122 73
94 121 73
95 123 73
96 122 73
96 123 74
97 124 75
94 120 71
96 123 73
96 123 74
95 123 74
98 125 75
96 123 74
97 125 75
97 124 74
95 122 74
103 130 83
196 206 214
195 206 212
206 215 224
204 213 223
201 212 220
207 217 227
202 212 222
208 218 228
202 212 221
207 217 228
212 221 230
207 216 225
198 208 216
206 216 228
210 220 230
195 205 212
199 210 219
207 216 225
207 217 225
213 222 234
201 210 217
205 215 225
205 214 223
204 213 222
207 217 227
209 218 226
200 210 218
206 216 227
172 185 181
96 123 74
95 123 74
96 123 74
95 122 73
95 122 74
99 127 76
94 122 73
95 123 74
94 122 73
97 124 75
94 121 72
95 122 74
96 123 74
97 125 75
97 125 76
94 121 72
95 123 73
97 125 75
97 124 75
95 122 73
96 123 74
97 124 74
95 123 74
93 120 72
94 121 72
97 124 74
98 126 76
131 150 126
206 215 224
198 209 217
206 216 224
212 220 229
198 208 215
206 215 225
206 215 223
195 206 215
196 206 214
205 214 222
205 214 223
199 210 220
213 222 233
208 217 226
206 216 226
197 207 212
198 208 217
206 216 228
208 218 226
204 214 223
202 212 222
203 212 221
204 213 221
212 220 230
200 210 217
204 213 220
204 214 223
109 132 95
92 119 70
98 126 76
95 123 74
95 122 73
96 123 74
98 126 76
92 119 72
94 120 71
94 121 73
96 123 73
97 124 74
96 123 74
96 124 75
96 124 74
95 122 73
98 126 75
94 122 73
96 124 75
95 123 74
93 119 71
95 123 74
96 124 74
95 122 73
95 123 74
94 121 73
161 176 167
198 208 214
201 211 219
206 215 222
200 211 219
207 217 226
204 213 221
200 211 220
202 211 218
202 212 222
207 216 225
210 218 227
202 212 220
204 213 222
200 211 218
199 209 215
198 208 216
193 204 212
212 221 230
201 211 219
208 218 228
204 214 222
205 214 222
209 218 227
203 213 221
176 190 189
96 123 73
99 126 75
99 126 76
93 120 72
96 123 74
94 121 72
97 124 74
97 124 74
97 124 74
95 122 73
93 121 73
98 125 75
97 124 75
98 125 75
95 123 74
95 123 74
98 126 75
94 120 71
96 124 75
96 124 75
93 120 71
95 122 73
95 123 74
116 138 106
206 215 223
202 212 221
203 213 222
203 213 223
205 214 222
201 211 219
196 207 214
205 214 223
205 214 223
201 212 222
198 208 214
201 211 218
205 214 222
209 219 228
203 213 220
202 212 219
206 215 225
203 213 222
204 214 223
208 217 225
212 221 232
198 209 218
170 183 177
95 122 72
97 125 75
95 122 73
94 121 72
97 124 75
97 125 75
96 123 74
96 123 74
96 124 75
96 123 73
94 121 72
98 125 75
93 120 72
91 118 71
94 121 72
97 124 74
125 145 119
199 208 215
195 205 212
210 219 227
198 208 212
204 215 225
206 215 223
204 214 222
208 218 228
202 211 216
205 215 223
201 209 215
203 212 220
204 214 224
203 213 222
200 210 218
199 209 217
204 214 223
202 212 220
213 221 231
202 212 219
206 215 223
202 212 221
201 212 222
203 212 221
202 212 220
205 214 223
179 192 193
94 121 72
122 143 115
168 182 176
194 204 210
206 216 224
198 209 216
203 213 222
200 210 218
201 211 218
200 210 220
206 215 223
196 206 213
197 208 216
204 213 222
204 214 223
203 213 222
204 213 221
203 213 222
209 218 227
202 212 222
204 214 223
202 211 219
199 210 219
204 214 221
205 214 223
209 218 225
199 210 219
171 184 181
94 122 74
93 120 72
97 124 75
97 125 75
92 119 71
96 123 74
98 125 75
98 125 75
95 122 73
99 126 76
98 126 76
95 122 74
94 121 73
99 127 76
95 123 74
94 121 72
95 123 74
98 125 75
96 123 74
95 122 73
97 125 75
97 124 75
96 123 74
97 125 75
100 126 80
128 148 127
160 174 165
200 210 215
119 141 112
95 122 73
91 117 69
99 127 76
96 124 74
96 123 74
99 127 76
95 122 73
95 122 73
95 122 73
97 124 74
96 123 74
96 123 73
96 124 75
96 124 75
94 121 72
95 122 72
95 123 73
94 121 73
93 120 72
97 125 76
94 121 72
93 120 71
96 124 74
96 123 74
97 124 74
98 126 77
95 122 73
93 120 71
190 202 206
198 208 214
209 218 228
208 217 226
210 219 230
203 213 222
187 198 203
206 216 226
200 211 220
200 210 217
205 214 223
200 211 220
204 215 225
205 214 223
202 213 222
204 214 223
206 216 225
201 211 218
210 219 227
206 217 227
209 218 227
201 212 222
207 217 225
203 212 220
206 216 225
203 213 221
194 205 213
208 217 225
197 207 214
148 165 155
93 120 72
93 120 72
96 123 74
95 121 73
99 126 75
99 126 76
96 123 74
94 122 73
95 123 74
98 125 76
98 125 75
98 126 75
96 123 77
123 145 117
154 169 156
162 176 168
196 207 214
211 219 226
200 210 218
210 219 229
201 211 220
190 201 208
202 212 220
199 209 218
197 207 215
202 213 222
204 213 222
205 215 223
172 186 185
95 122 73
96 124 74
96 123 74
97 125 75
95 123 74
96 123 73
94 121 72
92 120 72
95 123 73
97 124 75
97 124 74
95 122 73
97 124 74
96 123 73
98 126 76
98 126 76
96 123 74
93 120 72
97 124 74
93 120 73
97 124 74
98 126 76
92 119 71
96 124 75
94 122 74
96 124 74
97 125 75
95 123 73
149 165 152
209 218 226
204 213 221
206 215 224
202 212 221
204 213 222
204 213 220
206 216 225
204 213 222
210 219 228
209 218 227
204 215 227
201 212 222
210 219 229
206 215 223
210 219 229
202 212 221
206 216 226
212 220 231
210 219 227
205 214 223
205 214 223
208 217 226
210 218 227
199 209 217
205 215 224
203 213 222
204 214 224
208 218 228
124 145 119
100 127 76
93 120 71
96 123 74
96 123 74
94 121 73
94 121 73
99 126 76
96 124 75
95 123 74
97 124 75
97 124 75
94 121 73
96 124 74
96 124 74
93 120 72
96 123 74
92 119 71
92 119 71
97 125 75
93 121 72
96 124 74
95 123 73
95 122 73
97 124 74
92 118 70
97 125 75
92 120 72
171 185 183
211 219 228
202 212 220
203 213 220
212 222 233
205 214 224
206 215 222
202 213 222
209 219 229
198 209 218
198 209 218
204 213 221
202 213 222
197 207 215
209 219 229
206 215 224
211 220 230
200 210 217
206 216 226
200 210 218
202 212 220
200 210 219
205 214 223
201 211 219
207 216 224
202 212 221
208 218 230
172 185 183
97 124 74
96 124 74
98 125 74
98 125 75
94 122 73
97 124 75
93 120 72
97 124 74
97 124 74
94 120 72
95 122 73
96 123 73
98 125 75
97 124 75
98 126 76
98 125 75
96 123 74
96 123 74
97 124 75
93 120 72
96 123 74
95 122 73
95 122 73
96 123 73
94 121 73
109 133 97
202 212 219
196 205 211
212 221 231
200 210 219
195 205 210
201 211 220
200 210 217
206 215 225
209 219 230
205 215 224
195 205 212
201 210 218
203 213 223
201 210 216
211 219 228
202 212 221
204 214 224
202 211 218
201 212 221
206 215 221
206 216 224
198 209 219
210 219 228
204 213 220
197 207 215
110 134 96
96 123 74
97 124 73
94 121 72
92 119 70
97 124 74
94 122 73
96 124 74
96 123 74
98 125 75
95 122 73
97 124 74
99 127 77
97 124 74
95 122 73
98 126 75
97 124 74
91 118 70
93 120 72
96 123 74
94 122 73
96 124 74
97 125 74
103 129 82
188 199 200
210 219 230
211 219 228
199 209 215
206 216 224
205 214 223
198 208 216
197 207 214
202 212 221
203 213 223
199 208 215
205 214 222
204 213 221
198 208 214
200 211 222
204 214 223
198 209 217
202 212 222
197 207 214
205 215 226
201 211 221
205 214 223
196 207 213
97 123 76
97 124 74
93 120 72
92 119 71
96 123 74
96 124 75
94 121 72
96 123 74
93 121 72
97 125 75
96 123 74
115 137 105
94 122 73
97 124 74
93 120 72
95 123 74
97 125 75
96 124 74
205 215 222
202 212 223
201 211 221
201 212 222
203 213 222
202 212 220
203 213 222
201 211 221
201 210 218
205 214 224
202 213 223
202 212 219
194 205 211
207 217 226
210 220 231
208 217 227
203 213 220
210 219 229
203 213 222
196 208 216
203 214 224
204 213 220
208 217 227
202 212 219
209 218 228
195 205 212
194 205 208
98 125 75
93 120 72
95 122 73
97 124 74
138 158 137
182 194 195
200 211 220
205 215 224
198 209 217
202 212 220
199 209 217
200 210 219
203 212 219
200 211 221
204 214 222
206 215 224
207 216 224
208 217 227
205 216 227
200 210 217
206 215 223
207 217 225
203 213 222
207 217 228
198 207 213
200 210 217
207 217 227
164 179 173
96 123 73
98 125 75
97 124 74
95 122 72
92 119 71
94 121 73
92 119 71
97 124 74
96 123 73
94 122 73
97 124 75
92 118 70
93 120 72
97 124 74
96 124 74
98 125 75
92 120 72
99 127 77
95 122 73
95 123 74
97 125 75
95 123 74
95 123 74
94 122 73
96 123 74
99 126 75
97 125 75
97 124 74
184 196 198
160 176 168
127 147 122
99 126 79
99 126 76
95 122 73
95 122 73
94 122 73
95 123 74
97 124 74
100 127 77
97 124 75
96 123 74
95 123 74
95 123 74
96 124 75
94 122 73
94 121 72
95 122 74
96 123 74
94 121 72
95 122 73
95 121 72
93 120 72
95 122 73
94 121 73
93 120 72
98 125 76
98 125 75
200 211 219
199 210 219
207 217 229
203 213 222
204 213 218
204 215 225
202 212 222
203 213 223
204 214 224
201 211 219
209 218 228
204 214 222
201 211 218
205 215 222
207 217 228
204 214 225
200 211 222
200 210 217
205 214 224
208 218 228
199 210 218
200 210 219
204 213 220
210 219 229
203 213 222
204 213 220
196 207 216
201 210 216
204 214 224
130 150 126
94 121 73
96 123 74
96 124 75
94 121 72
97 124 73
96 123 74
97 125 76
97 124 74
92 119 71
98 125 75
97 125 75
96 123 73
97 124 74
95 122 73
95 123 74
97 125 75
95 122 73
112 134 102
136 154 136
174 187 184
185 197 197
199 209 216
209 218 227
209 218 227
198 209 218
201 210 217
201 212 223
205 214 223
129 149 128
92 119 71
95 122 73
96 123 73
95 123 74
96 123 74
93 120 71
97 125 75
98 125 75
98 125 75
93 120 72
94 121 72
96 123 74
91 119 72
99 126 76
97 125 75
95 123 74
96 123 74
95 122 73
97 124 75
97 124 74
96 123 74
98 126 76
96 123 74
92 119 72
96 124 74
92 119 71
97 125 75
96 123 74
174 187 185
205 215 225
203 213 222
208 217 226
200 210 218
204 213 220
206 215 223
202 213 222
200 210 216
200 211 221
201 211 219
204 214 224
198 208 216
200 211 220
204 214 223
202 213 223
203 212 220
205 215 226
210 219 227
195 205 212
200 210 219
204 214 224
209 218 226
208 217 227
210 219 228
197 207 214
207 216 225
199 209 219
203 212 218
101 127 79
94 121 73
91 118 70
96 123 74
96 124 74
95 123 73
92 119 71
96 123 74
97 125 76
96 123 74
93 121 72
98 126 76
96 124 74
97 125 75
93 121 72
93 120 71
99 126 76
97 124 75
98 126 76
95 122 73
98 126 76
93 121 72
99 126 76
98 126 75
94 120 72
95 123 74
96 123 74
123 143 117
198 209 218
197 207 216
205 215 225
213 223 235
198 209 217
200 210 218
213 221 230
204 214 225
203 213 222
194 204 209
205 215 226
203 214 226
198 208 215
206 215 225
209 219 230
207 217 227
205 214 225
197 208 217
199 210 218
200 210 219
211 220 229
200 211 219
202 213 222
208 217 226
197 207 214
203 213 224
195 206 214
109 133 95
96 123 74
96 123 73
95 122 73
97 124 74
98 125 75
96 124 75
96 124 74
95 121 72
96 123 74
95 123 74
92 119 72
95 122 73
94 122 73
97 125 75
95 122 73
96 122 73
95 123 74
95 122 73
99 127 77
98 126 76
95 122 73
98 126 75
95 122 73
98 125 75
95 123 74
181 193 194
208 217 226
205 215 222
207 217 226
200 211 221
202 212 220
201 211 220
199 209 217
201 211 219
201 212 222
206 216 225
206 215 223
198 209 218
207 216 226
201 211 218
200 210 219
203 213 222
208 217 225
199 210 219
200 210 219
206 215 224
198 209 216
213 222 231
207 216 224
201 210 218
172 185 182
94 121 72
97 124 74
96 123 74
98 126 76
96 123 74
95 122 73
94 121 73
95 122 73
94 120 72
96 123 73
93 120 72
97 125 75
91 117 69
92 119 72
97 124 74
96 123 73
94 121 72
98 125 75
98 125 75
95 122 72
95 122 72
97 124 75
97 124 74
153 169 157
201 211 219
207 216 226
200 210 218
207 216 225
195 207 215
199 211 221
203 214 224
204 213 222
203 212 221
201 212 221
201 211 220
203 213 220
204 214 223
203 213 222
203 213 223
207 216 223
202 212 221
198 208 215
208 216 225
201 211 218
204 214 223
196 207 214
119 140 111
95 122 72
100 127 77
95 122 73
96 123 73
95 123 74
94 121 73
96 124 75
97 125 75
98 125 76
95 122 73
96 123 74
197 208 217
181 193 194
137 155 134
102 128 82
91 119 72
93 120 71
97 124 74
184 195 197
200 210 218
204 214 224
203 212 220
205 215 223
208 218 228
207 216 224
206 215 224
207 216 225
208 217 227
203 213 220
206 216 224
203 213 222
205 215 224
206 216 227
207 216 223
205 215 225
206 216 226
191 201 208
205 215 225
202 212 220
203 214 225
202 213 223
201 211 218
204 214 223
190 201 207
196 206 212
96 123 73
95 122 73
95 123 73
97 125 75
94 121 72
93 120 73
101 127 83
140 159 142
180 193 194
202 212 220
199 209 217
204 214 224
203 212 221
214 223 233
196 207 215
203 213 220
209 218 227
197 208 215
205 216 227
196 207 217
204 214 224
196 206 212
194 204 211
200 211 220
206 216 224
202 211 219
201 212 221
168 181 179
93 121 73
95 121 73
93 120 72
96 123 73
96 124 74
94 122 73
97 124 74
95 122 73
99 125 75
92 119 71
97 125 75
98 125 75
97 124 75
94 121 72
97 124 75
94 121 72
94 122 74
96 124 75
93 120 72
96 123 73
96 123 74
94 121 72
96 124 74
95 122 73
96 123 74
96 124 75
92 119 71
97 125 75
188 200 206
205 215 224
199 210 218
201 211 217
162 176 168
136 155 129
99 126 76
95 121 72
97 124 75
94 122 74
96 123 74
95 122 73
98 126 76
96 124 74
96 123 73
97 125 75
93 121 72
93 121 72
94 121 72
97 124 75
95 122 73
95 123 74
96 123 74
95 123 73
95 122 73
95 123 74
96 123 74
95 123 74
110 135 97
207 216 225
204 214 223
203 213 222
200 211 218
197 207 213
196 207 217
209 218 228
206 216 226
204 214 223
201 211 219
208 217 226
202 211 219
201 210 217
203 213 220
204 214 223
200 211 220
201 210 218
205 214 224
199 210 217
197 208 215
204 214 222
203 213 225
205 215 225
206 216 227
205 215 225
199 209 216
205 216 226
210 219 229
203 213 222
99 125 80
94 121 73
96 123 74
93 120 72
93 120 72
95 122 73
95 123 74
95 122 73
97 124 74
98 125 74
96 124 75
97 124 75
95 122 73
96 123 74
97 125 75
95 122 73
97 124 75
97 124 74
98 125 75
94 122 73
96 123 74
92 118 70
97 123 76
116 138 107
148 165 151
177 191 189
185 197 200
206 216 226
198 209 218
120 140 112
92 119 71
96 123 74
94 121 73
93 120 72
94 121 73
100 127 76
95 123 74
94 121 72
94 121 72
94 121 72
94 121 73
96 123 74
94 122 73
92 119 72
100 128 78
97 125 75
93 120 72
93 120 71
96 124 74
93 120 72
97 124 75
96 124 75
92 119 71
96 123 74
91 117 69
96 124 74
100 128 76
95 120 78
197 207 213
201 212 221
205 215 224
209 218 226
202 212 220
205 214 221
203 212 219
198 208 215
205 215 225
199 209 216
201 212 222
198 208 216
199 209 218
203 213 222
196 207 216
207 216 225
205 214 223
202 212 220
199 210 218
207 217 227
204 213 222
202 213 224
203 214 223
199 210 218
202 213 222
202 212 220
207 216 226
211 220 232
155 170 161
93 121 73
96 124 74
97 125 75
97 125 76
96 123 74
93 120 72
94 120 72
92 119 71
94 122 73
96 124 75
97 125 75
95 122 72
93 120 71
94 122 73
97 124 75
98 125 75
94 122 72
95 122 73
94 121 73
96 123 74
94 122 73
96 124 74
93 120 72
95 122 73
96 123 74
94 122 73
93 120 71
164 179 173
206 216 227
201 211 220
197 208 216
210 219 229
199 210 218
198 209 217
208 217 225
192 204 212
201 211 219
201 211 218
205 215 225
202 211 218
196 206 211
207 217 228
201 212 222
208 218 230
205 215 226
196 208 216
205 214 222
202 212 220
203 213 221
207 217 226
203 213 221
201 212 222
201 212 221
200 211 218
154 170 159
97 123 73
100 128 77
97 124 74
96 123 74
95 122 73
98 125 75
94 121 73
93 119 71
98 125 74
93 120 71
96 123 74
94 121 72
96 123 74
94 122 73
98 125 75
95 122 73
93 121 72
98 126 75
96 122 73
95 123 74
99 126 76
97 125 75
95 123 73
96 123 74
93 120 72
129 150 123
200 211 220
209 218 227
208 216 225
204 214 222
211 220 231
207 216 226
200 211 221
204 213 221
204 213 222
203 213 221
208 217 227
199 209 216
206 216 225
199 210 217
208 217 226
205 215 224
207 217 227
197 207 215
208 217 226
204 213 221
199 209 216
209 217 226
208 217 226
210 219 229
194 205 212
107 132 91
97 124 75
94 121 72
97 124 75
94 121 73
95 122 73
94 121 72
99 126 76
97 125 76
97 125 75
93 119 71
95 122 74
95 122 74
96 124 75
98 125 74
94 122 74
95 122 73
93 120 71
97 125 75
94 121 73
96 124 74
94 121 72
96 124 74
125 146 116
201 211 218
206 216 225
202 212 222
203 214 223
202 212 221
200 210 217
201 212 222
202 212 221
209 218 227
196 207 215
201 212 222
207 217 227
208 218 228
206 215 225
203 213 223
201 212 222
208 217 227
210 220 229
206 216 225
207 217 226
202 212 220
204 213 221
142 160 142
91 118 71
94 122 73
97 125 75
94 121 73
99 126 76
95 122 73
97 124 75
96 123 73
95 122 73
95 122 73
95 122 73
98 125 75
197 207 214
204 213 222
203 213 220
200 210 216
150 167 155
108 132 93
93 120 72
168 182 179
204 214 222
199 209 217
199 209 219
202 212 220
197 208 218
206 215 224
203 213 223
205 215 225
208 217 224
202 213 222
207 217 227
199 209 215
204 214 224
204 214 224
207 217 227
207 216 225
192 204 211
204 214 223
198 209 219
204 214 225
205 214 224
209 218 226
199 210 217
201 211 219
201 211 218
204 215 225
94 121 73
92 119 71
94 122 73
95 122 73
96 123 73
96 123 74
95 122 73
96 123 73
95 122 73
119 140 116
163 178 171
196 206 210
197 207 214
199 209 218
194 204 209
204 213 222
203 213 223
208 217 227
205 215 224
200 211 219
198 209 217
200 211 221
205 214 223
204 215 226
204 214 224
199 210 218
201 211 218
170 184 177
94 121 74
93 120 72
95 122 73
96 123 74
98 125 75
96 124 74
96 124 74
94 121 73
96 123 73
99 126 76
95 122 73
99 127 76
99 126 76
96 123 74
94 121 72
95 122 73
95 122 73
91 119 72
95 122 73
95 122 73
93 120 72
95 122 73
97 125 75
95 122 74
95 123 74
95 123 74
93 120 72
105 130 88
203 213 224
198 209 216
202 212 220
206 215 224
201 210 219
201 212 220
199 208 216
182 194 195
158 173 161
108 134 94
96 123 73
93 120 72
93 120 71
95 122 73
95 122 73
97 124 75
95 122 72
97 125 75
93 120 72
96 123 74
95 122 73
95 122 73
94 120 72
97 124 74
93 120 71
92 119 71
96 123 73
94 121 73
133 153 130
207 216 224
206 216 227
198 208 214
201 211 220
208 216 226
202 212 221
203 213 222
208 217 224
198 208 216
200 211 222
203 213 222
198 208 214
204 213 219
198 209 217
202 212 220
198 208 215
203 213 222
195 206 214
205 214 222
202 212 221
207 216 225
208 217 227
208 217 227
201 211 221
199 209 218
206 216 224
208 217 226
207 217 226
192 203 206
97 124 75
94 121 72
91 117 69
95 122 74
93 119 71
98 125 75
93 121 73
97 124 75
98 126 75
98 126 75
96 123 74
100 128 77
99 126 76
89 115 69
96 124 74
96 123 73
94 121 73
96 123 74
97 124 74
95 122 73
95 122 73
96 124 75
96 123 74
98 125 75
92 118 71
95 123 74
98 126 75
102 126 87
136 155 134
160 174 166
143 160 146
118 140 112
99 126 79
96 123 73
97 124 74
95 122 72
93 119 71
95 122 73
95 122 73
97 124 74
96 124 74
97 125 75
95 122 74
95 122 74
93 120 72
100 127 76
94 121 72
95 122 73
99 127 76
96 123 74
96 123 74
96 123 74
94 122 72
96 123 73
96 123 74
94 121 72
94 121 72
142 159 143
194 205 212
204 214 224
205 215 224
203 213 222
202 212 221
211 221 232
210 219 230
206 215 222
205 215 225
208 218 228
202 212 222
199 208 215
206 216 225
202 212 222
196 207 216
203 213 224
206 215 223
205 215 225
200 210 220
204 213 222
202 213 222
204 214 222
205 215 225
194 204 211
199 210 218
196 207 216
199 210 220
209 218 228
121 142 116
98 125 75
90 117 70
95 122 73
96 124 75
95 122 73
97 124 75
96 123 75
96 123 74
94 122 73
95 122 73
92 119 71
95 122 73
92 119 71
95 123 74
95 122 73
96 124 76
95 123 73
91 118 71
96 124 74
98 125 75
94 121 72
93 120 71
94 121 73
96 124 74
92 118 71
99 127 76
99 125 80
194 205 211
201 211 217
202 212 220
198 209 216
200 210 220
200 211 220
203 212 221
208 217 226
198 207 214
206 216 226
200 211 218
211 219 228
203 212 221
201 212 221
198 208 215
202 212 222
204 214 224
204 214 223
209 219 230
209 218 228
204 214 224
201 212 223
208 217 227
204 214 222
195 206 214
199 210 218
200 210 216
122 144 114
94 121 73
94 121 72
96 123 74
96 124 75
96 124 74
95 123 74
96 123 75
98 126 76
94 121 72
96 124 75
98 126 75
95 123 73
99 127 77
96 123 74
94 121 72
93 120 72
96 123 74
100 127 76
97 125 75
93 120 72
99 126 76
94 121 71
98 125 75
94 121 73
94 121 73
184 195 196
206 215 224
205 214 223
201 212 221
209 218 228
206 216 225
202 211 218
204 214 222
203 213 223
208 217 226
207 217 224
209 218 228
202 212 220
198 208 217
202 212 220
201 211 219
205 215 224
208 218 228
203 213 220
205 215 225
204 214 224
210 219 228
207 216 226
206 216 226
200 210 219
135 154 132
95 122 74
96 123 74
97 124 75
97 125 76
95 123 74
96 124 74
98 125 75
95 122 73
96 124 75
95 122 73
94 121 71
99 126 75
95 122 73
98 125 75
94 121 72
91 119 71
96 123 74
94 121 73
93 120 72
93 121 73
96 123 74
93 120 71
100 127 83
197 207 214
202 212 220
197 207 215
209 218 226
202 211 218
205 215 225
203 213 221
198 208 216
200 211 221
205 214 223
204 214 224
201 212 223
201 211 219
200 210 218
199 209 216
208 217 226
203 213 222
202 212 221
206 215 225
204 213 221
204 213 222
204 213 221
178 190 191
95 122 73
95 122 73
97 125 74
96 124 74
95 123 74
96 124 75
97 124 74
95 122 73
97 124 75
96 123 73
95 123 74
98 126 76
96 123 74
208 217 226
198 208 214
198 209 219
204 214 224
202 212 222
195 206 213
163 178 173
165 179 175
199 209 215
211 221 233
195 206 213
201 211 219
201 211 219
203 214 225
195 206 213
192 203 209
205 215 224
200 210 217
207 217 227
198 208 215
199 209 217
210 220 230
198 209 216
200 210 218
205 214 222
196 207 216
198 207 213
206 215 223
205 214 222
202 211 220
205 214 221
195 206 215
202 212 220
205 213 222
102 127 83
97 125 76
92 119 71
93 119 71
94 121 72
92 118 71
93 120 72
93 120 72
97 124 74
96 123 74
95 123 74
99 126 81
122 142 117
160 175 167
188 200 206
200 212 223
208 217 227
209 218 229
200 210 219
204 214 223
198 209 220
206 216 224
205 214 221
205 214 223
202 212 221
204 214 225
198 209 218
167 181 175
96 123 73
93 119 71
94 121 73
94 121 72
96 123 73
97 125 75
94 121 72
93 120 72
93 120 72
94 121 73
98 126 75
93 120 73
93 120 72
97 124 75
95 123 73
95 122 72
96 123 74
95 122 73
94 122 73
96 123 74
95 122 73
94 121 72
96 123 74
97 125 74
97 124 74
96 123 74
93 121 73
111 135 97
200 210 218
207 217 225
205 216 226
208 216 225
208 217 226
200 210 219
206 215 225
189 201 207
195 206 214
208 217 226
189 201 204
157 173 164
133 152 129
95 122 74
97 124 74
97 124 75
96 124 75
96 123 74
92 119 71
93 120 72
96 124 75
92 119 70
99 127 77
96 123 74
98 125 75
94 122 73
97 124 74
95 122 73
138 155 138
204 214 222
202 212 221
202 211 217
205 214 223
200 210 219
202 212 222
202 212 220
202 212 219
206 216 227
201 211 219
193 204 211
206 215 224
205 215 223
198 209 219
202 212 220
200 210 217
204 214 223
204 213 222
206 216 226
207 216 226
201 211 218
204 213 220
196 206 214
201 211 218
207 217 229
199 210 219
202 212 221
190 202 210
180 192 192
95 122 73
96 124 74
95 123 73
96 123 73
92 118 70
97 125 75
95 122 73
93 120 72
96 123 74
99 126 76
95 122 72
92 119 71
97 124 75
95 122 73
94 121 73
94 122 73
95 122 73
97 124 75
97 124 74
95 122 73
96 124 74
95 122 73
95 122 73
92 119 71
94 122 73
93 120 73
98 125 75
97 124 75
159 174 165
201 211 219
200 210 218
203 213 222
201 211 218
188 200 203
164 179 174
146 164 147
130 151 123
101 127 83
96 123 74
98 125 75
91 118 71
95 122 73
99 126 76
101 128 77
96 123 74
98 125 75
92 120 72
93 121 72
97 124 75
95 122 73
96 123 74
94 121 72
98 125 75
94 122 73
95 122 73
93 120 72
95 122 73
167 182 178
202 212 222
206 216 226
206 214 222
203 213 223
204 213 221
203 212 220
202 211 218
204 214 223
203 212 221
201 211 220
201 211 218
202 212 220
205 215 223
209 217 226
190 201 207
205 215 226
204 215 224
204 214 224
198 208 213
205 214 223
201 211 221
204 214 222
200 209 216
200 211 220
206 216 225
203 213 220
206 215 225
190 201 205
95 122 73
95 123 74
96 123 73
95 122 72
94 122 73
97 125 75
97 125 75
92 120 72
93 120 71
96 123 74
96 123 73
93 120 72
93 120 72
96 123 74
96 123 73
96 123 74
98 125 76
97 124 74
97 124 74
97 124 74
95 122 74
95 123 74
94 121 72
94 122 73
96 123 74
95 122 73
92 119 71
148 164 148
201 212 221
203 213 220
200 210 220
201 211 218
206 216 224
206 216 227
198 209 218
208 217 226
200 210 219
205 215 225
205 215 224
207 217 228
210 220 229
205 215 224
201 211 220
200 211 221
203 213 222
205 215 224
206 216 223
201 211 221
203 213 223
204 214 223
203 213 221
203 213 222
201 211 219
201 211 221
173 186 181
99 126 76
96 123 73
95 122 73
95 122 73
97 124 75
93 120 71
96 123 74
100 128 77
96 123 74
94 121 73
94 122 74
94 121 73
90 117 70
94 121 73
95 122 73
94 122 73
95 122 73
98 126 76
97 125 75
93 121 72
93 120 71
98 126 75
98 125 76
92 119 71
94 120 72
152 169 154
195 206 212
205 214 222
210 219 228
204 214 223
198 207 215
202 212 221
206 216 226
202 212 221
195 205 212
204 214 224
205 215 225
204 213 222
198 209 217
208 218 229
195 206 212
210 219 228
205 215 223
207 216 224
198 209 217
203 213 221
201 210 218
199 210 218
206 215 224
203 213 221
164 179 174
94 121 73
96 123 74
96 123 74
96 122 73
97 124 74
94 122 73
97 124 74
91 117 69
97 125 75
97 124 74
93 120 72
94 122 74
99 126 76
96 123 73
96 123 74
96 124 75
95 123 74
94 120 72
97 124 75
97 125 76
96 123 74
96 124 74
95 123 74
171 185 182
206 215 225
198 208 216
206 215 225
206 215 222
202 211 217
203 213 222
202 212 220
210 219 228
198 209 216
200 211 221
202 212 220
205 215 223
204 214 225
204 214 223
205 215 225
201 211 221
200 210 217
210 219 229
203 213 222
199 209 217
201 211 219
189 200 203
111 134 98
94 122 73
92 119 70
95 122 72
91 118 70
96 123 74
98 125 75
96 123 74
98 125 75
95 122 73
97 125 75
96 123 74
96 123 73
93 120 72
197 207 214
211 220 229
203 212 220
196 207 216
201 211 220
198 208 217
202 211 219
169 183 178
118 140 111
167 181 173
193 204 210
198 209 219
201 211 222
202 212 219
204 215 226
207 216 224
200 210 218
202 212 220
197 207 213
207 217 228
206 216 226
198 208 215
202 212 221
202 212 219
200 210 217
202 212 221
203 212 218
198 208 215
203 212 219
209 218 227
203 213 221
202 211 220
203 213 221
202 212 222
111 134 98
98 126 75
95 122 73
95 122 72
95 123 74
95 122 73
95 122 73
95 122 73
94 121 72
95 123 74
94 122 74
98 126 76
94 121 73
96 123 74
101 127 84
137 155 140
179 192 193
201 211 220
198 209 216
202 212 223
201 212 221
201 212 220
204 213 221
206 216 226
200 210 219
202 213 225
198 208 214
174 187 185
94 122 73
98 125 76
95 122 73
97 125 75
94 122 73
96 123 74
89 115 68
92 119 71
96 124 75
95 123 73
94 122 74
94 121 73
96 124 74
97 124 75
94 122 73
97 124 75
94 120 72
95 122 73
96 123 74
96 122 73
97 125 75
92 119 72
94 122 73
94 121 72
96 124 74
98 125 75
95 123 74
117 140 107
198 208 214
207 215 222
206 215 225
207 217 225
209 218 228
203 213 222
206 216 225
200 210 218
200 211 220
197 208 219
203 213 222
201 211 218
199 209 217
196 206 212
158 172 165
131 150 127
99 126 80
96 123 74
90 117 69
97 125 75
97 125 75
96 123 74
94 121 72
92 120 71
96 124 74
95 123 74
96 124 74
96 124 74
162 176 169
199 209 218
208 217 227
202 212 220
201 212 221
201 210 218
198 208 214
197 207 214
208 217 225
208 218 229
197 209 218
208 217 227
204 214 224
200 210 219
201 211 219
202 212 220
203 212 220
204 214 223
194 203 207
203 213 223
204 213 222
204 213 222
202 211 220
202 212 221
210 219 229
204 214 224
202 211 217
205 214 223
202 212 222
148 163 152
97 124 75
98 125 75
99 127 76
93 119 71
95 122 73
96 124 74
95 122 73
96 124 75
94 121 72
96 123 73
93 120 72
96 124 74
91 118 71
95 122 72
96 123 73
98 125 75
96 123 73
94 121 72
97 124 74
94 121 72
92 119 71
97 124 74
96 124 75
97 124 75
95 123 73
97 125 75
95 122 73
94 121 73
176 188 185
203 213 222
205 214 222
204 213 222
205 214 223
200 209 217
209 218 228
204 213 222
203 212 219
195 206 215
191 202 206
169 183 179
157 172 161
138 157 137
103 127 86
95 122 72
98 125 76
93 120 71
93 120 71
94 121 72
96 123 73
98 126 76
95 123 74
98 125 75
96 124 74
94 121 73
93 120 72
95 122 73
97 124 78
193 205 214
205 215 224
204 213 222
202 211 218
205 215 224
207 217 228
199 209 218
208 218 229
203 213 221
210 219 228
208 218 228
205 214 223
204 214 224
206 215 224
204 213 223
200 211 220
210 218 225
202 212 220
208 218 228
199 209 217
203 213 220
203 213 222
206 216 225
198 209 220
201 211 221
202 212 220
199 209 217
207 216 225
143 160 145
97 124 75
93 120 72
94 121 73
95 122 74
92 118 70
95 122 73
93 121 72
93 119 71
94 121 73
94 121 72
94 121 73
96 123 73
97 124 74
96 123 74
97 125 75
99 126 76
92 118 70
93 120 72
96 123 74
93 119 71
97 124 75
95 122 73
97 125 75
96 124 74
98 125 75
93 120 72
96 123 74
193 203 209
204 213 221
204 214 224
205 215 224
196 206 214
202 212 221
206 215 224
201 212 221
205 214 223
205 215 227
204 213 220
201 211 220
206 216 226
200 210 218
199 209 217
203 214 223
204 214 222
201 211 219
209 218 230
198 208 218
206 216 226
204 214 223
202 212 222
209 219 229
203 213 220
203 213 222
196 207 214
115 138 109
95 123 74
98 125 75
98 126 75
94 121 73
96 123 74
95 122 73
96 123 73
96 123 74
97 124 74
94 121 72
93 120 72
94 121 73
94 122 73
90 117 70
96 123 73
93 121 73
95 122 73
98 125 75
98 125 75
93 119 70
98 126 76
94 121 72
96 123 74
94 121 72
95 122 73
191 203 208
196 207 215
205 214 223
205 214 224
206 216 225
210 220 231
201 211 219
203 213 221
203 213 221
196 207 214
200 210 219
199 210 219
205 215 224
204 213 221
206 215 224
203 212 220
199 210 219
204 214 223
205 214 223
194 205 212
207 216 227
200 210 218
204 213 221
204 214 223
198 209 217
113 136 102
95 122 73
97 124 74
96 124 74
96 124 74
94 121 73
92 119 72
95 122 73
93 120 72
92 119 71
93 120 72
95 123 73
93 120 73
96 123 73
94 121 73
95 122 74
96 123 73
95 123 74
100 127 77
96 123 73
94 121 72
95 122 74
94 122 73
119 140 108
197 207 215
200 210 218
201 212 221
205 215 225
198 209 217
210 218 228
206 216 227
210 218 227
203 213 222
203 213 221
204 214 225
204 215 225
201 211 220
203 213 223
200 211 221
205 214 223
198 209 217
196 207 214
204 214 222
206 215 224
209 219 229
205 214 222
124 144 119
97 124 74
97 125 75
92 118 71
95 123 74
97 125 75
95 122 72
94 120 72
96 123 74
95 122 72
95 122 73
97 125 75
97 125 76
96 123 74
94 122 73
200 210 218
200 210 220
208 217 225
202 212 221
194 205 213
198 208 215
207 217 228
180 192 192
97 124 75
95 122 73
101 127 83
154 171 161
188 200 205
204 214 224
202 212 220
203 212 221
204 213 222
202 213 221
211 220 231
202 212 222
206 216 227
205 214 223
202 211 221
197 207 215
201 211 220
202 213 222
204 214 224
207 216 225
202 213 222
205 214 223
202 211 220
206 215 224
201 211 219
196 207 215
119 141 113
95 122 73
93 120 72
95 122 74
96 123 74
95 122 73
94 121 73
94 122 72
95 123 74
97 124 75
95 122 73
97 123 73
94 122 73
97 125 75
95 122 72
97 124 74
95 122 73
111 134 95
149 166 154
191 201 203
211 220 232
199 210 218
204 214 222
197 207 215
208 217 227
201 211 220
201 211 219
166 180 176
94 121 73
94 122 73
89 116 70
96 124 74
92 119 71
93 120 72
90 117 70
98 125 75
95 123 74
95 122 73
96 123 73
98 125 75
93 119 71
94 121 72
97 125 75
96 123 74
95 121 72
96 123 74
95 123 73
96 123 74
95 122 73
98 125 75
99 127 77
97 124 75
96 123 73
94 121 72
98 126 76
126 146 124
212 221 231
200 210 218
197 207 216
208 217 227
205 214 224
202 212 221
206 215 224
204 214 222
200 210 217
208 218 227
202 212 222
208 217 227
200 210 219
206 216 225
204 214 223
207 217 225
198 208 214
182 193 192
145 162 149
109 133 96
94 121 73
91 118 70
95 122 73
94 122 73
96 124 74
93 121 73
96 124 75
98 125 75
164 176 170
200 210 219
200 209 216
198 210 220
198 210 220
201 211 220
202 212 219
207 216 224
203 213 221
203 213 223
193 205 213
207 216 223
202 212 222
204 214 222
203 213 222
206 216 225
202 212 221
200 211 220
203 214 223
199 209 217
203 213 222
200 210 217
204 214 226
200 209 217
202 212 221
200 210 218
202 212 221
200 211 220
204 214 223
135 154 132
94 120 72
95 122 72
96 123 74
96 123 74
94 121 73
93 120 72
95 122 73
97 124 74
93 120 72
97 125 74
98 126 76
92 119 71
94 121 72
98 126 76
92 119 71
94 120 71
97 124 75
93 121 72
98 126 76
97 124 75
96 123 74
95 122 73
97 124 74
95 122 73
97 124 74
95 123 74
95 122 72
96 123 73
183 196 202
208 218 229
202 212 220
202 211 219
203 213 222
205 215 224
199 209 219
201 212 221
210 219 230
202 212 219
205 215 225
202 212 221
206 216 227
205 214 222
206 215 224
195 206 212
178 190 191
167 181 176
131 150 129
114 136 102
94 121 73
97 124 75
98 125 74
93 120 72
91 118 71
96 123 73
92 119 71
94 121 72
119 141 111
204 213 222
203 212 219
197 207 214
197 207 214
207 216 225
206 215 223
203 212 222
200 210 215
201 211 218
202 212 221
203 214 224
207 216 224
205 214 222
194 205 212
204 214 223
200 210 218
198 208 215
209 219 229
200 210 218
200 211 221
200 209 217
197 208 216
206 215 224
205 215 225
200 211 218
202 212 221
203 213 222
202 213 221
97 123 81
100 128 76
97 124 74
95 122 73
97 124 74
92 119 71
98 125 75
94 121 72
92 119 72
92 120 72
93 120 71
93 120 71
95 123 73
97 124 75
95 122 73
92 119 71
93 120 73
96 123 74
97 124 74
89 116 69
94 121 72
96 124 74
93 120 71
96 123 74
96 123 74
93 120 72
95 122 73
132 152 131
201 211 218
206 215 224
200 209 215
203 212 221
195 206 213
198 208 216
203 213 221
207 216 226
196 207 216
204 214 222
200 209 216
198 207 213
203 213 222
207 217 226
206 215 223
200 211 218
204 214 223
202 212 218
202 212 219
201 211 220
206 216 225
204 212 219
196 206 212
202 212 221
200 210 217
203 213 220
153 169 156
95 122 73
93 120 72
98 125 75
93 120 72
97 125 74
96 124 74
94 121 73
97 124 75
96 123 74
92 118 70
95 122 74
97 124 75
96 123 74
96 123 73
94 121 73
92 119 71
96 124 74
96 123 74
95 122 73
97 124 75
93 120 72
94 122 73
96 123 74
96 124 74
92 118 70
154 170 157
199 209 217
205 214 223
200 210 219
207 217 227
206 216 226
202 212 220
200 210 218
208 217 228
198 209 217
197 207 213
207 217 227
202 212 222
202 212 220
199 210 219
205 215 226
195 206 214
202 212 221
207 216 225
206 215 223
208 218 228
204 214 223
198 209 217
202 212 220
201 212 221
149 166 154
92 119 71
97 125 75
96 123 74
91 118 71
94 121 73
92 119 71
96 123 73
95 123 74
94 121 72
99 126 76
97 124 75
95 122 72
95 122 74
95 122 73
96 124 74
97 124 75
98 125 75
91 118 70
94 122 73
92 118 70
96 122 73
97 125 75
98 124 79
191 203 209
201 211 219
194 205 213
203 213 225
202 212 220
202 211 219
198 208 214
196 206 212
199 209 217
201 212 221
205 215 224
201 212 222
203 213 222
202 212 219
199 209 218
198 208 214
204 215 224
202 212 219
204 215 226
197 207 214
195 206 214
207 217 226
152 168 160
97 124 74
96 124 74
95 122 73
94 122 73
95 122 74
95 122 74
95 122 72
96 124 74
93 121 72
96 123 74
94 121 72
95 122 73
93 120 71
95 122 73
95 122 73
204 214 224
194 204 211
199 209 217
207 216 225
202 212 221
200 210 217
207 217 227
194 205 210
93 120 71
96 123 73
95 122 74
95 123 73
89 116 69
137 155 132
176 189 188
195 205 212
203 213 222
202 212 220
199 209 217
200 211 222
203 213 222
202 212 220
204 214 222
203 213 222
200 210 218
199 209 217
195 206 214
201 211 218
205 214 222
205 214 222
203 212 221
200 210 220
201 211 217
207 216 224
139 157 139
92 119 71
94 121 72
95 122 73
95 122 73
97 124 75
96 123 73
97 125 75
95 122 73
95 123 73
94 121 73
92 119 72
92 119 72
95 123 74
99 127 76
95 122 73
90 117 69
94 121 72
93 121 73
93 120 72
123 144 116
165 178 174
192 203 207
199 210 218
199 210 219
201 210 217
204 214 223
184 196 196
95 122 72
95 122 73
97 124 74
96 123 75
92 119 70
93 121 72
95 122 73
96 123 74
96 123 74
97 124 74
96 123 74
92 118 70
95 122 73
97 124 74
92 119 71
94 122 73
92 119 71
97 124 75
91 118 70
95 122 73
94 121 72
93 120 72
96 123 73
94 121 73
90 116 70
97 124 75
96 122 73
135 154 132
205 214 223
199 209 215
200 210 217
201 211 219
208 217 226
205 215 223
195 205 212
204 214 224
202 212 221
200 211 220
203 213 222
199 209 217
203 213 223
206 216 227
198 209 219
198 208 216
205 215 225
200 211 220
206 215 223
197 207 214
190 201 204
166 180 173
128 147 125
100 126 83
93 120 72
96 124 75
97 125 75
98 125 75
186 198 202
205 214 222
201 211 219
203 212 221
207 216 226
201 211 220
201 211 218
196 207 213
199 209 216
202 212 221
198 208 214
197 207 214
205 215 226
199 209 219
198 208 216
199 210 219
202 212 221
209 217 225
200 210 217
197 208 215
208 217 228
196 206 213
198 208 216
209 219 230
205 214 224
204 213 220
201 211 221
202 212 221
205 214 223
103 128 86
96 124 74
94 121 73
95 123 74
95 122 73
98 126 76
94 121 73
97 124 74
90 117 70
99 126 76
97 124 74
94 121 72
97 125 75
93 119 71
94 121 73
95 122 74
95 122 73
92 119 71
94 121 72
96 123 73
94 121 72
93 120 72
92 119 71
94 122 74
92 119 70
96 124 75
97 125 76
94 121 72
120 141 113
207 216 225
206 215 224
202 212 220
200 210 218
197 207 216
201 211 220
199 210 219
204 214 224
196 206 214
212 221 231
203 213 223
205 215 224
206 216 224
200 210 218
206 216 226
198 209 218
201 212 223
198 207 215
200 209 217
207 215 223
203 214 223
181 193 196
182 194 194
145 163 149
145 162 146
109 133 93
93 120 72
97 125 74
161 176 170
201 212 221
207 216 226
202 213 223
202 212 222
200 210 217
195 206 214
199 209 215
204 214 224
202 211 219
198 209 217
204 215 225
202 212 219
198 209 218
205 215 224
210 219 228
206 216 226
206 215 223
199 210 218
198 208 216
202 211 218
197 207 214
206 215 225
196 206 212
204 212 217
202 213 222
202 211 219
200 209 217
176 190 191
92 120 72
95 122 73
95 122 73
97 125 76
94 122 73
93 120 72
97 124 74
91 118 71
93 120 72
92 119 71
91 118 70
95 123 73
96 123 74
96 123 73
93 120 71
94 122 73
96 123 74
95 122 73
93 119 71
97 125 76
95 122 73
94 121 72
94 121 72
92 118 70
94 122 73
97 125 75
99 127 77
177 190 188
206 216 224
198 207 213
200 210 217
205 214 224
203 213 221
201 211 220
204 213 220
193 204 210
202 212 221
208 218 228
199 209 217
201 210 218
201 212 222
199 209 216
209 218 227
205 214 222
204 214 223
205 214 221
204 213 221
203 213 221
199 210 217
206 216 226
200 210 219
202 213 221
199 209 219
200 210 218
110 133 98
96 123 74
95 122 73
96 124 74
90 118 71
95 123 74
94 121 73
95 122 73
99 126 76
97 124 74
97 124 75
96 122 73
92 119 71
93 121 73
97 125 75
94 122 74
95 122 74
94 121 72
96 123 74
97 125 75
92 119 71
93 120 72
98 126 75
93 120 71
96 123 74
110 134 97
203 212 220
200 210 219
206 216 224
204 214 225
208 217 226
204 213 221
200 210 219
194 205 212
200 209 215
205 215 223
208 218 229
202 213 222
201 212 220
205 215 224
202 212 221
203 213 223
200 210 218
207 216 225
199 209 216
208 218 227
201 212 220
204 213 222
199 210 219
193 204 211
185 197 199
95 122 73
95 122 73
96 123 73
89 116 69
95 123 74
96 123 73
97 124 75
95 123 74
97 125 75
94 121 72
91 118 69
97 124 74
95 122 73
93 120 72
99 127 76
97 124 74
97 125 75
96 123 74
95 122 73
97 124 75
92 119 71
98 125 76
93 120 72
162 177 170
200 211 221
200 210 217
207 215 222
201 210 218
203 213 222
198 208 216
197 207 214
210 219 229
208 218 227
192 204 212
200 211 221
200 211 221
199 210 218
205 215 224
199 209 217
202 213 223
211 220 230
195 205 211
198 209 217
206 215 224
201 211 219
182 195 195
100 127 79
95 123 74
95 122 73
92 118 70
95 122 73
98 125 75
92 118 70
96 123 75
96 123 73
94 121 73
95 122 73
95 122 73
96 123 74
99 126 76
95 122 73
98 125 75
142 159 144
145 162 152
151 166 156
138 155 138
162 177 169
153 170 159
151 168 157
150 166 154
157 174 167
154 170 159
164 178 172
169 183 178
166 180 175
171 184 181
158 174 168
172 185 183
199 210 217
159 174 166
152 168 158
152 168 159
154 170 160
160 175 166
149 166 156
153 168 156
158 173 163
160 174 166
151 167 154
165 180 172
163 178 171
162 176 169
150 167 155
160 175 168
160 175 169
147 165 153
168 183 180
154 170 161
157 173 166
152 169 154
150 166 156
158 173 162
151 167 158
151 167 155
155 170 161
152 168 154
149 166 154
145 161 145
137 155 139
139 157 140
148 164 152
142 159 144
144 162 148
147 163 144
157 173 161
153 170 156
143 160 143
154 169 158
151 167 154
177 190 188
192 202 207
176 188 189
167 181 176
172 185 180
133 152 132
134 153 133
150 167 152
132 151 129
136 155 134
144 162 146
147 163 154
126 147 122
134 153 130
136 154 135
153 168 158
143 160 143
145 161 146
140 158 140
145 162 146
134 153 131
141 159 141
140 158 138
139 157 135
141 160 142
126 145 122
133 151 131
141 160 144
137 155 138
134 153 134
138 156 137
126 146 121
149 164 153
169 184 181
185 198 200
178 191 190
171 185 184
175 189 192
178 190 190
181 194 194
175 188 188
168 182 179
180 192 194
179 193 194
186 197 200
171 186 183
181 193 196
192 203 209
175 188 188
182 193 194
182 193 195
183 195 198
194 203 207
177 190 190
181 194 195
187 198 199
173 186 186
155 171 159
121 142 115
113 137 101
121 142 114
165 179 174
189 200 203
180 193 196
192 203 207
180 192 192
187 197 198
191 202 204
180 193 194
188 199 201
181 193 195
183 195 199
188 199 202
184 195 197
187 199 204
185 198 200
190 202 208
184 196 200
186 198 199
193 203 207
185 197 200
180 193 195
182 194 194
184 196 199
182 195 199
180 193 197
190 201 205
191 202 205
183 195 199
186 198 203
121 142 113
121 143 114
126 146 121
115 138 105
122 143 112
119 140 113
119 141 109
128 148 123
128 148 121
118 140 111
118 139 110
121 142 115
123 142 114
119 142 111
120 141 111
132 152 129
120 140 113
120 142 113
128 149 124
115 137 105
118 141 109
128 147 122
115 138 107
111 133 99
119 142 109
118 140 109
119 141 109
119 141 109
157 172 163
194 206 213
196 206 211
188 199 203
186 196 199
184 195 197
187 198 199
197 207 213
199 210 219
192 203 207
194 205 211
189 201 206
192 203 207
188 200 203
192 203 209
186 197 200
191 202 206
178 190 190
193 204 208
194 204 209
193 205 210
181 194 198
188 199 201
190 202 207
194 205 212
189 200 202
182 194 197
175 188 187
169 183 181
147 164 147
185 197 200
184 196 202
199 209 216
195 205 211
190 201 206
191 201 205
185 198 203
193 203 207
197 208 215
195 206 213
182 196 201
190 201 204
198 209 216
189 201 208
190 202 206
188 200 203
190 201 203
190 202 206
189 201 206
178 191 194
177 189 190
187 198 201
194 206 211
185 196 200
180 192 195
184 196 200
182 195 197
139 157 137
118 140 112
119 141 111
114 137 103
126 147 121
118 139 111
121 143 109
120 142 114
107 131 94
123 144 116
122 144 119
118 141 109
111 135 97
109 131 100
114 136 104
128 148 120
111 135 100
112 134 103
125 146 121
132 151 127
123 143 117
125 147 122
127 147 123
119 139 111
115 137 108
114 138 105
125 145 119
122 142 118
185 198 200
182 195 195
181 193 196
176 189 192
191 202 203
180 193 195
195 206 211
183 194 195
187 198 203
192 203 207
195 205 208
185 197 198
185 197 201
182 194 193
182 195 197
192 202 204
174 186 184
196 207 214
193 203 207
172 186 187
187 199 203
185 196 200
174 187 189
177 189 190
184 195 198
187 198 200
168 182 178
118 140 112
130 150 127
126 146 121
132 152 127
131 150 129
141 158 139
123 143 117
126 146 121
129 148 129
137 155 135
133 151 131
131 150 127
135 155 134
131 150 129
134 153 133
128 149 127
147 164 150
142 160 141
136 154 137
129 147 125
135 154 134
136 154 132
137 156 136
135 153 133
132 150 128
158 173 166
181 193 193
165 180 179
180 192 195
172 185 184
170 183 180
182 195 195
171 185 183
179 191 191
179 192 193
190 201 204
170 183 179
171 184 181
169 183 179
171 185 179
174 187 185
180 193 194
173 186 187
182 193 193
171 184 178
168 181 176
165 180 173
165 179 171
166 180 174
172 186 183
163 177 168
143 161 148
128 148 123
129 148 128
147 165 150
145 162 148
133 152 134
158 173 163
145 163 147
153 168 155
146 164 152
144 162 146
148 164 150
155 171 161
140 158 142
141 159 144
148 164 150
160 175 168
149 165 149
144 161 147
143 161 146
153 168 152
154 170 160
138 156 139
171 184 181
172 187 182
163 178 167
169 181 176
145 163 151
162 176 171
163 177 172
170 183 179
162 176 170
158 173 166
147 163 152
166 179 172
146 162 149
157 172 162
142 159 142
162 177 166
154 169 157
164 178 171
151 166 157
153 168 157
157 172 167
163 177 172
168 182 178
162 176 170
167 181 179
163 177 171
165 179 172
165 179 176
161 176 170
165 178 172
173 187 183
173 186 185
177 190 187
176 189 184
160 176 167
177 190 190
164 178 174
169 182 177
132 151 128
95 123 74
99 126 76
97 124 75
96 124 75
95 122 73
93 121 72
91 118 70
95 122 73
179 192 191
200 211 220
200 209 218
199 209 218
196 206 214
205 215 225
208 218 229
201 210 217
200 210 216
203 213 223
181 193 195
139 157 141
92 120 72
96 124 74
97 124 74
98 125 75
96 124 74
96 123 74
91 119 72
94 121 73
95 123 73
94 122 73
96 123 73
93 120 72
98 125 75
95 122 73
156 173 163
209 219 228
200 211 219
203 214 223
197 208 214
208 217 227
208 217 226
203 213 221
197 208 216
199 209 218
203 213 222
203 212 221
202 211 219
199 210 220
197 208 216
203 213 221
204 214 222
204 213 221
208 217 227
200 210 219
192 202 209
198 208 215
202 213 221
206 215 224
199 209 218
197 207 213
177 190 190
166 180 176
201 211 216
200 209 215
203 213 220
203 213 222
200 211 220
202 212 219
203 213 222
192 203 211
193 204 212
202 211 219
209 217 225
203 213 221
197 207 214
203 213 221
205 214 223
205 215 224
206 216 225
204 214 224
199 209 218
194 205 214
191 203 211
200 210 218
202 212 220
199 209 218
201 211 219
204 213 220
203 213 223
167 181 175
93 120 72
95 123 74
96 123 73
94 122 73
97 125 75
95 122 73
96 123 73
97 125 75
96 123 74
94 121 72
97 124 74
95 122 74
97 124 74
91 118 71
98 126 76
92 118 70
96 124 75
98 125 76
96 123 74
100 128 77
95 123 74
93 120 72
93 120 72
92 120 72
93 120 72
94 121 73
99 126 78
122 143 116
161 176 169
130 149 131
99 126 78
96 123 73
98 125 74
93 120 72
94 122 73
93 120 71
96 124 75
95 122 73
94 121 72
97 124 74
95 122 73
97 124 75
96 123 73
92 119 71
95 122 74
96 123 73
96 123 74
94 121 72
94 121 73
94 121 72
97 124 75
93 120 72
94 120 72
97 124 74
95 122 73
96 124 74
144 161 145
201 211 218
203 213 222
198 209 217
201 212 222
205 214 220
207 217 226
200 210 218
196 207 216
205 214 222
205 214 223
206 215 224
201 211 220
192 203 210
203 213 222
206 215 224
201 210 216
205 214 223
199 209 218
201 211 219
201 211 218
207 216 225
206 216 225
199 209 218
197 207 215
208 217 225
198 208 217
202 212 220
204 213 221
140 158 140
95 122 73
94 121 72
95 122 73
94 122 74
97 124 75
97 125 76
91 118 71
95 122 73
97 124 74
94 121 72
93 120 71
97 124 75
91 118 71
95 122 73
95 122 73
95 122 73
97 124 74
90 117 69
92 119 72
96 124 75
94 121 73
91 118 71
95 122 74
91 118 71
94 121 72
95 122 73
94 121 73
125 146 124
201 210 217
201 210 217
197 207 215
209 218 228
200 210 216
193 204 210
187 199 201
154 170 160
152 168 157
118 139 111
99 125 82
95 122 73
97 124 74
93 120 72
96 123 75
97 124 75
95 123 74
98 125 76
95 122 73
95 122 73
92 120 71
96 123 74
93 121 73
98 125 75
97 124 74
94 122 73
93 120 72
123 144 117
197 207 215
207 217 227
196 206 215
194 205 213
202 212 221
213 221 230
198 208 216
204 213 222
203 213 223
210 219 230
210 219 229
191 202 209
200 209 215
200 210 217
203 213 221
200 210 219
196 207 215
197 207 215
206 215 224
204 214 222
197 207 215
205 215 224
191 203 211
208 218 228
199 209 217
206 215 224
208 217 225
127 147 125
94 121 72
93 120 72
94 122 73
95 122 73
97 125 74
95 122 73
95 121 72
98 125 75
94 121 73
94 121 72
97 125 75
95 122 72
94 121 72
93 119 71
91 118 70
98 126 75
94 121 72
97 123 73
94 120 72
97 124 75
97 125 75
94 120 71
97 125 75
94 121 72
92 119 71
104 128 88
199 211 222
197 207 215
197 207 217
198 209 218
205 215 224
198 210 220
207 217 227
201 211 221
199 210 220
205 215 224
201 212 222
192 203 210
200 210 220
206 215 223
204 214 225
202 212 222
196 206 213
198 208 217
205 215 223
200 210 217
202 213 224
206 215 224
200 210 219
198 209 218
196 208 217
184 197 201
94 120 72
92 119 72
94 121 72
95 123 74
91 118 70
98 125 76
94 120 72
96 123 73
93 121 72
89 116 69
92 119 71
97 124 75
94 122 74
93 120 72
94 120 71
95 122 73
97 125 75
99 126 76
95 122 73
93 119 71
95 123 74
93 119 70
94 121 73
94 121 72
150 166 156
202 212 220
201 212 222
202 211 219
215 224 236
208 217 227
195 205 212
208 218 228
195 205 213
207 216 225
204 213 220
202 212 219
196 206 211
205 215 224
195 204 211
210 219 229
201 212 222
203 212 220
205 215 225
210 219 229
200 210 218
206 215 225
201 212 223
195 206 211
112 135 100
96 123 74
94 121 73
94 121 72
95 122 72
93 121 72
95 122 73
101 128 77
94 121 72
94 121 73
92 118 70
94 121 72
96 124 74
94 121 73
95 123 74
98 126 75
93 119 71
96 123 74
96 123 73
95 122 73
95 122 73
97 124 75
194 205 208
203 212 220
204 214 222
205 215 224
202 213 222
208 217 226
199 209 217
205 215 224
204 215 225
196 207 215
193 205 210
175 189 186
152 168 158
144 161 145
119 139 111
97 124 78
91 118 69
90 118 71
94 121 72
93 120 71
96 123 74
95 122 73
95 122 72
95 122 73
94 121 72
95 122 73
160 175 169
196 207 216
195 206 215
202 212 219
204 214 224
204 213 221
200 211 221
209 218 227
210 219 229
201 211 221
200 211 221
206 215 223
199 209 214
149 165 154
117 140 105
95 123 74
95 122 73
92 119 71
97 124 75
94 122 73
98 126 76
98 125 75
95 122 73
96 123 73
98 125 75
91 118 70
148 165 151
205 214 223
201 211 218
198 209 217
203 212 219
205 214 222
201 210 217
201 210 217
200 211 220
203 213 222
199 210 218
203 212 219
205 215 225
198 209 219
200 211 221
203 213 222
209 217 223
198 209 216
198 209 216
198 208 217
207 217 227
204 214 224
206 216 227
201 210 218
209 219 229
200 210 219
202 211 218
171 184 181
100 125 82
142 159 142
170 184 182
187 199 205
208 218 228
205 215 225
209 218 227
204 215 224
197 207 215
199 209 217
207 216 222
198 208 216
199 209 218
198 209 217
203 213 221
207 216 225
199 209 217
203 213 221
209 219 230
206 216 225
203 213 222
205 215 223
195 205 213
202 212 222
209 219 230
200 210 217
200 210 218
170 182 177
93 120 71
95 122 72
98 126 76
97 124 74
95 122 73
95 123 74
98 126 76
93 120 71
97 124 74
93 120 71
95 122 73
94 121 73
96 123 74
96 124 74
98 125 75
96 124 75
97 124 74
92 119 71
94 121 73
93 120 72
93 120 71
95 122 73
96 124 74
98 125 75
94 122 73
96 124 75
98 125 75
120 141 114
201 211 219
195 206 214
202 213 222
182 195 197
150 166 157
117 139 107
94 121 73
97 125 74
94 121 72
94 121 73
96 123 74
94 121 72
96 124 74
94 121 72
96 123 73
95 122 73
96 123 73
95 123 74
93 120 72
96 122 73
96 123 74
93 120 72
95 122 73
91 118 70
94 120 71
93 120 72
95 123 73
97 125 75
167 180 172
201 211 221
203 212 221
198 208 216
200 210 220
193 204 211
208 218 227
204 213 221
200 211 222
205 214 222
207 216 225
197 207 214
197 208 218
198 208 218
201 212 223
208 216 223
201 211 220
200 209 215
197 208 216
199 210 220
206 215 224
201 211 219
198 208 216
204 215 224
195 206 216
209 218 228
201 211 219
194 205 213
204 214 222
106 130 93
96 124 75
93 121 72
96 124 74
93 120 72
96 123 75
94 121 73
95 122 72
96 123 74
95 123 73
93 120 72
94 121 72
93 119 70
94 121 73
96 123 73
94 121 73
95 122 72
96 123 73
95 121 72
95 123 73
94 122 73
93 120 73
94 121 72
95 121 73
94 121 73
97 125 76
95 122 74
91 117 69
176 189 190
203 212 220
206 215 223
199 209 215
201 211 218
194 205 212
205 215 224
194 205 212
207 217 227
204 213 222
203 212 220
206 215 223
206 215 224
180 193 194
176 189 186
167 181 176
139 156 143
123 144 119
114 136 102
97 125 75
97 124 75
93 120 72
95 123 74
93 121 72
94 121 72
97 124 74
95 122 74
96 124 75
170 183 181
200 210 218
207 216 223
201 211 220
206 215 224
202 212 221
203 213 221
208 218 227
202 212 221
205 215 224
192 203 209
203 213 223
207 217 228
206 214 223
200 211 220
202 212 219
194 205 213
208 217 225
198 209 218
200 209 214
200 210 218
205 215 223
204 215 225
202 213 223
203 213 222
207 216 224
193 204 212
204 213 220
97 123 77
95 121 72
96 124 75
93 120 72
96 123 74
94 121 73
94 121 72
92 120 72
94 121 73
92 119 72
93 120 72
95 122 73
95 122 73
97 125 75
95 122 73
95 122 73
96 123 74
98 125 75
95 122 73
97 124 74
92 119 71
94 121 72
97 124 74
94 121 72
95 122 74
96 123 73
158 173 163
204 214 222
204 214 223
189 200 204
201 211 221
202 212 220
199 209 217
203 213 222
210 219 227
199 209 217
204 213 223
201 211 218
210 218 226
208 217 226
202 212 222
200 210 219
205 215 225
197 208 218
208 217 228
208 217 226
192 202 209
214 222 232
206 215 225
197 208 216
203 213 222
204 215 225
137 154 137
96 123 73
95 123 73
93 120 72
95 122 73
96 123 74
97 125 76
93 120 72
92 119 71
93 120 71
96 124 75
92 120 72
96 123 74
94 122 73
98 126 76
93 119 71
95 122 73
97 125 75
96 123 74
93 120 72
95 122 73
95 122 73
95 123 74
98 125 76
121 143 115
200 210 217
202 212 223
200 210 218
197 208 217
197 207 215
200 210 217
192 204 210
191 203 212
191 201 207
211 219 227
204 215 225
197 208 216
197 208 216
206 216 224
191 202 210
201 212 221
203 214 223
191 201 207
203 213 224
201 212 224
198 208 217
195 206 213
199 210 219
141 158 140
96 124 74
96 123 74
96 123 74
94 121 72
94 121 73
97 125 75
97 125 75
97 124 74
92 119 71
95 123 73
92 119 71
95 122 72
93 120 71
95 122 73
95 122 73
94 121 73
93 121 73
93 119 71
93 120 72
95 122 73
98 125 76
162 177 168
204 214 222
208 216 224
204 214 222
194 205 212
169 183 181
164 179 171
153 169 157
141 159 142
117 140 109
96 123 74
97 124 75
97 125 75
93 120 71
95 122 73
92 119 71
95 122 73
94 121 72
99 127 76
93 120 72
94 121 73
96 123 74
94 121 73
96 124 75
94 121 72
100 128 77
96 123 73
153 169 156
200 210 219
202 211 219
204 214 222
195 205 211
212 222 234
197 208 218
209 219 229
203 212 220
200 210 219
204 213 221
193 203 212
196 207 217
207 216 225
200 210 218
183 195 195
147 164 150
97 123 77
91 118 71
91 118 70
93 120 71
92 119 71
96 123 74
95 122 73
94 122 73
94 121 73
149 166 152
202 212 223
207 216 228
203 213 222
205 214 223
199 209 216
204 214 222
202 212 221
198 209 217
208 217 225
202 212 219
194 205 214
206 216 226
199 209 216
207 217 225
211 220 230
204 214 222
205 214 222
203 213 223
201 211 218
202 212 222
201 212 221
203 213 221
207 216 225
202 212 218
205 215 224
202 212 219
181 193 194
91 118 71
94 121 72
94 121 73
100 126 86
132 152 128
182 194 195
202 212 222
203 214 223
198 209 217
199 210 218
192 203 212
208 217 228
208 217 228
199 209 218
205 215 222
206 215 223
204 214 221
204 214 223
195 206 213
200 210 219
205 215 226
198 208 215
200 211 219
206 215 222
200 210 219
200 210 217
204 215 225
154 170 160
95 123 73
93 120 72
94 122 72
92 119 70
95 123 73
95 123 74
96 123 74
96 124 74
95 123 74
98 126 76
96 123 74
96 123 73
92 119 71
91 118 70
99 126 76
93 120 72
92 119 71
95 122 73
97 124 74
91 117 70
93 119 71
94 121 73
93 119 71
94 121 72
90 116 69
92 119 70
96 124 74
138 156 136
205 215 223
198 208 216
197 207 215
202 211 218
199 208 215
206 216 227
193 203 207
179 191 191
164 179 172
121 143 116
91 118 70
93 120 71
94 121 72
94 121 72
95 122 73
91 118 70
95 123 73
95 122 73
94 121 72
93 119 71
94 121 71
96 123 73
94 121 72
96 123 73
92 119 71
96 123 74
93 121 72
96 124 74
172 186 184
199 209 217
201 213 225
198 208 215
195 206 214
196 206 214
194 205 214
198 208 216
204 213 223
196 207 214
202 213 222
206 215 224
204 213 222
201 211 220
201 211 217
199 209 218
199 210 219
204 214 223
195 207 215
200 210 218
198 209 217
200 211 219
199 209 218
206 215 226
203 213 223
201 211 220
199 209 217
196 207 215
178 191 191
95 122 73
93 121 72
93 120 72
91 117 69
93 120 72
97 124 75
95 123 74
96 124 75
95 122 73
95 123 74
95 122 73
95 123 75
91 118 70
93 121 73
95 122 74
96 123 73
94 121 72
96 123 73
94 122 74
94 121 73
94 121 73
96 123 73
97 124 74
91 118 70
97 125 75
97 124 74
96 123 74
97 123 76
197 206 211
205 216 226
210 219 227
206 216 226
206 215 225
204 214 223
198 209 217
204 213 222
203 213 221
199 209 217
200 211 220
207 216 226
197 207 215
198 209 218
201 210 218
208 217 225
198 209 217
202 213 222
196 207 213
195 206 214
195 205 210
170 184 183
158 173 166
151 167 155
140 157 141
123 143 117
101 127 84
97 122 80
194 206 213
199 209 214
203 212 220
208 217 225
203 213 222
206 215 222
207 216 225
201 211 220
200 210 217
207 216 225
203 214 223
194 205 212
211 221 231
199 209 217
206 216 226
204 213 223
205 214 222
200 211 220
201 212 221
204 213 222
203 212 220
200 210 219
201 211 219
196 207 216
206 215 223
196 207 215
203 213 222
141 158 144
92 119 71
94 120 72
95 122 73
88 114 68
91 117 69
94 121 73
92 119 71
93 120 73
93 120 72
93 119 71
96 123 73
93 120 71
97 124 74
95 122 72
95 123 74
93 120 71
98 125 75
93 120 72
96 124 74
97 124 75
96 123 74
95 122 73
94 121 72
95 123 74
96 123 74
113 136 103
202 212 220
207 216 225
202 212 222
210 218 227
189 200 205
205 215 223
198 208 215
202 211 218
194 205 212
201 212 222
204 214 223
194 204 211
204 214 222
204 213 221
207 217 228
198 208 215
203 212 220
200 210 219
200 209 217
208 217 225
202 212 221
206 215 223
196 207 214
204 213 221
200 210 218
174 187 184
96 123 74
98 125 75
92 119 72
94 121 73
89 116 68
96 123 74
99 126 76
95 122 73
96 124 75
95 123 74
95 122 73
95 122 73
95 122 73
96 123 74
94 121 73
96 124 75
94 121 72
95 123 73
98 125 74
94 121 72
97 124 75
96 123 74
93 120 72
93 120 72
169 182 178
201 211 218
198 208 217
205 215 225
205 215 224
206 216 225
195 206 214
194 205 212
201 212 221
197 208 216
204 215 225
202 212 220
199 209 219
204 213 222
201 211 219
208 217 228
204 213 222
204 213 221
201 210 218
207 217 227
208 217 228
202 211 222
204 213 221
165 180 176
95 122 73
95 122 73
95 123 73
93 120 72
97 125 76
93 120 71
96 123 73
93 120 71
96 124 74
97 125 75
96 123 74
97 124 74
92 119 71
98 126 75
95 122 73
95 122 73
95 122 74
95 122 73
104 128 88
130 151 128
140 158 137
126 147 123
150 166 154
122 143 118
116 137 108
99 124 82
97 125 74
94 122 73
96 124 75
96 122 73
97 124 74
95 122 73
96 123 73
94 121 73
96 124 74
92 119 72
93 120 71
94 120 72
95 122 74
95 122 73
91 118 70
95 123 74
95 122 73
94 121 72
96 124 74
95 122 73
92 118 70
95 123 73
95 122 72
121 141 115
203 213 223
205 215 223
206 216 224
202 212 220
200 209 217
205 214 222
199 209 214
190 201 209
200 211 220
193 204 209
203 212 220
212 221 231
200 211 220
199 209 218
195 205 212
192 203 212
209 218 226
164 179 176
127 147 125
90 117 70
96 124 75
97 125 76
93 119 71
95 123 73
94 121 72
129 148 128
203 213 221
204 213 222
199 210 219
203 212 219
203 214 225
203 213 223
197 207 214
209 217 223
206 216 225
201 211 219
208 218 228
188 199 205
205 214 223
205 214 221
198 208 214
203 213 222
205 215 225
205 215 225
206 215 223
209 218 226
202 212 219
205 215 226
203 213 221
203 214 223
202 212 219
203 213 222
171 186 185
95 122 73
95 122 73
97 124 74
96 123 74
94 121 72
92 120 72
103 128 87
143 161 142
171 184 182
202 212 220
196 206 214
208 217 227
194 205 211
190 202 210
200 210 218
198 209 217
199 210 219
201 211 219
200 209 216
200 209 215
204 214 223
208 217 225
212 220 228
203 213 222
192 203 209
199 209 219
199 209 217
139 157 138
93 120 72
92 119 71
97 124 74
95 122 73
94 121 71
97 124 75
95 122 73
94 121 73
95 122 73
95 122 73
96 123 73
93 121 72
94 121 72
98 125 75
96 123 74
96 123 75
95 123 74
98 125 75
94 122 73
97 124 74
95 122 73
94 121 72
93 120 71
97 125 75
98 125 75
93 121 72
95 122 73
146 163 151
201 211 218
205 215 225
202 212 222
199 209 216
199 209 220
203 212 219
198 208 215
203 213 222
202 211 218
196 207 216
192 202 207
158 173 167
155 170 160
111 134 101
98 125 75
98 125 75
93 119 71
95 122 73
96 123 74
96 123 74
90 116 69
92 119 70
96 124 75
99 127 76
93 120 72
94 122 73
95 122 73
94 121 73
202 212 220
196 206 213
196 207 215
203 214 223
200 210 216
196 206 216
193 204 212
204 214 223
199 208 215
197 208 216
209 218 228
201 211 220
202 212 222
205 215 224
196 207 213
206 216 225
199 209 218
200 211 219
198 208 216
202 212 222
200 210 219
204 214 224
204 215 224
202 212 220
200 210 218
208 217 228
198 209 217
197 207 214
169 183 178
93 120 71
93 120 71
94 121 73
94 121 72
93 120 72
93 120 72
94 121 73
96 124 74
97 124 75
95 123 74
97 124 74
95 122 73
92 119 71
94 121 73
92 118 70
94 121 73
93 120 71
95 122 74
94 121 73
93 120 72
96 124 75
95 122 73
93 120 72
95 123 73
94 121 72
94 121 72
94 121 72
130 149 129
203 213 219
198 208 216
200 211 219
207 217 227
210 220 232
200 210 216
204 214 225
206 216 224
200 211 219
189 201 208
200 210 219
203 213 221
204 214 224
207 217 228
199 209 217
208 217 225
208 217 226
201 211 219
205 214 222
206 215 224
208 218 231
196 207 214
196 206 215
198 208 214
201 212 221
195 205 211
197 208 216
156 171 163
120 142 113
133 152 133
149 165 154
157 172 163
167 181 177
180 192 191
185 197 201
196 207 213
199 209 217
195 205 212
194 204 211
210 219 228
202 213 222
195 206 214
203 213 222
204 214 224
203 213 223
202 212 220
214 222 230
198 209 217
199 210 218
202 211 218
199 209 216
199 210 218
199 210 218
201 211 220
196 207 214
100 126 81
95 122 74
95 122 73
94 121 72
94 121 73
95 122 73
95 122 73
94 121 72
98 125 76
93 121 72
93 120 72
99 126 76
95 122 73
94 122 74
93 121 73
90 117 70
96 123 74
96 124 74
94 121 72
97 124 75
98 125 74
96 123 74
99 126 76
95 122 74
96 124 74
97 124 74
155 171 160
200 209 216
208 217 227
204 214 223
200 211 221
204 214 222
205 215 227
202 212 220
200 210 219
198 210 219
200 211 221
198 209 217
197 209 218
198 209 217
207 216 225
202 211 217
205 215 225
203 213 222
201 211 218
209 218 228
200 209 217
198 208 218
196 207 216
197 207 215
204 214 224
205 215 225
114 137 107
94 121 73
99 126 75
96 124 74
97 124 75
96 124 75
91 118 71
96 124 75
96 123 73
95 122 73
97 124 74
97 124 74
92 119 71
92 120 71
94 122 73
96 123 74
94 121 73
95 122 73
97 125 75
89 116 69
93 120 72
95 123 73
94 122 73
97 124 75
146 163 150
202 212 222
198 208 216
200 210 218
201 211 220
206 215 224
199 209 218
202 212 222
193 205 214
201 211 218
202 212 219
206 215 224
200 210 217
201 211 217
199 209 218
204 213 220
201 212 221
201 211 220
198 208 217
195 206 215
194 204 210
200 210 217
210 218 226
192 203 208
117 139 106
94 122 73
94 121 73
94 121 73
92 119 71
98 125 75
96 123 74
94 121 73
97 124 75
94 121 72
96 124 75
106 129 93
128 149 129
140 158 138
156 172 160
158 173 166
182 195 196
186 198 202
195 205 213
201 211 218
201 211 219
196 206 212
112 135 100
95 122 73
95 122 73
96 123 73
98 126 75
95 122 73
92 119 71
96 123 74
93 120 71
90 117 69
94 121 73
92 118 71
95 122 74
91 118 71
94 121 72
95 122 73
96 123 73
95 122 73
97 124 74
91 118 70
96 123 74
91 118 70
95 122 73
95 123 74
95 123 73
97 125 75
94 121 73
91 118 70
105 129 93
203 213 219
198 208 215
193 203 210
203 213 220
206 215 225
205 215 224
198 208 216
204 214 222
207 216 225
188 199 206
200 210 219
197 208 218
198 209 218
206 216 226
204 214 222
207 216 225
203 213 223
198 209 217
206 215 224
182 194 198
142 160 143
107 131 94
95 122 73
95 122 73
94 121 72
122 142 116
207 216 225
205 214 223
200 210 218
199 210 218
205 215 225
197 207 214
201 212 222
201 211 218
195 206 216
209 219 229
198 209 216
194 204 211
199 209 217
203 214 226
204 214 222
205 214 222
207 216 225
191 202 210
199 209 219
207 216 227
201 211 220
202 212 220
199 209 218
203 212 219
201 212 222
206 215 225
164 179 175
96 123 73
96 123 73
92 119 70
97 124 75
97 124 74
92 119 71
97 124 75
94 121 73
93 121 72
106 130 91
128 147 124
164 178 177
200 210 218
187 200 206
212 221 230
204 213 221
201 211 220
205 215 224
206 215 224
201 211 220
190 202 210
202 212 222
204 214 222
205 214 223
204 213 220
202 212 220
196 207 215
140 158 139
95 121 72
91 119 71
97 124 75
96 123 74
97 124 75
91 118 69
93 120 71
93 120 72
93 120 72
97 124 74
97 124 74
97 124 75
93 120 72
95 123 74
95 122 73
91 118 70
93 120 72
92 120 72
93 120 72
92 119 71
93 120 71
93 120 72
96 124 74
93 120 72
94 121 72
96 123 74
94 122 73
160 175 166
202 212 220
202 212 219
196 206 215
201 211 219
193 204 213
191 202 210
198 208 213
199 208 213
191 202 209
202 212 221
203 212 220
203 212 221
205 215 224
201 211 221
189 200 206
176 189 186
148 164 148
117 139 108
95 123 74
93 120 73
94 122 73
92 119 72
95 122 73
97 125 75
97 124 74
94 121 73
95 123 74
121 142 116
204 213 220
204 213 224
200 210 218
195 205 211
209 218 227
201 210 217
200 210 218
206 215 224
201 211 220
205 215 223
200 209 217
196 206 213
203 213 219
193 203 211
202 212 220
201 211 218
203 213 220
203 213 223
205 216 227
204 213 223
198 209 216
203 213 221
194 205 212
197 208 216
200 210 219
195 207 215
206 216 226
200 210 219
130 150 129
94 121 72
98 125 75
96 123 74
92 119 72
93 120 72
95 123 75
92 119 70
94 121 72
96 123 73
96 123 73
96 123 73
95 122 73
94 121 72
92 119 71
93 120 72
93 120 72
96 124 75
95 122 73
95 123 75
94 121 73
96 124 75
96 123 74
93 120 72
97 124 75
97 125 75
95 122 73
93 120 72
166 180 173
196 207 214
200 211 221
199 211 221
202 212 221
201 212 221
203 213 220
208 216 225
203 212 221
203 213 223
198 209 218
207 216 226
201 211 219
201 211 220
201 211 221
209 219 229
201 210 217
198 209 220
203 213 221
201 211 219
203 213 222
203 213 223
203 213 223
193 204 210
204 212 219
206 216 226
197 208 219
203 214 223
126 147 122
92 119 71
95 122 73
94 120 72
93 120 72
93 120 72
95 123 74
95 122 73
93 119 71
95 121 77
107 131 96
120 142 113
140 158 145
168 182 175
164 179 171
173 186 181
181 194 196
192 203 208
198 209 216
198 208 215
195 206 214
199 210 219
202 212 219
199 210 221
197 207 216
210 219 228
204 213 222
154 169 159
94 122 73
96 123 74
94 121 72
95 122 73
94 121 73
95 123 74
95 123 73
93 120 72
95 122 73
96 124 75
94 121 73
92 119 71
95 122 74
96 123 74
93 120 71
95 122 74
98 126 76
95 122 73
94 122 73
92 119 71
90 117 69
95 122 73
93 121 73
95 122 73
94 122 73
108 132 95
197 207 214
200 211 222
200 210 220
199 209 218
206 215 226
206 215 225
201 211 219
202 212 220
200 210 218
202 212 223
199 209 217
198 209 219
199 208 215
200 210 217
201 211 221
209 218 227
199 210 220
196 207 215
196 207 214
205 214 222
206 216 225
199 209 218
203 213 223
202 212 221
202 212 222
164 178 173
97 125 75
92 119 71
95 122 73
93 120 72
97 125 76
95 123 73
95 122 73
91 118 71
91 118 70
96 124 75
95 122 73
94 122 74
96 123 74
94 121 71
93 120 73
93 120 72
93 120 71
94 121 73
92 119 71
93 121 72
96 123 74
97 124 75
94 122 73
101 127 84
189 201 207
186 198 203
194 205 214
203 212 219
202 212 221
202 211 220
203 213 223
199 210 220
206 215 224
205 215 226
200 211 221
194 204 211
198 208 217
201 212 221
200 210 218
205 214 221
200 210 219
201 211 218
202 212 220
204 214 223
196 206 215
209 218 227
204 214 224
137 155 137
93 120 71
95 121 77
122 143 117
130 149 128
132 151 131
143 161 146
169 183 181
165 178 171
184 196 198
191 202 208
193 204 209
196 206 214
206 216 226
199 209 216
203 213 222
198 209 215
205 213 220
197 208 216
203 213 220
199 209 218
199 210 219
134 153 135
96 123 74
95 122 74
94 121 72
98 125 76
96 123 74
96 123 74
94 121 72
96 123 73
93 120 72
95 122 73
94 122 74
95 122 73
96 123 74
93 121 72
96 124 74
93 120 71
92 119 71
95 122 73
94 121 72
134 153 130
91 117 70
94 122 74
98 125 75
96 124 75
93 121 73
94 121 72
96 123 73
95 123 74
96 124 75
197 208 215
203 213 222
199 209 217
193 203 209
206 215 223
194 206 215
203 213 223
194 205 213
198 208 214
193 204 212
199 210 220
191 202 210
203 212 220
197 207 215
207 216 225
204 214 223
203 212 219
201 211 220
200 211 218
202 212 221
204 214 224
203 212 220
175 187 184
125 145 120
95 121 75
100 126 81
197 207 215
198 209 218
201 211 218
197 209 219
201 211 220
198 209 218
200 211 221
199 210 219
200 210 218
206 216 225
202 213 222
204 213 221
198 208 215
201 212 222
195 206 214
206 215 224
206 215 223
201 212 220
198 209 216
206 215 224
201 212 221
203 213 223
203 212 219
207 216 226
202 212 221
202 212 219
180 192 191
93 120 71
94 121 72
92 119 71
95 122 73
97 124 74
92 119 71
95 122 73
94 122 73
94 120 71
90 117 69
94 121 73
94 122 73
92 119 72
137 155 138
167 181 178
193 204 210
201 211 218
195 206 213
203 213 222
199 209 216
196 207 215
204 214 223
204 214 223
201 212 222
205 215 226
199 210 219
209 218 228
140 157 140
99 126 76
97 124 75
91 118 70
94 121 72
96 124 74
95 122 74
95 122 73
92 119 71
98 126 76
95 122 74
92 119 71
93 120 71
94 121 73
94 121 73
98 126 76
95 122 73
99 127 76
96 123 74
92 119 71
94 121 72
93 120 72
95 122 73
93 120 71
93 121 72
96 122 73
99 126 76
99 127 77
182 194 195
202 212 223
200 209 215
199 209 216
198 208 217
203 213 223
191 202 209
205 215 225
201 211 219
202 212 221
207 217 226
199 209 218
195 206 214
207 217 227
201 212 221
207 217 226
202 212 221
208 217 225
196 207 216
191 202 206
171 184 180
144 161 146
108 131 95
96 123 74
97 124 74
92 119 71
94 121 72
95 122 74
138 156 139
206 215 223
204 214 223
201 212 222
200 210 217
209 218 228
203 213 223
201 211 218
195 207 217
199 209 215
205 214 222
204 214 222
200 210 220
198 209 217
198 209 216
208 218 229
207 216 227
204 214 223
198 208 217
204 213 221
204 213 222
195 206 213
207 216 225
204 213 222
204 214 223
202 211 218
204 213 219
195 206 216
193 204 210
104 127 87
92 119 71
90 117 70
93 121 73
94 121 72
94 121 72
95 122 73
90 117 70
92 118 70
93 120 71
93 120 71
92 119 71
98 125 75
95 122 74
95 122 73
96 124 75
94 122 74
95 122 73
92 119 70
94 121 72
91 118 70
97 124 75
97 124 75
93 120 71
96 123 74
93 120 72
96 123 74
101 127 79
194 205 211
200 210 219
204 214 222
205 215 224
195 206 212
198 208 216
207 216 224
207 217 228
199 209 217
199 209 218
196 206 214
199 210 219
202 212 220
208 217 227
206 216 226
195 206 213
200 210 218
203 212 219
202 212 222
198 208 215
198 208 217
201 211 219
195 205 210
204 214 223
209 219 227
199 210 218
206 216 226
183 195 196
99 126 80
96 123 74
94 121 72
96 123 74
91 118 70
95 122 73
93 120 72
97 125 76
92 119 71
92 119 72
95 122 73
93 120 72
94 121 73
93 120 72
93 120 72
98 126 76
96 124 74
93 121 72
93 120 72
103 128 86
106 129 97
113 135 104
136 155 138
137 155 139
143 161 146
165 180 176
174 187 185
144 161 145
124 145 120
115 138 105
106 131 90
93 120 72
91 118 70
93 120 72
93 121 72
93 120 73
94 121 72
97 124 74
95 123 74
95 122 73
98 126 76
97 124 74
96 124 75
95 121 72
96 123 73
95 123 73
99 127 77
95 122 74
96 123 74
95 123 74
94 121 73
95 123 74
98 125 75
159 174 167
202 212 220
200 211 220
203 213 221
203 213 221
211 218 226
199 208 216
200 210 218
208 217 227
198 209 219
202 213 224
198 208 214
201 212 222
195 206 214
192 203 209
200 210 220
202 213 224
201 211 221
198 208 215
206 216 224
199 209 217
203 212 221
200 211 219
197 208 216
200 210 218
195 206 212
105 129 90
92 119 71
94 122 73
95 122 73
95 122 73
96 124 75
97 124 74
93 120 73
95 122 73
98 125 75
92 119 72
96 123 74
92 119 71
96 123 74
95 123 73
95 123 74
95 122 73
95 122 73
95 122 73
93 121 72
96 123 73
96 123 73
90 117 69
94 121 72
173 186 186
205 215 226
208 217 226
199 208 215
203 213 221
194 205 214
203 213 221
199 209 216
198 208 216
208 217 228
199 209 216
202 212 222
204 214 222
200 209 214
194 204 212
178 191 193
189 201 206
182 194 194
170 184 180
168 181 178
166 180 176
147 164 148
136 154 135
167 180 176
194 205 211
202 212 221
198 209 217
201 211 218
209 219 229
211 220 229
203 213 221
199 210 218
195 206 214
191 203 210
198 209 216
204 213 220
198 208 216
192 203 209
198 209 219
204 214 225
200 211 220
194 205 213
198 208 216
200 210 217
202 212 220
147 164 150
94 122 73
97 125 74
95 122 73
95 122 73
97 124 74
92 119 71
96 123 73
97 124 74
97 124 74
96 123 74
97 124 74
96 122 73
93 120 72
92 119 71
90 117 69
94 122 73
95 122 73
95 122 73
94 121 72
115 139 106
203 213 222
177 190 187
126 145 124
93 120 72
97 124 74
99 127 76
95 122 73
91 118 70
93 119 71
96 123 74
179 191 193
204 214 222
198 208 215
194 204 210
202 211 219
198 208 217
203 213 220
204 213 222
193 204 211
201 210 219
203 213 223
206 216 225
205 214 222
200 210 218
203 212 223
195 206 216
206 215 223
197 208 217
202 212 221
196 206 213
207 216 224
200 210 217
199 208 215
194 205 213
201 211 219
163 177 171
186 197 201
204 214 221
208 217 226
201 211 218
201 210 217
202 212 219
196 208 218
206 215 224
203 212 221
206 215 224
202 212 220
190 201 207
204 214 223
194 205 213
194 205 212
205 214 224
195 206 215
203 213 221
201 211 219
202 212 220
208 217 227
200 210 219
203 212 220
204 214 225
200 209 215
199 210 220
165 179 177
95 123 74
95 122 73
95 122 74
96 123 74
92 119 72
94 121 72
97 125 75
94 121 73
97 124 75
97 125 75
90 117 70
94 121 73
93 120 72
91 118 71
94 121 72
99 126 78
122 143 113
160 174 169
193 206 213
205 214 223
199 210 216
204 214 225
205 214 222
210 219 229
200 210 219
191 203 211
200 211 220
118 140 108
92 119 71
93 120 72
98 125 75
94 121 73
91 118 70
96 123 73
97 124 75
95 123 74
94 121 73
94 121 73
96 123 73
95 122 73
91 118 70
96 123 74
94 121 72
94 121 73
93 121 72
98 126 75
97 125 75
93 119 70
99 126 76
96 123 74
96 124 74
95 122 73
95 122 73
95 122 73
96 123 74
189 200 204
196 206 213
197 207 213
195 206 213
199 210 219
202 212 220
195 205 211
199 209 218
200 210 219
199 209 218
199 210 218
192 203 211
199 209 216
209 218 227
201 211 221
206 216 225
201 211 220
203 213 221
207 216 223
199 209 217
199 209 217
196 207 216
204 213 221
181 194 197
166 181 177
144 161 148
126 147 121
91 118 71
167 181 176
204 213 222
198 209 218
200 211 222
192 203 210
204 214 223
205 214 223
192 204 212
200 210 219
201 211 220
202 212 220
205 214 223
197 208 215
196 207 215
198 208 217
197 208 217
206 216 227
193 204 212
202 211 219
198 209 217
202 212 219
197 207 216
203 213 222
205 215 226
205 214 222
197 207 215
198 209 217
205 215 226
168 182 182
95 121 73
95 123 74
92 120 72
95 122 73
93 120 71
94 122 73
95 122 73
93 120 73
95 122 73
92 119 71
95 122 73
92 119 71
97 124 75
97 125 75
97 124 74
93 121 73
97 124 75
93 120 72
95 122 73
94 121 73
93 121 72
92 119 71
95 122 73
95 123 73
92 119 71
94 121 73
96 122 73
129 149 125
197 208 216
210 219 229
196 207 214
204 213 221
199 210 217
191 202 208
200 211 221
200 210 219
200 210 218
198 208 217
202 212 221
192 202 209
195 207 216
199 210 220
195 206 212
196 207 215
188 200 206
197 208 215
205 214 222
195 206 215
201 210 217
199 209 216
208 218 228
198 208 215
207 216 224
202 212 221
206 216 226
156 171 162
89 116 69
94 121 73
93 120 71
97 124 74
96 124 75
96 123 74
92 119 71
93 120 72
95 122 73
94 121 72
96 123 73
94 122 73
92 119 71
97 125 75
92 119 71
98 125 76
97 124 74
94 121 73
94 121 72
93 120 72
91 118 71
92 119 71
93 119 71
97 124 75
91 118 71
96 123 74
156 172 161
198 209 218
193 204 209
199 209 218
204 214 223
204 213 220
197 208 216
187 199 205
187 199 202
181 193 192
171 184 181
178 190 189
156 172 162
165 178 171
151 167 154
146 163 147
145 161 145
120 141 114
128 147 125
129 149 124
108 131 98
107 132 93
102 128 82
95 123 75
96 123 74
93 119 71
115 136 108
196 207 214
191 202 211
203 213 223
198 208 214
201 212 221
206 215 224
199 209 217
204 213 220
196 206 215
203 213 222
205 214 222
198 209 218
204 214 222
210 219 227
204 215 226
205 215 224
194 206 214
203 213 221
203 213 222
203 213 220
195 205 212
202 212 221
202 213 223
200 211 222
200 210 219
146 163 152
91 118 71
95 123 74
94 122 73
94 121 73
95 122 73
93 120 73
99 126 76
91 118 70
97 124 75
94 120 71
97 125 75
93 120 71
93 120 73
93 120 72
90 116 69
96 123 73
95 122 73
94 121 73
94 121 72
96 123 75
94 122 73
103 129 90
104 129 92
130 149 128
185 196 200
194 204 210
179 193 195
175 188 187
161 175 168
163 178 169
152 168 156
156 172 160
150 166 155
132 151 128
119 141 114
122 143 117
112 135 100
108 133 96
94 121 73
91 119 72
96 123 74
94 121 73
96 122 73
96 124 75
96 123 74
94 122 74
120 142 115
198 208 216
200 210 219
197 207 214
206 215 224
203 212 220
198 209 218
203 213 224
200 211 219
201 211 219
208 217 225
200 211 222
200 210 218
200 210 219
198 209 217
201 211 218
196 207 216
210 219 229
198 209 216
198 210 221
203 213 223
198 208 217
178 190 190
89 116 69
95 122 73
94 121 72
97 124 75
94 121 73
95 123 74
93 120 73
95 123 73
98 125 76
93 120 72
94 122 73
93 120 72
96 123 74
95 122 72
94 121 73
95 123 73
96 123 74
95 122 73
92 119 71
107 132 93
188 200 204
192 204 214
197 208 219
195 206 214
183 195 199
138 156 137
95 121 78
94 121 73
93 120 72
91 118 70
95 122 73
170 183 181
198 209 216
205 215 225
204 214 226
199 209 217
194 205 211
200 210 216
200 211 221
200 211 220
206 215 224
196 206 214
207 217 228
200 210 218
194 204 210
209 218 227
200 210 219
197 208 215
204 214 223
206 216 226
202 212 221
206 216 225
207 217 225
195 205 213
199 210 218
202 212 222
203 213 221
97 122 78
123 143 118
169 182 179
191 202 206
202 212 220
195 206 215
201 211 220
211 220 229
192 203 212
204 215 226
196 207 215
193 204 210
195 205 214
197 208 216
197 208 215
199 209 217
202 212 220
198 209 217
202 211 219
205 215 225
206 216 226
196 206 215
199 209 216
195 206 214
196 207 215
197 207 214
172 185 185
94 122 73
95 122 73
91 117 70
93 119 71
91 118 71
93 120 72
97 124 74
95 123 75
91 119 72
94 120 71
94 121 72
94 121 72
95 122 74
93 120 72
95 122 73
94 122 73
92 119 71
93 120 72
99 125 78
128 149 122
157 173 166
189 201 206
203 212 221
193 204 212
207 216 226
200 210 219
199 210 218
112 135 104
92 119 70
95 122 72
96 124 74
94 121 72
95 122 74
96 124 74
97 125 75
94 121 72
96 123 74
91 118 70
91 119 71
96 123 74
94 121 73
91 119 71
93 121 72
96 123 73
94 121 72
96 123 74
94 121 72
94 121 72
92 119 71
99 127 76
94 121 72
96 123 74
95 123 74
95 122 73
92 119 71
200 210 219
210 219 228
203 212 219
195 204 209
204 214 223
193 203 209
196 207 216
198 208 214
202 212 223
206 215 224
203 212 220
205 215 224
198 209 217
207 216 226
199 210 219
198 208 215
199 209 215
208 218 227
199 209 217
196 206 214
204 214 223
195 206 213
204 213 222
201 211 220
207 216 224
197 207 214
194 205 211
200 210 218
156 171 159
162 177 173
188 199 202
204 213 220
198 208 217
197 207 216
202 212 221
200 210 218
208 217 226
198 208 216
197 207 215
199 210 219
199 209 217
205 215 224
203 213 222
202 212 221
203 213 222
198 209 218
202 213 222
200 210 218
202 212 221
209 218 227
198 208 215
199 209 218
207 217 226
202 212 221
204 213 220
202 212 222
154 169 163
95 122 73
92 119 70
93 119 71
95 122 73
96 123 73
96 123 74
94 121 73
95 122 73
92 118 71
94 121 72
95 122 73
94 122 73
94 121 72
93 120 71
92 119 71
96 124 74
90 117 69
94 121 72
93 121 73
93 120 71
95 123 74
93 120 72
94 122 73
96 124 75
92 120 71
96 123 74
94 121 72
157 172 164
201 212 222
202 211 220
201 210 219
203 213 222
210 220 230
199 210 217
198 208 218
193 204 212
197 207 213
204 213 220
204 214 223
206 216 224
195 206 213
198 209 219
200 209 215
197 207 215
198 208 217
197 206 212
201 211 220
194 204 211
206 215 223
196 206 212
198 209 219
203 213 221
199 209 217
206 216 226
199 210 217
102 127 86
93 120 72
91 118 71
95 122 72
90 117 70
94 122 73
95 122 73
93 120 72
97 124 74
95 123 74
94 121 72
91 118 70
95 123 74
94 121 72
92 119 71
95 122 73
96 122 73
91 118 71
92 119 71
93 120 72
99 126 76
92 119 71
99 126 76
96 123 74
97 124 74
93 120 72
98 124 79
189 200 203
201 212 222
197 207 214
209 218 227
201 211 220
192 204 213
203 213 221
201 211 219
200 211 221
199 209 217
197 207 214
201 212 222
203 213 223
206 215 223
203 213 222
205 214 224
199 210 221
204 214 223
198 208 216
207 217 228
192 203 212
192 203 211
195 206 214
199 210 218
195 206 214
187 199 202
142 160 141
126 146 122
117 139 108
132 151 132
139 158 140
140 156 139
138 156 134
142 159 144
136 154 136
147 163 151
156 171 162
157 172 165
150 165 153
146 162 149
154 170 163
156 171 164
164 179 170
157 171 163
163 178 173
165 180 174
175 188 186
168 181 176
153 167 159
157 172 163
166 180 175
166 180 174
149 165 149
154 169 159
154 169 160
150 166 156
166 180 175
155 170 161
160 176 170
171 184 178
168 180 175
170 183 181
165 179 174
172 185 181
173 186 183
177 191 191
174 187 187
171 184 184
184 195 195
186 198 203
195 206 213
188 199 204
200 211 219
199 210 219
205 214 223
190 201 205
110 133 101
91 118 70
93 120 72
91 117 70
95 123 73
95 121 72
95 122 74
95 122 73
92 119 71
92 119 71
93 120 71
92 119 71
96 123 73
99 126 76
93 120 72
94 121 72
95 122 73
93 121 73
90 117 70
96 123 74
97 124 75
95 121 72
101 128 81
190 202 205
194 204 210
197 207 214
204 213 222
193 203 209
205 214 223
196 207 215
204 213 222
199 209 216
200 210 217
200 211 219
204 214 224
210 218 227
193 205 212
199 209 217
211 219 228
194 204 211
200 209 217
207 217 227
198 208 217
196 207 214
189 201 205
113 136 101
95 122 73
93 119 71
95 122 72
91 118 71
95 123 74
94 121 72
96 123 73
93 120 72
96 123 74
93 120 71
99 127 77
92 119 71
93 120 72
96 123 74
93 120 71
95 123 74
92 119 71
93 119 71
94 121 72
177 188 186
202 212 220
200 210 218
199 210 221
195 207 215
198 209 216
202 213 223
184 195 199
155 169 160
126 146 121
95 122 73
91 118 71
147 163 155
206 216 225
199 209 216
194 204 210
197 208 217
200 210 219
194 204 211
201 212 222
205 215 224
202 211 220
201 211 220
201 210 217
204 214 223
196 206 213
202 213 222
205 214 224
196 207 214
201 210 217
197 207 215
200 211 219
198 209 218
204 213 222
198 207 213
190 202 211
202 212 220
198 208 216
117 140 110
93 120 72
97 124 74
97 123 78
129 148 125
164 178 170
189 201 206
198 208 216
206 215 226
204 214 223
203 214 223
197 207 212
205 215 223
195 207 215
207 218 230
199 208 214
204 214 222
204 214 223
189 201 208
208 217 227
199 209 215
204 213 219
203 213 221
201 211 221
206 215 224
196 206 213
172 185 185
92 119 71
95 122 73
94 120 72
89 115 68
91 117 70
94 121 73
95 122 73
92 118 70
96 123 74
92 119 71
94 121 72
95 122 73
92 119 71
96 123 74
95 123 74
93 120 71
92 119 72
96 124 75
94 121 72
93 120 72
90 117 69
94 122 73
124 144 118
149 165 154
181 192 194
212 220 228
191 203 210
95 121 77
91 118 70
97 124 75
92 119 71
95 122 73
91 118 70
94 122 73
98 125 76
92 120 72
96 123 73
94 121 72
93 120 72
94 121 72
94 121 73
96 123 74
94 121 72
97 125 75
95 123 74
94 121 72
92 119 72
97 125 76
93 120 72
92 118 70
94 121 73
97 124 75
94 122 73
93 121 72
106 130 92
203 213 222
197 208 215
199 209 217
203 213 221
206 216 225
201 211 220
206 216 227
192 203 210
198 209 216
195 206 214
208 218 226
202 212 220
201 211 218
195 207 216
199 209 218
197 208 215
197 207 216
203 214 226
198 208 217
205 215 224
200 211 220
198 208 216
197 208 215
201 212 222
201 212 222
199 209 218
197 208 216
203 213 223
105 130 85
95 122 73
94 122 74
94 121 73
126 147 121
153 169 158
162 176 170
187 199 205
195 205 212
198 208 217
196 207 214
204 213 222
198 209 216
204 213 221
196 207 215
208 217 228
197 208 218
200 209 217
201 211 220
202 212 221
198 208 215
203 213 222
205 214 222
198 208 216
190 201 207
203 213 222
197 208 216
203 214 223
115 137 105
92 120 72
93 120 72
96 123 73
93 120 72
96 123 74
96 123 74
95 122 74
94 121 73
95 122 73
94 121 72
90 117 69
91 118 70
95 122 73
96 123 75
95 122 72
93 120 72
95 123 74
93 120 71
93 120 72
96 123 73
97 124 74
97 125 75
98 125 75
92 118 70
94 121 72
90 116 68
92 119 71
192 203 207
201 211 220
200 211 220
193 204 208
201 211 220
207 216 226
196 206 213
201 210 219
201 210 217
198 209 217
197 207 215
197 208 217
207 216 224
203 213 222
193 205 213
196 206 212
208 217 227
202 212 220
204 214 223
197 207 214
201 211 219
209 218 228
200 209 216
205 214 221
205 214 222
198 209 218
198 208 216
164 179 172
95 122 74
95 122 73
92 118 69
95 122 73
97 124 75
94 121 73
94 120 72
94 121 72
92 119 70
96 123 73
96 123 74
95 122 73
94 121 72
97 124 75
94 120 72
91 118 70
92 119 71
94 122 73
96 123 73
94 121 73
95 122 73
95 123 73
94 121 72
93 120 72
98 126 75
96 123 74
144 161 148
198 209 218
193 203 211
203 213 222
202 212 220
200 210 218
202 212 222
194 205 215
202 212 221
197 208 215
202 212 221
202 212 218
201 211 219
205 215 224
201 210 218
197 207 215
206 215 224
202 212 221
200 209 215
204 214 221
195 206 215
198 209 218
200 210 218
194 205 213
205 214 222
200 210 219
190 202 206
95 122 73
99 126 75
97 124 74
93 121 72
96 123 73
95 123 73
93 120 72
94 121 73
96 124 74
92 119 71
92 120 73
93 120 72
96 123 74
92 119 71
90 116 68
92 119 72
92 119 70
94 121 72
95 122 73
96 124 75
96 124 73
93 120 72
93 119 71
97 125 75
91 118 71
187 199 202
200 210 217
208 217 227
200 210 220
205 215 225
195 206 214
194 205 213
208 217 226
211 220 229
191 202 210
204 214 222
208 217 224
206 215 223
200 210 218
196 206 214
203 213 223
206 215 225
200 210 218
204 214 223
204 213 221
201 211 218
195 206 214
197 207 215
196 207 216
145 161 147
95 122 73
91 117 69
95 122 73
96 123 74
96 124 75
93 121 72
92 119 71
92 119 71
93 120 72
94 121 72
94 121 73
95 122 74
92 119 71
92 119 70
92 119 71
97 125 75
95 123 74
97 124 75
94 121 73
95 122 74
95 123 74
93 120 72
157 172 163
193 204 210
198 208 216
203 213 222
200 211 221
201 211 219
202 212 220
198 208 214
201 211 219
195 205 211
206 215 225
198 208 216
196 207 216
201 211 218
203 213 223
191 203 213
194 204 211
198 209 218
196 207 213
202 213 221
202 212 219
202 211 218
121 141 117
96 123 74
96 123 74
97 124 74
93 119 71
93 119 71
93 121 73
92 119 71
93 119 71
96 123 74
91 117 70
98 125 76
96 123 74
95 121 72
93 121 72
93 120 72
94 121 72
97 124 75
94 121 73
94 122 73
165 178 175
195 205 213
207 216 224
198 210 221
199 209 216
202 212 220
200 210 218
194 204 209
194 205 213
203 213 224
194 205 213
178 191 193
131 149 132
142 159 140
196 206 212
194 204 210
204 214 221
190 202 207
206 215 224
200 210 218
197 207 215
201 211 222
202 212 221
204 213 222
199 210 219
205 215 224
192 203 210
199 209 218
204 213 222
207 216 224
202 212 220
195 205 212
205 214 224
204 213 223
196 206 213
198 210 219
194 205 212
209 218 228
200 210 217
125 145 119
93 120 71
94 121 73
94 122 73
95 122 74
95 123 74
108 131 98
141 158 144
167 182 179
196 208 218
201 210 219
193 203 207
199 209 217
198 208 216
200 210 217
199 209 217
197 208 216
201 211 220
196 208 217
192 203 211
196 206 213
200 211 221
200 210 218
203 212 219
193 204 213
203 212 218
168 182 180
94 121 72
94 121 73
94 121 73
95 122 73
96 123 73
92 119 71
95 122 73
95 122 74
92 119 72
94 122 73
95 121 72
95 122 73
92 119 72
90 117 70
95 122 72
92 120 72
94 121 73
94 121 72
95 122 73
94 121 73
91 118 71
89 115 68
97 125 75
95 123 74
95 122 73
107 131 92
149 165 153
137 154 133
103 129 87
94 121 73
93 120 72
94 121 72
94 122 73
93 121 72
94 121 72
95 122 73
96 123 74
96 123 74
93 120 72
98 125 75
93 120 72
93 120 71
96 124 74
95 122 73
94 121 72
95 122 73
93 120 71
92 119 71
95 122 73
97 124 74
93 120 72
94 120 72
94 120 72
90 116 69
131 150 128
200 210 218
202 211 219
195 206 213
201 213 224
204 214 224
202 213 222
191 203 208
201 211 220
208 218 227
193 203 209
201 210 217
201 212 221
208 217 226
203 213 222
196 206 212
195 206 214
198 209 218
208 218 228
200 210 218
199 209 216
202 212 220
200 210 218
203 213 220
208 217 225
199 209 217
204 213 220
205 215 223
180 191 192
97 125 76
94 121 73
94 122 73
96 123 73
96 123 74
93 120 72
95 122 73
94 122 73
116 139 108
140 158 141
162 176 170
179 192 194
197 208 215
210 219 228
199 209 217
200 210 220
203 213 222
197 207 213
197 207 213
196 206 213
206 215 223
198 209 219
200 211 220
205 215 224
197 207 216
201 211 220
201 211 221
182 194 199
91 118 71
92 120 71
96 123 74
95 122 74
96 124 74
92 119 70
95 123 74
92 119 71
94 121 72
96 123 74
96 124 74
94 121 72
93 120 72
96 123 73
95 121 72
94 122 74
94 121 72
95 122 73
95 122 73
96 123 74
94 121 73
97 124 74
95 122 74
95 122 72
95 122 73
94 121 73
95 122 73
109 130 101
199 210 219
201 210 218
202 211 221
203 213 222
198 208 215
202 212 220
201 211 222
199 209 218
205 214 223
202 212 222
201 211 219
203 212 221
200 211 221
198 208 217
193 203 211
206 215 224
203 213 221
201 211 221
205 215 224
201 211 220
201 211 219
193 204 212
199 209 217
201 211 218
206 216 226
200 210 219
203 213 221
126 145 121
99 126 76
95 122 73
95 122 73
94 121 72
94 122 73
92 119 70
96 123 73
94 121 72
96 123 74
97 124 75
95 121 73
98 125 76
93 121 72
96 124 75
91 118 70
91 117 70
93 120 71
91 118 71
92 119 71
94 121 73
90 117 69
96 123 74
95 122 73
95 121 72
96 123 73
94 122 73
185 198 203
196 207 216
205 215 224
206 215 224
190 201 206
204 213 221
196 206 213
201 211 219
201 211 220
191 202 209
197 208 216
196 206 213
205 214 223
203 213 221
202 212 222
206 215 224
206 215 224
205 215 226
196 205 212
200 211 221
196 207 215
205 214 223
195 206 214
196 206 212
205 213 221
203 213 224
132 150 132
96 124 74
95 122 73
93 120 71
92 119 71
96 123 74
92 119 71
95 122 73
95 122 73
93 120 71
89 115 68
90 117 69
97 124 74
96 123 73
95 122 73
93 120 72
96 123 74
93 120 73
92 119 71
96 123 74
94 121 72
94 121 73
97 124 74
94 121 74
98 126 76
145 161 146
205 215 224
198 208 216
197 208 217
193 204 212
209 219 229
202 212 220
198 208 217
196 207 214
199 209 215
205 215 227
194 204 210
197 208 216
202 212 220
205 214 223
201 211 220
196 206 213
196 206 214
201 210 217
205 214 223
199 208 214
198 208 216
188 200 207
201 211 219
185 197 201
101 126 83
93 120 72
96 123 73
95 122 73
94 121 73
93 121 72
93 120 72
93 120 72
93 120 72
93 120 72
91 118 70
94 121 72
92 119 71
95 121 73
93 121 73
93 120 72
92 118 70
90 117 71
93 120 72
94 121 73
95 123 74
98 125 75
122 145 119
205 214 223
203 213 221
196 207 215
200 209 216
201 212 222
200 210 217
196 206 213
201 211 219
195 206 213
193 204 211
202 212 219
205 214 223
198 208 216
203 213 221
205 214 223
206 216 226
199 208 215
199 208 216
198 208 216
197 208 216
207 216 225
147 164 148
93 120 72
97 124 74
93 120 71
96 123 74
96 124 75
91 118 71
97 124 75
95 122 74
93 121 72
94 121 72
92 119 71
93 120 72
95 122 73
93 120 71
91 118 70
95 122 73
93 120 72
90 117 69
93 120 72
146 163 150
197 208 216
205 214 223
201 211 219
200 210 217
192 203 209
201 211 219
205 215 224
192 202 208
204 213 224
197 208 215
199 210 219
192 203 211
198 208 216
191 202 207
154 169 159
191 202 207
201 212 222
198 207 213
191 202 209
205 214 220
205 214 224
203 213 221
206 216 224
198 208 218
201 211 218
192 202 209
206 216 226
199 210 218
199 209 218
204 213 222
202 212 220
202 212 221
195 206 213
209 219 231
194 204 209
203 213 223
199 209 216
196 206 212
202 212 220
131 150 133
96 123 74
94 121 73
92 119 71
90 116 69
98 126 76
93 120 72
94 122 74
96 123 74
96 121 79
144 160 148
187 197 199
203 213 222
206 216 225
198 208 215
205 214 224
203 212 221
198 207 214
207 216 227
201 211 220
197 207 214
194 205 214
200 211 221
206 216 227
198 209 217
201 211 219
181 193 193
96 123 74
94 120 72
94 121 73
97 124 74
97 124 74
95 123 73
95 122 73
94 121 73
95 121 72
97 125 75
95 122 73
96 124 74
95 123 74
93 120 72
92 119 71
92 119 72
95 122 73
89 116 70
94 122 73
94 121 73
93 121 72
95 123 73
97 125 74
95 122 74
90 117 70
95 122 73
103 128 86
194 205 213
203 212 220
177 189 188
152 169 157
118 139 109
91 118 72
94 121 72
93 120 72
95 121 73
92 120 72
94 121 72
95 122 72
97 123 73
96 123 74
94 121 73
96 123 74
97 124 75
93 120 72
97 124 75
98 125 75
93 120 72
95 123 73
95 122 72
97 124 75
94 121 72
92 119 71
91 118 71
132 150 130
195 205 212
196 206 213
201 210 219
207 216 224
192 203 210
202 212 222
203 213 221
208 217 227
205 214 222
197 208 218
196 206 212
198 209 217
196 208 217
194 205 213
193 204 211
202 212 222
208 218 228
206 215 223
207 217 227
206 215 226
200 210 217
204 213 221
190 201 207
185 196 202
199 209 219
198 209 216
204 214 222
160 175 168
92 119 71
95 123 74
95 122 73
96 123 74
94 120 72
93 121 73
95 123 74
95 122 73
95 122 73
96 123 74
92 119 71
94 122 73
98 124 78
120 141 116
139 158 140
171 184 182
181 193 194
195 206 213
202 212 221
200 211 220
201 211 220
201 211 220
199 209 216
194 204 212
206 217 228
196 206 213
199 210 219
164 178 174
93 121 72
89 116 69
93 120 72
94 121 73
95 123 74
91 118 71
94 121 73
96 123 74
92 119 71
94 121 73
92 119 71
91 117 69
92 118 70
95 123 74
96 124 74
95 122 74
93 121 72
94 121 72
92 119 71
94 122 73
93 119 71
93 121 73
95 123 74
96 124 74
91 118 71
95 122 72
94 121 73
160 174 169
206 215 223
196 206 212
206 215 225
204 213 221
202 211 217
193 204 212
200 210 219
202 212 221
197 208 215
197 207 215
201 211 220
209 217 224
189 200 206
203 213 222
199 210 218
194 205 211
204 213 222
195 206 212
198 209 218
198 208 215
200 211 220
201 211 219
196 206 214
203 214 224
199 209 219
202 211 219
193 204 208
95 122 72
92 119 72
94 122 74
92 120 72
98 126 75
95 123 74
92 119 71
95 122 73
95 123 74
96 123 74
93 120 71
97 124 74
95 122 74
90 117 70
94 121 72
93 120 72
97 123 74
94 121 73
96 123 74
94 121 73
94 122 73
94 121 72
96 123 74
93 120 72
92 118 70
96 122 73
143 160 146
196 207 215
206 215 222
203 212 222
200 211 220
202 212 220
201 211 219
204 213 221
197 208 216
201 211 220
200 211 220
204 213 221
200 210 219
196 207 216
205 214 222
199 211 221
196 207 215
194 205 210
200 210 218
199 209 218
197 209 218
205 215 226
189 200 206
192 203 212
202 213 223
195 205 211
185 197 200
96 123 75
94 121 73
96 123 73
97 124 75
91 118 70
93 120 72
94 121 72
89 115 68
95 122 73
95 122 74
94 120 72
95 122 73
94 121 73
94 121 72
90 118 71
96 123 74
94 121 72
95 122 73
96 124 74
93 120 72
92 119 71
93 120 71
98 126 76
95 122 73
111 134 100
200 211 217
201 212 222
194 205 212
201 210 218
198 208 217
197 208 216
204 214 224
206 216 227
195 206 214
208 217 226
198 209 217
195 206 214
195 206 213
195 205 212
200 212 223
199 210 220
200 211 221
201 211 220
198 209 218
187 198 205
197 208 216
201 211 220
202 212 220
200 210 216
111 134 102
92 119 72
95 122 73
94 121 73
92 118 70
95 122 73
92 120 72
95 122 73
95 122 73
86 112 67
93 120 72
92 119 71
92 119 71
95 123 74
90 117 70
95 122 73
94 122 73
92 118 70
96 124 74
96 124 74
90 117 70
96 123 73
107 131 95
194 205 212
197 208 216
196 206 213
198 209 218
195 205 212
198 208 216
196 206 213
195 206 214
198 207 214
195 206 213
202 212 222
201 211 221
197 206 214
196 206 214
205 214 222
201 211 221
195 206 214
204 213 221
200 211 220
201 212 220
198 209 218
154 170 161
96 123 73
93 120 71
97 125 75
94 121 72
91 117 70
94 121 73
91 118 70
95 123 74
96 123 74
96 123 73
98 125 75
96 123 74
93 120 72
94 121 72
92 119 72
96 123 74
93 119 71
95 123 74
96 123 74
123 143 119
200 210 217
203 213 222
199 209 217
199 210 219
196 206 214
197 207 216
185 196 202
201 211 221
207 216 227
202 212 220
202 213 226
200 210 219
203 212 221
198 209 218
196 207 216
104 128 93
94 121 73
129 148 128
173 186 184
194 205 212
197 208 214
201 212 223
204 213 221
193 205 212
196 206 214
201 211 218
199 210 220
193 203 210
201 211 220
203 213 222
196 207 215
201 210 218
199 209 216
199 210 219
201 211 221
200 211 221
201 211 218
201 213 225
201 211 221
207 216 226
149 165 151
93 120 72
94 121 72
96 123 73
93 120 71
96 123 73
90 117 70
94 121 72
91 118 70
93 119 71
92 120 72
92 119 71
113 135 104
164 178 170
193 204 210
199 209 217
193 205 213
195 205 212
199 209 217
203 212 219
203 212 219
191 202 211
199 210 218
197 208 215
204 214 222
200 210 218
181 193 195
93 120 72
92 119 71
93 120 71
93 120 72
93 120 72
94 121 72
91 118 71
91 118 70
96 123 75
92 119 72
92 119 72
95 122 74
92 120 72
95 123 74
92 119 71
93 120 72
91 119 71
91 119 71
89 116 69
94 121 72
96 123 73
95 122 73
94 121 72
93 120 71
94 121 73
92 119 71
107 132 95
201 211 219
202 211 220
201 211 219
205 214 224
196 206 214
190 201 205
153 169 160
127 146 125
99 124 84
94 122 73
95 122 73
98 125 75
91 118 70
92 119 71
95 123 73
94 121 73
93 120 72
95 122 73
93 121 73
93 120 72
94 121 72
92 119 71
94 121 73
95 122 73
96 123 74
94 122 74
92 119 71
157 173 163
197 207 214
199 210 220
201 212 223
197 207 215
199 209 217
207 216 223
200 210 216
197 207 215
198 208 215
202 212 219
193 204 210
201 211 220
193 204 212
209 219 230
200 210 218
203 213 222
190 201 207
196 206 214
197 207 214
202 212 222
192 202 208
202 211 220
202 211 219
201 212 219
201 211 221
203 212 218
200 210 217
143 160 147
93 121 72
95 122 73
96 123 74
94 121 73
89 115 68
94 121 72
92 119 71
97 124 74
91 118 70
92 119 71
91 118 71
93 120 72
92 120 71
92 119 71
94 121 72
96 123 74
93 121 72
100 126 83
124 144 120
159 173 165
167 181 177
184 196 200
205 214 223
198 209 220
197 208 217
200 211 220
190 201 209
142 160 144
92 119 71
94 121 73
96 122 73
94 122 73
96 123 74
94 121 72
94 121 73
86 112 67
94 121 73
96 123 73
94 121 73
95 122 72
96 123 74
92 119 71
92 118 71
92 119 71
92 119 71
93 120 72
92 119 71
92 118 70
95 122 73
97 125 75
94 122 73
92 119 71
97 124 74
98 125 76
94 120 74
191 202 208
204 214 223
199 209 217
204 213 222
196 207 214
201 210 217
197 207 216
202 212 222
206 215 224
196 205 213
201 211 219
205 215 224
197 208 216
203 212 220
201 212 220
204 214 224
204 214 222
200 211 220
210 219 228
194 205 213
195 206 214
204 214 224
205 214 222
202 211 218
197 208 216
198 208 215
198 209 217
152 168 155
94 120 72
92 119 71
94 121 72
95 122 74
96 123 74
97 125 76
95 123 74
95 122 73
94 121 72
91 118 70
94 122 73
95 122 73
92 118 70
94 122 73
93 119 71
94 122 73
94 121 73
90 117 70
94 121 73
93 120 72
93 120 71
92 120 72
94 121 72
95 122 73
98 125 75
94 121 72
186 195 197
205 214 222
187 198 203
201 212 222
200 211 220
199 209 217
204 214 224
202 213 221
200 210 216
203 213 221
205 214 222
196 207 216
203 213 223
205 214 223
202 211 220
200 210 218
199 211 222
199 209 216
202 212 222
195 206 214
197 209 217
203 213 223
196 207 216
196 206 214
195 206 216
207 217 225
126 145 125
95 122 73
96 123 74
94 121 72
94 121 73
94 121 73
93 120 72
96 123 74
95 122 73
93 120 72
94 120 72
94 121 72
93 120 71
94 121 73
97 124 74
94 121 72
92 119 71
97 124 74
98 126 76
93 120 71
92 118 70
92 119 71
93 120 72
96 123 74
93 120 72
165 179 176
198 208 214
194 204 210
198 209 216
195 205 212
200 209 217
199 209 219
198 208 215
209 218 228
197 208 218
199 208 215
193 204 210
201 210 218
203 213 223
203 212 218
196 207 215
201 211 218
197 207 214
194 205 213
204 213 220
196 206 213
193 203 209
197 207 216
203 212 221
151 167 156
96 123 74
93 120 72
95 122 73
94 122 73
94 121 72
93 120 71
94 121 73
92 119 71
94 120 72
94 121 73
94 121 72
93 120 72
94 121 73
92 118 70
98 126 76
91 118 71
92 118 71
96 123 74
92 119 71
93 120 73
95 122 74
91 118 70
178 190 190
202 211 220
204 214 224
204 213 222
200 210 218
200 210 219
198 208 215
197 207 215
197 207 216
200 210 220
208 218 229
204 214 221
205 215 225
195 206 213
200 210 219
195 205 212
201 211 219
192 203 210
200 210 221
193 204 211
196 206 215
186 198 201
98 124 79
92 119 71
96 123 74
92 119 71
94 121 73
96 124 74
94 121 72
93 120 72
94 121 73
92 119 71
93 120 73
96 124 74
91 118 71
95 122 73
98 126 75
96 123 74
97 125 75
92 119 72
94 121 73
123 144 117
182 194 201
197 208 217
199 209 218
197 207 216
199 210 217
199 209 218
205 215 222
197 208 216
199 209 218
201 211 220
202 212 221
200 210 219
206 216 226
204 214 222
202 211 219
197 206 213
116 138 107
95 122 72
95 122 72
91 117 70
103 127 86
152 169 157
185 197 200
199 209 219
198 208 215
196 206 212
197 208 217
192 202 209
198 209 216
197 207 216
197 208 216
205 214 223
195 205 214
196 207 216
201 211 220
205 214 223
195 206 213
200 209 215
196 207 215
200 210 218
196 207 215
152 167 158
94 122 73
94 121 73
95 122 73
90 117 70
96 123 74
93 120 72
95 122 73
95 122 74
93 121 73
93 120 72
94 121 72
90 117 70
89 116 69
94 120 74
122 143 117
153 169 159
201 210 215
198 209 217
200 210 219
207 217 226
205 215 223
207 216 224
200 211 219
203 212 220
196 207 215
180 192 193
91 119 71
95 122 72
98 125 75
96 123 74
93 120 72
90 118 71
91 117 70
92 119 71
93 120 72
94 121 73
97 124 74
95 123 74
94 122 73
96 123 74
95 122 73
91 117 70
94 120 72
97 125 76
94 121 72
95 122 73
91 118 71
91 118 71
93 120 71
93 120 72
92 119 71
89 116 69
125 145 120
202 213 223
200 211 220
197 206 211
198 208 216
205 214 221
202 212 222
206 216 226
205 215 225
191 202 207
173 186 183
139 156 140
104 128 90
95 122 73
95 123 74
92 119 71
94 121 73
95 123 73
94 121 72
93 120 72
92 119 72
95 123 74
95 122 73
93 120 72
91 118 71
95 122 74
91 118 71
94 122 73
168 181 177
194 205 211
198 209 217
203 213 225
201 211 220
207 217 225
200 211 220
204 214 221
206 216 226
194 205 212
202 212 220
198 209 218
207 216 225
199 209 217
198 208 215
204 214 223
187 199 206
202 212 222
206 216 226
209 218 229
195 206 214
205 215 225
192 202 207
197 207 213
193 204 209
198 209 216
188 198 203
209 219 230
130 148 127
94 122 73
96 123 74
92 120 72
96 123 74
96 123 74
93 120 72
90 117 69
95 123 74
93 120 72
91 118 71
91 117 70
92 119 71
96 124 74
93 120 71
94 121 72
97 124 75
95 122 74
96 124 74
95 122 73
98 126 76
92 119 71
95 122 73
98 124 78
129 149 129
143 159 143
168 182 177
186 197 200
107 132 93
98 126 76
94 121 73
91 118 71
95 122 73
95 121 72
91 118 71
97 125 75
94 122 73
94 121 73
91 118 70
96 123 73
94 121 72
95 123 74
92 120 72
95 123 74
91 117 69
90 117 69
94 120 72
95 122 73
94 121 72
95 122 72
94 121 73
94 121 72
91 117 70
96 123 74
95 122 73
141 159 144
201 211 218
201 212 222
201 211 218
194 205 211
206 216 226
199 209 219
194 205 214
206 215 223
202 212 220
202 212 222
200 211 222
192 203 210
194 204 211
199 210 218
197 207 214
195 207 216
206 215 223
205 215 222
204 213 221
202 212 219
197 207 216
196 207 216
200 210 216
194 205 214
195 206 214
198 209 219
190 202 208
112 134 104
94 121 73
91 118 70
90 117 70
95 122 73
93 119 71
90 117 70
98 126 76
97 124 75
93 120 72
97 125 75
94 121 73
95 122 73
91 118 70
92 118 70
96 124 74
94 122 73
96 124 75
92 120 71
92 119 71
96 123 74
96 123 74
93 120 72
95 123 74
91 118 70
94 121 73
131 151 129
200 210 218
200 211 220
198 208 216
202 212 222
207 217 226
210 219 227
193 203 209
192 202 209
196 207 215
200 210 219
203 213 224
198 209 217
189 199 205
195 206 215
207 216 223
206 215 225
205 214 223
199 209 217
206 215 224
199 209 218
198 207 213
208 217 225
206 216 224
205 214 223
201 212 222
177 190 190
93 120 72
93 120 71
95 123 73
93 120 72
94 121 73
94 122 73
91 118 71
95 122 73
94 122 73
94 121 73
93 120 71
96 123 74
90 117 69
91 118 71
94 121 73
94 121 74
94 121 72
94 121 73
95 123 74
94 121 72
93 120 72
94 121 72
94 121 72
91 118 70
126 146 121
199 209 217
197 207 215
197 207 217
200 211 219
205 215 225
202 212 222
192 203 211
194 205 212
206 215 223
198 210 220
201 211 218
200 211 222
195 206 215
201 211 220
201 211 221
204 214 225
201 211 219
198 208 216
199 209 217
199 209 217
192 203 208
196 207 216
195 206 214
183 196 199
100 126 78
95 122 73
94 121 72
94 121 71
89 116 69
95 123 73
94 121 73
94 121 72
92 119 71
93 120 72
95 122 73
94 122 73
95 123 73
93 120 72
97 124 74
93 120 72
93 121 73
95 122 73
93 120 71
95 121 73
97 124 75
94 120 72
148 164 151
197 207 214
203 213 222
199 210 218
200 210 219
201 211 219
200 210 218
199 209 216
207 216 225
192 203 211
201 211 220
201 210 217
200 210 218
205 214 223
191 202 208
201 210 217
198 208 215
193 204 209
202 213 221
205 214 223
198 207 214
196 206 213
105 128 90
94 120 71
93 120 72
93 120 72
94 121 72
93 120 72
93 120 72
94 121 72
91 117 69
91 117 70
98 125 75
97 124 75
94 121 73
91 119 71
95 122 73
94 121 72
92 118 71
97 124 74
91 117 69
113 137 99
187 198 200
196 207 215
202 212 220
203 213 221
202 212 223
202 212 221
204 213 220
200 210 217
203 213 223
197 208 217
198 208 216
191 202 207
206 216 226
196 206 212
195 205 211
205 215 227
193 204 211
134 153 135
92 120 72
92 119 71
90 117 69
92 119 71
90 116 69
96 124 74
119 141 112
163 177 172
194 205 211
195 205 210
203 213 222
196 207 217
198 209 218
200 209 216
200 210 220
197 208 216
200 210 219
204 213 222
195 205 216
198 208 217
199 208 215
205 215 227
196 207 214
198 209 218
166 179 175
95 123 73
89 117 70
94 121 72
96 123 74
94 120 72
92 119 71
90 117 70
87 113 67
94 121 72
94 121 72
95 122 73
95 122 74
94 121 73
93 120 72
94 121 72
91 118 70
97 124 77
134 153 132
170 183 182
194 205 212
200 210 220
193 205 215
203 214 224
207 217 227
202 213 222
183 196 200
93 120 72
93 120 71
93 121 72
94 121 72
93 120 71
95 123 74
92 118 70
92 119 72
87 113 67
95 122 72
94 121 73
96 123 74
92 119 70
92 118 70
94 121 73
92 119 70
93 121 73
92 119 71
95 122 73
92 119 71
95 122 73
95 123 74
95 122 73
96 123 73
90 117 69
94 121 73
118 139 115
193 205 212
202 212 221
188 200 205
204 213 221
198 208 217
193 204 209
194 204 210
194 206 214
199 209 218
198 209 218
199 210 218
196 207 215
184 195 199
156 172 162
134 154 133
96 124 75
94 122 73
96 123 73
89 115 68
96 124 75
95 123 74
94 121 71
95 122 73
91 117 69
95 122 73
93 121 73
94 121 72
175 188 189
197 208 217
200 210 216
200 210 218
205 215 224
207 217 227
200 211 221
205 214 225
201 211 218
202 213 224
199 210 220
203 213 222
194 205 214
198 209 217
197 208 218
203 213 220
202 211 218
204 213 222
206 215 225
194 205 212
205 215 223
202 212 221
203 213 224
203 212 220
192 204 211
193 203 211
202 211 219
199 210 218
96 122 76
93 120 72
91 118 70
91 119 72
95 121 72
94 121 73
92 119 71
95 122 72
94 121 73
92 119 71
95 122 73
91 119 72
96 124 75
87 114 68
92 119 71
92 119 71
93 119 72
95 122 73
99 127 76
93 120 72
95 122 74
94 121 72
95 122 73
95 122 73
94 121 73
97 124 74
95 122 73
129 147 126
201 210 219
186 197 200
178 190 189
143 160 147
123 143 117
104 127 90
93 120 72
91 117 70
94 121 73
93 120 72
94 121 72
95 122 73
94 120 72
96 123 74
91 118 71
93 120 72
98 125 75
96 124 74
94 121 72
94 121 72
93 121 72
93 120 72
96 123 74
96 123 74
93 121 73
93 120 72
95 122 73
166 179 173
205 214 222
207 216 225
200 210 219
206 215 222
202 212 220
201 211 219
197 207 215
201 211 218
202 212 219
201 210 217
197 207 215
188 199 205
203 212 221
204 214 222
197 206 213
214 222 233
200 210 219
206 215 221
201 211 218
198 209 216
187 198 203
197 207 215
198 208 215
191 201 207
198 208 217
204 213 223
164 178 174
95 122 74
95 123 74
91 117 70
92 119 72
93 120 72
94 121 73
92 119 70
93 120 72
92 119 71
97 125 75
96 123 74
93 119 71
96 124 74
92 119 72
95 122 72
95 122 73
89 116 69
95 121 72
94 121 72
92 120 72
93 120 73
88 114 67
97 124 74
93 120 72
92 119 71
97 125 75
159 173 169
201 212 223
203 214 223
205 214 223
200 210 218
200 210 218
207 216 226
202 211 217
195 206 213
197 207 214
200 210 220
197 208 217
206 215 223
198 209 217
192 202 210
203 213 224
207 216 226
195 207 216
202 211 222
194 206 214
192 203 209
191 202 208
200 211 219
197 208 216
196 209 220
195 205 212
137 156 133
96 123 74
93 120 72
93 120 72
94 120 72
92 119 71
92 119 71
95 122 73
92 119 71
91 118 71
95 122 73
93 120 72
95 122 72
95 122 73
95 123 74
94 121 73
96 123 74
92 119 71
94 121 73
91 118 71
92 119 71
95 122 72
92 118 70
90 116 69
96 123 74
181 194 196
203 213 223
202 212 222
206 216 227
194 206 214
195 205 212
203 212 221
200 210 218
201 211 219
189 200 206
198 208 217
196 207 214
198 208 216
202 212 220
202 211 220
200 210 219
209 218 228
207 216 225
204 214 223
194 205 215
195 205 214
201 212 223
202 212 223
199 209 217
109 131 98
90 117 70
98 125 75
93 120 71
95 122 73
93 120 71
93 120 72
89 115 68
93 121 73
93 120 71
96 123 73
97 124 74
95 123 74
89 116 69
95 122 74
92 118 70
91 118 70
97 125 76
93 120 72
94 121 72
96 123 74
92 119 71
112 134 105
190 201 208
201 212 221
200 210 219
198 208 216
198 209 216
200 210 220
188 199 207
195 205 212
201 211 218
203 213 220
204 214 226
203 214 224
200 210 218
199 209 215
206 216 226
204 214 223
202 211 218
203 214 224
202 212 220
201 211 220
202 212 221
123 144 115
92 119 71
93 120 72
95 122 73
91 118 70
91 118 71
92 119 71
94 120 72
94 122 73
92 119 71
96 123 73
98 125 75
91 119 71
89 116 68
96 123 73
95 122 73
94 121 73
90 117 70
94 122 74
96 123 76
163 177 173
208 217 225
198 208 213
194 205 214
204 214 224
201 211 220
199 209 218
200 210 216
200 210 217
203 214 222
197 208 216
200 210 219
197 207 213
199 210 220
191 202 207
200 210 218
204 213 221
201 211 222
156 171 161
95 122 73
95 122 73
94 121 72
95 122 73
90 116 68
91 118 70
96 123 73
95 122 73
99 125 80
143 159 144
179 191 192
194 206 214
197 207 215
197 207 213
203 213 221
194 204 211
197 208 216
207 217 227
199 209 218
197 207 216
201 210 218
197 208 216
193 204 211
196 206 213
171 184 182
90 117 70
95 122 73
97 124 74
91 118 71
92 119 71
94 121 72
92 119 71
93 120 72
90 117 69
95 122 73
96 123 74
95 122 74
94 121 73
95 122 73
92 118 71
91 118 71
93 120 72
94 121 73
92 119 71
100 125 82
119 140 115
176 189 190
194 204 209
202 212 221
196 207 216
171 185 184
94 122 73
93 119 71
96 123 74
96 124 74
93 120 71
93 120 72
96 123 74
97 125 75
93 120 72
89 115 68
93 120 72
93 120 71
95 122 73
90 116 69
92 119 71
94 121 73
94 121 72
93 120 72
91 118 71
91 119 72
96 123 74
90 117 70
94 121 72
91 118 70
95 122 73
94 121 72
137 154 137
206 215 224
205 214 221
199 209 219
199 209 217
197 207 214
200 210 216
193 204 212
198 208 215
201 211 218
193 204 212
198 209 218
197 208 216
199 210 219
201 212 222
198 208 215
196 207 213
174 188 188
151 167 156
107 131 95
93 119 71
93 120 72
92 120 72
94 121 72
91 118 70
96 124 74
92 120 72
94 121 73
199 209 216
201 211 220
188 199 206
200 209 215
206 216 225
201 212 221
193 204 211
202 212 221
200 210 217
200 211 220
199 210 219
191 201 207
198 208 214
195 207 215
187 198 204
198 208 217
195 206 213
205 215 224
199 208 215
204 214 223
201 211 221
199 209 216
196 206 214
199 209 217
199 209 218
202 213 222
202 211 219
177 189 191
95 123 74
90 117 69
92 119 71
94 120 72
96 123 74
93 120 72
91 118 70
94 120 72
90 117 70
98 124 74
92 119 71
96 124 75
94 122 73
93 120 71
92 119 71
94 121 72
92 119 71
94 121 72
94 121 72
92 119 71
94 121 72
92 119 71
94 121 72
96 123 74
96 123 74
93 120 72
90 116 69
167 181 173
192 203 210
204 213 222
200 210 217
200 211 220
207 217 226
202 212 220
191 202 206
171 184 179
157 171 163
141 158 145
120 139 113
106 131 88
94 121 73
94 121 73
96 124 74
90 118 70
95 123 73
92 119 71
95 122 73
94 121 72
95 123 74
95 122 73
93 121 72
95 122 73
90 116 68
93 120 73
98 124 79
193 203 209
202 211 220
195 206 214
195 206 213
206 215 225
207 217 228
207 216 225
194 204 211
199 210 219
202 212 220
207 216 224
203 213 222
195 206 215
197 207 213
194 205 211
207 217 229
202 212 221
193 204 210
199 210 220
197 208 216
202 212 220
198 209 218
209 218 228
196 206 215
197 207 216
194 205 214
204 214 223
131 150 130
97 124 74
89 115 68
95 122 72
92 119 71
90 117 70
91 118 70
95 122 73
93 120 71
91 119 72
93 120 72
90 117 70
95 122 74
95 122 73
94 121 72
93 120 72
92 119 71
96 122 73
94 121 73
97 124 74
91 119 71
93 120 71
94 121 72
93 120 72
95 123 74
95 122 73
125 144 121
198 209 217
200 210 219
200 210 216
200 209 217
202 211 218
196 207 213
198 208 215
194 204 210
199 209 218
201 211 220
198 208 215
199 209 216
203 213 223
201 212 223
197 208 217
194 205 213
201 211 218
196 207 216
206 215 223
200 211 219
198 208 217
203 212 220
190 201 208
204 214 225
204 214 223
176 188 187
95 122 73
99 126 75
95 123 73
96 123 73
95 122 73
92 119 71
94 120 72
96 122 73
97 125 75
94 121 72
92 119 71
93 120 72
98 125 75
93 120 72
97 125 76
95 122 73
95 122 73
94 121 73
94 121 72
95 122 73
95 122 73
93 119 71
94 121 73
97 125 75
153 168 156
200 210 219
200 211 221
193 204 211
196 206 215
201 211 222
197 207 215
201 210 219
197 208 216
202 212 222
193 204 210
202 212 220
201 211 221
192 203 208
196 206 213
196 207 216
183 195 202
187 198 204
197 208 217
204 214 222
204 213 222
195 205 212
192 204 211
197 207 216
136 154 136
94 120 72
95 123 73
94 122 74
94 121 72
94 121 73
94 121 72
94 121 73
93 120 72
96 123 74
91 117 70
92 119 71
92 119 71
94 121 73
93 120 72
93 120 71
94 121 73
91 118 71
94 122 73
93 120 72
89 116 69
92 119 71
107 130 95
186 198 201
202 213 223
201 211 219
194 205 213
202 212 221
195 206 215
201 212 222
204 214 223
194 205 213
202 212 222
200 210 217
205 215 225
195 206 215
202 212 220
200 210 218
198 209 216
198 209 217
197 208 216
199 210 218
194 205 212
195 206 214
144 161 151
92 119 71
97 124 74
92 118 70
89 116 69
93 120 71
92 120 72
94 122 73
93 120 72
96 123 74
95 122 73
94 122 73
99 126 75
94 122 74
91 118 70
96 123 74
95 122 73
92 119 71
95 123 74
92 119 74
168 182 178
206 216 224
194 205 213
196 206 212
167 180 177
153 170 161
131 149 128
104 126 94
94 120 74
198 207 215
197 208 216
197 207 215
195 205 210
200 210 219
202 211 220
200 210 220
195 206 212
197 207 215
200 211 222
171 185 186
93 120 72
92 119 71
93 120 72
90 116 70
90 117 69
95 122 73
93 120 72
94 121 73
95 122 73
93 120 72
97 124 74
117 139 109
149 165 153
189 200 205
198 208 215
203 213 221
200 211 221
197 207 215
195 206 214
203 212 221
201 212 222
197 207 216
193 204 211
195 206 215
181 192 193
91 117 69
92 119 71
97 124 74
93 120 72
92 120 72
96 123 74
96 124 74
89 115 69
93 120 72
93 121 72
94 121 72
92 120 72
95 122 73
96 123 74
92 119 71
97 125 75
93 119 71
95 122 73
93 120 72
94 122 73
92 119 71
97 125 75
94 120 75
127 146 123
169 183 178
186 197 200
92 119 71
94 120 72
91 118 70
91 117 70
94 121 73
94 121 73
96 123 74
95 122 73
96 123 73
91 118 71
90 116 69
92 119 71
97 125 74
96 123 74
93 120 72
96 124 74
89 116 68
96 124 75
91 118 70
95 122 74
93 119 71
91 118 70
90 116 68
95 122 73
95 122 73
96 123 74
144 161 145
198 208 217
202 212 222
200 210 217
201 211 219
189 200 207
193 204 211
198 208 216
202 211 220
196 207 215
200 210 219
196 206 213
198 209 218
198 208 216
202 211 219
202 211 219
205 214 224
200 209 218
190 201 206
200 211 218
190 201 208
155 170 161
138 157 140
109 133 97
94 122 73
91 117 70
93 121 72
95 122 76
199 210 219
202 212 222
198 208 215
195 206 214
201 211 218
200 211 221
199 210 221
200 210 218
197 207 214
199 209 216
200 210 219
206 216 225
196 207 216
201 210 218
197 207 215
199 209 218
204 214 222
202 212 221
201 211 220
207 216 225
197 207 214
195 205 212
193 203 210
198 208 216
212 221 231
196 207 215
197 208 216
172 185 184
91 118 70
93 120 71
92 119 71
97 124 75
95 122 73
92 119 71
95 122 74
91 119 72
91 118 71
93 120 72
98 125 75
94 121 73
96 124 75
92 119 70
94 120 72
93 121 73
96 123 74
90 117 70
95 122 73
92 119 71
90 117 69
93 121 73
93 120 72
93 120 72
94 122 73
94 121 72
95 122 73
188 199 202
199 209 218
200 211 221
200 209 217
199 209 217
197 208 215
196 206 214
199 209 218
198 208 215
185 196 201
195 206 213
190 201 210
196 207 216
192 204 210
166 180 178
162 177 172
139 157 141
107 130 96
91 117 70
96 124 75
93 119 71
93 120 72
94 121 72
96 123 73
91 118 70
94 121 73
92 120 72
134 151 135
198 208 216
199 209 216
202 212 220
201 212 224
198 208 216
208 217 226
197 208 216
196 206 213
194 205 211
205 214 224
204 214 223
197 207 217
198 208 215
196 207 214
205 215 224
196 207 216
183 195 200
196 205 212
194 205 213
189 200 206
204 214 223
194 205 213
203 213 222
208 217 227
197 208 219
203 213 225
185 196 198
94 120 72
92 119 71
96 123 74
95 122 73
93 120 72
94 122 73
95 122 72
93 120 72
92 118 71
89 115 68
93 120 72
93 120 72
95 122 73
93 120 72
93 120 72
95 123 74
95 122 73
96 124 74
93 121 72
95 123 74
90 117 70
93 120 71
94 121 72
96 123 74
94 121 72
93 120 72
179 191 189
199 209 216
202 212 222
201 211 219
199 209 217
198 209 218
211 219 228
204 213 221
199 209 218
205 215 225
206 215 222
194 204 212
193 204 211
200 210 218
199 210 219
197 207 215
196 207 217
202 211 219
199 210 219
210 219 229
200 210 219
198 209 219
197 208 217
199 208 216
197 207 216
190 201 207
106 130 94
92 119 71
95 122 73
91 117 70
91 119 71
95 122 73
95 122 73
91 118 70
95 121 72
95 122 73
95 122 73
94 121 72
95 122 73
95 122 73
91 118 71
94 121 72
91 118 70
92 119 70
95 122 73
92 118 71
90 117 70
88 115 68
95 123 73
92 119 71
110 132 97
199 209 216
206 216 227
198 208 216
197 208 216
199 209 218
199 209 217
201 211 221
196 206 214
205 215 224
206 215 222
196 205 212
193 203 209
189 200 206
192 204 213
195 205 213
197 207 215
205 215 225
204 213 223
205 215 223
198 209 217
197 208 216
205 214 223
195 206 214
180 192 193
92 119 71
92 119 72
93 120 72
96 123 74
93 120 72
90 117 70
95 122 73
89 116 70
97 124 75
94 121 72
91 118 70
90 117 70
94 121 73
94 121 73
95 122 74
91 118 71
95 122 74
92 120 72
96 123 74
93 120 71
92 120 71
95 122 73
163 178 175
198 208 217
189 200 206
201 211 220
195 206 213
190 201 207
197 208 216
196 207 214
194 205 213
200 210 219
195 205 211
191 203 211
191 202 208
199 209 216
198 208 217
196 207 215
197 208 218
199 209 216
201 210 216
192 203 210
196 206 214
174 187 186
96 124 74
94 121 72
94 121 72
93 120 73
91 117 70
92 118 70
95 122 74
94 121 73
94 121 73
93 120 72
90 117 70
93 120 72
90 117 69
91 118 70
97 124 75
95 122 73
95 122 72
95 121 78
113 135 105
132 152 129
152 168 158
127 147 125
103 128 86
95 122 73
93 121 73
92 119 71
93 120 72
97 124 74
92 119 72
198 209 217
193 205 213
195 206 212
187 199 205
201 211 219
198 208 216
199 209 217
202 213 224
198 209 218
202 211 220
193 203 208
95 122 73
92 120 71
91 118 71
93 120 71
96 123 74
92 119 71
95 122 74
94 121 72
97 125 76
93 120 72
91 118 70
95 122 73
94 121 73
96 123 77
128 148 122
163 177 171
192 203 212
201 211 221
191 201 208
195 205 213
199 209 215
192 203 209
191 201 208
202 212 222
180 192 193
94 121 73
92 119 72
93 120 72
94 121 72
93 120 72
93 120 71
92 119 71
95 122 73
94 121 72
93 120 72
94 121 72
95 122 74
90 117 69
97 124 74
95 122 73
93 120 72
92 119 72
94 122 72
95 122 73
96 123 74
93 120 72
91 117 69
92 119 71
93 119 71
93 120 72
129 149 123
176 189 188
130 148 132
105 128 94
92 119 70
94 121 73
96 123 74
95 122 74
93 120 71
97 125 76
89 115 69
89 116 69
93 120 71
94 121 73
93 120 72
93 120 72
89 116 69
96 123 74
94 121 72
90 117 69
95 123 74
92 119 71
95 122 74
94 121 72
95 122 73
88 114 68
97 124 75
158 173 163
199 209 217
198 208 214
198 209 218
203 213 222
206 214 223
194 205 212
198 208 217
203 212 220
197 207 214
200 211 220
200 210 220
197 207 214
198 209 218
200 210 219
207 217 227
200 211 219
201 211 220
202 212 220
189 199 206
198 209 217
204 214 223
199 209 216
195 205 212
181 194 196
153 169 157
119 140 115
117 139 110
200 210 218
199 208 216
199 209 216
198 209 217
189 200 205
202 212 221
199 209 219
203 213 220
202 211 219
194 205 214
198 208 217
197 208 216
195 207 215
200 210 219
196 207 215
198 209 218
203 213 223
199 209 214
197 208 217
195 206 214
193 204 213
200 210 218
202 212 219
207 216 224
194 205 212
197 207 215
195 206 213
129 146 130
95 121 72
92 118 70
91 117 70
96 123 74
97 124 74
99 126 75
93 119 71
94 121 73
91 118 70
97 124 74
94 121 72
90 117 70
92 119 72
93 120 71
91 117 70
94 121 73
95 122 73
96 123 74
95 122 73
96 124 75
90 116 70
95 122 73
95 122 74
95 122 73
89 116 68
94 121 72
110 134 100
196 206 214
199 209 215
196 205 211
194 205 212
199 209 217
202 213 223
201 211 221
192 203 211
194 205 212
197 207 214
196 207 215
192 203 211
199 209 216
202 212 220
193 204 210
197 208 214
194 205 212
205 215 224
191 202 209
190 202 208
165 179 177
160 175 167
148 165 152
111 133 101
95 121 77
95 122 74
91 118 70
171 184 182
197 207 215
195 205 211
192 202 209
207 216 227
202 212 221
200 210 217
196 207 217
201 211 219
203 212 221
197 206 212
203 213 222
195 205 212
204 214 225
198 208 217
197 208 216
205 215 225
198 208 216
192 202 208
196 207 214
202 213 222
195 205 213
198 207 215
205 215 225
209 217 225
197 207 213
194 205 213
132 150 132
95 122 73
91 118 71
95 122 74
92 119 71
92 120 72
93 120 72
96 124 74
96 122 73
94 121 73
92 119 71
93 120 73
92 120 71
92 119 71
91 118 71
93 120 72
95 122 73
95 122 74
94 122 73
95 122 73
95 122 74
91 118 70
96 123 74
93 120 72
96 124 74
91 117 69
115 137 104
199 209 216
199 209 216
199 209 216
199 210 218
198 208 214
195 206 214
196 208 218
200 210 219
191 202 207
202 212 221
206 216 227
195 205 214
202 212 221
197 207 215
198 208 217
197 208 217
203 213 221
204 215 224
201 211 219
204 213 221
207 216 224
198 208 215
201 211 220
202 212 219
195 205 212
158 173 169
91 117 70
93 120 72
91 118 70
90 117 70
92 120 72
93 120 71
94 121 72
94 121 73
96 124 75
93 120 72
90 117 70
89 116 69
91 117 69
90 116 69
95 123 74
91 119 72
93 120 72
94 121 72
95 122 73
93 120 72
94 121 72
88 115 69
94 121 72
93 120 71
188 199 202
196 206 213
202 212 221
202 212 220
203 212 220
205 215 226
203 213 221
199 210 218
194 205 212
199 209 219
191 202 209
203 213 220
205 215 225
193 204 211
197 207 214
205 214 224
197 208 217
195 205 212
193 204 210
195 206 213
202 212 221
198 208 217
200 210 219
196 207 215
114 136 105
89 116 69
90 117 70
96 123 73
96 123 73
95 122 74
92 119 71
96 123 74
96 124 74
92 119 71
92 119 71
93 120 72
94 121 72
92 119 71
95 122 73
93 120 72
93 120 72
94 121 72
96 123 74
95 122 74
93 120 72
95 122 74
147 165 153
194 205 213
198 209 217
195 205 212
202 213 222
197 208 218
193 204 212
191 202 209
194 204 211
203 212 219
202 212 222
196 206 214
195 205 212
208 217 227
200 209 217
204 214 225
203 213 221
206 216 226
198 208 216
198 208 216
194 205 212
185 197 199
100 125 82
92 119 71
93 119 71
91 117 70
87 113 66
95 121 72
93 120 71
93 121 73
94 121 72
91 118 71
92 118 70
94 121 72
98 124 77
105 130 92
127 147 125
155 170 160
170 185 184
189 201 207
201 211 219
162 176 171
95 123 74
92 119 71
89 116 69
92 119 71
91 117 70
94 121 72
93 120 72
92 118 70
93 120 72
94 121 72
170 182 181
197 207 214
189 200 208
202 212 222
194 205 213
202 212 221
199 209 218
198 208 214
197 207 216
195 206 214
189 200 205
111 134 99
93 121 72
90 116 69
91 117 70
95 122 73
94 121 72
96 123 74
93 120 71
94 121 72
93 121 72
94 121 73
93 120 72
92 119 71
98 126 76
94 122 74
95 123 74
109 134 94
150 167 154
184 195 200
207 217 226
197 208 216
198 208 216
196 206 212
195 205 210
187 198 201
94 122 73
93 120 72
92 119 71
95 122 73
93 120 71
95 122 73
91 117 70
94 121 72
96 123 74
92 119 71
94 121 72
91 118 71
94 121 72
93 120 71
91 119 71
96 124 75
93 120 72
93 119 71
90 117 70
93 120 71
91 117 69
92 119 71
90 117 69
91 118 71
93 120 72
128 147 124
191 203 210
201 211 219
196 206 214
178 191 193
152 168 156
108 130 97
93 120 72
91 119 71
93 119 71
91 117 70
96 123 74
94 122 73
93 119 71
93 120 72
92 119 72
91 118 70
93 119 71
95 122 73
93 120 71
93 120 71
94 121 73
90 117 71
94 121 72
93 120 72
97 125 75
93 121 73
159 175 168
199 210 219
200 211 218
196 206 213
203 213 222
205 214 221
203 213 223
201 212 220
197 208 217
194 205 213
205 215 225
197 207 215
199 209 216
203 213 224
202 212 220
193 203 210
204 213 221
197 208 216
201 212 220
196 207 215
191 203 212
199 210 218
202 212 223
197 207 214
197 207 214
195 205 212
199 209 217
169 183 181
107 130 97
151 167 154
172 185 181
185 196 202
199 209 217
209 218 228
198 208 215
196 206 213
199 209 217
200 210 217
198 209 218
183 195 201
204 213 222
199 209 217
195 206 213
186 198 206
198 208 215
199 210 219
197 208 217
197 207 215
204 213 222
200 210 217
203 212 220
196 207 215
197 208 216
200 210 217
194 205 211
118 140 113
92 119 71
87 113 67
95 122 73
94 121 73
93 120 72
92 119 70
94 121 72
93 120 72
94 121 72
94 121 72
95 122 73
95 122 73
92 118 71
95 122 73
91 118 71
89 115 68
92 119 71
93 119 71
93 120 72
94 121 73
93 120 72
94 121 73
98 125 75
94 121 72
94 121 72
97 125 75
129 148 129
196 207 215
202 212 220
194 205 212
203 213 223
201 211 221
204 214 223
199 210 221
202 211 218
200 210 218
204 215 225
202 212 220
207 216 225
201 211 220
195 206 214
201 211 220
195 206 215
203 213 223
196 207 215
199 209 216
197 208 218
197 208 215
201 212 222
195 206 212
208 217 226
195 206 214
189 201 206
177 190 189
145 161 148
169 181 180
170 184 184
189 200 204
205 215 223
193 204 210
207 216 226
197 207 215
198 209 217
199 209 217
195 205 213
191 203 211
199 210 218
196 207 216
194 205 211
195 206 213
198 210 223
208 216 224
198 207 214
192 203 210
200 210 219
201 212 222
206 216 226
204 214 224
198 208 216
198 208 216
194 204 210
97 123 76
94 122 73
95 122 73
92 119 71
93 120 72
89 115 69
93 120 72
95 122 73
92 119 71
95 122 73
89 115 69
90 117 70
91 117 69
95 123 74
97 125 75
94 121 72
98 125 75
91 118 71
95 122 72
95 123 74
94 122 73
95 122 73
92 119 71
88 115 68
94 121 73
95 122 73
158 173 169
197 208 217
197 207 215
201 211 218
195 206 215
204 214 223
201 210 219
201 211 219
201 212 222
197 206 213
194 205 213
208 217 227
200 211 220
203 213 223
198 208 215
190 202 209
194 204 211
198 208 215
197 207 214
198 209 217
196 207 214
204 213 220
200 210 218
201 211 219
198 209 219
186 198 204
107 131 92
95 121 72
97 124 74
91 117 70
92 119 71
92 120 72
93 121 72
97 124 75
96 124 74
95 122 73
94 121 72
93 121 72
93 120 72
94 121 72
96 123 74
95 123 74
96 123 74
90 116 68
96 124 74
93 119 71
95 122 73
97 124 74
96 123 73
95 122 73
131 150 132
195 205 212
201 212 222
192 204 210
199 209 216
189 200 208
190 201 208
200 209 217
200 209 217
201 211 219
198 209 217
198 209 218
200 210 218
204 214 223
186 198 205
200 210 218
196 207 214
201 212 221
202 212 221
201 211 220
204 213 221
191 202 208
202 213 224
201 211 219
140 158 144
97 123 74
94 121 73
90 117 70
94 122 73
92 120 71
92 119 71
92 119 71
92 119 71
95 122 73
95 122 73
93 120 71
91 118 70
92 119 71
94 121 72
93 120 72
91 119 71
94 121 72
94 121 72
93 120 73
95 122 73
95 122 73
122 143 116
202 212 220
182 194 201
202 212 218
203 213 221
196 206 213
199 209 218
203 212 220
199 208 215
198 208 216
199 210 219
199 210 220
199 209 219
202 212 220
198 208 216
197 208 218
193 205 213
206 215 224
199 209 217
204 214 223
204 213 222
197 208 214
118 140 106
93 120 72
95 123 74
94 121 73
96 123 74
92 120 72
92 120 72
98 125 81
122 142 118
151 167 156
150 166 153
164 179 175
187 200 207
196 206 212
202 212 222
199 209 219
199 209 218
198 209 218
198 208 216
186 198 200
94 120 74
92 119 71
89 116 69
93 120 72
87 114 69
95 122 73
90 117 70
92 119 71
94 121 73
99 127 77
90 117 69
96 123 73
111 135 100
159 173 167
186 198 202
192 202 208
202 212 222
198 208 217
194 205 212
201 211 220
198 209 220
201 210 217
130 149 128
94 121 72
95 122 73
91 118 70
94 121 72
93 120 71
93 120 72
93 120 71
92 119 71
91 117 70
90 117 69
92 119 71
89 116 69
90 116 70
94 121 72
94 120 72
92 118 71
94 121 73
89 115 68
116 138 106
158 173 165
190 201 205
199 209 218
200 210 215
192 203 209
95 123 74
92 119 72
96 124 75
94 122 73
94 122 73
91 118 70
96 123 74
92 118 70
93 119 71
93 120 72
96 123 73
93 120 71
89 116 70
92 119 71
92 119 71
95 122 73
98 126 76
93 120 73
94 121 73
90 117 70
92 119 72
93 120 71
95 123 74
92 119 71
95 122 73
116 137 111
202 212 221
198 208 214
195 206 213
200 210 217
207 217 228
198 209 217
178 189 191
152 169 160
108 131 96
93 120 72
93 120 71
89 116 69
96 123 74
96 123 74
91 118 70
93 121 72
94 120 72
96 123 74
91 119 72
95 122 73
93 121 72
96 124 74
93 120 72
95 122 74
92 119 71
96 124 74
165 180 176
203 212 221
193 204 213
195 205 213
203 212 222
195 205 212
206 215 225
203 213 221
194 204 210
196 206 214
194 206 213
196 206 214
194 205 212
201 210 220
198 208 218
199 210 220
197 208 215
199 209 217
188 199 205
199 210 219
193 205 215
188 198 203
201 211 220
197 207 216
197 207 216
196 206 212
197 207 215
150 167 158
93 120 72
94 121 73
88 115 69
104 129 89
131 148 128
153 168 157
174 186 186
199 210 219
186 198 205
203 212 220
192 202 208
203 212 220
193 205 213
198 209 217
202 212 221
194 205 211
209 218 227
198 209 217
188 200 207
202 212 221
203 213 220
197 207 215
195 207 215
203 213 221
203 213 222
203 213 221
186 198 203
94 121 73
93 120 71
92 119 71
96 123 74
95 123 74
98 125 76
96 123 73
92 119 71
87 114 68
92 119 71
94 121 73
94 121 73
90 116 69
90 116 69
94 121 72
96 124 74
93 120 72
96 123 73
94 120 72
92 119 72
95 122 74
97 125 75
94 120 72
95 123 74
99 126 76
92 118 71
93 120 71
175 188 187
196 207 215
203 213 220
200 210 219
189 200 206
191 202 209
202 212 221
200 210 217
201 211 220
195 206 213
196 206 213
197 208 217
198 210 219
203 213 222
202 212 221
196 207 214
203 213 222
199 209 217
197 208 215
199 208 216
192 202 210
192 203 211
205 214 223
197 207 215
197 207 214
199 209 218
201 212 221
170 183 182
94 121 73
90 117 70
92 119 71
90 117 70
99 124 81
121 142 113
135 152 134
148 166 153
169 183 178
177 190 192
183 193 195
198 208 216
208 217 227
198 208 216
195 206 214
205 215 225
201 211 219
196 207 214
205 215 225
195 206 217
213 221 230
201 211 218
195 205 212
193 203 209
202 212 220
199 210 218
159 173 165
93 120 71
90 118 70
96 122 73
101 128 77
88 115 68
95 123 74
93 120 72
92 120 72
93 120 71
93 120 71
94 121 72
92 119 70
93 120 72
93 120 72
93 120 71
96 123 74
93 120 72
94 121 72
96 124 75
92 119 71
94 121 72
92 118 71
92 119 71
94 122 74
95 122 73
125 145 122
201 211 219
197 208 216
197 207 213
195 206 215
202 211 219
192 203 211
198 207 213
195 206 213
195 206 215
210 219 229
191 202 208
195 205 210
194 204 212
196 207 216
193 204 212
194 205 213
198 209 216
198 209 219
205 214 222
200 209 217
194 205 212
201 211 218
201 211 221
200 210 219
194 204 209
138 157 138
93 120 72
94 121 72
93 120 72
93 120 71
95 122 74
93 120 72
94 121 73
92 119 71
88 115 68
93 120 72
89 116 69
90 116 70
90 117 69
97 124 74
92 119 71
91 118 71
94 121 72
93 119 71
96 123 73
94 122 73
92 119 71
93 120 72
91 118 70
98 122 80
189 200 203
200 211 222
194 205 211
197 208 216
192 203 210
191 202 209
198 208 217
201 212 223
197 207 214
191 202 208
193 203 211
195 206 214
192 203 212
205 215 224
199 208 215
185 197 201
196 206 214
198 209 217
199 209 217
192 203 209
198 209 217
198 208 216
201 211 220
176 188 188
92 119 73
93 121 73
90 116 70
93 120 72
93 119 71
93 119 72
92 119 71
93 120 72
92 119 71
91 118 71
94 121 72
91 118 71
90 117 70
94 121 72
94 120 71
95 122 73
92 119 71
93 121 73
92 119 71
92 119 71
95 122 73
99 124 81
188 200 205
204 214 223
202 212 221
186 197 204
199 209 217
191 203 211
205 214 221
204 214 223
197 207 215
202 211 219
195 205 212
199 208 217
194 205 214
199 209 215
194 204 211
196 206 213
199 209 216
198 208 215
193 203 210
201 211 220
205 215 225
116 137 108
94 121 72
120 141 112
144 161 147
150 166 156
164 178 172
170 182 182
188 199 206
199 210 218
194 205 212
193 204 212
192 203 208
197 206 213
191 203 212
196 207 216
193 204 212
201 211 220
202 212 220
199 209 218
181 193 195
102 126 88
93 119 71
94 121 73
93 119 71
95 122 73
95 122 72
96 124 75
94 122 74
96 123 74
93 120 72
88 115 68
93 120 72
95 122 72
91 118 71
92 119 71
94 121 75
124 144 123
165 179 175
193 204 210
195 207 216
194 204 211
196 208 217
198 208 216
151 167 155
97 125 75
92 119 72
90 117 69
89 116 69
94 122 73
91 118 70
89 115 68
92 119 71
94 121 72
96 123 74
92 119 71
90 117 70
92 119 71
89 115 69
92 119 71
98 125 75
93 120 72
88 115 68
95 123 74
95 122 73
96 123 74
123 144 115
155 170 162
197 207 215
96 122 81
91 118 70
94 121 73
90 116 68
91 118 71
91 117 70
96 123 73
95 122 74
96 123 73
88 114 68
92 119 70
94 120 72
91 118 71
95 123 74
95 122 73
95 123 74
94 121 72
92 119 71
95 122 73
93 120 72
92 118 70
93 120 71
93 121 72
93 119 71
90 116 70
113 135 104
199 209 217
199 209 217
199 209 217
196 207 216
201 211 220
197 207 214
196 206 212
201 211 217
196 207 215
187 199 203
155 170 162
125 144 120
93 119 71
93 119 71
95 122 73
89 116 68
91 118 70
93 120 72
96 124 74
91 118 71
93 120 72
93 120 72
92 119 72
94 121 72
93 120 72
94 121 72
163 177 173
200 210 217
197 207 216
199 209 216
191 203 209
196 207 217
191 202 209
197 208 217
200 210 217
201 212 221
203 213 222
191 202 210
194 205 212
205 214 221
199 210 219
193 204 214
200 210 217
198 208 215
196 206 214
188 200 206
188 199 204
197 208 215
197 208 215
204 213 220
194 205 210
193 204 211
199 209 216
142 160 145
94 121 73
93 119 71
91 118 71
93 120 72
95 122 74
89 116 69
94 120 72
99 123 83
119 140 115
174 187 186
176 188 187
200 209 217
196 207 213
202 212 220
200 209 217
189 200 206
197 207 217
206 215 225
199 209 217
196 207 215
193 203 210
202 211 218
199 210 217
201 211 218
187 198 203
202 212 219
171 184 183
94 121 72
94 121 73
96 123 74
92 119 71
93 121 72
94 121 72
93 120 72
94 121 72
95 122 73
94 122 73
91 118 70
92 119 72
90 117 70
91 118 71
94 121 73
89 116 70
92 119 71
95 122 73
91 117 70
95 122 73
94 121 73
95 122 73
91 118 70
95 122 73
91 118 70
93 120 73
94 121 75
195 206 214
199 209 216
199 210 219
202 212 222
203 213 222
206 216 225
199 210 220
195 207 215
193 204 214
200 211 221
191 201 207
198 208 216
200 209 217
196 207 215
202 212 220
199 210 220
202 212 222
190 201 208
206 216 226
196 206 212
186 197 202
204 213 222
199 209 218
202 212 221
202 212 222
203 213 221
194 204 210
124 145 118
90 117 71
93 120 72
91 117 69
97 125 75
97 125 75
97 124 74
93 119 71
98 126 76
93 121 73
93 120 72
93 120 72
92 120 72
96 121 78
117 138 107
141 159 141
156 172 163
169 183 179
178 190 190
184 196 199
197 207 215
194 205 214
200 211 221
203 212 222
193 204 211
192 202 207
200 211 221
107 130 98
94 122 73
94 120 72
91 118 71
93 120 73
93 120 72
92 119 71
91 118 70
92 119 71
95 122 72
95 122 74
97 123 73
96 123 74
92 119 70
94 121 73
92 118 70
92 119 70
91 118 71
96 123 74
92 118 71
92 119 72
90 116 68
88 115 69
95 122 74
97 125 75
92 119 71
177 189 188
197 207 214
202 212 219
200 209 217
199 210 219
192 203 210
203 213 223
189 200 206
200 210 220
207 217 228
197 208 215
197 207 213
195 205 212
195 207 216
203 213 223
198 208 216
191 202 210
198 209 217
201 211 219
208 216 225
197 208 216
202 212 222
199 209 216
194 205 214
194 205 212
186 198 201
95 120 76
92 119 72
96 123 74
94 122 73
92 119 72
94 121 72
92 119 71
90 116 69
97 124 74
94 121 72
92 119 70
92 119 71
90 117 70
95 122 73
94 121 73
93 120 72
96 123 73
85 110 65
94 121 72
92 119 71
92 119 71
94 121 72
90 117 70
94 122 73
159 173 165
201 210 216
198 209 218
194 205 211
202 212 223
195 206 214
195 205 212
203 213 222
197 208 216
199 208 217
190 200 205
203 213 223
200 209 215
201 211 220
197 207 215
193 204 213
191 201 207
195 207 216
201 212 222
199 210 218
202 212 223
200 210 217
201 212 221
192 203 209
115 137 106
94 120 72
93 120 72
91 118 70
93 121 73
91 118 70
94 122 73
93 120 72
92 119 71
95 122 73
92 119 72
97 125 76
91 118 71
93 120 72
92 120 72
94 121 73
93 120 72
91 118 70
95 122 73
91 117 69
92 118 70
98 126 75
176 189 187
195 206 213
189 201 207
198 209 217
197 208 218
202 212 221
196 206 212
201 212 222
196 207 216
200 210 219
196 207 217
192 203 210
194 205 213
197 207 216
205 215 225
196 207 215
189 200 204
183 195 197
181 194 194
141 158 144
141 158 146
172 186 185
188 200 206
198 208 215
195 206 213
200 210 220
201 211 221
192 203 210
188 199 205
202 212 220
201 210 218
202 212 223
196 207 215
200 210 218
197 208 216
186 197 204
196 206 214
194 204 212
198 208 215
199 209 216
182 194 198
105 129 93
92 119 72
93 120 73
92 119 71
94 121 72
93 120 72
94 121 73
94 120 72
97 124 75
93 119 72
93 120 72
94 121 72
92 119 71
97 125 75
89 116 70
91 118 71
94 121 72
93 120 71
94 121 72
114 137 101
155 171 162
197 206 213
198 208 216
189 201 209
160 175 165
91 117 70
94 120 71
92 118 71
96 123 74
94 120 71
94 121 73
90 117 69
92 119 72
90 117 69
92 119 71
90 116 69
94 121 73
94 121 72
93 120 72
94 121 73
94 120 72
93 119 71
94 121 73
91 118 71
93 120 71
89 115 68
93 120 72
95 122 73
101 128 82
161 176 171
129 149 125
94 120 74
91 118 70
96 123 74
94 122 73
92 119 71
92 119 71
88 115 68
91 117 69
94 120 72
96 124 75
92 119 71
88 115 68
96 123 73
90 117 69
94 121 73
93 120 71
89 116 68
96 123 74
94 121 73
93 121 74
94 121 72
91 117 69
95 121 72
120 142 114
196 206 213
194 205 212
195 206 213
199 209 218
193 204 211
193 204 211
206 215 224
198 208 216
202 212 220
195 206 214
197 207 215
197 207 215
191 201 206
165 180 175
135 154 134
96 123 77
94 122 73
95 122 73
89 116 69
88 115 69
95 122 74
94 121 73
92 119 71
94 121 72
95 122 73
92 119 70
179 192 194
200 210 219
194 205 211
197 207 215
195 204 210
205 214 222
207 216 226
192 203 213
195 206 214
207 217 227
201 211 219
199 209 216
198 208 217
190 202 209
196 205 210
209 218 227
203 213 224
199 211 223
205 214 221
204 213 221
202 212 222
204 213 223
196 207 214
201 211 219
196 206 213
193 205 213
206 216 225
127 147 121
93 120 72
91 118 70
92 119 72
92 119 71
90 117 69
90 117 70
96 123 74
93 120 71
96 123 74
93 120 72
94 122 74
106 129 89
126 146 122
166 180 176
176 189 191
198 209 217
201 211 219
187 199 207
199 209 218
195 207 216
189 201 207
200 210 219
196 206 214
202 212 222
199 209 216
199 209 218
141 157 142
94 121 72
94 121 73
91 117 70
92 119 70
93 119 71
91 118 70
98 125 76
91 118 70
89 116 70
92 119 71
97 124 74
94 121 72
93 120 71
93 119 71
91 118 70
94 121 72
90 118 71
93 120 72
88 115 68
97 125 75
96 123 74
87 114 68
96 123 74
96 123 74
91 117 70
97 124 75
132 152 133
199 210 219
191 202 208
204 214 223
198 208 216
202 212 222
199 209 218
196 207 213
194 205 210
201 211 220
200 209 217
196 207 214
200 210 217
198 209 216
190 201 208
202 212 220
201 211 218
201 211 220
187 198 205
199 209 217
203 213 219
193 205 213
194 205 211
189 200 208
200 210 219
200 209 216
203 213 223
184 196 200
92 119 71
98 125 75
92 119 72
93 120 71
94 121 73
94 121 72
91 118 70
95 122 73
94 121 72
96 123 74
93 120 71
95 122 73
91 118 71
94 121 71
91 117 70
95 123 74
93 120 72
95 123 74
95 123 74
94 121 72
95 123 74
102 128 88
127 147 124
135 154 136
144 162 148
162 176 170
160 174 169
116 138 107
104 126 95
101 126 85
93 119 71
94 121 72
92 119 70
95 122 74
97 124 75
92 120 71
93 120 72
94 121 73
96 124 75
91 118 71
94 121 72
92 119 71
93 120 71
97 124 74
90 118 71
94 122 74
92 119 71
93 120 72
93 120 71
93 120 72
93 120 72
91 118 71
115 137 109
194 205 213
198 209 219
199 209 216
193 205 213
195 207 217
200 209 216
198 208 214
193 204 210
197 208 217
206 216 225
198 209 218
199 209 217
193 204 212
200 211 219
207 216 225
207 216 226
198 208 217
195 205 213
188 199 208
196 207 216
198 208 216
191 202 207
189 200 205
196 207 216
201 211 220
133 153 137
92 119 70
90 117 70
95 122 74
95 122 73
95 122 73
93 120 72
93 120 72
92 119 71
90 116 69
93 120 72
89 115 68
96 123 74
92 119 71
95 122 73
93 121 73
91 118 71
92 119 71
93 120 71
91 118 70
95 122 73
92 119 70
90 117 70
95 123 74
112 135 104
196 206 213
200 210 219
204 214 223
195 206 214
199 210 218
200 210 218
205 214 221
204 214 222
200 210 217
186 197 203
199 209 216
194 206 214
194 206 215
190 201 209
202 213 223
196 206 213
199 209 216
197 208 215
198 208 215
194 205 212
197 208 216
199 210 220
199 209 218
129 149 127
90 116 68
94 121 72
96 123 73
89 116 69
92 119 71
98 125 76
93 120 71
95 122 73
94 121 72
93 120 72
91 117 70
90 116 69
94 122 74
89 116 69
93 119 71
94 121 73
94 121 72
94 121 72
93 120 71
90 117 69
94 121 73
152 167 158
197 208 217
196 206 212
200 210 218
200 210 219
205 214 224
204 213 221
196 207 215
189 200 205
198 208 215
172 184 182
170 183 182
147 164 155
137 155 138
137 156 136
111 133 106
96 123 77
94 122 73
91 118 70
95 122 73
93 120 72
138 156 139
202 212 221
197 207 215
193 204 212
203 213 223
199 210 220
199 209 215
193 204 209
193 204 212
185 197 202
200 209 217
202 212 221
197 208 217
196 206 214
196 207 214
204 214 223
197 208 216
193 204 211
196 207 215
191 202 208
117 138 112
91 119 71
95 122 74
93 120 72
95 122 74
93 120 72
89 116 69
95 123 74
89 116 69
94 121 73
92 120 72
92 119 71
95 122 73
93 119 71
93 120 72
90 117 69
94 122 73
95 122 73
92 118 71
92 118 71
93 120 72
93 120 72
89 115 68
136 155 132
168 182 178
177 190 189
94 121 73
90 116 69
92 118 70
95 123 74
92 119 71
94 121 72
92 119 71
92 120 72
89 115 68
92 119 72
92 118 71
94 121 73
94 121 73
91 117 69
91 118 71
92 119 72
94 121 73
95 122 73
92 119 71
91 117 70
93 120 71
94 121 73
94 122 73
90 117 70
175 189 189
199 209 217
186 198 204
162 177 173
126 146 125
91 118 71
92 119 71
91 118 70
91 117 69
93 120 73
95 123 74
94 120 72
92 119 71
89 116 69
91 117 70
93 119 71
92 120 72
96 123 74
92 119 71
93 119 71
92 119 71
91 118 70
92 119 71
94 121 72
93 120 71
119 140 112
193 203 209
202 212 221
200 210 220
197 208 218
195 205 211
201 211 222
196 207 215
198 208 214
194 206 214
203 213 222
198 208 215
192 202 208
195 205 211
199 210 218
194 204 211
194 205 213
168 182 181
142 158 144
111 133 99
91 118 71
91 118 70
94 122 73
93 120 72
92 118 70
94 121 73
90 116 68
193 204 209
196 206 214
193 203 210
199 210 218
203 212 219
201 211 221
200 210 218
206 215 225
198 209 218
195 205 211
199 209 217
192 203 211
195 206 214
196 206 212
192 203 210
188 199 203
201 211 220
199 209 217
200 210 217
196 206 214
196 206 214
202 211 218
196 207 215
196 207 214
190 201 208
193 204 213
189 201 208
93 119 74
96 123 74
95 122 73
95 123 74
91 117 70
94 121 72
92 119 71
91 118 71
91 118 71
93 120 71
92 119 71
93 120 71
93 121 73
91 118 71
92 118 70
94 121 72
96 124 77
121 143 111
142 158 144
179 191 189
192 203 210
195 205 210
198 209 217
207 215 223
197 208 216
199 209 217
199 209 216
131 150 127
93 120 72
91 117 70
93 120 71
91 118 71
93 119 71
92 119 71
91 118 70
94 121 72
95 122 73
97 124 75
93 121 72
93 119 71
90 118 70
95 122 73
96 123 74
94 120 73
90 118 71
92 118 71
91 118 70
92 119 71
95 123 74
92 119 71
94 121 72
93 120 72
90 117 70
93 121 73
159 174 167
196 207 215
205 215 224
193 204 211
195 206 212
201 211 220
203 213 222
198 208 215
204 214 223
194 204 211
197 208 217
197 207 215
204 214 223
200 211 221
199 210 220
194 204 211
192 203 208
197 207 215
202 213 221
200 211 219
194 204 211
200 210 216
197 207 214
196 205 212
199 210 219
198 208 217
198 208 216
149 165 155
94 121 72
92 119 71
92 119 72
94 121 72
94 121 72
95 122 73
92 119 71
92 120 72
90 117 69
95 122 73
94 121 72
88 115 69
92 119 72
97 125 75
92 119 71
92 119 71
93 119 71
98 125 76
93 120 72
90 117 69
96 123 74
92 119 70
93 121 72
95 123 73
93 121 73
92 120 72
184 196 197
192 203 209
201 211 219
200 210 216
194 205 213
178 190 190
174 187 188
168 181 180
148 165 154
140 157 145
137 155 136
125 145 121
105 128 95
94 119 76
91 118 70
91 117 70
94 121 72
94 121 72
96 123 73
97 125 75
93 120 72
96 123 74
94 120 71
97 124 75
92 119 72
95 121 72
166 180 174
197 209 217
197 206 213
192 203 209
198 208 217
198 208 216
196 207 216
194 205 214
191 202 210
189 200 206
198 208 216
195 206 217
199 208 217
194 205 211
197 207 213
202 212 221
195 206 217
202 211 218
192 203 211
200 210 217
192 203 210
194 206 216
200 210 219
189 201 208
195 206 214
174 187 187
92 119 71
89 115 68
92 118 70
93 120 72
94 121 72
90 117 70
91 118 70
92 119 71
96 124 75
94 121 73
94 121 72
93 120 72
96 123 73
95 122 73
94 120 72
90 116 69
90 118 70
90 116 69
94 121 73
92 119 72
92 119 72
95 122 74
92 119 70
96 123 73
180 193 197
190 201 209
198 208 216
193 204 212
190 201 207
199 209 217
192 203 210
194 204 212
198 209 218
194 206 214
197 207 213
193 204 210
199 209 218
192 204 213
205 215 223
197 206 213
198 208 215
196 206 214
190 201 208
197 208 216
196 206 212
200 210 217
195 205 213
177 191 191
93 121 72
96 123 74
91 118 70
92 118 70
92 119 71
91 118 70
90 117 70
91 118 70
94 121 73
92 119 72
95 121 73
91 118 70
97 124 75
96 123 73
96 122 74
94 121 73
97 124 74
91 117 70
92 118 71
93 120 72
93 120 72
120 141 114
186 198 201
170 183 183
165 179 176
160 174 164
140 156 143
131 149 126
128 147 126
98 124 79
97 124 74
93 120 72
90 117 70
94 121 72
93 120 72
94 121 72
88 114 68
88 115 69
91 118 70
91 117 70
94 121 73
91 118 71
123 143 118
200 211 223
196 207 216
205 215 224
191 202 208
199 209 215
201 212 222
197 208 216
192 202 210
196 206 214
199 209 217
193 204 215
192 203 212
196 207 213
206 216 225
205 215 223
196 206 212
198 210 220
195 205 211
192 203 209
136 155 140
93 120 72
89 116 69
90 116 69
92 120 72
92 119 72
92 119 71
95 122 73
92 119 71
94 122 73
94 121 73
92 119 71
93 120 72
90 116 69
93 120 72
108 131 94
105 129 93
99 124 82
95 121 77
94 122 73
93 120 71
92 120 71
94 121 73
93 120 72
93 121 72
94 120 71
109 133 97
164 179 177
112 135 104
90 117 69
95 121 73
94 122 73
94 120 71
91 118 71
93 120 72
91 119 71
92 118 70
90 117 70
98 125 75
93 120 72
94 121 72
91 118 71
95 122 73
93 120 71
92 119 71
92 119 71
95 123 74
91 117 70
95 122 73
93 120 72
94 121 73
169 183 179
190 202 210
198 208 216
201 210 220
196 207 216
191 202 209
171 185 181
119 139 113
96 123 74
94 121 73
92 119 71
92 119 71
93 121 72
89 116 69
89 116 69
94 121 72
92 119 72
92 119 71
94 121 72
94 121 72
92 119 71
91 118 70
92 119 71
91 117 69
90 117 70
126 145 124
190 202 208
196 207 215
198 209 219
196 207 215
201 210 218
196 206 212
200 211 218
197 207 214
196 207 216
199 209 216
198 209 218
197 207 214
197 207 215
195 206 212
199 210 220
203 213 222
193 203 209
201 211 220
190 203 211
163 178 175
149 166 152
110 131 102
95 123 74
91 118 71
93 120 71
93 120 71
192 203 209
201 211 220
190 201 209
202 213 222
194 205 214
201 211 219
198 208 215
201 211 219
190 201 207
193 203 210
192 204 214
189 199 205
197 207 215
202 212 219
200 211 220
198 208 216
196 207 215
193 204 211
195 205 213
196 207 215
196 207 214
200 210 216
199 210 218
197 206 212
204 214 225
197 207 217
190 201 206
89 116 70
91 119 71
96 123 74
92 119 71
93 120 72
95 122 73
94 121 72
97 124 74
90 117 69
94 121 73
94 121 72
87 114 67
91 118 70
93 120 72
93 120 72
94 121 72
91 117 70
88 115 68
90 117 69
94 120 72
92 120 72
107 131 96
151 167 155
164 178 174
188 199 202
202 212 222
199 209 220
102 127 86
97 124 75
95 122 73
91 118 71
91 118 70
91 118 70
92 119 71
94 122 74
89 115 69
92 119 71
91 117 69
92 119 71
93 121 72
93 120 71
86 113 67
95 123 73
91 118 70
91 118 70
92 119 71
94 121 73
95 123 74
94 121 72
91 118 71
92 119 71
93 120 72
93 120 72
95 122 74
187 199 205
201 211 221
201 212 223
204 214 223
196 206 214
200 210 218
197 207 216
200 211 220
198 208 215
200 209 216
197 208 216
203 212 221
198 209 216
209 218 227
198 208 215
192 203 211
205 215 226
204 214 224
193 203 209
197 207 213
204 214 224
195 205 212
196 206 212
199 209 218
192 203 210
196 206 213
198 209 220
127 148 123
93 120 72
92 119 71
97 125 75
90 117 70
93 120 72
95 122 72
88 115 68
95 122 72
93 120 72
92 118 70
89 116 69
93 120 72
92 118 71
97 124 75
90 118 71
90 117 70
97 124 74
93 121 73
95 122 72
93 120 72
90 117 70
95 123 73
93 120 72
95 122 73
98 126 76
115 137 107
198 208 216
201 210 218
192 203 212
186 198 206
197 208 218
195 206 215
195 205 212
196 207 217
189 200 209
206 215 223
203 212 221
201 211 220
194 205 212
197 207 214
194 205 211
183 194 199
183 195 198
164 178 174
167 181 177
156 173 166
153 169 160
153 169 155
132 151 129
120 140 116
125 145 120
119 141 115
184 195 201
195 206 214
198 208 216
199 209 217
197 207 213
202 212 221
198 207 215
186 198 204
204 213 224
201 212 221
200 210 218
198 208 216
193 203 208
200 210 218
200 211 219
195 206 214
188 199 206
193 203 209
188 199 204
201 211 218
190 202 209
202 212 221
196 206 214
186 198 205
197 208 218
116 138 108
96 123 73
93 121 73
96 123 74
95 122 73
95 122 73
92 119 71
94 121 72
92 119 71
94 121 73
90 117 70
93 120 72
98 125 75
94 121 73
92 119 71
94 121 72
95 121 72
95 122 73
94 122 73
92 119 70
95 122 73
94 121 73
93 119 71
94 121 73
140 157 141
198 207 216
202 212 222
198 209 219
196 206 213
199 209 216
197 207 218
197 208 217
196 207 215
200 210 218
201 211 219
192 203 211
201 212 222
201 212 220
196 206 213
201 211 222
193 205 214
191 202 210
195 206 214
200 210 218
201 211 221
199 209 217
193 205 216
191 201 206
94 119 76
93 120 72
94 121 72
89 116 69
91 118 71
91 118 71
91 118 71
90 117 70
90 117 69
110 132 99
109 132 97
128 148 125
131 148 131
136 154 137
164 179 173
149 166 156
164 178 176
165 179 178
177 190 192
187 199 204
199 209 216
183 195 199
105 128 91
95 123 73
95 122 73
92 119 72
91 118 70
93 120 71
93 120 71
96 123 74
94 121 72
94 121 73
93 120 72
95 122 73
94 120 72
92 119 71
92 119 71
94 121 72
92 119 71
93 119 71
95 122 73
91 117 69
112 134 105
185 196 201
200 210 218
186 197 203
199 208 215
196 206 214
200 210 220
203 212 221
200 210 219
187 199 207
188 199 206
199 209 218
200 210 217
192 204 211
198 208 216
201 210 218
191 203 211
197 207 215
194 205 213
200 211 220
136 154 138
88 114 67
88 114 68
93 121 73
90 117 69
90 117 69
92 119 71
94 120 71
95 122 73
89 116 69
95 122 73
93 120 72
93 120 72
104 129 87
108 133 98
107 129 97
188 199 204
198 208 217
196 207 217
185 197 204
198 209 219
190 201 209
190 201 208
184 196 200
184 196 200
185 197 199
181 193 194
176 189 191
142 159 144
134 152 136
105 129 94
128 148 125
158 172 166
158 173 164
176 187 186
155 169 163
160 175 167
137 155 140
157 172 165
160 174 166
136 154 138
145 162 147
135 153 135
138 156 137
132 151 131
139 155 139
116 138 109
143 160 148
119 139 113
120 140 114
112 134 101
106 130 94
165 180 176
193 205 213
191 203 210
189 201 208
193 204 212
197 208 215
186 196 201
195 206 214
185 197 202
151 167 155
119 140 115
93 120 72
92 119 72
93 120 72
95 122 73
90 118 71
90 116 70
89 116 70
93 119 72
93 120 72
93 120 71
94 121 73
93 120 72
93 120 72
93 119 70
143 160 145
196 207 216
194 205 215
183 196 201
203 213 222
200 209 216
203 214 223
192 202 210
192 203 210
199 209 218
192 203 209
193 204 210
199 210 218
205 215 225
195 205 212
203 213 222
193 204 211
202 212 220
189 200 205
196 207 214
202 212 219
196 206 213
194 206 215
189 201 205
164 179 171
143 160 143
105 130 89
200 210 218
193 204 212
201 211 220
189 201 211
195 205 212
193 203 209
196 207 214
192 202 208
193 203 210
191 201 207
199 209 214
198 208 217
197 207 214
194 205 212
196 207 215
194 205 212
191 203 212
191 202 210
200 210 219
208 217 226
201 211 218
192 204 212
198 209 217
202 212 220
203 213 223
193 204 210
178 190 192
95 122 73
91 117 70
91 118 70
95 122 73
91 118 71
92 119 71
91 117 70
93 120 71
89 116 69
91 118 70
95 122 73
93 120 71
94 121 72
92 119 71
94 121 73
92 118 70
96 123 74
93 120 72
95 122 73
91 117 70
93 119 71
88 115 68
91 118 71
92 118 70
95 121 72
106 129 93
136 156 136
138 155 145
135 153 135
101 126 88
93 120 72
92 119 70
95 122 73
94 121 72
94 121 72
91 118 70
96 123 74
92 119 71
95 122 73
93 120 72
90 117 70
90 116 69
94 121 72
91 117 70
90 117 71
91 118 71
92 119 71
92 119 71
91 117 70
89 115 68
94 122 74
90 116 69
93 120 72
122 143 116
199 209 216
197 207 214
199 209 215
197 207 214
196 207 216
191 202 210
202 212 220
193 204 212
202 212 221
194 205 215
200 211 219
194 206 214
192 203 209
196 207 215
197 208 216
203 212 219
190 201 208
205 215 226
192 203 212
205 215 224
201 211 221
195 206 215
194 205 213
201 211 218
201 212 220
198 208 216
179 191 191
94 121 72
92 119 71
90 116 69
91 118 70
91 117 70
93 120 72
93 120 72
87 113 66
91 117 70
93 120 72
92 119 71
94 121 72
91 119 71
93 121 72
93 120 72
96 123 74
91 118 71
95 122 74
95 122 73
92 118 70
94 121 73
92 119 72
93 120 72
93 120 71
92 119 71
90 117 69
172 186 185
194 205 215
201 210 219
201 211 219
196 206 212
196 205 212
200 210 218
196 207 216
198 208 218
199 209 217
201 211 219
207 216 225
199 210 217
191 201 208
200 210 218
201 210 219
190 201 207
200 211 221
193 203 210
198 209 219
200 210 221
200 210 217
182 194 196
201 212 221
191 201 208
196 207 215
136 154 137
93 120 72
102 127 88
114 138 102
112 134 103
124 144 118
134 153 131
135 153 136
146 162 149
147 163 151
151 167 156
162 176 172
175 187 187
171 184 182
173 186 185
190 201 206
186 196 200
189 200 204
182 194 198
190 201 208
188 200 205
201 211 219
195 206 214
197 207 214
199 209 217
163 177 173
95 122 73
90 117 69
94 121 73
94 120 72
92 119 71
89 116 69
90 117 69
89 115 68
91 118 71
95 121 72
93 120 71
96 123 74
92 119 70
88 115 69
93 120 72
93 121 73
94 121 73
95 122 74
90 117 70
91 118 70
92 120 72
95 122 73
90 116 69
106 130 93
193 204 209
187 198 204
200 210 217
197 206 211
192 202 208
199 209 217
200 210 219
195 206 212
189 201 205
187 198 204
194 204 212
198 208 216
202 212 221
198 207 215
196 207 214
191 202 208
190 201 208
198 208 213
184 196 199
173 186 187
170 183 178
166 181 173
149 166 159
163 178 173
151 167 158
156 172 166
153 168 161
179 192 193
168 182 177
185 196 199
187 198 200
182 195 198
199 209 217
200 210 218
194 204 212
201 212 221
198 208 217
197 206 213
193 203 209
197 208 217
195 206 215
187 198 204
198 209 220
193 204 211
195 206 215
127 147 124
94 121 73
94 121 73
92 119 71
95 122 73
95 122 73
89 115 69
95 122 73
94 121 73
95 123 74
93 119 71
92 119 72
93 121 73
94 121 72
90 117 70
92 118 71
102 127 86
102 127 88
97 122 81
107 129 97
107 132 92
172 186 185
184 195 197
183 194 199
190 201 203
178 191 191
175 189 188
165 179 176
176 189 189
162 175 172
156 170 162
166 180 175
168 182 179
152 167 157
154 169 162
159 173 166
153 169 158
157 172 165
142 159 143
149 165 151
182 194 196
172 186 185
168 181 178
174 187 188
185 197 203
179 192 192
178 190 193
179 191 193
188 199 203
177 190 192
192 204 210
194 205 212
195 206 214
197 205 211
200 210 217
196 206 211
197 207 214
197 208 217
199 209 217
195 206 214
198 208 216
193 204 211
191 202 209
187 199 204
197 208 214
192 203 210
199 209 218
198 209 217
203 213 223
126 145 125
93 120 72
91 117 70
92 119 71
97 122 80
133 153 132
183 196 199
196 207 215
198 208 216
201 212 223
190 201 208
191 201 208
194 206 214
195 205 213
197 207 214
200 210 217
197 207 215
195 204 212
203 212 220
196 207 215
190 202 208
197 208 217
190 201 208
198 208 215
140 156 143
85 111 66
91 117 69
92 119 70
93 120 72
89 116 68
96 122 77
96 122 80
99 124 84
97 123 79
118 140 110
114 138 104
145 162 149
172 186 184
183 195 199
174 187 190
183 195 195
172 185 186
174 187 187
175 188 187
179 191 190
180 193 194
167 181 179
169 182 180
170 184 182
166 180 172
155 170 162
148 164 150
151 167 157
152 168 159
147 162 151
154 171 162
151 167 157
159 175 169
164 178 173
167 180 176
164 177 174
168 181 180
163 177 172
166 180 177
181 193 195
180 192 194
175 187 182
163 176 172
175 187 187
168 181 179
173 185 183
178 190 192
180 192 194
179 192 192
173 186 185
169 184 182
151 167 157
176 188 188
187 198 204
196 206 212
186 198 201
194 205 211
186 197 203
188 201 208
191 202 207
195 205 212
193 204 210
201 211 220
190 201 208
201 211 219
193 204 212
199 210 219
201 211 219
195 205 214
191 202 210
195 205 212
197 206 213
197 207 214
188 200 207
201 211 219
209 218 227
197 207 215
163 178 174
93 121 72
93 120 72
89 115 68
95 122 73
97 125 75
93 120 71
95 122 73
94 121 72
92 118 71
93 120 71
95 122 73
92 118 71
93 119 71
91 118 70
92 119 71
90 117 70
95 122 73
94 122 73
91 118 71
90 117 69
86 112 66
93 119 71
87 114 67
95 121 72
96 123 73
90 117 69
153 169 156
203 213 222
199 209 217
198 208 215
179 192 195
163 178 176
152 169 158
126 145 120
94 120 74
92 119 71
95 123 74
92 119 71
93 120 72
97 125 75
88 115 68
90 116 69
92 119 71
91 118 71
92 119 71
93 120 72
91 117 69
97 124 74
93 120 71
93 120 72
96 123 74
96 124 74
96 123 75
147 163 149
191 202 209
197 207 213
201 211 221
202 212 222
203 213 221
192 203 211
204 214 223
197 206 214
196 206 212
195 205 213
195 205 212
197 208 214
198 208 218
195 206 214
197 208 217
202 212 221
194 204 210
193 204 212
202 211 219
194 204 210
201 211 220
193 204 210
200 210 219
194 204 213
192 204 211
197 207 214
137 154 138
93 120 72
92 119 71
95 122 73
91 118 71
93 120 72
95 122 73
91 117 70
91 118 71
92 118 70
91 118 70
93 120 72
93 119 71
93 120 73
94 121 72
93 121 72
91 118 70
94 121 73
96 123 74
91 118 70
89 116 69
92 119 71
94 121 72
96 124 74
92 119 71
95 122 73
108 129 99
188 198 204
191 202 210
192 203 210
192 203 212
195 205 212
193 203 209
197 208 217
192 204 214
193 202 206
191 202 209
192 203 209
197 207 214
194 205 211
199 210 219
201 211 219
198 208 217
195 206 215
199 209 218
200 210 218
200 210 218
195 206 213
194 204 211
193 204 212
197 207 214
204 214 225
188 200 204
93 120 71
91 118 70
89 116 69
92 119 71
92 119 71
88 115 69
94 122 73
93 120 72
94 121 73
92 119 70
93 120 72
92 118 71
93 121 73
91 117 70
92 119 71
94 121 73
93 120 72
93 120 72
92 119 71
89 116 69
92 119 70
97 124 77
94 120 76
99 123 85
108 130 97
186 198 201
182 195 200
181 193 196
189 200 205
177 189 190
170 184 182
164 178 177
174 188 188
176 188 187
165 179 173
169 183 181
174 187 185
155 171 162
164 178 176
171 184 181
171 184 179
162 177 172
175 187 185
168 183 181
163 177 172
175 188 188
175 188 187
160 175 169
163 177 173
127 146 120
131 150 131
144 160 147
131 150 128
121 140 121
130 149 129
139 156 140
128 146 125
128 147 126
138 155 141
125 144 123
139 157 141
122 143 115
117 139 109
112 135 102
130 149 127
131 149 126
121 143 114
124 142 122
129 149 129
129 148 126
127 147 123
128 148 125
130 150 129
167 180 179
176 189 187
171 184 184
170 184 182
159 173 167
161 176 169
159 173 168
164 179 173
154 169 161
160 175 168
161 176 172
158 174 167
150 165 155
156 172 163
140 157 144
145 161 149
146 163 150
137 155 138
151 167 159
134 151 134
136 154 134
172 185 183
181 194 197
178 191 193
182 193 195
160 175 169
181 194 194
181 193 197
191 202 207
183 194 195
193 205 212
187 199 204
191 202 208
196 207 215
191 203 212
192 203 209
201 211 220
198 208 215
189 200 206
197 207 214
198 208 216
196 206 213
130 150 129
94 121 72
90 116 69
94 121 72
92 120 72
91 117 70
94 121 72
94 121 72
94 121 72
92 119 71
95 122 73
91 118 71
85 112 66
93 120 71
90 116 69
93 119 71
91 117 70
96 123 74
94 121 73
150 166 154
202 212 221
198 209 219
204 214 221
203 214 223
194 205 212
193 204 212
203 212 221
192 203 210
193 205 214
201 210 216
191 202 210
205 214 223
197 208 217
195 205 212
189 201 207
198 209 218
197 207 213
201 212 222
202 212 220
185 197 203
195 207 217
193 204 210
203 213 223
195 206 214
189 200 206
194 205 214
193 204 212
196 207 217
189 200 205
153 169 163
89 116 68
92 119 72
96 124 74
91 118 71
90 116 70
88 115 68
117 137 108
152 168 156
192 203 208
193 204 210
196 207 218
192 203 210
194 206 215
197 207 213
188 199 206
194 205 213
195 206 214
192 203 211
187 199 208
190 200 207
198 209 215
194 205 213
189 200 204
163 178 174
91 117 70
95 123 73
88 114 68
89 116 69
93 120 72
87 113 67
94 121 73
88 114 67
88 115 68
92 120 71
97 124 75
94 121 72
93 120 72
113 136 102
163 177 174
188 200 203
201 211 219
201 211 220
204 214 222
194 204 209
197 207 214
200 210 219
200 210 220
184 197 204
190 201 203
89 115 68
92 119 71
94 121 73
96 123 74
88 115 68
93 120 72
90 117 70
86 112 66
93 120 71
95 123 73
96 123 74
91 118 70
91 118 71
91 117 70
95 123 74
93 120 72
93 120 72
93 120 72
96 122 73
93 119 71
90 117 70
95 122 73
93 120 71
91 118 70
91 118 70
107 131 98
199 209 218
202 212 221
200 210 218
185 196 202
160 174 168
126 146 126
96 122 75
92 119 71
91 118 70
91 118 71
94 121 72
93 120 72
90 116 69
92 119 70
94 121 75
94 120 75
94 121 73
97 123 79
100 125 82
102 126 89
95 121 78
103 126 93
102 127 87
113 135 104
116 137 108
115 137 105
161 176 167
181 193 195
183 196 198
174 187 189
185 196 199
180 192 197
187 198 200
176 188 189
175 187 188
177 189 191
171 184 184
172 186 185
174 187 185
176 189 187
171 184 182
177 189 188
173 185 183
172 185 184
167 181 179
171 183 181
159 174 172
170 184 182
168 181 178
181 193 194
174 187 187
169 182 182
162 177 173
137 155 143
140 157 143
137 154 138
136 153 139
149 165 153
140 157 142
135 153 131
147 163 151
145 161 150
132 151 131
109 132 98
115 138 103
125 146 123
141 158 146
161 175 173
158 173 166
156 170 160
159 173 166
163 177 173
148 164 153
153 168 160
150 167 158
158 172 168
156 170 164
154 169 160
153 169 159
154 170 161
158 172 164
160 174 167
156 171 163
161 175 171
156 171 162
153 168 158
158 173 167
158 172 167
160 175 169
158 173 166
154 168 157
165 178 173
147 163 152
145 162 151
162 177 171
165 178 175
156 171 164
158 173 165
159 174 172
170 183 183
164 177 173
168 181 177
163 177 174
144 160 147
168 181 177
159 173 169
161 175 170
156 169 162
147 164 152
141 158 144
145 161 148
144 161 149
137 154 139
143 160 145
132 150 128
147 163 152
143 161 148
147 165 153
139 156 141
150 167 154
143 160 148
145 162 149
145 161 150
146 163 150
153 169 160
151 166 158
154 170 160
146 163 150
141 157 143
151 167 155
130 150 131
142 160 147
141 157 145
144 160 147
150 165 157
154 170 162
141 157 146
158 172 166
153 168 159
150 167 159
137 154 141
155 170 162
157 172 164
153 168 162
160 175 165
159 175 169
155 170 162
162 177 170
154 169 161
163 178 171
159 174 168
141 157 145
152 169 158
147 162 150
154 170 160
146 163 151
157 172 162
161 176 171
138 156 142
164 179 176
144 161 148
164 178 173
158 174 166
165 178 175
156 170 166
155 170 162
154 168 161
168 182 182
168 181 179
171 184 181
158 174 165
160 175 168
163 177 173
162 176 171
164 178 173
172 185 181
171 183 181
163 177 173
168 182 180
174 186 188
174 187 188
157 171 164
178 190 190
183 194 195
142 159 147
131 150 129
127 146 125
117 138 109
122 143 114
118 140 114
125 145 121
116 138 107
120 140 118
114 136 105
119 138 112
131 150 125
116 137 110
116 138 108
104 128 88
101 127 84
120 140 110
103 126 89
104 129 91
104 129 87
97 121 80
94 120 75
102 127 88
96 121 79
124 143 128
201 211 219
200 210 220
193 204 210
198 209 217
189 201 207
199 210 219
199 209 217
192 203 211
191 201 206
195 206 213
196 206 213
194 204 211
192 203 211
195 205 213
197 208 217
192 202 208
196 207 214
191 202 210
194 205 213
198 209 219
193 204 210
196 207 215
178 190 187
102 126 87
94 121 73
92 119 71
91 118 70
95 122 73
93 120 72
91 117 70
94 122 74
92 119 71
93 120 72
96 123 74
93 121 73
91 118 71
89 115 68
93 120 72
93 120 71
95 122 73
89 115 68
91 118 70
92 119 71
91 118 70
129 149 124
192 203 209
187 198 204
206 216 225
203 213 223
201 211 219
197 207 215
197 207 216
199 210 218
198 208 216
187 198 205
200 210 217
189 200 208
203 213 222
192 203 210
193 204 210
201 210 219
200 210 218
204 214 223
194 205 213
201 212 222
150 165 156
89 115 68
94 121 72
94 121 73
93 120 72
94 121 73
94 121 72
88 114 69
92 118 70
91 118 70
94 121 73
95 122 73
90 116 69
91 118 71
91 118 70
95 121 72
89 115 69
94 121 72
93 120 71
140 158 142
201 210 218
198 208 216
195 206 214
198 209 220
193 203 209
198 208 217
195 205 214
201 211 221
198 209 216
196 207 215
194 204 213
196 207 214
197 207 215
199 209 216
198 208 217
184 195 199
169 182 179
179 191 193
196 207 214
204 213 220
194 206 215
205 214 224
200 209 216
194 206 215
195 206 215
195 206 215
197 208 216
197 207 215
198 208 215
203 214 224
175 188 185
89 116 70
94 121 73
91 118 70
88 114 68
94 121 72
91 117 70
91 118 71
91 117 69
96 123 74
113 136 103
163 178 173
188 199 206
200 209 217
191 203 210
201 212 222
206 215 223
196 205 211
191 202 210
197 208 216
200 210 217
197 208 216
196 207 216
189 200 206
175 188 189
91 118 71
90 117 69
92 119 71
90 117 69
90 117 69
92 119 71
94 122 73
92 118 71
91 118 71
91 118 71
90 117 69
89 115 68
92 119 70
93 120 71
92 120 72
94 121 73
121 142 117
152 167 160
171 184 183
191 201 205
202 212 221
198 208 216
201 211 220
199 210 218
189 200 202
95 122 73
92 118 70
91 118 70
94 121 73
93 120 72
91 118 71
94 121 73
90 117 70
89 116 69
91 118 70
92 119 72
95 122 74
94 121 73
92 118 70
93 120 72
94 121 72
93 120 72
93 120 71
94 122 73
91 118 71
92 119 71
90 116 69
93 120 71
94 122 73
91 118 70
125 146 123
192 203 210
192 203 211
199 210 219
198 208 218
200 210 220
189 200 207
199 209 217
157 172 166
152 168 160
110 133 99
92 119 71
97 124 75
94 121 73
92 119 71
93 120 72
88 115 69
89 116 69
88 115 69
92 118 70
94 122 73
94 121 73
93 119 71
86 113 67
91 118 71
90 116 70
92 119 70
177 189 189
196 207 214
192 204 211
193 203 208
205 214 223
193 204 212
193 203 209
192 204 209
196 207 215
202 213 223
200 210 218
193 205 213
203 213 223
205 214 225
195 205 212
201 211 218
190 201 208
190 201 208
196 207 214
192 203 210
200 210 220
199 209 217
206 216 226
194 205 212
192 202 209
197 207 216
198 208 215
96 122 78
93 120 72
95 123 74
92 119 70
92 119 71
95 122 73
91 118 70
90 117 69
93 120 71
94 122 73
93 120 72
90 117 70
92 119 71
97 124 75
114 136 105
143 160 146
167 182 179
176 189 190
190 201 206
196 206 214
195 206 212
186 197 203
194 205 212
187 197 204
193 205 213
200 210 219
200 211 219
94 119 76
96 123 74
92 119 71
90 117 70
94 121 72
92 119 70
93 120 71
95 122 73
89 116 69
91 118 70
97 124 75
91 118 70
93 120 72
95 122 73
90 117 69
95 122 73
93 120 71
93 119 72
91 118 70
92 119 71
92 120 73
90 116 70
95 122 73
91 118 70
91 118 70
95 122 74
140 158 139
201 211 219
202 212 220
193 204 212
206 216 227
201 211 219
197 207 212
190 201 206
198 208 216
192 203 209
194 205 211
189 200 205
197 208 217
194 205 212
192 204 211
198 209 217
193 204 213
193 204 212
201 211 219
200 211 219
195 206 214
203 213 222
192 204 213
197 207 214
193 205 216
198 208 216
194 205 210
103 128 88
94 121 72
89 116 69
93 120 72
93 119 70
94 121 73
91 118 70
93 120 72
93 120 72
91 118 71
89 115 69
91 118 70
90 117 70
91 118 70
92 119 72
93 119 71
91 118 70
92 119 71
90 117 70
91 118 71
94 121 72
90 117 69
93 119 72
92 119 71
88 115 69
115 135 109
196 206 215
186 198 203
197 208 217
203 213 222
193 204 212
203 212 221
199 208 216
193 206 216
196 207 216
194 204 212
205 214 222
192 203 208
203 213 222
198 208 218
192 202 207
190 201 209
204 214 222
203 212 219
193 203 211
196 206 215
193 204 210
201 212 221
196 207 214
200 210 217
189 200 207
103 127 85
92 118 70
94 121 73
96 123 74
89 116 69
92 120 72
90 116 70
90 116 69
93 120 71
96 123 74
94 121 72
91 118 70
91 118 71
90 118 71
92 119 71
92 119 71
90 117 70
89 116 69
92 119 71
88 115 69
91 118 70
93 120 72
96 123 74
106 130 91
187 198 203
201 212 224
198 208 216
203 213 223
199 209 218
191 202 210
185 197 204
197 207 215
203 213 222
199 209 217
200 210 218
201 210 217
190 201 207
201 211 218
198 209 216
195 205 213
201 211 220
196 207 215
194 204 210
189 200 206
202 211 220
198 209 217
199 209 216
129 147 126
92 118 70
95 122 73
91 118 70
93 119 71
93 120 71
92 120 72
93 120 72
92 119 71
93 121 73
90 117 69
91 117 70
94 121 73
93 120 71
91 118 70
88 114 68
95 123 74
92 119 71
96 124 74
91 118 70
92 119 71
105 130 91
191 202 210
196 206 211
201 211 220
199 209 219
189 200 205
196 206 213
198 208 215
188 200 207
195 206 215
191 203 210
200 210 217
194 205 214
195 205 210
200 210 220
189 200 205
196 206 213
204 213 221
195 205 213
197 207 214
200 211 220
151 166 159
96 123 74
93 120 72
95 122 73
94 121 72
90 117 70
90 118 70
92 119 71
96 123 73
88 114 68
89 116 69
95 123 73
92 119 71
90 117 70
92 119 72
93 121 72
95 122 73
94 121 72
96 124 74
139 157 142
201 211 218
195 205 213
204 214 223
193 204 212
192 203 209
202 212 221
194 205 214
199 209 218
199 208 215
192 204 212
193 205 213
191 202 209
181 193 194
146 162 150
139 157 137
110 133 100
102 126 87
169 182 181
195 205 212
99 124 84
145 161 154
188 199 204
191 201 208
194 205 213
192 203 212
196 206 213
193 204 210
201 211 221
185 196 201
198 208 215
193 204 210
191 202 209
91 117 70
92 119 72
94 121 72
97 124 75
88 114 68
91 118 70
92 120 72
94 121 73
95 122 73
88 115 68
90 117 70
96 122 78
128 147 126
179 191 191
198 208 216
197 207 215
201 211 221
198 208 217
194 205 212
194 204 209
203 213 221
199 209 216
194 205 213
176 189 187
93 119 71
93 120 71
90 116 69
93 120 72
90 117 70
93 121 72
93 120 72
94 121 73
93 120 72
89 116 69
91 118 70
89 115 68
94 121 73
94 121 73
95 122 72
94 121 72
90 117 71
91 118 70
93 121 73
111 132 102
156 170 163
180 192 193
193 203 210
201 212 223
162 176 174
91 118 70
87 113 67
94 121 72
94 121 73
91 118 71
92 119 71
94 121 72
92 119 71
93 120 72
91 118 70
95 123 74
91 118 71
92 118 70
91 118 70
94 121 73
91 118 70
92 119 71
93 121 72
90 116 70
92 119 71
92 118 70
93 120 72
88 114 67
96 122 73
94 121 72
129 148 127
195 205 213
207 216 226
191 203 211
192 202 208
200 210 219
194 205 212
196 206 213
195 205 212
187 199 205
199 208 215
198 208 214
153 167 160
147 164 153
104 127 90
90 117 70
92 119 71
90 116 69
91 117 69
91 118 71
93 121 73
95 122 73
93 120 72
89 116 69
92 119 71
91 118 70
95 122 73
178 192 197
201 211 220
195 206 215
188 199 206
202 212 221
201 211 221
200 210 218
203 213 221
192 203 211
196 207 214
195 205 212
200 210 218
193 203 210
199 209 217
202 212 219
202 212 220
202 212 220
206 216 227
192 203 208
201 211 220
204 215 226
190 201 208
195 206 216
204 213 222
205 215 224
199 208 215
184 195 198
93 120 71
93 120 71
94 121 73
96 123 74
90 117 70
91 118 71
93 120 72
92 119 71
96 123 74
88 115 69
95 122 73
92 119 71
90 116 70
93 120 72
94 121 72
92 119 70
94 121 72
91 117 70
90 116 72
134 153 133
133 152 131
151 168 159
187 199 204
194 204 210
193 203 210
197 208 214
154 169 163
94 121 72
91 118 70
96 123 73
93 120 73
92 119 71
91 118 71
92 119 71
89 115 68
90 116 69
91 118 70
89 117 70
91 117 70
93 119 71
92 119 71
90 117 70
94 121 72
93 119 71
92 118 70
95 122 73
90 116 69
93 119 71
88 114 67
94 121 73
87 113 68
86 112 67
92 119 71
178 191 192
196 206 214
195 206 213
197 207 215
188 200 208
197 207 215
187 197 202
202 212 221
204 214 224
207 216 226
198 208 216
198 208 216
189 201 209
204 213 221
200 210 218
196 206 213
198 208 216
196 207 215
187 199 207
192 202 208
195 205 212
197 207 215
197 208 217
198 209 217
191 202 210
191 202 208
170 183 180
90 116 69
92 118 71
89 115 68
93 120 72
91 118 70
92 119 71
94 121 72
92 119 71
92 120 72
92 119 71
94 121 72
92 119 71
92 119 71
94 121 72
93 120 71
94 122 74
90 117 70
90 117 70
91 117 70
93 120 72
92 119 71
92 119 72
90 116 69
94 121 73
93 120 71
171 184 184
203 213 220
197 208 215
203 213 221
195 205 213
194 205 212
196 207 216
196 207 214
196 207 215
197 207 215
197 207 217
188 199 206
193 204 213
192 203 211
197 207 215
194 204 210
204 213 221
198 207 214
193 204 211
202 212 222
194 205 212
195 206 215
198 209 220
199 209 218
191 202 209
132 151 131
94 122 73
93 121 72
93 120 72
94 121 72
93 120 72
90 117 70
93 120 72
93 120 71
90 118 70
91 117 70
92 119 70
91 118 70
92 119 71
90 117 69
96 123 74
86 112 65
94 122 73
95 122 73
88 115 69
93 120 72
93 120 72
91 118 71
91 118 71
168 181 178
198 208 216
198 208 217
192 203 209
196 206 212
192 202 209
201 211 218
208 217 227
195 206 213
195 206 214
205 214 222
187 199 206
194 204 210
202 212 219
196 207 216
207 217 227
202 212 221
200 210 217
192 203 209
195 205 213
196 206 213
200 209 217
200 211 220
150 167 155
94 121 73
93 121 72
92 120 72
90 117 70
91 118 70
93 119 71
93 120 72
91 118 70
95 122 73
93 120 71
92 119 71
94 121 73
90 116 69
91 117 69
94 121 72
92 119 70
96 124 74
88 114 68
93 120 72
93 119 71
91 117 72
178 191 191
193 204 211
192 202 208
192 203 211
204 214 223
198 208 216
200 210 217
198 208 216
208 217 226
194 204 210
195 205 212
198 207 215
198 208 218
199 210 219
199 209 217
201 211 221
197 206 214
193 204 213
189 200 205
200 211 221
170 184 185
88 114 67
96 123 74
94 121 72
92 119 71
94 121 73
91 118 71
96 123 73
92 118 71
85 111 66
92 119 71
93 120 72
92 119 70
94 121 73
95 122 73
91 117 70
92 119 71
93 120 72
95 123 74
128 147 128
194 206 214
202 212 222
200 210 219
199 209 216
202 211 221
186 197 204
196 207 214
194 204 209
178 191 192
150 166 156
142 159 149
109 132 99
94 121 73
93 120 72
95 122 73
89 116 69
94 120 77
178 191 192
200 209 216
206 215 225
92 119 71
89 115 68
90 116 70
118 139 117
162 176 171
191 201 206
196 207 217
201 210 219
193 204 209
202 211 219
192 203 210
204 214 224
206 215 225
100 126 85
92 119 71
88 115 68
92 118 70
93 120 72
93 120 72
92 118 70
93 119 71
90 117 70
91 118 71
90 117 70
95 122 73
90 117 70
88 115 68
99 125 85
142 157 144
181 193 196
197 208 216
196 206 213
205 214 222
199 209 216
197 207 213
199 210 219
182 194 199
90 117 70
91 118 70
90 117 70
89 116 68
94 121 73
96 124 74
91 118 71
93 120 72
90 117 70
90 116 70
94 121 72
90 117 70
92 118 71
92 119 71
91 117 69
92 119 71
92 119 71
94 121 73
91 118 70
92 119 71
94 121 72
92 120 72
101 124 89
145 161 151
174 187 187
95 122 76
92 119 71
91 118 71
95 122 72
92 119 72
94 121 72
92 119 71
90 116 70
88 115 68
95 122 74
92 119 70
95 123 74
92 119 71
96 124 75
92 119 71
93 120 72
90 116 69
94 120 72
87 113 67
98 125 75
94 120 72
91 118 71
93 120 72
93 121 72
94 120 71
143 160 146
200 210 217
187 198 205
194 205 213
190 201 208
195 206 213
191 201 208
200 211 220
194 205 213
197 207 214
201 211 219
194 204 211
199 209 217
190 201 209
193 203 210
181 193 196
161 176 168
130 149 129
93 119 74
90 116 69
93 120 72
92 118 70
90 116 69
91 118 70
89 116 69
93 121 73
103 127 92
193 204 212
191 202 210
192 203 213
202 212 221
193 204 213
199 210 219
193 204 211
194 205 213
199 210 220
190 201 206
195 206 214
188 200 206
206 216 225
193 204 210
192 203 212
208 217 226
200 210 218
203 213 222
197 207 215
194 203 208
199 210 220
193 203 210
187 198 203
202 211 218
195 205 213
198 210 220
155 171 163
88 115 69
87 114 67
91 118 70
94 120 72
93 120 71
91 119 72
97 124 75
95 123 74
89 116 68
91 118 70
92 119 71
91 118 70
92 119 71
93 120 71
95 122 73
89 116 68
92 120 72
93 120 71
93 119 71
93 120 72
93 121 72
86 113 67
91 119 72
93 121 73
106 129 95
126 146 123
152 167 161
135 153 139
121 142 117
95 120 80
91 118 70
94 121 73
88 115 67
92 119 71
92 119 71
92 119 70
95 122 73
92 119 72
92 119 71
92 119 71
87 113 67
91 118 71
92 119 71
91 118 69
93 120 72
93 120 72
93 120 72
91 117 69
94 122 73
91 118 70
92 120 71
90 117 70
98 123 81
195 206 213
199 210 220
198 209 221
199 210 220
196 207 216
190 202 208
189 200 208
195 206 214
207 216 226
198 209 217
194 205 212
198 209 218
201 211 219
204 213 222
191 202 210
199 209 218
189 200 206
195 205 212
201 211 220
202 212 220
196 207 216
187 199 206
198 209 219
194 205 210
197 208 217
192 204 211
115 138 108
89 116 69
95 123 74
93 120 72
91 118 71
91 117 69
92 119 71
92 120 71
92 119 71
93 120 72
93 121 73
93 120 72
92 119 71
91 117 70
97 124 74
91 117 70
88 114 68
93 120 72
95 123 73
94 121 73
94 122 74
90 117 71
90 117 69
95 123 74
93 120 72
130 149 127
198 208 215
202 212 219
201 211 220
200 211 221
193 204 210
194 204 212
188 200 209
202 212 221
193 203 211
198 208 216
192 204 212
191 203 210
200 209 217
196 206 213
197 207 212
198 208 217
192 203 208
200 211 219
201 211 219
197 208 218
196 206 213
192 204 211
191 203 211
196 205 211
165 179 175
93 120 72
97 125 75
90 116 69
93 120 73
92 119 71
94 121 73
90 117 70
95 122 74
91 117 70
91 118 71
92 119 72
93 120 71
94 121 72
91 118 71
92 119 71
91 118 71
93 120 72
91 118 71
95 122 73
94 121 72
93 120 72
94 122 73
92 119 71
129 148 126
191 201 205
195 206 216
193 204 212
189 200 207
196 206 213
191 201 206
192 202 208
198 209 217
197 208 216
194 205 213
198 208 216
189 201 208
194 205 213
198 209 217
200 210 219
198 209 217
193 204 212
191 202 210
198 209 217
198 208 215
188 200 207
207 217 227
174 186 184
94 121 73
89 115 68
88 114 68
94 121 72
90 117 70
86 113 67
91 118 71
92 119 71
94 121 72
90 117 70
92 119 71
91 118 70
90 116 69
92 119 71
92 118 71
91 118 70
95 122 73
93 120 71
88 114 68
87 114 69
91 117 71
153 169 162
195 205 210
194 205 211
190 201 208
195 206 214
196 207 215
199 210 217
196 207 216
197 207 215
196 206 213
186 198 204
197 207 214
192 202 208
196 207 213
188 199 204
200 210 221
196 207 215
196 207 216
192 203 209
193 203 210
172 186 187
103 128 91
93 120 72
90 117 69
92 119 72
88 114 68
91 119 71
92 119 71
92 119 71
92 119 71
93 120 72
92 119 71
89 116 69
94 120 71
92 119 71
94 121 73
93 120 71
91 118 70
91 117 70
119 140 110
196 207 214
193 204 212
194 205 213
202 211 218
176 188 190
158 173 167
129 147 130
119 140 112
93 119 76
91 117 70
88 115 69
91 118 71
92 118 70
91 117 70
96 123 74
92 119 71
103 126 89
164 178 175
193 205 215
196 205 213
194 205 213
95 122 73
90 116 68
90 116 69
95 122 73
90 117 71
101 125 88
160 175 165
182 194 196
190 200 206
194 205 213
190 201 208
196 207 216
199 210 219
119 139 113
92 119 71
90 118 71
90 117 70
91 118 70
93 120 72
88 115 69
89 115 68
92 120 71
94 121 73
92 118 70
90 117 70
92 119 71
93 120 72
91 118 70
91 117 70
93 120 71
114 135 106
143 159 147
182 194 194
187 199 205
198 209 218
198 208 216
192 203 211
91 118 70
90 117 70
93 120 71
89 116 68
92 119 71
92 119 71
90 117 70
92 119 71
91 118 69
95 122 74
90 117 70
92 118 71
91 118 71
92 119 71
92 119 71
91 117 70
93 120 72
89 116 68
89 116 69
94 121 73
91 118 71
92 119 70
90 116 69
86 113 67
120 140 114
191 202 208
154 169 162
138 156 140
95 121 75
93 120 72
91 118 70
92 119 71
91 118 71
93 120 72
91 118 70
92 119 72
92 120 71
94 121 73
93 120 72
92 119 71
92 119 72
90 117 69
90 117 69
93 121 72
95 122 73
91 118 71
91 118 71
92 119 71
90 117 69
92 118 70
144 161 147
201 211 221
195 206 214
192 204 214
189 200 207
198 208 215
192 203 211
198 208 216
202 212 219
194 205 213
206 214 222
191 202 209
202 212 223
193 203 209
204 214 223
198 208 218
194 205 212
196 207 215
180 192 197
175 188 186
157 172 164
118 139 111
92 119 72
93 119 71
90 117 69
90 116 69
123 144 122
186 198 205
193 204 212
203 213 223
199 208 217
198 209 218
191 203 212
199 209 219
196 206 213
189 200 208
204 213 223
190 202 210
200 211 220
201 211 218
199 209 216
191 203 211
194 204 210
196 207 217
191 201 204
198 209 217
193 203 210
199 209 217
197 207 216
202 211 220
185 198 205
191 202 209
201 211 220
143 160 146
94 121 72
93 121 73
96 124 74
95 122 74
92 119 71
91 118 71
93 120 72
91 118 70
94 121 73
96 123 73
90 117 69
93 121 72
93 120 72
87 113 67
92 118 71
94 121 72
94 120 71
91 118 70
89 116 69
93 120 72
90 117 70
89 116 69
93 120 73
90 116 69
93 120 71
94 119 76
190 200 208
189 201 207
194 205 213
191 201 206
184 195 198
162 175 171
160 174 168
141 158 144
119 140 110
103 127 88
94 121 72
90 116 69
90 117 70
94 121 72
94 121 72
91 117 70
92 119 71
93 119 72
93 120 72
92 119 71
91 118 70
92 119 71
90 117 71
96 124 75
94 121 73
91 118 71
154 169 159
190 201 208
193 203 211
193 204 211
199 209 218
195 205 213
193 203 210
195 206 213
192 202 209
191 201 207
196 207 214
193 204 212
194 205 211
198 209 217
197 208 217
198 209 218
187 198 205
191 202 208
196 206 214
199 209 217
195 206 213
197 208 217
192 204 213
197 207 215
193 204 211
196 207 215
165 179 176
90 116 69
91 118 71
94 121 72
94 121 72
92 119 71
93 120 72
91 118 71
95 123 74
88 114 69
92 119 71
95 122 73
90 116 69
94 121 72
91 118 70
89 116 70
89 116 69
97 124 75
93 120 71
94 121 73
93 120 71
93 120 71
91 118 70
93 120 72
92 119 71
94 121 72
178 189 189
204 214 223
203 213 223
193 204 210
200 211 220
200 209 217
198 208 215
190 203 211
185 196 201
202 212 221
203 213 223
194 205 213
193 203 211
188 200 205
201 211 217
197 207 213
194 205 214
193 204 212
188 199 204
194 205 213
193 203 209
205 214 223
193 204 213
200 210 218
196 206 215
117 137 110
91 118 70
93 121 72
93 120 71
88 115 69
95 122 74
94 121 73
90 117 70
89 115 69
92 119 71
90 117 70
93 120 72
91 118 70
94 121 73
93 120 72
91 118 71
92 119 71
91 119 71
88 115 68
93 120 72
93 120 72
90 116 69
94 121 72
98 124 79
185 196 199
196 207 215
189 200 208
199 209 218
201 212 221
196 206 214
206 215 224
193 204 211
199 210 220
196 207 213
179 190 193
187 199 204
197 207 214
193 204 213
197 207 215
198 208 214
198 208 217
200 211 220
192 203 209
195 206 213
203 212 221
187 198 204
193 205 211
105 130 90
94 121 72
89 115 69
93 120 72
88 114 67
89 116 69
95 123 74
94 121 72
92 119 71
89 116 69
90 117 70
93 121 72
90 116 69
93 120 72
91 118 71
92 119 72
95 122 74
86 112 66
93 120 72
90 117 70
93 119 71
134 153 134
191 203 211
193 204 213
200 210 217
198 210 220
196 206 214
194 205 211
191 202 207
187 198 207
193 204 210
204 214 224
204 214 224
198 209 218
202 211 218
188 200 207
187 198 203
191 202 211
203 213 222
195 205 211
197 207 213
192 204 211
107 130 96
89 115 68
90 117 70
91 118 70
87 113 68
86 112 66
89 115 68
94 121 72
89 116 69
92 119 71
92 119 71
91 117 69
87 114 68
87 113 68
91 118 71
92 118 71
93 120 71
92 118 76
111 133 101
167 181 177
145 161 148
127 145 126
107 130 95
92 119 71
89 116 69
91 118 71
89 116 69
93 121 73
90 116 69
89 116 69
91 118 70
95 122 73
92 119 71
95 121 73
89 116 69
102 125 88
167 180 180
196 206 213
200 211 221
199 210 219
189 199 207
90 117 70
96 123 74
90 116 69
93 120 72
91 118 70
91 118 70
93 121 73
93 120 73
112 134 103
168 182 180
189 200 206
185 197 203
192 204 213
143 159 148
87 114 68
89 115 69
88 115 68
89 116 69
95 122 74
89 115 68
91 118 71
93 119 72
88 115 68
91 117 70
93 119 71
93 121 73
92 120 71
92 119 71
91 118 70
93 120 72
89 116 68
91 118 70
94 121 72
129 148 125
163 178 175
196 206 214
201 212 220
93 119 74
95 122 73
94 122 73
94 121 72
91 117 70
91 118 71
87 114 67
93 120 71
93 120 71
90 117 70
94 120 71
95 122 73
92 119 71
89 115 69
93 120 72
90 117 70
89 116 69
95 122 72
90 116 69
94 121 72
94 121 73
91 118 71
89 115 69
93 120 72
105 127 95
198 208 215
201 210 218
189 200 206
191 202 210
179 192 192
141 158 140
97 122 78
89 115 68
93 120 71
94 122 73
93 120 73
95 123 74
89 116 70
95 122 73
91 118 70
92 119 72
87 114 68
87 113 67
91 117 70
94 122 73
91 117 70
93 121 73
92 119 71
90 117 69
88 114 68
167 181 179
188 200 207
202 212 220
193 204 211
192 203 209
194 205 214
193 204 211
195 206 214
197 207 216
191 202 209
196 206 213
195 206 214
199 209 218
209 218 225
196 207 215
190 201 210
193 203 208
192 202 208
197 208 219
191 201 209
189 200 206
199 210 219
194 205 214
175 187 188
151 166 161
131 150 130
143 160 146
193 203 210
187 198 203
197 207 214
197 208 214
196 206 212
202 212 221
198 208 216
190 202 209
198 207 213
198 209 216
191 202 209
192 203 210
192 203 210
193 205 213
204 213 223
190 201 208
196 206 214
199 210 221
188 200 206
191 202 210
195 205 213
204 214 224
194 205 211
201 211 219
199 209 217
200 210 217
115 136 110
91 118 70
94 121 73
88 115 68
93 120 71
91 118 71
88 115 68
95 122 73
91 117 70
94 122 73
91 118 70
93 119 72
95 122 73
93 120 71
92 118 71
91 117 70
91 117 69
93 120 72
91 118 70
94 121 72
92 120 72
92 119 71
88 114 68
88 114 68
89 116 69
92 119 71
120 140 117
189 201 207
189 200 207
204 213 222
194 204 210
193 205 212
184 195 198
196 207 214
192 203 212
196 207 217
188 199 207
178 190 193
163 177 172
155 171 158
139 156 143
115 136 108
98 123 79
93 120 72
93 120 72
96 123 75
89 116 69
89 115 68
94 122 73
95 122 74
94 121 73
88 115 68
95 122 73
179 192 193
191 202 210
198 209 217
191 202 208
195 206 215
196 206 214
185 198 205
194 205 214
201 211 220
195 206 215
197 208 218
196 206 212
200 209 217
197 207 215
202 212 222
190 201 208
193 204 212
192 205 216
196 207 214
198 208 218
192 203 210
200 211 219
199 210 220
200 210 220
185 198 205
194 204 211
116 138 109
92 119 71
94 121 73
88 115 69
94 121 73
92 119 71
93 120 71
94 121 72
86 113 67
93 120 73
94 120 72
90 116 69
94 121 72
88 115 69
88 115 68
94 121 73
91 118 70
92 119 72
94 122 73
89 115 68
96 123 74
93 120 72
91 118 71
92 119 71
93 119 71
143 159 149
203 212 222
189 200 206
208 216 224
196 206 213
196 206 215
195 205 212
197 207 216
196 205 212
202 212 223
200 210 216
198 208 217
196 207 215
199 208 216
192 203 210
198 209 219
195 206 215
199 209 217
195 206 215
186 197 204
196 206 213
196 206 214
193 204 210
193 205 214
202 211 218
148 164 154
89 115 69
91 117 70
91 118 70
95 122 73
90 117 70
88 115 68
90 117 70
93 121 73
92 119 72
92 118 70
95 122 73
95 122 73
94 121 73
91 118 69
94 121 73
94 121 73
91 117 70
94 122 73
86 112 67
90 118 71
93 121 73
92 119 71
90 116 69
178 191 191
195 205 214
196 207 216
200 210 219
193 203 212
198 208 215
198 208 215
193 204 209
192 203 209
193 204 213
196 205 212
195 206 215
197 207 215
196 206 214
194 204 211
203 213 222
200 211 220
197 208 219
192 203 210
198 208 218
193 204 212
196 207 215
195 207 216
124 145 123
91 117 69
92 119 71
94 121 72
94 121 73
93 121 73
98 125 75
94 121 73
94 122 73
93 120 72
90 116 69
97 125 75
89 115 68
88 115 68
93 120 72
92 119 71
89 115 68
91 118 70
92 119 72
95 122 74
91 119 71
120 141 114
186 197 203
196 206 215
193 203 208
192 203 210
198 208 214
194 205 213
192 203 211
186 198 203
189 200 207
191 202 208
192 203 209
198 207 214
208 216 226
197 209 220
187 198 204
194 205 212
198 207 214
191 203 211
196 207 214
186 198 202
108 131 97
88 114 67
91 117 69
92 119 71
91 117 70
93 121 73
90 117 70
91 118 71
88 114 68
94 121 72
95 122 73
90 118 70
93 119 74
115 136 109
138 156 138
157 172 161
160 175 170
179 192 194
179 192 196
91 117 73
92 119 71
93 120 72
94 121 72
96 123 74
93 120 72
90 117 70
92 119 70
91 117 70
92 118 70
91 118 70
92 119 71
92 119 70
87 113 66
88 114 68
92 118 71
98 122 83
186 198 202
199 209 218
196 206 213
193 204 210
197 207 215
187 199 207
91 118 71
91 118 71
91 117 70
92 119 71
91 118 71
85 111 65
93 120 72
94 121 73
89 116 69
91 119 71
95 121 77
144 160 145
156 171 163
171 184 180
90 116 69
93 120 72
96 123 73
90 117 70
89 116 69
92 118 70
94 121 73
93 120 71
89 116 69
86 112 66
93 119 72
94 121 72
94 121 73
90 117 70
95 122 73
91 118 71
92 118 70
93 120 71
87 113 67
93 120 71
94 121 73
92 119 73
127 147 122
142 159 147
106 130 93
91 117 71
89 115 68
92 119 71
87 114 69
89 116 69
93 120 72
92 119 71
91 117 70
93 121 72
94 121 72
95 122 73
94 120 72
90 117 70
91 118 71
93 119 72
95 122 73
91 117 70
91 118 70
94 121 73
92 119 71
91 118 70
92 119 72
119 139 114
200 210 217
198 208 216
199 210 220
196 206 214
192 203 211
197 208 216
194 205 212
180 192 194
145 162 148
104 126 93
89 115 68
93 120 72
92 119 71
93 119 72
91 118 71
92 119 71
93 120 72
92 120 72
90 116 69
89 116 69
90 117 70
94 121 72
88 114 68
90 117 70
89 115 69
159 173 168
198 208 217
193 203 210
194 204 212
189 200 206
202 211 219
199 210 217
201 212 222
198 209 218
198 208 216
197 207 216
195 206 213
188 199 205
189 200 208
192 202 208
195 205 213
194 205 212
182 194 199
193 204 211
198 207 215
198 207 216
200 210 217
204 213 223
200 210 218
198 208 215
197 207 216
156 172 162
124 144 123
149 164 156
167 179 178
196 206 213
192 203 212
200 211 221
194 205 211
200 210 217
189 200 207
195 205 212
203 212 219
197 207 215
196 206 212
196 206 211
196 207 213
189 199 203
193 203 211
199 210 219
186 198 204
197 207 214
193 204 211
191 203 210
198 209 217
194 205 212
195 206 214
197 208 217
90 116 70
91 118 71
92 119 71
89 116 69
91 118 70
91 118 71
93 120 72
93 120 71
93 120 72
93 120 72
90 117 69
87 113 66
92 119 71
89 116 70
90 117 70
87 113 67
93 120 72
96 123 73
93 120 72
95 122 73
91 117 70
90 117 69
93 120 71
90 116 69
94 120 72
90 117 70
171 184 180
193 205 214
199 210 221
201 211 220
198 207 215
190 202 209
192 203 208
200 211 219
193 204 212
194 206 215
192 202 209
200 210 219
196 206 215
189 201 206
199 210 218
200 210 218
193 204 212
185 197 201
174 188 187
160 175 171
136 154 141
122 142 120
99 124 90
90 117 69
96 124 75
95 122 73
123 143 120
203 213 222
190 201 208
197 207 214
205 214 222
190 200 206
186 198 206
199 209 218
192 204 213
196 207 217
189 201 208
199 209 217
187 199 206
199 209 215
193 205 213
191 203 211
196 207 213
191 202 209
192 203 212
197 208 218
198 208 215
193 205 212
197 207 215
189 201 209
199 209 219
190 201 209
184 196 200
92 119 71
90 117 70
92 119 70
94 121 73
90 117 70
93 120 72
92 119 71
88 115 68
94 121 72
89 115 68
93 120 71
94 121 73
91 118 70
94 121 72
93 120 72
92 119 72
90 117 70
92 119 72
92 119 71
92 119 71
91 118 70
93 120 72
96 124 75
94 121 73
96 123 76
175 186 186
201 210 218
195 204 211
186 198 203
190 201 206
197 207 215
200 210 218
194 204 211
205 214 222
198 208 217
193 204 213
191 202 208
198 208 216
189 200 207
195 205 211
196 206 215
196 207 218
200 210 217
195 206 214
199 210 220
193 203 210
190 201 209
194 205 213
194 205 212
190 200 205
102 127 84
94 120 72
95 122 73
90 116 69
93 120 72
94 121 73
94 122 73
92 119 72
88 115 69
94 121 72
92 119 71
91 118 71
88 114 68
92 119 72
91 117 70
95 122 73
93 121 72
88 115 68
90 117 70
93 120 72
88 114 68
90 117 70
93 120 72
128 146 127
196 206 213
191 202 208
204 214 224
198 208 215
193 204 212
190 200 207
190 200 207
194 205 213
197 208 216
194 205 212
196 206 212
194 204 212
195 205 212
203 213 222
197 209 219
192 202 210
189 200 208
189 200 206
192 203 210
199 209 217
197 208 215
195 206 214
147 163 152
91 117 70
88 115 69
95 122 73
90 117 70
91 119 72
86 112 66
88 114 68
92 119 71
94 122 73
91 117 70
92 119 72
93 119 71
89 116 69
94 121 72
92 120 72
91 118 71
91 117 69
90 118 71
89 116 69
89 115 68
105 130 90
193 204 210
197 207 216
184 196 201
194 205 213
189 200 208
189 201 209
196 208 220
190 200 206
197 208 219
193 205 213
188 199 207
193 204 211
194 204 211
196 207 215
192 204 212
187 198 206
191 203 211
197 207 215
192 203 209
198 209 218
121 142 118
91 118 69
88 115 68
89 116 70
93 120 71
95 122 73
91 118 71
94 120 74
112 134 103
128 147 126
144 161 147
167 181 178
177 189 189
194 205 213
193 204 210
201 211 220
201 211 219
199 209 217
184 196 201
110 134 98
89 116 69
92 120 72
89 115 68
93 120 72
90 117 70
88 113 67
93 121 73
90 117 70
93 120 72
90 117 70
90 117 69
98 125 75
91 118 70
91 118 71
92 119 72
95 120 78
179 191 195
200 211 220
194 204 212
192 203 211
189 201 209
189 200 206
180 193 197
91 117 69
92 119 71
92 119 71
86 112 66
89 115 68
93 120 71
94 121 72
87 114 68
91 118 70
92 119 71
88 115 68
92 119 72
89 115 68
112 134 106
150 165 156
114 135 108
90 117 69
90 116 69
91 118 70
90 116 69
95 123 74
94 120 72
92 119 70
91 117 70
93 121 73
91 117 70
91 118 71
91 118 70
89 115 69
96 124 74
95 123 75
94 121 73
92 120 72
91 118 70
90 117 70
91 117 70
90 116 69
183 195 198
196 206 213
171 184 184
137 155 143
93 117 77
89 115 69
95 122 73
94 121 73
91 118 71
93 120 71
89 115 69
87 113 67
90 117 70
91 117 70
86 112 66
89 116 69
90 117 70
88 115 69
94 122 73
90 117 70
87 113 67
88 114 67
90 117 69
96 123 74
104 127 96
190 201 209
195 206 214
195 206 214
193 204 210
191 201 209
185 196 204
204 213 222
201 212 222
199 210 220
196 206 212
180 193 196
150 166 152
125 145 123
89 116 69
89 115 69
93 120 71
90 117 69
86 112 66
93 120 71
94 121 73
96 123 74
91 118 71
95 122 73
97 124 74
90 116 69
174 187 187
190 201 208
191 203 210
200 210 218
195 204 211
190 202 211
191 202 209
196 206 214
198 208 215
197 207 215
193 204 211
196 206 213
199 209 218
199 210 218
198 207 215
195 205 212
191 202 210
201 211 218
199 210 219
193 204 213
188 199 205
192 204 213
195 206 213
186 198 203
199 209 217
192 202 208
135 154 137
93 120 72
88 115 69
92 119 70
97 122 81
129 147 126
138 156 142
186 198 201
195 205 211
192 203 210
193 204 212
198 209 217
190 200 204
204 213 220
195 205 213
196 207 215
200 210 220
189 200 205
192 203 209
194 204 211
192 204 213
191 202 210
198 208 218
196 206 213
201 210 219
188 199 204
175 187 185
91 117 70
96 123 74
96 123 74
89 116 69
97 125 75
90 116 69
92 119 71
91 117 70
91 117 69
91 117 70
86 113 67
90 117 69
90 116 70
93 120 72
88 114 68
93 120 72
93 120 72
95 123 73
92 119 71
93 121 72
94 121 72
91 118 70
89 116 69
94 121 72
93 120 72
90 117 70
182 193 196
189 200 206
195 206 215
195 205 213
203 213 221
198 208 215
199 210 220
203 213 221
185 196 202
194 204 211
186 198 204
190 202 210
197 207 213
189 200 206
191 201 205
192 203 212
192 203 211
195 206 214
196 207 215
204 214 222
203 213 222
196 207 216
191 202 208
192 202 208
176 188 188
159 173 166
139 156 142
158 172 166
173 186 190
184 195 200
204 214 222
203 213 223
202 212 221
210 219 228
195 206 214
197 207 215
192 203 213
196 208 218
198 208 217
187 197 204
198 209 216
196 207 214
196 206 213
192 203 210
203 213 222
202 212 221
193 204 212
198 209 219
193 204 214
187 197 203
192 202 207
193 204 210
142 158 143
91 118 70
88 115 68
89 115 68
90 117 70
92 119 71
95 122 73
93 120 72
93 121 72
90 117 70
93 120 71
91 118 70
94 121 73
92 118 70
91 118 71
90 117 71
89 116 69
94 120 72
91 118 70
90 117 70
96 123 74
89 116 69
92 119 71
94 121 73
92 119 72
127 147 126
193 203 210
189 200 206
198 209 220
197 208 217
198 208 217
187 198 203
191 203 212
194 204 212
189 200 207
192 203 211
198 208 217
196 206 214
192 202 209
199 210 219
196 207 216
197 207 214
191 202 208
199 209 216
203 212 220
194 205 214
195 206 214
194 205 213
193 204 211
196 207 214
118 139 115
93 120 72
91 118 71
94 121 72
93 120 72
89 116 68
85 111 66
93 120 72
91 118 70
89 115 68
92 119 71
89 115 69
93 120 72
92 119 71
92 120 72
93 120 72
91 118 70
92 118 70
89 116 70
94 121 72
91 118 70
87 113 67
91 118 70
97 121 80
191 202 209
201 211 219
192 203 209
195 206 215
195 206 213
187 198 202
194 205 214
189 200 206
191 202 209
196 206 214
198 209 218
195 204 210
191 201 207
200 211 219
195 206 212
188 199 205
184 195 199
197 208 217
190 202 210
199 209 218
196 207 216
195 205 212
171 183 181
90 116 70
94 121 73
93 120 72
95 122 74
93 120 72
90 117 70
91 118 70
89 116 69
91 118 70
86 113 67
93 119 71
90 117 70
96 123 74
93 120 72
89 116 69
92 119 71
88 115 68
88 115 67
85 111 66
93 120 71
95 121 75
173 186 187
204 214 222
186 197 202
193 204 212
192 204 211
193 203 210
197 207 216
196 207 215
186 198 204
195 206 214
201 211 218
195 206 214
194 205 213
188 199 205
192 202 208
193 204 213
189 200 207
196 207 215
195 206 214
194 206 215
127 145 130
92 117 73
104 127 93
117 138 112
134 152 133
142 159 148
176 189 188
175 188 190
191 203 211
192 204 211
191 203 212
197 208 218
191 201 207
193 204 211
188 198 205
196 206 214
188 199 206
198 208 217
185 196 202
108 131 96
94 121 73
95 122 73
95 122 73
94 120 72
89 116 69
90 117 71
91 118 71
93 121 72
92 120 71
91 118 70
88 115 68
89 116 69
88 115 69
88 114 68
93 120 71
89 115 71
177 189 190
193 204 210
195 204 210
190 202 208
192 203 213
184 196 201
189 200 208
191 202 209
88 115 69
91 118 70
90 117 70
89 115 68
88 114 68
88 115 69
92 118 71
93 120 72
89 115 68
95 122 74
91 118 71
95 122 74
92 118 69
98 124 82
191 203 211
197 206 212
169 181 180
142 159 145
98 123 83
92 119 71
85 111 66
89 116 69
93 121 73
90 117 70
87 113 68
96 124 74
90 117 71
90 117 70
94 121 73
90 117 69
90 117 69
94 121 73
88 115 68
88 115 68
93 120 72
92 119 71
92 119 71
160 174 171
199 210 218
200 211 220
207 216 227
198 209 217
164 178 174
126 146 125
100 125 84
92 119 72
88 115 69
89 116 69
97 124 75
87 114 68
91 117 70
93 120 72
96 123 74
87 113 66
89 116 68
93 119 71
92 119 72
89 116 69
91 119 71
94 121 73
90 117 69
111 133 103
196 206 213
195 205 211
195 206 214
195 205 211
192 203 211
198 209 218
195 205 213
196 207 215
188 200 207
188 199 207
194 205 212
188 200 208
196 207 216
189 199 205
166 180 175
135 153 136
108 131 96
88 114 67
90 117 70
88 115 68
90 117 70
89 116 69
92 119 72
91 118 71
92 119 71
181 193 199
192 203 213
189 200 209
198 208 215
192 203 210
198 208 217
183 195 199
192 204 213
201 210 216
186 197 204
190 201 208
195 205 212
189 199 205
196 206 215
199 210 219
192 203 211
185 197 205
190 200 205
192 203 210
190 201 207
188 199 207
197 206 213
191 203 209
193 203 210
197 207 215
197 207 215
108 130 99
93 120 72
90 117 70
91 118 70
96 123 74
91 118 70
91 118 70
88 114 68
90 116 75
123 142 117
159 173 164
166 179 175
194 204 211
203 212 221
197 206 212
190 201 208
196 206 210
189 200 206
193 203 210
187 199 206
199 209 219
196 206 212
195 205 212
193 203 211
201 211 218
190 201 208
144 161 150
87 114 68
90 117 69
95 122 73
92 119 71
94 121 73
91 118 71
88 115 68
89 116 69
94 121 72
90 116 69
92 119 72
86 111 66
90 117 70
88 115 68
90 116 69
92 118 70
91 118 70
90 116 68
95 122 73
90 116 69
91 118 70
90 117 70
96 123 73
90 117 70
93 120 72
116 136 113
199 209 219
192 203 210
200 210 217
201 210 217
190 201 207
195 206 215
193 203 209
202 212 220
195 205 212
208 217 227
204 214 223
195 205 211
202 211 219
191 202 210
193 204 211
194 205 213
191 202 207
190 202 210
196 206 213
193 203 210
182 194 200
192 203 211
198 208 218
186 197 204
192 203 212
191 201 206
90 117 72
90 116 69
92 118 71
94 122 74
92 119 73
106 129 99
122 142 116
136 154 139
154 169 161
174 186 185
171 183 183
197 207 213
201 211 219
197 207 215
198 208 214
199 209 218
201 211 219
191 201 206
194 204 211
193 205 213
189 200 206
205 214 224
194 205 212
199 209 217
202 211 218
179 191 194
95 122 73
94 121 73
89 115 68
94 122 73
93 120 71
91 117 70
91 118 70
90 117 70
89 116 69
91 118 70
87 113 67
92 118 70
87 114 68
91 118 70
92 119 71
91 118 70
90 117 70
93 121 72
90 117 70
93 121 72
90 116 68
93 120 72
92 118 71
89 115 68
92 119 70
188 201 208
197 207 215
199 210 217
202 212 220
195 205 213
197 207 215
183 194 199
200 211 219
190 201 207
190 201 207
199 209 218
190 202 209
188 200 208
190 200 205
197 207 214
196 207 216
197 206 213
189 201 208
200 210 218
197 208 217
196 206 212
202 212 220
187 199 207
200 209 218
170 184 182
92 119 71
90 117 70
93 119 71
95 122 73
93 120 73
89 116 69
90 116 69
91 117 70
90 116 69
93 120 72
90 116 70
89 115 68
91 118 71
93 120 72
90 117 69
95 122 73
93 120 72
91 118 70
92 119 71
91 117 70
92 119 71
93 120 72
90 116 68
156 171 165
195 205 212
194 204 210
196 206 213
193 204 213
199 209 218
187 198 203
202 212 220
208 217 227
193 204 213
190 202 210
191 202 209
183 195 202
204 214 221
194 204 210
192 202 210
198 208 217
192 203 210
196 206 214
197 207 215
196 206 212
196 206 215
178 190 191
107 129 96
89 115 69
89 116 69
92 119 71
94 122 74
90 117 70
93 120 72
90 117 70
92 119 71
95 122 74
90 117 71
89 115 69
90 116 68
94 121 72
93 120 72
92 119 71
95 122 72
88 114 68
91 118 71
91 118 70
91 117 70
162 176 172
188 199 203
198 208 214
185 197 203
188 200 207
192 203 211
190 201 209
199 210 218
190 201 208
190 201 209
198 208 216
200 209 216
189 201 208
188 200 208
199 208 216
192 202 208
184 196 200
170 183 179
152 166 160
141 158 147
164 178 174
182 195 199
195 206 213
198 209 217
199 209 218
195 205 213
199 209 219
206 216 225
198 209 219
192 203 208
200 210 220
202 212 220
190 201 206
190 201 208
186 197 205
192 204 213
189 200 208
196 205 212
195 206 215
117 137 110
91 118 71
93 120 72
92 120 73
89 115 68
92 119 71
87 114 68
91 118 70
91 118 70
93 120 72
92 119 71
92 118 70
90 117 70
92 120 72
89 116 69
88 115 69
110 133 99
180 192 195
194 203 208
201 211 220
201 211 220
195 206 215
200 210 217
195 205 211
198 207 215
196 207 215
116 136 111
93 119 74
88 114 68
90 116 70
91 118 70
90 117 70
89 115 68
94 121 72
88 114 68
89 115 68
90 117 70
91 117 69
91 118 71
93 120 71
167 181 182
188 198 203
189 200 208
190 202 212
192 203 210
169 182 181
128 147 126
95 120 77
90 117 70
89 115 68
93 120 72
93 119 71
90 116 70
90 117 70
90 116 69
90 116 69
90 117 70
91 117 70
92 118 71
92 118 71
91 118 71
92 118 70
88 115 68
173 186 185
194 205 212
203 213 221
192 204 212
196 206 213
196 207 215
194 204 212
187 200 206
157 172 169
123 143 125
96 123 79
94 122 73
90 116 69
93 119 71
92 119 71
92 119 71
94 120 72
91 118 70
88 114 67
90 117 69
90 117 69
91 118 71
88 115 68
90 117 70
122 141 119
191 203 212
194 205 213
187 198 203
189 200 207
196 206 214
187 200 207
201 211 221
189 200 206
194 204 211
191 202 209
195 206 214
195 205 212
187 199 206
198 208 215
190 201 209
194 205 213
194 205 212
179 192 193
159 173 166
118 138 112
92 119 71
93 119 71
86 112 66
92 119 71
92 119 71
191 202 208
199 209 218
201 211 220
195 205 212
195 206 215
194 205 212
190 200 206
193 204 211
190 201 209
189 199 205
193 204 211
204 214 224
188 199 205
194 205 215
197 208 217
193 204 212
192 204 215
189 200 206
196 207 215
195 206 215
200 210 219
196 207 216
189 201 208
196 206 212
198 208 215
197 207 213
90 117 71
91 118 71
93 120 72
92 119 71
90 118 71
89 115 68
91 118 70
94 121 73
87 114 68
91 117 70
91 118 71
92 120 72
93 119 71
115 137 107
135 153 137
160 174 169
182 194 197
190 201 206
194 205 214
192 203 210
193 204 212
200 211 220
194 205 214
193 204 213
188 199 207
196 206 214
116 138 108
89 116 69
94 121 73
89 116 69
93 121 73
95 123 74
91 117 70
95 121 73
93 120 71
94 121 73
93 120 72
91 118 71
92 119 71
91 118 71
87 114 68
89 116 69
89 115 68
90 117 70
88 115 69
91 118 70
88 114 68
92 119 71
88 114 67
89 116 69
91 117 70
89 115 68
143 160 146
192 202 208
185 195 199
194 205 212
204 214 223
196 206 214
188 200 206
197 208 217
194 206 214
187 198 205
196 207 214
190 201 207
195 206 213
191 202 209
198 208 216
197 207 214
199 209 218
197 207 215
190 201 208
192 204 215
195 206 213
198 208 219
197 207 216
203 212 220
193 203 211
194 205 214
162 177 174
90 116 70
91 118 70
92 119 71
92 119 71
90 116 69
89 116 69
94 122 73
93 119 71
93 120 72
91 118 71
95 122 73
90 117 70
92 119 71
106 130 94
130 150 131
146 162 149
154 170 163
153 168 163
182 194 197
171 185 186
188 199 205
193 205 215
186 198 204
197 207 216
188 200 208
139 158 142
93 120 71
90 117 70
94 122 74
88 115 68
88 115 68
93 120 71
92 119 72
91 119 71
92 119 71
92 118 71
90 117 69
92 119 71
91 117 70
92 119 71
88 115 68
90 117 69
90 117 70
93 120 72
89 116 70
92 118 70
87 113 68
94 122 73
93 121 73
90 116 69
142 160 149
186 198 206
199 209 218
191 203 210
193 204 211
201 212 222
198 208 218
192 203 210
199 209 218
195 205 213
189 200 209
193 203 212
192 203 209
194 204 210
196 207 214
191 202 209
190 200 207
175 188 191
195 206 214
194 204 213
198 210 219
200 209 217
196 207 217
195 206 214
191 201 207
114 135 110
92 119 71
90 117 70
90 116 69
96 123 73
89 115 69
91 118 70
90 117 70
91 118 70
90 117 69
91 118 71
90 116 69
94 121 72
89 115 68
91 118 70
92 119 71
91 118 71
93 120 71
93 120 72
92 119 71
91 118 70
89 116 69
91 118 70
128 147 126
194 205 211
199 209 218
204 214 224
192 203 209
198 209 220
200 210 219
199 209 217
187 198 205
198 208 216
195 205 212
197 207 216
201 211 220
196 206 212
192 202 207
186 198 203
199 208 215
190 201 208
197 207 215
188 199 206
194 206 216
203 213 222
198 208 216
124 144 122
87 113 67
91 118 70
92 119 71
90 116 69
95 122 73
90 116 69
94 120 72
91 118 71
91 118 71
90 117 70
94 121 72
90 117 69
88 113 67
92 119 71
94 121 73
89 115 68
95 122 73
92 119 71
92 119 71
96 123 74
140 157 144
185 197 205
191 201 208
191 202 208
191 202 209
193 204 210
191 202 211
190 202 210
187 199 203
187 199 202
170 183 182
167 180 177
143 159 148
136 154 138
113 135 104
111 133 101
89 115 68
91 118 71
90 117 70
90 117 70
145 161 146
197 209 219
196 205 213
196 206 214
188 200 206
184 196 201
200 210 217
197 207 216
193 204 213
194 204 211
194 206 215
194 205 211
198 209 218
195 206 213
186 198 205
194 205 213
195 206 215
197 208 218
182 193 196
116 139 108
93 120 71
89 116 69
88 114 68
92 119 71
91 118 70
91 118 70
91 118 71
90 117 70
92 119 71
88 115 68
91 118 70
87 113 68
88 114 67
92 118 70
94 121 72
108 132 97
187 198 206
195 205 212
191 202 208
189 201 209
191 202 210
193 203 208
192 203 210
194 204 211
183 195 199
165 179 176
194 205 215
181 193 197
151 167 158
93 121 73
87 113 68
93 119 71
89 116 69
90 117 70
94 120 72
89 115 68
93 120 72
90 117 69
88 115 68
94 121 72
150 165 158
199 210 219
195 206 212
198 208 217
195 205 213
196 206 213
190 201 208
192 203 210
159 175 171
111 133 103
90 117 69
91 118 70
91 117 69
88 114 68
93 120 72
90 117 69
91 117 70
93 120 72
91 118 70
93 120 71
91 118 71
91 118 70
85 110 65
153 169 159
191 200 207
192 203 211
197 208 216
178 191 197
192 203 211
191 203 209
196 206 214
194 204 212
192 203 209
182 194 198
157 173 169
136 154 137
89 114 70
91 118 70
92 119 71
90 117 69
91 119 71
91 118 71
92 119 71
90 116 69
89 115 68
90 116 69
92 118 70
101 124 92
194 205 213
187 198 205
190 200 206
201 210 217
196 206 213
189 200 208
193 203 209
188 199 204
193 204 212
191 202 209
199 209 218
190 202 210
195 207 215
197 207 214
198 209 219
200 210 220
187 199 204
190 201 209
189 199 205
184 196 202
187 199 204
169 183 182
128 147 129
102 127 86
94 121 72
201 212 221
195 206 215
195 206 213
200 211 220
188 200 207
190 202 208
196 207 215
193 204 212
188 199 207
193 204 211
195 205 211
191 202 206
186 198 203
195 207 216
189 200 205
195 205 213
197 206 214
192 203 210
195 206 215
197 207 216
201 211 219
196 207 215
193 204 210
202 212 221
197 208 218
180 192 193
91 118 71
90 116 69
92 119 71
91 117 69
93 119 71
88 114 67
88 114 68
91 118 70
93 120 72
91 118 71
94 120 71
88 114 68
92 119 71
90 117 69
91 118 70
89 116 69
93 120 72
95 120 79
129 148 128
146 162 152
173 186 184
190 202 209
195 205 213
196 207 215
199 209 218
178 192 198
89 115 69
92 119 71
90 117 70
91 118 70
88 114 69
92 119 71
93 119 71
93 120 71
88 114 67
94 121 73
92 119 70
93 120 72
92 118 70
92 118 70
87 113 66
90 116 69
90 116 69
90 117 70
91 117 70
91 118 71
91 118 71
92 119 72
90 116 69
88 115 68
92 119 71
92 118 70
192 203 210
192 203 210
184 196 203
195 206 215
187 199 205
183 195 201
197 208 218
200 209 218
195 206 214
192 203 210
187 200 207
189 201 209
193 203 210
195 205 214
203 212 220
201 211 220
192 203 211
194 205 211
186 197 202
195 206 215
194 204 213
197 208 217
195 205 212
199 210 220
203 213 224
192 203 211
119 140 113
92 118 70
89 116 69
91 118 71
93 120 72
90 117 70
93 119 71
90 116 70
87 114 67
86 112 67
93 121 73
90 116 69
89 116 68
93 120 72
97 124 75
90 116 69
91 118 70
90 117 70
90 117 69
93 120 71
91 118 71
90 117 70
100 125 84
115 136 108
128 148 127
150 166 155
152 167 157
148 163 152
126 146 123
135 151 137
104 126 93
104 128 88
92 119 71
92 119 71
90 117 70
88 115 69
90 116 69
94 121 73
93 120 71
90 116 69
94 121 72
88 115 68
91 118 70
92 119 72
93 120 71
92 118 70
87 113 68
90 116 70
92 119 71
92 119 71
96 122 78
185 197 203
186 197 203
193 204 211
197 208 216
185 197 205
188 200 207
189 200 204
205 215 224
197 207 215
194 204 211
194 205 212
192 205 215
184 195 202
195 207 218
198 208 217
197 207 215
190 202 209
192 204 215
190 202 210
201 211 219
199 209 216
197 207 213
194 204 211
184 196 200
159 173 167
87 114 68
92 118 71
90 118 71
86 112 66
89 116 69
91 118 70
94 122 73
89 115 68
92 118 70
90 117 69
92 119 71
92 120 72
93 120 71
91 118 71
92 120 72
93 120 71
90 117 69
91 118 71
92 119 70
93 120 72
92 119 71
93 120 72
96 120 79
189 200 204
196 206 214
187 200 210
197 208 217
201 212 221
196 206 215
202 212 221
190 201 209
192 203 211
191 202 209
194 204 212
192 202 207
191 201 209
194 204 211
189 201 207
194 205 211
193 204 211
189 200 206
191 202 210
196 206 214
197 208 217
200 211 219
152 168 160
88 114 68
89 116 68
89 116 70
91 117 71
91 117 70
89 115 69
93 120 72
95 122 74
95 122 74
93 120 72
93 119 72
91 117 70
90 116 70
92 119 71
92 118 70
93 120 71
89 115 68
91 118 70
90 116 69
96 122 78
115 137 111
172 185 186
167 181 178
164 178 173
150 166 157
133 151 132
119 139 113
117 139 113
99 125 82
93 119 71
89 116 69
90 116 70
91 118 70
93 120 71
93 120 72
91 117 70
91 118 70
92 118 70
94 121 73
94 122 74
124 145 122
193 204 212
187 199 207
193 203 210
197 208 217
197 207 215
189 201 210
203 212 221
196 207 216
187 199 206
199 209 215
197 207 214
193 203 208
188 199 205
195 205 212
190 201 206
196 207 215
194 204 211
185 196 200
106 128 98
90 116 69
92 119 72
87 114 68
91 117 69
93 120 72
94 120 72
91 118 70
92 119 71
90 117 70
90 117 70
91 118 70
89 116 69
91 118 70
89 115 69
90 116 69
112 134 105
192 203 209
196 206 214
192 201 207
189 199 206
181 193 197
175 187 190
148 164 154
139 156 140
105 128 95
89 116 69
89 116 68
196 206 214
186 198 204
195 206 216
192 203 209
171 185 184
118 139 113
90 117 70
87 113 66
91 118 70
93 120 71
93 120 72
93 121 73
86 113 66
92 119 70
164 178 174
189 200 206
185 197 204
192 202 208
196 206 215
193 205 214
188 199 205
190 201 207
199 209 218
188 200 207
176 189 189
151 167 158
99 124 83
91 117 70
89 115 69
91 118 70
92 119 71
88 114 67
84 110 64
91 118 71
90 117 70
90 117 69
90 116 69
137 154 142
197 207 216
192 203 210
189 200 209
196 206 214
198 208 218
210 219 231
189 199 205
185 197 203
192 204 215
201 211 220
187 198 205
187 199 205
187 199 205
166 179 177
148 164 151
102 127 86
91 118 70
92 118 71
91 119 71
90 116 69
93 120 72
92 119 71
89 115 68
107 130 98
193 204 211
199 208 215
194 204 211
197 207 215
203 213 222
201 211 220
195 205 214
186 198 205
191 202 209
193 203 209
203 212 220
190 200 207
190 201 210
200 210 219
183 194 198
198 209 220
197 206 214
185 196 200
191 202 208
189 200 205
189 199 204
194 205 213
193 203 208
189 201 208
172 185 184
150 166 152
176 188 191
196 206 212
194 205 214
200 211 222
191 202 208
193 203 210
189 200 210
184 196 200
200 210 219
189 200 206
198 208 216
194 205 214
195 205 213
195 205 213
196 207 217
196 207 217
192 202 207
184 196 203
197 207 217
186 197 203
190 201 208
192 202 208
186 197 203
193 203 210
161 175 172
86 112 67
91 118 70
93 119 72
89 115 69
92 118 70
90 116 70
90 117 70
91 118 70
96 123 73
91 118 71
92 119 71
87 114 68
90 116 69
90 117 71
93 120 73
91 118 71
88 115 68
92 119 71
89 116 70
89 116 69
90 117 70
89 116 69
104 126 96
147 162 151
151 166 157
162 176 173
99 124 81
96 123 73
90 117 70
92 119 71
93 120 72
92 119 71
91 118 70
90 117 70
89 115 68
87 113 67
89 115 69
94 122 73
91 117 70
91 118 71
88 115 68
87 114 68
91 116 69
91 117 70
90 116 69
93 120 72
86 113 67
88 114 68
91 117 70
89 115 69
90 116 69
113 135 104
192 203 210
192 203 211
195 206 214
190 202 210
189 200 207
200 210 219
187 199 204
195 206 216
191 202 208
193 204 209
194 205 212
202 212 220
194 206 213
189 200 208
200 209 217
196 207 215
201 210 218
189 201 206
193 204 211
193 204 212
192 202 209
176 189 191
194 204 211
192 204 212
198 209 218
181 193 196
95 122 73
89 116 69
91 117 70
94 121 72
90 117 70
90 116 69
90 117 70
89 116 69
88 114 68
90 116 70
91 117 70
90 117 69
90 116 70
89 115 69
93 120 72
90 117 70
92 119 70
95 122 73
90 118 70
92 119 72
90 116 70
93 120 72
94 121 72
93 120 72
94 121 73
153 169 162
204 214 224
198 208 217
191 202 209
193 204 212
194 204 211
197 208 216
191 202 208
181 194 196
177 190 192
171 184 185
170 183 181
152 167 160
145 161 147
138 156 138
127 147 124
116 138 109
116 137 110
94 120 75
91 118 71
91 117 70
92 119 72
93 120 73
89 116 69
87 114 68
151 166 159
194 205 212
196 207 215
193 203 211
192 204 214
197 207 214
192 203 209
196 206 216
191 202 209
193 204 212
191 202 210
189 200 207
192 203 209
199 210 220
197 207 215
194 205 211
189 200 207
192 202 209
196 207 215
185 195 200
193 203 211
184 195 202
187 199 206
194 205 215
188 200 204
100 124 86
93 120 72
90 117 69
90 117 69
95 122 73
90 116 69
91 118 70
91 117 69
92 119 72
95 122 74
90 117 70
92 119 71
93 120 72
93 120 72
93 120 72
88 114 68
94 121 72
90 117 70
91 118 70
92 118 71
92 119 71
92 119 71
89 116 70
174 187 188
184 196 201
186 197 204
201 211 220
187 199 208
190 201 208
191 202 210
190 201 208
184 197 203
194 205 213
189 200 208
189 201 209
187 198 206
196 206 214
191 202 208
189 200 207
195 205 212
188 200 207
189 200 206
192 204 211
192 202 208
194 204 211
173 185 184
92 118 70
88 114 68
91 118 70
90 118 71
92 120 72
91 117 70
90 117 70
92 119 71
95 122 76
108 131 100
113 135 106
131 150 132
137 154 135
148 165 153
155 169 163
156 171 164
154 169 162
172 185 185
185 196 200
192 203 209
182 193 196
109 131 98
89 115 69
88 114 68
91 118 71
92 119 71
85 112 66
91 118 70
93 120 72
91 118 71
88 113 66
91 118 71
90 117 70
92 119 71
89 116 69
89 116 69
94 122 73
93 120 72
85 112 66
92 119 71
122 142 119
191 203 211
194 204 211
193 204 211
200 212 222
200 209 218
189 201 207
194 205 212
181 191 195
191 202 210
195 205 212
195 206 214
191 203 211
197 207 214
186 197 203
184 197 204
197 207 215
189 201 208
190 201 207
112 134 103
90 117 70
90 116 70
89 116 68
91 118 70
93 120 71
91 117 69
90 117 70
89 116 69
90 117 70
90 116 70
93 120 71
89 116 70
86 113 67
90 116 69
90 117 70
126 145 125
182 193 198
193 204 209
168 181 178
146 162 152
141 158 143
104 128 91
94 122 73
93 120 72
90 116 68
90 117 70
91 118 71
91 118 70
193 205 211
184 195 200
197 207 216
186 198 202
194 205 213
189 201 208
179 191 194
159 174 169
106 129 97
91 118 71
88 115 68
86 112 67
90 117 70
91 118 70
119 140 113
192 203 211
198 208 216
195 206 215
190 203 213
192 202 209
187 198 205
190 201 208
193 203 209
191 204 211
198 207 216
191 203 211
194 205 212
167 182 182
128 147 128
105 128 90
89 116 69
85 111 66
89 115 69
92 119 71
92 119 71
89 116 69
93 120 72
140 156 141
186 198 205
185 196 201
203 212 219
195 205 212
194 204 213
196 207 216
195 205 214
186 198 206
193 204 211
199 209 217
195 205 213
194 204 210
191 202 209
187 198 204
194 205 214
196 206 212
179 191 193
142 159 147
98 122 87
91 117 70
90 116 70
90 117 70
87 113 67
112 133 106
194 205 213
189 201 211
190 200 205
188 199 207
183 194 199
194 205 211
194 205 211
198 208 214
189 201 209
186 197 202
189 200 204
192 202 209
195 206 215
188 199 205
193 205 213
186 198 204
188 200 207
196 207 214
193 203 210
190 202 208
192 202 208
195 206 214
196 206 212
199 209 216
182 193 197
89 115 69
89 115 68
93 120 75
134 151 135
150 165 157
177 189 191
193 203 208
197 207 214
189 201 209
193 204 214
197 208 215
191 202 208
195 206 217
188 200 207
189 200 209
191 201 210
190 201 206
188 199 206
190 201 209
204 213 222
183 194 199
188 198 204
196 207 217
196 206 213
192 203 209
142 158 148
92 119 71
97 124 75
88 115 68
91 118 70
86 113 67
90 118 71
91 118 71
93 120 72
90 116 70
93 120 72
92 119 71
92 119 72
93 120 72
90 116 69
91 118 70
88 115 67
88 114 67
88 115 68
94 121 72
87 113 67
93 120 72
89 116 70
92 119 72
93 120 72
87 114 67
161 175 172
193 204 211
181 193 196
161 176 173
145 161 147
111 133 105
102 126 87
89 116 69
89 116 69
91 119 71
93 120 72
92 118 71
93 120 72
91 117 69
93 120 72
92 119 71
92 119 71
93 119 71
91 118 70
91 117 70
91 118 70
92 119 71
89 116 69
94 120 72
91 118 70
91 118 70
161 176 170
194 204 213
194 204 211
197 207 213
189 201 208
193 204 213
194 204 211
188 200 207
196 207 215
188 199 206
195 205 213
186 198 204
195 206 215
188 200 205
200 209 217
195 205 212
199 209 218
187 198 203
198 209 217
188 200 205
188 198 203
199 209 217
196 207 215
191 201 208
188 200 207
197 209 217
147 163 149
89 116 69
90 117 69
87 113 67
92 119 70
90 117 70
87 113 67
92 119 72
91 118 70
94 121 72
91 117 70
91 117 70
93 120 72
89 116 69
94 122 73
91 118 70
87 113 67
93 119 71
93 119 71
88 114 68
93 120 71
92 118 71
93 119 71
95 123 74
85 111 66
109 132 97
183 195 202
197 207 216
188 199 206
190 201 209
199 210 220
193 204 214
200 209 217
191 202 210
200 211 220
197 208 216
186 197 205
190 201 210
190 200 205
200 211 222
194 205 214
186 198 206
192 204 214
196 206 214
186 198 204
189 201 207
181 194 199
180 192 195
170 183 183
171 185 185
154 169 162
138 156 140
142 159 145
163 177 176
165 178 175
153 168 161
174 186 183
166 180 175
168 181 181
188 198 203
184 196 199
191 201 208
192 202 210
192 203 209
190 201 207
191 203 212
187 198 203
194 205 211
189 200 206
185 196 203
202 212 223
201 211 218
195 206 214
191 202 210
189 201 209
114 136 105
91 117 70
93 120 72
91 119 71
94 121 72
94 122 74
87 113 67
91 118 71
91 118 71
91 118 70
90 117 70
92 119 72
90 117 70
93 120 72
92 119 71
89 116 69
91 118 70
92 118 70
89 116 69
94 120 72
88 115 69
92 119 71
90 116 70
136 153 138
193 203 211
195 205 214
193 204 213
194 204 212
181 192 197
191 202 209
198 209 216
181 193 200
187 199 207
192 202 207
193 204 210
189 200 205
201 211 219
192 203 211
188 199 203
195 205 212
179 191 195
177 189 190
185 197 201
181 192 195
160 174 170
172 185 184
148 165 159
157 173 166
149 165 157
151 166 161
157 170 165
164 179 175
176 189 191
181 193 196
188 200 209
197 206 213
185 196 202
198 208 215
192 203 210
188 199 206
195 206 215
196 207 215
190 202 209
194 205 212
194 205 211
194 204 211
188 199 206
100 124 86
90 117 70
92 119 71
93 120 72
89 115 69
88 114 68
91 119 71
86 112 66
90 117 70
87 114 68
91 118 71
92 119 71
91 118 70
90 117 70
92 118 70
90 116 70
92 119 70
91 118 70
93 119 71
129 147 129
191 202 208
191 202 212
192 202 210
190 201 209
190 202 211
187 198 204
185 197 205
201 211 218
196 206 214
185 198 206
192 203 209
200 210 218
192 202 209
197 207 216
200 210 220
188 199 207
192 203 212
190 201 209
113 134 107
90 117 70
93 120 72
88 114 67
88 114 69
89 116 70
90 116 69
94 121 72
92 119 72
92 119 71
90 117 69
92 119 71
93 119 71
94 121 72
90 117 71
116 137 108
118 139 112
131 151 135
123 144 122
86 112 69
89 115 69
91 118 71
90 116 69
91 118 71
90 117 69
89 116 69
89 115 68
89 116 70
89 116 69
91 118 70
180 193 199
192 203 211
185 197 205
196 206 214
186 198 205
190 202 210
193 203 211
182 194 200
195 206 213
169 182 181
139 157 140
96 121 80
93 120 72
91 117 70
98 124 81
184 196 202
189 200 205
197 207 216
193 204 209
190 202 209
185 196 200
182 195 202
187 199 207
192 203 209
187 197 201
188 199 205
186 198 205
198 209 218
191 203 213
198 207 213
162 176 171
144 160 148
94 120 74
87 114 67
91 117 69
91 118 70
87 113 67
100 124 86
191 202 210
189 201 210
198 208 215
198 207 214
194 205 213
196 206 214
197 207 214
190 202 209
195 205 215
188 200 208
191 202 208
190 202 212
195 205 211
192 203 210
190 201 206
200 210 219
189 201 207
192 203 209
199 209 216
173 186 185
148 164 154
116 136 110
91 118 70
110 133 99
195 206 213
189 199 203
189 201 207
196 205 212
198 209 220
193 203 209
193 204 211
184 196 201
194 205 213
187 199 206
188 200 207
189 200 207
198 208 216
195 206 213
195 206 212
190 201 207
188 200 211
186 197 202
191 201 206
189 201 208
194 204 210
198 208 217
192 203 210
194 205 214
186 197 199
97 124 74
91 118 70
91 118 71
86 113 66
93 119 71
94 122 73
115 136 106
138 155 139
162 176 171
189 200 204
193 204 211
194 205 211
200 209 217
191 203 210
188 200 206
190 201 208
191 201 208
190 201 207
193 204 211
198 208 216
196 206 213
197 207 217
195 206 216
181 193 197
196 206 214
133 151 129
92 119 71
91 118 71
93 120 72
91 118 70
88 115 68
92 119 71
91 118 71
90 116 70
89 115 69
91 118 71
87 113 67
90 117 70
91 118 70
88 115 69
92 119 71
92 119 72
89 115 68
92 119 71
94 121 73
91 117 70
92 118 70
93 120 72
88 115 67
93 120 72
91 117 69
182 194 198
187 199 205
195 205 214
187 197 203
192 203 210
195 206 213
188 199 204
178 191 194
164 178 175
139 155 142
126 145 123
98 122 83
92 119 71
94 121 72
92 119 71
94 121 73
90 116 69
85 112 66
91 117 70
92 118 70
92 119 71
89 116 70
88 114 68
90 117 69
99 126 76
92 119 71
183 195 200
199 208 216
187 199 204
193 204 214
189 201 208
194 204 210
181 192 196
194 205 212
190 201 207
192 204 211
194 205 212
197 207 215
188 199 206
199 209 215
196 207 215
188 199 205
186 198 204
197 207 214
191 203 211
196 206 214
194 204 211
195 205 212
193 203 209
202 213 224
194 204 213
189 200 205
94 118 80
95 122 73
91 118 70
89 116 69
90 117 69
87 113 68
92 119 71
89 116 69
89 116 69
92 119 71
92 118 70
97 124 74
94 121 73
93 120 72
90 116 69
93 120 72
93 120 71
90 116 69
90 117 70
91 118 70
88 115 69
92 119 71
93 120 71
92 119 71
92 119 71
142 159 145
185 197 204
190 201 208
193 204 212
190 202 210
193 204 212
197 208 217
189 200 206
199 208 216
198 209 217
189 200 208
188 199 205
192 202 207
197 207 216
186 197 203
202 213 221
202 212 222
198 208 214
189 200 206
195 206 214
192 203 212
190 201 207
191 202 210
188 200 208
190 200 206
143 160 145
86 112 66
91 117 70
91 117 70
91 118 71
90 116 69
88 114 68
92 118 70
88 115 68
92 119 70
87 114 67
90 117 70
91 118 70
88 114 68
93 118 80
116 138 108
117 138 109
111 132 104
124 144 118
124 143 120
137 155 135
121 140 120
137 154 142
140 157 143
163 176 173
171 184 184
158 173 166
148 163 154
155 169 160
153 168 160
154 169 162
150 165 155
147 164 152
159 173 166
142 159 150
150 166 158
153 167 159
145 161 152
148 164 153
149 166 155
152 167 158
153 169 159
149 165 152
135 152 139
151 166 155
155 170 160
144 160 150
143 162 149
149 164 157
141 158 145
142 159 143
134 153 136
127 145 125
132 151 134
128 147 126
128 147 127
134 152 133
121 140 118
110 132 103
108 131 94
111 134 102
100 124 85
92 117 78
90 116 69
94 121 72
90 116 69
94 121 73
90 117 70
88 114 68
95 121 77
175 188 188
196 207 216
198 209 216
196 206 214
182 193 199
191 202 210
188 199 205
190 201 207
202 211 220
195 206 217
193 205 214
192 204 213
196 207 215
206 216 225
197 207 215
192 203 209
194 204 211
193 204 213
187 199 206
192 203 210
197 208 218
126 144 123
94 121 73
86 112 66
92 120 72
93 120 72
89 116 69
90 117 69
87 114 67
95 122 73
87 113 67
89 116 69
94 120 72
89 116 69
90 117 70
93 119 71
91 118 71
92 119 71
90 116 69
91 118 70
114 135 109
183 195 200
185 198 203
190 202 211
194 204 213
195 206 215
195 206 215
192 204 213
190 202 209
193 203 210
181 193 201
194 205 215
188 200 207
191 202 209
193 204 211
201 210 217
189 200 207
197 208 217
186 199 206
116 138 111
92 118 70
88 114 68
88 115 69
94 121 72
88 114 67
90 117 70
91 118 70
91 119 71
92 119 71
89 116 68
95 120 81
129 148 125
139 157 139
155 170 167
181 193 198
171 182 181
96 122 78
91 118 71
86 112 66
91 118 70
92 119 71
91 117 70
94 121 73
92 119 72
90 116 68
91 117 70
86 112 67
89 116 69
85 111 66
91 117 70
188 199 206
189 199 205
188 200 209
195 205 212
193 204 212
196 207 217
189 201 209
195 205 211
196 207 213
201 211 220
185 197 203
188 198 203
149 166 157
120 140 120
88 115 68
177 190 191
184 195 200
194 206 214
181 192 197
192 203 211
195 205 214
192 202 209
191 201 208
181 194 201
183 194 198
192 203 213
184 195 201
192 202 208
193 204 211
192 203 209
200 210 219
198 209 218
181 192 196
163 177 176
138 156 141
97 122 80
89 116 69
104 126 93
182 194 200
195 206 215
195 205 212
190 201 207
198 209 218
191 202 208
195 206 213
189 200 208
187 197 201
183 194 201
191 203 211
195 205 212
197 207 217
191 201 206
191 203 211
191 202 209
192 203 211
192 204 213
195 206 214
188 200 209
194 205 212
188 199 205
176 188 188
154 169 161
179 192 193
192 202 209
192 204 214
193 204 212
196 207 217
194 205 212
186 197 203
192 204 212
186 197 203
192 203 210
182 194 201
196 206 214
199 208 216
189 199 207
192 203 211
188 200 207
180 192 196
193 204 213
193 204 211
193 204 212
199 208 215
188 199 204
187 198 204
186 197 206
162 177 176
86 112 66
93 120 72
95 122 73
90 117 69
95 123 74
91 118 70
92 119 71
90 117 70
91 118 71
94 120 75
124 144 123
160 174 168
176 189 190
190 201 209
196 206 213
193 204 212
195 206 214
184 196 201
186 198 205
189 200 208
191 202 208
187 198 204
188 200 208
195 205 213
192 203 209
113 134 105
88 114 68
92 120 72
92 118 70
91 117 70
90 117 70
94 121 73
92 119 71
91 118 70
90 117 70
89 116 69
89 116 69
92 119 72
89 116 69
91 117 70
88 114 67
89 116 69
90 117 69
90 116 69
90 117 70
92 118 70
89 115 68
88 115 69
93 119 71
88 114 68
98 123 86
181 192 196
198 209 218
187 199 205
185 197 204
194 204 212
195 204 211
189 200 208
187 199 204
189 200 207
199 210 221
195 206 216
197 208 217
180 191 193
161 176 175
145 160 149
129 148 126
111 135 104
91 119 71
91 117 70
87 113 66
91 118 71
92 119 71
91 118 71
91 117 71
90 116 69
112 134 103
191 201 207
199 210 219
196 207 216
194 205 214
192 203 211
196 206 212
183 194 198
191 202 210
192 203 209
195 206 213
195 205 213
190 202 209
191 202 209
203 213 224
188 199 206
200 210 216
192 203 210
194 205 211
196 206 213
193 203 209
200 209 216
200 210 218
202 211 219
190 200 205
198 209 216
157 172 166
85 112 67
94 121 73
91 118 71
93 120 72
89 115 68
93 119 71
90 116 69
85 110 66
95 123 74
88 114 66
89 116 69
88 114 67
89 116 68
88 115 68
93 120 72
88 115 69
92 119 72
87 114 68
90 117 70
95 122 73
92 119 71
94 121 72
90 116 69
92 119 71
99 123 86
196 206 212
196 207 216
194 205 212
187 199 205
191 202 210
194 204 212
187 198 204
197 207 215
195 205 214
193 204 212
194 204 211
198 209 218
197 207 214
191 202 209
196 206 214
194 204 209
199 209 219
193 204 211
197 208 216
197 207 217
193 205 215
191 203 211
192 203 213
189 200 204
188 199 204
94 121 75
90 116 70
92 119 71
90 117 69
88 115 68
89 116 69
89 116 70
87 114 67
89 116 69
91 118 71
91 118 70
92 119 71
93 120 71
91 118 70
87 114 68
89 115 68
91 117 70
91 118 71
90 116 69
90 117 70
91 118 71
89 116 70
92 119 71
110 133 99
187 199 205
195 206 214
190 201 206
184 195 201
204 213 222
187 199 206
190 201 205
193 204 210
192 203 211
185 197 203
196 205 212
191 202 210
195 207 216
195 205 212
193 204 210
190 201 207
195 206 215
194 205 212
192 202 209
193 203 213
186 198 206
193 204 211
190 201 206
131 150 129
93 119 71
88 114 67
89 115 68
88 115 68
92 118 70
90 117 70
92 118 70
91 117 70
94 121 73
92 119 72
89 116 69
89 115 68
91 119 72
93 120 71
88 114 68
92 118 71
89 116 69
90 117 69
87 114 67
92 119 71
89 115 68
158 172 169
195 205 213
197 208 217
203 214 223
197 206 214
195 206 214
195 205 212
194 205 211
197 207 215
184 196 205
195 206 218
186 197 201
190 201 208
190 201 205
190 201 208
195 206 216
199 208 216
194 205 212
187 198 204
189 199 207
199 209 217
134 152 138
92 119 71
90 116 69
92 119 71
89 115 68
88 115 68
91 117 70
89 116 69
93 119 71
92 119 71
92 119 71
84 109 64
89 115 68
91 118 70
88 115 68
89 116 70
87 114 69
91 118 71
93 120 71
103 126 96
187 199 206
197 208 217
194 204 212
188 199 207
191 201 207
181 193 200
191 202 208
196 207 214
189 200 208
186 197 202
193 204 210
197 207 214
203 213 223
200 211 219
181 193 199
193 203 211
194 205 214
191 202 208
116 136 109
93 120 72
90 116 69
90 116 69
93 120 72
93 120 72
86 112 66
101 124 88
128 149 130
127 144 126
154 170 164
173 186 189
202 212 222
192 203 211
191 203 211
193 204 210
162 176 172
91 117 72
89 116 69
91 117 70
87 113 67
89 116 70
92 119 71
91 117 70
90 116 69
88 114 68
90 116 69
92 119 71
89 116 69
92 119 72
92 119 74
157 172 164
194 205 211
188 199 205
197 207 215
197 207 213
189 201 210
196 206 214
190 202 209
185 196 203
183 194 200
197 207 215
195 206 214
190 201 207
190 200 209
186 199 206
171 184 185
157 173 167
180 192 196
189 200 209
191 203 211
195 205 211
190 201 206
192 204 212
193 204 212
199 210 218
196 206 213
197 207 216
188 200 207
183 195 200
186 197 203
186 198 205
198 209 217
195 206 214
185 197 204
184 195 202
186 198 204
179 192 196
156 172 164
125 144 122
192 203 211
193 202 208
192 203 211
191 203 212
200 211 223
193 204 211
191 203 210
199 210 220
193 204 211
180 192 199
191 202 209
192 203 210
199 210 220
201 211 219
195 206 215
190 201 206
195 205 213
187 199 206
187 198 204
193 204 212
200 210 218
195 206 215
193 204 212
170 182 183
92 119 71
114 134 105
145 161 148
167 180 180
189 200 207
189 201 208
197 207 214
195 207 217
196 207 216
192 203 211
190 201 207
179 190 194
197 208 217
186 198 204
190 202 210
195 205 213
188 199 206
193 203 210
200 211 219
190 201 206
191 202 212
189 200 206
193 203 208
192 203 211
143 159 149
90 117 69
86 112 66
88 115 69
95 122 73
87 113 67
87 113 67
90 117 69
94 122 73
92 119 72
87 113 67
87 112 66
89 116 69
90 116 69
96 121 78
119 140 114
157 171 164
180 192 195
185 196 200
187 198 204
189 201 208
181 192 196
188 200 205
199 210 222
197 209 220
194 204 210
89 116 69
92 119 71
90 117 70
94 120 72
92 118 71
89 116 69
87 113 68
91 118 70
88 114 68
93 121 72
91 118 70
91 117 70
91 118 71
93 120 72
94 121 73
91 118 71
89 116 70
93 120 72
91 117 70
90 117 69
94 121 72
94 121 73
88 115 68
86 112 66
86 113 66
147 163 155
191 202 210
193 204 212
191 201 208
187 199 207
197 207 215
194 205 213
194 205 213
190 200 207
180 192 198
194 204 210
200 210 219
197 208 215
184 196 201
191 203 209
200 210 217
185 197 204
183 195 201
188 199 204
170 182 181
157 172 166
136 155 138
113 134 107
94 119 73
91 118 71
90 116 69
157 171 167
195 205 212
188 199 207
190 201 207
185 197 203
189 201 211
189 200 207
192 203 210
185 197 204
196 206 214
189 201 206
186 198 205
196 206 214
188 200 209
197 207 215
192 203 211
200 210 219
200 210 218
188 199 205
192 204 213
188 199 205
195 205 212
186 197 203
188 199 205
198 208 217
203 213 223
117 138 108
88 115 69
89 116 70
93 120 72
92 119 72
91 117 69
87 113 67
92 119 71
91 119 72
89 115 69
90 117 70
88 115 68
90 117 71
93 120 72
93 120 71
94 122 73
90 116 70
91 117 70
88 115 68
86 112 66
92 118 70
88 114 67
92 119 71
92 118 70
86 112 66
152 168 160
198 209 217
192 203 211
189 200 207
197 208 216
187 198 202
189 200 208
194 205 211
186 198 203
195 205 213
202 212 219
203 213 222
190 201 208
192 203 211
190 201 208
190 200 204
194 205 212
186 197 203
201 210 219
190 200 206
194 205 213
190 201 208
193 204 209
192 202 208
191 202 210
127 146 127
94 121 72
89 115 69
92 119 71
91 118 70
91 118 71
92 119 71
88 114 68
86 112 66
93 120 72
93 120 72
91 117 70
90 116 69
86 111 66
91 118 70
89 116 69
86 112 66
88 114 67
86 112 66
88 114 68
95 123 74
90 117 70
94 121 73
91 118 70
161 175 171
194 205 214
195 205 211
195 205 212
191 202 208
194 204 209
193 204 211
192 203 210
194 204 212
190 201 208
190 202 209
191 200 206
190 201 208
193 204 213
190 202 211
192 203 211
194 204 209
190 201 207
188 200 205
195 206 213
191 202 210
199 209 219
189 200 208
162 175 169
95 122 74
92 119 71
94 121 73
94 121 73
91 118 70
92 120 72
91 118 71
91 118 71
87 113 67
90 117 69
87 113 68
91 119 71
91 118 70
93 121 73
90 118 71
90 116 69
89 116 68
91 118 70
89 115 69
93 120 72
91 117 70
132 150 134
194 204 210
188 200 206
186 197 204
197 207 215
187 198 204
193 204 212
190 200 207
193 204 211
201 210 218
190 202 211
197 208 216
198 208 216
197 207 214
186 197 202
188 200 208
198 208 217
192 201 207
194 203 211
195 206 215
194 204 212
159 174 170
88 114 68
87 113 67
92 118 71
91 117 70
88 114 68
87 113 68
89 115 69
93 121 72
87 114 68
90 117 70
91 118 71
89 115 68
87 114 68
89 116 69
94 121 72
91 118 70
91 118 69
88 115 68
114 135 106
182 193 198
183 194 199
190 201 207
188 200 206
185 197 202
195 205 213
194 204 212
195 206 214
189 200 208
193 204 214
190 201 208
186 198 204
194 205 213
181 192 195
194 204 211
193 204 210
199 210 219
176 189 194
114 135 107
91 117 70
92 119 72
103 126 89
127 146 125
146 161 150
167 179 176
184 196 202
193 204 211
184 196 204
194 204 213
192 203 211
183 195 200
191 202 209
181 192 199
188 199 206
157 171 166
91 117 70
87 113 66
91 118 71
88 115 68
86 112 66
87 113 67
85 111 65
91 117 70
92 119 72
89 116 69
90 116 69
87 113 68
90 117 70
104 127 90
169 181 182
189 199 206
99 122 87
139 156 145
186 198 204
189 200 207
185 197 204
186 198 205
190 201 208
183 196 201
189 200 208
185 197 205
194 205 213
190 201 209
193 204 213
187 198 204
189 200 208
151 166 160
89 116 69
115 136 111
150 165 156
188 200 207
188 199 205
188 198 204
181 193 201
194 205 212
187 198 204
191 203 210
198 208 216
179 191 197
189 199 206
191 202 210
187 199 207
191 202 209
197 207 216
186 197 201
186 196 201
191 203 210
188 198 203
190 201 207
114 136 104
131 150 133
166 179 177
184 196 202
192 202 210
198 208 215
181 193 202
194 204 212
186 197 202
192 203 211
191 203 212
188 198 205
192 204 211
193 203 211
193 205 213
188 199 205
193 204 212
192 203 210
193 203 210
193 204 212
197 208 217
192 203 212
194 204 211
177 189 190
89 116 69
91 118 69
90 115 68
91 118 71
92 119 72
118 137 117
156 170 167
177 190 194
202 212 223
190 201 209
186 197 203
196 205 211
197 208 216
183 196 205
187 198 206
193 203 210
196 206 214
184 196 203
185 196 200
193 204 213
187 198 205
187 198 203
192 203 211
190 200 204
148 163 153
88 114 68
93 120 72
93 120 72
87 114 68
91 118 70
93 120 72
87 114 68
89 116 69
90 117 70
91 117 69
89 116 70
91 117 70
93 120 71
86 113 68
85 111 65
90 117 70
86 113 67
90 117 70
125 145 122
146 162 154
174 187 187
184 196 201
200 210 218
188 199 206
179 191 195
90 117 70
88 114 68
91 118 70
90 117 69
89 116 69
93 120 72
91 117 69
92 119 71
88 114 67
90 117 70
92 119 72
91 118 71
90 116 70
89 116 68
88 114 67
90 117 70
89 115 68
93 120 72
90 117 70
92 119 70
89 115 68
90 117 70
93 120 72
90 117 70
91 118 71
159 174 169
192 203 210
193 204 212
190 201 208
202 212 221
194 205 214
190 200 206
192 204 211
193 204 212
198 209 219
185 197 204
191 202 210
192 203 210
204 214 223
186 197 203
198 208 216
198 209 216
192 202 208
191 201 209
192 202 209
188 200 209
190 200 207
194 204 209
180 191 194
182 194 197
162 176 172
153 169 161
175 188 191
173 185 186
196 206 215
193 204 212
192 203 210
187 198 204
198 208 217
188 200 208
180 192 196
183 194 200
190 202 210
190 202 211
186 198 202
195 206 214
196 206 214
194 205 214
201 211 221
202 212 221
192 202 208
193 204 212
186 198 205
197 207 215
193 205 213
187 198 203
167 181 182
89 115 69
89 115 68
91 117 69
90 116 70
92 119 71
92 118 71
89 116 69
92 118 69
88 114 68
92 119 71
89 115 68
96 123 74
89 115 68
92 120 72
90 117 70
90 116 70
87 113 67
91 117 70
92 118 70
93 120 72
92 119 70
91 119 71
94 121 72
90 117 70
94 120 76
184 195 199
186 197 204
191 202 210
192 202 209
186 197 202
191 202 210
188 200 207
197 207 215
197 208 216
199 210 221
201 211 220
189 201 209
189 200 206
193 204 212
186 198 202
188 199 203
188 199 205
194 205 213
186 198 204
187 199 206
195 205 212
185 195 199
193 203 210
199 209 217
179 192 196
88 114 69
88 113 67
91 118 71
88 114 67
93 120 73
88 114 67
93 120 72
90 116 70
91 118 70
90 117 69
87 113 67
90 116 69
90 117 70
93 120 72
91 118 70
89 115 68
91 117 70
86 112 66
89 115 68
89 116 70
89 115 68
90 117 70
86 112 65
120 141 113
191 202 210
190 201 210
192 204 211
201 211 220
188 199 203
190 200 206
197 208 216
197 207 214
195 205 212
194 205 210
176 188 191
199 209 216
191 203 212
189 200 206
201 210 217
197 207 216
195 206 214
181 194 199
194 205 213
190 201 208
196 207 216
192 202 209
168 182 180
93 119 76
91 118 70
90 117 69
87 114 67
89 115 68
92 119 71
90 117 70
90 117 70
93 120 72
89 116 70
92 119 70
88 115 68
91 118 71
88 114 67
90 117 69
90 117 69
91 118 70
89 115 69
91 118 71
88 114 68
90 116 69
111 133 103
186 197 204
200 210 218
195 205 211
194 205 214
197 207 215
201 211 220
192 202 211
192 203 209
190 201 208
187 199 206
197 207 215
188 197 202
190 201 210
192 204 212
200 210 219
181 194 200
196 206 213
186 198 204
190 202 210
186 197 204
159 172 166
92 117 74
90 117 69
90 117 69
95 122 74
92 120 72
90 117 70
90 116 69
90 117 70
91 117 70
84 110 65
87 113 67
88 115 69
91 118 71
89 116 68
90 117 70
92 119 71
89 115 68
92 119 71
96 120 82
178 190 194
177 190 195
191 202 210
194 204 210
189 200 208
189 201 210
194 205 214
194 205 213
182 194 199
190 202 211
195 205 212
197 207 215
193 204 212
190 201 209
195 206 212
195 205 213
189 200 206
175 187 190
152 168 159
154 170 164
177 190 190
193 204 211
186 197 202
199 209 216
194 205 214
191 202 210
185 196 202
188 199 206
177 189 194
186 197 204
184 195 199
192 203 209
196 206 215
193 203 210
148 165 153
88 115 68
87 113 67
84 110 65
88 114 68
92 119 71
87 114 68
87 113 67
87 114 67
94 121 73
92 119 71
87 113 67
88 115 68
90 117 70
117 136 114
179 191 194
193 204 211
175 187 189
187 198 202
183 195 198
161 175 172
190 200 204
175 188 191
148 163 157
139 155 143
143 160 151
160 174 171
167 180 179
172 185 186
175 187 191
188 199 204
187 198 204
197 208 216
183 194 199
94 120 72
92 119 70
89 116 69
96 120 82
134 151 135
166 179 177
186 197 203
182 195 202
192 203 210
189 200 207
195 205 213
190 201 208
193 204 212
190 200 206
196 206 213
194 205 213
194 205 212
189 201 207
188 199 205
193 203 209
193 203 210
187 198 204
117 139 111
89 116 69
93 120 73
110 131 102
140 157 146
169 181 180
184 196 201
193 204 211
189 199 205
194 204 212
197 207 214
193 204 211
189 200 206
190 200 206
186 198 206
189 200 207
189 201 210
187 198 204
185 196 202
194 204 212
193 204 212
190 200 205
188 200 207
177 190 194
90 117 70
93 120 72
88 114 68
90 117 70
92 119 71
84 109 65
90 116 70
94 119 76
122 142 116
147 163 152
168 182 179
188 201 209
189 200 206
188 199 204
194 205 214
186 197 203
187 198 205
200 210 220
194 205 211
205 215 225
191 201 208
178 190 194
190 201 208
195 205 211
128 147 130
93 120 72
85 111 66
88 115 69
93 120 72
89 115 68
95 122 73
93 120 72
86 112 67
88 114 68
91 118 71
92 119 72
91 118 70
92 118 70
93 120 72
90 117 70
89 115 68
93 119 71
88 115 68
89 116 69
90 116 70
87 113 67
96 120 79
114 135 107
153 168 159
156 171 165
98 123 81
92 119 71
89 115 68
86 112 67
92 119 71
89 116 69
91 118 71
87 114 68
92 119 71
92 118 70
91 118 70
92 119 72
87 113 68
90 116 69
88 114 67
90 117 69
89 116 69
88 115 69
85 111 66
82 107 63
93 120 71
93 120 71
89 116 69
89 116 69
88 115 69
183 195 201
189 200 207
198 208 214
193 204 212
196 206 214
190 202 210
195 206 213
194 205 212
191 202 207
187 198 204
190 201 209
200 211 219
180 192 196
190 201 208
179 190 194
186 197 206
191 202 211
193 203 209
195 206 218
186 198 204
193 204 211
198 209 218
189 200 204
190 200 207
184 196 201
186 197 201
92 119 71
89 116 69
88 116 69
92 117 75
100 124 88
132 151 132
146 162 152
162 177 173
175 187 188
188 198 202
202 212 222
191 202 208
196 207 216
193 204 211
199 209 219
193 204 211
192 203 210
188 199 204
193 204 213
193 204 210
185 197 203
187 199 206
192 203 212
194 205 213
192 204 213
138 156 142
88 114 68
87 113 67
91 118 70
89 116 69
93 120 72
92 119 72
86 112 67
88 114 68
94 120 72
92 119 71
89 116 70
92 119 72
90 117 70
89 115 69
88 114 67
93 120 72
91 118 70
91 118 71
91 118 71
91 118 70
86 112 67
91 118 70
91 118 71
87 113 67
161 175 169
183 195 199
197 207 214
189 201 208
183 195 201
199 210 220
198 208 216
196 206 214
199 209 216
188 200 207
191 202 210
195 205 213
194 205 212
191 202 209
200 210 219
187 199 206
187 198 205
195 206 214
199 210 218
184 196 201
193 204 212
182 193 201
195 206 212
201 210 218
188 199 203
114 136 107
90 117 70
91 118 71
90 116 69
88 115 68
90 116 69
89 115 68
89 115 68
93 120 71
92 119 71
91 118 71
89 115 68
93 120 71
90 117 70
90 117 69
93 121 72
89 115 68
88 114 68
95 122 73
90 118 71
89 117 70
93 119 71
89 115 68
92 119 71
175 187 187
184 196 201
196 207 217
198 209 219
192 202 212
188 200 207
202 211 220
191 202 208
198 208 215
198 208 218
194 205 213
197 207 215
190 201 207
189 199 203
196 206 214
194 204 209
194 204 210
197 207 216
194 205 213
193 204 214
190 200 208
191 202 209
188 199 205
107 130 97
86 112 66
92 119 72
91 118 71
89 115 69
88 114 68
91 117 70
87 113 67
90 116 69
87 114 67
90 116 70
90 117 69
83 109 64
88 114 68
86 113 66
90 117 70
86 113 67
91 118 70
87 114 68
90 116 70
94 121 73
93 118 78
187 198 203
199 209 219
187 198 205
185 196 200
190 202 210
189 199 205
191 202 210
190 201 209
192 203 210
181 194 200
178 190 196
192 202 211
191 202 209
189 200 208
190 201 209
194 204 211
182 193 199
195 207 216
190 201 209
187 199 208
172 186 185
96 121 79
87 113 66
90 117 69
87 113 67
88 115 69
87 113 67
83 108 64
93 120 71
91 118 70
88 114 68
87 113 67
90 117 70
90 116 69
87 113 67
87 112 66
90 116 69
87 113 68
89 115 69
98 125 78
171 184 184
200 210 216
192 203 210
185 196 200
191 201 208
189 200 208
203 213 221
201 211 217
193 204 211
192 202 206
190 202 209
184 195 202
182 193 196
159 174 168
155 170 164
135 153 136
120 140 118
113 135 105
183 195 199
194 205 212
193 203 211
192 203 213
185 196 201
192 203 210
199 210 220
194 205 212
187 198 204
178 190 193
190 201 208
188 199 204
186 197 202
192 203 210
191 201 207
187 197 203
145 161 150
90 117 69
87 114 68
87 113 68
89 116 69
92 116 74
111 133 103
114 135 107
123 142 118
135 153 138
131 149 132
142 158 150
155 170 162
152 167 159
161 175 171
153 168 161
178 190 192
185 197 203
175 188 189
195 206 214
194 204 211
184 195 200
186 197 202
187 198 204
192 203 212
165 178 176
117 137 114
83 108 64
87 113 67
88 114 68
91 117 70
90 117 70
96 123 74
87 112 70
96 120 83
163 176 172
170 183 184
166 180 176
147 163 153
154 169 163
149 164 155
146 162 155
157 171 167
173 186 190
170 182 183
168 182 183
169 183 182
180 192 194
186 196 201
187 199 206
197 207 214
186 198 206
191 202 208
191 202 209
193 204 211
197 207 215
173 186 190
126 145 123
90 116 69
87 113 68
90 116 69
89 115 68
90 117 70
97 121 82
119 139 116
176 189 189
191 202 207
188 200 207
190 202 209
184 195 200
188 199 207
191 201 210
185 197 205
186 198 205
194 205 214
189 200 206
197 208 215
196 207 214
196 206 214
196 207 215
175 188 189
90 116 70
85 112 66
88 114 67
91 117 70
87 114 67
91 119 71
92 119 71
87 113 67
90 117 69
89 116 69
87 114 68
104 128 93
137 154 139
158 174 170
177 191 194
190 201 208
201 211 221
200 209 217
196 206 215
192 202 208
190 202 210
189 201 210
185 197 205
193 204 212
127 146 128
92 119 71
90 116 69
90 117 70
88 114 68
91 118 70
93 120 72
89 115 69
88 114 68
90 117 70
87 113 67
88 114 68
91 117 70
90 117 70
90 117 70
93 119 71
90 117 70
92 119 71
90 117 70
87 114 67
92 118 70
90 116 69
89 115 68
87 113 66
89 115 68
163 177 172
191 202 209
172 184 186
151 166 159
126 146 129
104 128 90
92 119 71
89 115 68
88 114 68
89 115 69
94 120 71
89 116 69
91 118 70
89 116 69
88 115 68
86 112 66
92 119 71
91 118 71
85 112 66
90 117 70
91 118 71
88 115 69
88 114 68
87 113 67
89 116 69
109 131 100
181 192 198
188 199 204
198 209 217
190 201 207
193 205 213
193 203 211
194 205 212
188 199 206
188 199 205
193 203 210
200 211 221
191 202 210
197 206 213
187 199 206
191 202 209
189 201 208
187 198 204
193 202 208
189 201 208
187 198 205
192 203 210
184 196 203
189 200 206
195 206 216
182 195 203
141 156 144
91 118 71
90 117 70
94 121 72
89 116 69
88 115 68
89 116 69
91 117 69
91 117 69
88 115 69
91 117 70
108 131 99
121 141 117
157 172 165
157 172 167
173 185 188
174 187 190
195 207 215
188 199 206
186 197 205
195 206 216
194 204 211
195 206 215
197 207 215
187 197 203
172 185 191
93 119 74
90 117 70
87 113 68
92 119 71
92 118 70
91 117 70
90 117 70
90 117 69
88 115 68
90 116 69
94 120 71
93 120 71
90 116 69
91 118 71
91 118 71
92 119 71
91 118 70
87 114 67
89 116 68
95 122 73
88 115 69
85 110 65
88 114 67
91 118 71
96 122 81
182 194 200
186 196 205
188 200 207
189 201 208
189 201 206
192 202 208
193 202 207
188 199 204
183 195 200
191 202 210
198 209 217
187 199 206
182 193 200
193 203 209
184 196 203
192 203 209
191 202 209
191 201 208
190 200 207
196 207 217
190 201 209
187 198 205
188 199 205
191 202 209
153 167 164
88 115 69
90 116 69
92 119 71
90 116 70
92 119 71
90 116 69
90 117 69
91 117 69
85 112 66
90 117 70
89 115 68
83 108 64
94 121 73
90 116 69
92 119 71
88 115 69
86 113 66
91 117 70
92 119 71
92 118 71
88 114 67
89 116 69
90 117 69
166 181 179
187 198 204
197 206 213
190 201 206
192 203 211
198 208 216
188 200 207
196 207 215
193 204 211
196 207 216
183 195 200
188 199 207
198 208 215
198 208 216
189 200 208
192 203 210
200 211 220
194 205 213
186 197 202
186 197 203
188 198 205
184 194 199
187 199 206
137 155 139
86 112 66
89 116 69
91 118 70
92 118 70
86 113 67
90 116 69
87 113 68
86 112 67
90 118 71
91 118 70
88 114 67
88 114 68
89 116 70
86 113 67
92 119 72
92 119 71
91 118 70
92 119 71
93 120 72
89 116 69
87 113 69
167 180 179
194 205 216
188 199 206
183 195 201
186 198 207
193 203 209
188 200 208
193 204 212
194 204 212
194 205 213
189 199 207
184 196 203
196 206 214
191 203 213
196 206 214
193 204 214
195 205 211
194 204 209
183 196 202
187 197 202
185 197 202
100 123 87
94 121 73
88 114 67
90 117 70
89 115 68
91 117 70
91 117 70
89 115 68
87 113 66
91 118 71
88 114 68
93 120 72
93 121 72
91 117 70
92 119 71
92 118 71
93 120 72
87 113 67
96 121 77
170 183 184
189 200 208
191 202 209
191 202 209
190 201 209
183 195 202
183 195 201
169 182 185
161 175 170
156 171 165
132 151 130
114 135 108
85 111 66
91 118 71
91 119 71
89 116 69
91 117 69
107 130 97
176 188 191
191 203 213
190 202 210
192 202 210
192 202 209
185 196 202
186 198 204
176 188 188
175 189 189
165 178 176
159 172 166
154 170 162
167 180 175
149 165 157
140 156 145
145 162 151
177 189 190
171 183 184
166 180 180
175 187 190
176 190 195
193 204 213
185 197 205
179 191 197
187 199 208
195 205 213
188 199 206
176 188 191
154 167 162
146 161 152
168 181 184
195 205 213
189 199 205
188 200 209
187 199 208
191 202 209
178 191 199
179 191 194
193 203 211
191 202 210
192 202 210
184 195 202
189 200 209
191 203 209
183 195 200
148 163 154
112 134 105
91 117 70
88 114 68
88 115 69
89 116 70
88 115 68
170 182 181
189 200 206
185 197 203
197 207 214
190 200 206
186 197 204
193 203 208
193 204 212
186 197 205
183 194 196
156 172 167
121 140 120
85 111 68
89 115 68
87 113 67
87 112 71
98 121 84
109 132 103
114 135 109
122 141 119
123 142 122
135 153 136
134 153 136
157 170 165
141 158 146
148 163 155
150 165 158
152 168 159
138 155 140
136 153 138
113 135 109
126 145 128
155 170 160
174 187 188
192 203 209
189 200 208
189 202 211
185 197 203
189 200 206
196 206 215
192 203 212
189 200 209
188 200 205
189 200 208
196 207 216
180 192 196
84 110 65
85 112 67
88 115 69
89 115 68
93 120 72
88 114 67
86 113 67
88 115 68
90 116 69
87 113 67
85 111 66
90 117 71
94 121 73
87 113 67
87 113 67
116 137 109
147 163 154
182 194 197
182 194 198
193 204 214
190 201 208
179 191 198
192 203 210
185 197 205
118 137 115
88 114 68
87 113 68
91 118 71
88 114 67
94 121 73
92 118 71
88 114 69
88 114 68
89 116 69
89 116 69
90 117 70
91 117 69
91 119 71
87 114 67
88 114 67
94 121 73
88 115 69
87 113 67
87 113 67
91 118 70
89 116 69
85 111 65
90 116 69
92 119 72
178 190 191
189 200 207
193 204 212
193 204 211
193 204 211
197 207 214
177 190 191
171 184 184
147 163 149
125 144 120
89 116 69
90 116 70
89 116 69
86 113 67
88 114 68
89 115 68
92 119 71
88 114 68
87 113 68
95 122 73
86 112 66
86 112 66
94 121 73
92 119 71
83 109 63
140 157 143
194 204 211
180 191 197
191 202 209
191 202 210
202 212 221
194 205 210
191 202 208
194 204 209
186 198 205
186 198 204
198 207 214
197 207 215
192 203 210
183 195 200
192 203 208
197 207 214
195 205 211
189 200 208
190 202 209
191 202 209
194 205 213
194 205 213
195 206 214
190 200 206
197 207 216
101 124 91
90 117 69
90 117 70
91 119 72
88 114 68
86 113 68
91 118 70
87 113 68
90 117 70
86 112 66
95 122 73
86 112 66
89 116 70
91 118 71
89 116 69
90 116 69
94 121 73
91 118 71
101 124 92
134 152 134
145 161 150
152 168 157
168 181 181
182 193 196
188 199 208
153 169 163
89 115 68
91 117 70
90 117 70
93 120 72
87 114 67
92 120 72
88 114 68
90 116 70
90 117 70
91 118 71
89 116 69
88 114 68
88 114 68
88 114 67
87 114 67
88 114 68
90 117 69
90 117 70
91 117 70
90 117 71
94 121 72
92 119 71
90 117 70
91 118 70
149 165 157
195 205 213
184 195 200
194 205 214
181 193 198
199 209 217
192 203 211
190 201 207
178 190 195
190 200 206
190 201 209
193 204 213
196 206 214
197 207 216
189 200 206
182 193 195
191 202 211
192 204 211
195 206 215
189 200 207
191 202 208
194 205 212
195 205 214
185 198 208
190 201 207
101 123 92
88 114 67
92 119 73
88 115 69
90 116 69
88 114 68
91 118 71
88 115 69
88 114 68
93 120 72
91 118 70
85 112 66
88 113 67
91 118 70
89 116 70
91 118 70
90 117 69
89 115 68
90 117 70
89 115 69
89 116 69
87 113 67
88 114 68
120 139 119
188 198 203
190 201 210
193 203 210
190 201 209
197 208 217
198 209 218
196 207 216
197 207 214
190 200 205
186 197 203
196 207 216
186 197 203
195 205 212
197 207 216
195 205 212
196 207 214
186 198 206
180 192 196
186 198 204
197 208 218
194 206 216
192 204 212
178 190 191
92 119 71
92 119 71
92 118 71
94 121 72
91 118 70
92 118 71
89 116 69
94 121 73
90 116 69
93 120 72
92 119 71
88 115 68
87 113 67
88 114 68
88 114 68
91 117 70
87 113 67
89 116 69
88 115 68
89 115 69
90 117 70
168 181 178
194 205 213
187 199 207
190 201 207
196 207 213
181 193 195
189 200 206
187 199 206
190 200 206
190 201 207
193 203 211
189 199 204
193 204 211
188 199 207
193 204 213
195 205 214
197 208 216
189 200 209
203 213 224
189 199 205
190 200 205
99 123 85
91 118 71
88 114 67
87 113 67
92 119 71
89 115 69
90 117 70
88 114 68
85 111 66
83 110 65
91 117 71
92 119 71
89 116 70
88 114 67
94 121 72
88 114 68
91 118 70
88 114 68
98 122 80
168 182 182
178 190 192
171 185 187
142 158 150
146 162 152
129 149 128
138 155 140
125 143 123
137 155 137
120 140 116
134 152 140
140 157 143
145 161 151
151 165 158
141 157 141
158 173 169
154 169 166
151 166 157
115 136 108
115 135 113
115 134 112
98 122 87
96 120 81
88 115 68
83 109 64
87 113 67
91 118 72
85 111 65
89 116 69
87 113 67
92 118 70
90 116 69
92 119 71
111 133 104
173 185 187
194 205 212
190 201 209
187 199 205
186 197 203
187 198 204
191 202 211
188 198 204
191 202 207
162 175 173
131 150 131
109 131 100
89 115 68
98 123 81
163 177 176
178 190 197
190 200 205
182 194 199
197 207 217
185 197 205
179 191 196
188 200 207
185 197 205
186 198 204
191 202 209
183 194 200
189 200 208
194 205 214
187 198 205
178 192 198
192 202 209
191 202 210
176 189 192
142 158 147
96 121 82
86 111 65
89 116 69
152 167 159
180 192 198
178 191 195
185 196 202
188 199 206
189 201 209
195 205 214
192 203 211
180 192 199
183 195 202
183 194 200
184 195 202
188 200 206
146 162 151
103 127 94
90 117 70
89 116 69
90 117 69
83 109 65
89 116 68
92 119 71
91 117 69
144 161 150
184 197 204
186 197 204
191 202 209
185 197 204
189 199 207
200 210 218
189 200 207
192 202 209
191 203 210
189 200 206
189 200 209
185 196 203
160 175 170
128 147 126
106 128 97
97 121 82
107 128 101
112 133 104
117 137 113
116 138 111
134 152 134
132 150 134
137 153 139
155 169 166
150 165 157
151 167 156
142 158 144
130 148 132
143 159 146
130 148 133
132 151 134
134 152 136
122 141 119
121 140 114
119 139 116
110 132 102
108 130 98
94 120 77
96 120 84
94 118 81
91 115 76
101 125 87
139 156 138
160 174 170
179 191 194
186 197 202
189 199 205
106 130 95
94 121 72
87 113 68
88 114 68
90 117 70
92 119 71
89 116 69
93 120 71
91 117 70
86 112 66
88 114 68
89 116 69
92 119 71
89 116 69
91 118 70
88 115 69
89 116 69
89 116 69
87 114 68
92 119 71
86 113 66
88 115 69
89 115 69
85 111 66
86 112 66
182 194 198
195 205 213
191 203 212
188 200 208
193 204 211
194 204 209
191 201 209
190 201 208
200 210 220
195 205 211
183 195 201
166 179 178
154 169 161
140 157 143
96 121 82
91 119 72
88 114 67
88 114 68
90 117 69
90 116 69
89 115 68
92 118 71
90 117 69
89 116 69
90 117 70
176 188 191
200 211 219
190 202 210
189 201 209
195 205 212
184 195 203
186 197 203
190 200 206
198 209 218
195 205 214
193 204 212
185 198 207
186 197 202
196 206 214
191 202 208
191 202 210
189 200 208
186 198 204
188 199 205
189 201 211
191 202 210
196 207 216
192 203 211
185 196 203
187 198 203
177 189 189
87 114 68
85 111 65
93 120 72
86 112 66
89 115 67
90 117 70
91 118 71
88 114 68
86 113 67
88 114 68
91 117 70
88 114 68
92 119 71
91 118 71
92 118 70
90 117 70
89 116 69
85 111 66
88 115 68
87 113 67
88 114 68
91 117 70
93 120 73
90 116 69
89 114 72
181 194 198
164 177 174
158 172 165
147 163 153
136 153 139
123 142 121
106 128 94
89 115 71
87 113 67
90 117 70
89 116 69
90 118 71
91 118 71
86 112 67
94 120 72
87 113 67
86 112 66
94 121 73
92 119 71
89 115 68
89 116 68
90 116 69
89 116 69
91 118 71
96 121 79
180 193 198
191 201 207
196 207 215
193 203 210
181 193 199
190 201 207
187 199 206
188 199 204
198 208 217
197 207 214
193 204 212
193 204 212
186 198 207
193 204 211
200 211 221
186 197 202
188 200 208
190 201 207
182 194 200
191 202 209
181 194 201
191 202 208
196 207 216
193 203 210
147 162 151
91 119 71
91 118 71
93 120 72
91 118 70
91 118 70
90 116 69
92 119 72
85 111 66
93 120 72
88 114 68
89 116 70
86 112 67
85 111 66
89 116 69
89 116 69
93 119 71
92 119 71
90 117 70
91 118 70
93 120 72
90 116 70
90 116 70
94 119 78
184 196 200
194 206 215
190 200 206
198 208 216
190 200 207
191 202 208
194 205 213
195 205 212
183 194 199
193 203 213
189 200 207
188 200 209
188 199 207
198 207 215
188 200 207
188 199 206
188 200 207
198 208 215
194 204 210
189 201 208
194 205 213
194 205 213
183 195 198
89 116 69
87 113 67
92 119 71
91 117 70
92 119 71
91 117 70
88 114 67
88 115 68
85 112 67
91 118 71
90 116 69
91 117 70
87 113 67
88 114 68
87 113 67
93 120 72
90 117 70
90 117 70
90 117 71
89 115 68
90 117 70
138 156 140
198 208 215
190 201 208
189 201 210
192 203 209
191 202 209
189 200 209
199 209 217
192 203 210
194 205 213
180 192 198
194 205 213
198 208 217
186 197 203
185 197 204
187 198 202
193 203 211
184 196 203
181 193 199
175 188 193
181 192 195
141 159 144
113 132 109
109 130 103
119 139 115
131 150 132
136 154 137
130 148 133
138 154 139
146 163 151
156 171 166
151 166 160
163 178 174
155 170 164
152 168 159
150 166 159
142 158 146
127 145 127
113 134 109
106 128 98
165 179 179
178 191 195
185 196 203
188 199 206
186 197 203
185 196 203
189 200 205
185 196 200
190 201 207
184 195 200
194 205 214
190 202 209
195 205 214
185 196 201
189 200 207
184 195 200
187 197 201
164 178 175
103 127 88
86 112 67
85 111 66
92 118 70
91 118 71
86 112 66
89 115 69
87 113 68
89 115 69
88 114 68
93 120 72
86 112 67
85 111 66
91 118 70
87 113 67
123 142 120
176 188 191
187 199 206
186 198 206
190 202 210
192 203 212
183 195 197
164 178 176
133 149 135
106 127 100
90 117 72
90 117 70
89 116 69
95 121 73
103 127 94
178 189 191
194 204 212
186 198 206
194 204 213
189 199 204
196 207 215
196 207 213
194 205 213
103 126 91
121 139 123
170 182 184
187 199 206
183 195 201
194 205 214
186 198 203
188 199 208
186 197 203
186 197 202
186 198 204
188 199 205
189 200 205
186 198 203
159 173 168
117 136 116
109 130 104
193 203 211
180 192 198
189 200 207
189 200 206
189 199 204
191 202 209
189 200 206
187 199 206
187 198 204
190 201 208
189 200 206
195 206 214
189 200 208
187 198 205
173 186 187
152 167 160
110 131 104
87 113 68
90 117 69
88 115 68
90 116 70
136 154 139
192 203 212
188 199 207
191 200 206
194 204 211
193 204 214
196 206 214
188 200 207
192 202 208
188 198 204
186 197 203
194 204 212
185 196 201
189 201 210
178 191 197
184 195 201
174 187 187
135 152 137
115 136 109
88 114 68
88 114 67
93 120 72
89 116 69
112 134 108
180 192 196
185 196 202
195 206 215
181 194 200
196 207 216
183 195 199
187 198 204
195 206 214
194 204 211
190 201 208
183 194 199
198 209 219
187 198 205
183 195 200
192 204 212
193 202 208
196 207 216
189 200 208
198 209 218
179 191 194
188 199 204
181 193 199
191 202 209
164 177 174
146 163 149
168 182 178
168 181 182
163 177 174
167 180 177
155 169 163
164 178 177
165 179 175
158 173 169
159 174 169
149 164 157
144 160 151
140 156 144
145 161 149
132 149 133
142 159 146
142 159 146
136 154 137
127 146 126
123 142 124
127 145 130
123 143 118
111 133 105
127 145 126
118 139 116
175 189 192
180 192 195
185 196 199
183 195 199
187 198 204
190 201 207
184 197 204
189 200 207
194 205 212
189 200 207
204 214 224
187 198 205
190 201 208
191 201 208
194 204 213
182 193 197
159 174 170
155 169 162
123 142 122
97 122 85
89 116 69
89 116 69
90 116 69
92 119 72
91 117 72
187 198 202
195 207 216
196 207 215
185 197 204
173 186 189
192 203 210
188 199 205
183 194 197
196 207 216
192 203 211
197 207 216
181 193 200
182 194 197
191 202 207
188 199 205
189 201 207
193 204 213
195 205 215
196 206 213
202 211 221
189 200 206
181 194 200
191 203 212
194 205 214
183 195 202
132 150 130
90 117 70
87 114 67
90 116 69
89 115 68
91 118 70
89 115 68
92 119 71
88 114 68
95 123 74
90 116 69
92 119 71
91 119 71
84 110 64
91 118 70
88 114 68
91 118 71
91 118 70
85 111 66
85 111 66
90 117 69
89 115 69
88 114 68
89 115 69
89 115 68
129 147 130
187 199 206
194 204 211
178 190 196
177 189 195
193 204 214
193 204 214
196 207 217
194 204 211
182 193 197
171 184 186
157 171 166
150 165 157
133 150 137
127 145 123
121 140 114
106 129 97
87 114 68
88 115 69
92 119 72
86 113 68
87 113 67
89 116 69
93 119 71
93 120 72
144 160 149
188 199 205
198 209 219
194 204 211
189 200 208
191 202 209
193 204 210
198 208 217
190 201 207
188 199 206
181 193 198
192 203 210
187 199 205
187 198 202
190 201 208
191 202 210
186 197 202
179 191 196
203 214 225
195 206 214
194 204 212
195 206 213
190 201 208
191 202 207
181 193 195
90 116 71
92 119 71
89 116 69
90 117 70
93 120 72
93 120 72
90 117 69
88 114 68
89 116 69
91 118 71
89 116 69
89 115 69
90 116 69
86 112 66
87 113 67
90 117 69
93 120 71
89 115 69
88 114 68
88 114 68
92 119 71
89 115 68
88 115 68
136 153 139
186 198 206
193 205 215
197 207 216
185 198 206
192 203 210
184 195 202
189 199 204
195 205 212
184 196 203
196 207 216
188 198 205
191 202 209
183 195 203
187 199 206
184 195 200
192 203 211
181 192 198
186 197 201
184 196 202
189 200 207
171 184 188
170 183 189
128 147 126
103 128 88
102 125 89
109 132 99
103 125 92
114 136 108
98 122 87
120 140 118
122 143 117
123 142 117
126 146 124
118 137 116
127 146 127
129 147 129
137 155 140
121 142 123
134 153 138
148 164 154
141 157 145
151 167 160
145 161 151
139 157 142
138 155 140
139 156 140
130 149 130
131 150 130
125 144 123
128 146 128
136 153 140
136 153 134
131 149 127
121 142 115
111 133 103
111 131 101
99 122 88
93 118 75
98 122 82
93 118 75
88 113 67
91 118 71
90 117 70
95 120 76
175 188 191
198 208 215
188 200 207
183 194 199
192 204 212
195 204 211
177 191 195
178 191 195
168 181 179
158 173 165
147 163 156
114 135 107
108 130 99
96 121 80
87 113 68
94 121 72
91 117 70
88 115 68
93 119 76
157 171 167
190 201 207
176 188 189
191 202 209
188 200 206
191 202 210
192 203 212
184 195 201
196 207 216
196 206 214
179 192 196
188 199 207
194 205 213
192 202 208
190 201 209
185 196 201
193 205 215
164 177 177
105 129 91
89 116 69
88 114 68
91 117 69
87 113 67
86 113 67
91 118 70
92 119 71
91 117 70
85 112 66
94 121 73
87 113 67
87 113 67
87 114 68
89 115 69
137 155 137
186 198 202
183 195 201
175 187 186
153 167 161
146 161 151
98 122 85
93 119 71
90 117 69
88 115 69
88 114 68
88 114 69
89 115 69
87 114 68
124 142 123
176 188 191
190 202 210
198 208 217
185 197 202
191 202 209
188 199 206
183 194 199
184 195 201
194 204 213
81 106 62
91 118 71
89 114 71
113 133 108
152 168 160
185 196 201
186 198 204
185 196 202
192 203 212
187 199 207
185 197 203
192 203 208
190 201 207
180 192 196
194 205 214
187 199 205
179 192 198
142 159 147
165 179 179
192 203 211
184 196 203
185 197 201
184 196 201
184 196 202
186 197 203
188 199 206
192 204 212
186 198 206
181 192 198
183 195 202
185 196 203
192 203 212
186 197 204
182 194 199
179 191 193
128 146 126
110 132 103
84 110 65
127 145 125
185 197 202
180 192 197
189 199 205
195 205 213
194 204 210
178 190 196
181 193 199
191 202 209
189 200 207
189 200 209
190 202 209
183 195 201
193 203 210
194 205 212
194 204 212
195 205 211
193 204 212
185 197 202
169 182 185
146 162 152
137 154 137
92 118 73
109 131 102
187 198 204
194 205 213
178 190 195
190 201 208
193 204 212
194 204 211
182 194 198
185 196 202
183 195 200
191 202 211
184 196 204
184 196 200
195 205 213
184 196 202
187 197 203
194 204 209
181 193 199
197 208 217
193 203 212
194 206 215
189 201 210
185 197 203
185 197 205
168 181 180
87 113 68
93 119 74
117 137 110
145 161 149
169 183 183
183 195 202
197 206 213
185 196 199
188 200 207
193 203 210
191 202 211
190 202 210
193 204 211
190 201 210
191 202 211
191 202 210
191 202 211
198 208 216
194 205 213
191 202 211
189 200 208
191 201 208
189 200 210
190 201 208
154 169 165
86 113 67
88 115 69
91 118 71
86 113 67
90 116 69
88 115 68
91 117 69
87 113 67
88 114 68
96 122 78
91 117 75
92 118 75
100 125 89
99 122 87
108 131 100
108 131 99
112 134 107
114 135 107
108 132 101
106 129 97
98 122 83
108 130 101
134 151 137
144 160 150
159 173 168
116 136 114
135 152 136
121 141 116
132 150 130
127 146 126
141 157 143
139 156 137
129 148 130
133 151 134
138 155 143
134 150 134
146 163 153
148 164 154
147 163 155
160 175 171
140 157 143
149 166 156
149 163 154
142 159 149
165 178 173
164 178 177
147 165 156
154 169 164
154 169 163
164 178 173
143 158 149
140 158 145
129 147 134
142 158 143
145 160 151
127 145 125
125 144 123
134 150 135
141 158 145
136 153 138
129 148 129
127 147 123
130 149 129
130 150 132
131 149 132
129 148 127
122 141 119
117 137 109
131 149 131
115 135 107
120 139 116
126 146 125
129 147 126
130 148 131
121 141 114
153 167 161
160 173 171
182 194 196
173 186 185
164 177 173
164 178 178
168 181 181
166 179 179
172 185 185
173 186 187
166 180 179
178 191 191
170 183 182
176 189 191
178 190 192
165 179 177
175 187 188
165 179 178
165 178 173
152 167 160
136 153 137
135 152 137
105 128 97
103 126 93
93 119 79
180 192 196
182 195 198
177 189 191
174 187 188
173 187 191
172 186 187
158 172 170
161 175 174
175 187 186
179 190 193
168 182 182
157 172 167
161 176 172
167 180 177
166 180 176
164 177 174
164 178 174
163 178 175
158 172 169
160 174 173
161 176 173
155 171 164
156 170 166
164 178 173
157 171 165
145 161 151
142 158 146
139 156 141
149 165 156
126 144 130
151 166 158
137 154 141
144 160 148
145 160 151
154 168 162
141 157 145
155 170 163
153 168 159
147 162 157
161 176 171
153 169 162
145 161 152
144 161 151
151 166 159
160 174 170
160 174 171
164 178 176
148 163 154
127 147 127
130 147 130
140 155 142
134 150 136
136 154 139
125 144 122
128 147 127
120 141 117
118 139 111
123 143 122
116 135 113
111 132 102
116 136 110
113 133 108
105 128 97
96 121 82
97 123 81
101 125 89
93 116 79
93 118 76
95 120 76
93 120 72
156 171 166
188 200 206
195 206 214
181 193 200
190 201 208
196 206 213
185 197 202
184 195 200
195 206 216
188 200 207
191 202 209
189 199 205
188 199 204
192 203 210
191 202 209
197 206 214
192 203 212
188 199 206
191 202 209
189 200 210
185 196 201
176 189 191
97 121 87
88 114 67
88 114 68
91 118 70
91 118 71
90 117 70
88 114 68
85 111 66
90 117 70
88 115 68
91 118 70
89 116 69
86 112 66
93 120 72
89 115 69
88 114 68
90 116 70
101 124 90
116 137 109
135 153 137
136 153 138
147 163 151
137 154 140
125 145 122
104 128 94
95 120 81
91 118 70
89 116 69
84 110 66
85 111 66
94 121 73
84 110 66
90 116 69
90 116 69
85 111 65
89 115 69
91 118 71
91 117 70
98 123 83
169 182 184
176 188 195
184 195 200
183 195 202
188 200 207
180 192 196
181 193 200
195 206 215
188 199 205
189 200 206
194 204 211
190 202 211
177 190 195
184 197 207
188 199 205
188 200 208
190 200 207
155 170 164
88 114 68
92 118 71
88 114 68
86 112 67
87 113 68
85 111 66
87 114 68
87 113 67
86 111 66
89 116 69
90 116 69
90 116 68
85 111 66
86 112 66
102 126 90
119 138 115
153 167 161
131 149 133
92 118 76
83 108 64
87 113 67
91 118 70
91 118 70
90 116 69
87 114 68
85 112 67
92 118 70
90 117 69
100 125 87
151 167 161
184 196 203
182 194 198
179 190 194
186 197 202
181 193 195
189 201 210
183 194 199
187 198 204
151 167 161
140 157 146
86 112 66
87 113 67
87 113 67
88 114 68
89 116 69
96 121 77
128 146 131
160 174 175
183 195 200
190 200 207
191 201 208
189 200 208
190 201 208
194 204 213
186 198 206
189 200 207
194 204 210
116 136 113
89 115 68
108 131 96
145 161 151
180 192 196
191 202 209
192 203 211
184 196 202
191 202 210
194 204 212
186 197 203
189 199 206
177 189 193
192 203 208
185 197 202
192 203 212
170 181 182
186 197 204
186 197 202
189 200 207
176 189 190
143 158 148
177 189 192
183 194 199
182 195 202
185 198 206
190 201 209
192 203 211
191 202 209
202 212 221
188 199 206
191 202 210
191 202 210
187 199 206
194 205 213
187 198 205
190 201 208
192 202 209
191 201 206
188 199 206
184 196 200
182 194 199
189 200 208
184 196 200
149 164 156
160 174 172
190 201 206
184 196 202
190 200 207
192 202 209
196 206 214
190 202 210
190 200 207
197 208 217
190 201 209
196 205 212
189 200 208
181 192 197
186 197 203
181 193 200
188 199 207
184 195 203
181 194 197
186 198 204
198 207 214
177 189 193
189 201 207
184 195 201
165 179 176
86 112 66
91 118 70
87 114 67
87 113 67
88 114 68
92 117 75
127 146 127
139 155 145
180 192 196
185 196 199
191 203 211
184 195 201
190 201 207
189 200 205
188 198 205
187 199 206
187 198 204
194 204 211
185 196 202
194 205 213
186 197 205
191 202 209
198 208 216
186 198 204
139 157 147
87 113 67
91 119 72
92 119 71
91 118 71
88 114 67
91 117 70
89 115 68
89 116 69
93 120 72
90 117 70
88 113 67
85 110 65
90 117 70
92 119 71
91 117 70
93 120 71
88 114 67
90 116 69
88 114 68
86 113 66
88 114 68
87 114 68
90 117 69
89 116 68
148 163 156
168 181 181
157 173 169
141 158 144
111 134 101
97 122 82
85 111 66
84 110 64
89 116 70
83 108 64
92 119 71
87 113 68
86 112 67
92 118 71
89 115 68
87 113 67
90 117 70
84 109 64
90 117 71
86 112 66
88 114 69
88 114 68
84 110 64
87 113 68
91 118 71
137 154 139
190 201 207
183 195 201
197 207 213
191 203 211
198 208 217
185 197 204
182 194 200
192 203 211
195 205 213
187 198 203
192 202 210
183 194 196
194 205 213
189 200 208
182 193 199
186 197 203
197 207 215
184 195 202
197 208 217
195 206 217
197 207 214
189 200 209
181 192 198
187 198 206
159 172 171
90 116 69
87 114 67
84 110 65
89 116 69
85 112 66
88 115 69
89 115 69
90 117 70
87 113 67
89 116 69
87 114 68
89 116 69
91 117 70
90 116 69
88 114 68
90 116 70
86 113 67
92 118 71
87 113 67
93 120 72
88 114 68
89 116 70
87 114 67
91 118 71
155 171 165
193 204 212
191 202 210
190 203 211
179 191 193
183 196 202
169 182 182
169 181 177
154 170 163
142 159 143
143 159 148
133 150 136
123 143 122
118 140 113
104 126 98
98 121 85
86 112 67
87 114 67
91 118 71
91 118 71
86 113 67
89 115 69
88 114 68
91 117 70
127 146 129
190 201 206
189 200 207
195 206 213
189 201 209
186 197 205
190 202 209
184 195 201
188 200 207
192 203 209
197 207 214
190 200 206
198 207 215
189 200 206
193 204 211
192 203 211
187 199 208
192 202 209
192 204 210
193 203 210
186 198 205
192 203 210
188 200 209
182 194 200
101 124 88
88 115 69
88 114 69
90 117 70
91 117 69
90 117 70
87 114 67
91 118 71
92 118 71
92 119 71
87 113 67
89 115 68
89 116 69
88 115 70
92 119 71
91 118 71
85 111 66
88 114 67
87 113 66
94 121 73
84 111 66
88 114 68
129 148 134
194 205 212
188 198 205
187 198 205
191 202 209
188 199 206
196 207 215
185 196 202
178 190 196
189 200 206
198 209 219
189 200 206
184 195 202
193 204 210
184 195 201
191 202 211
189 201 210
182 194 199
186 197 201
183 195 201
192 203 211
180 191 193
118 138 114
93 120 72
88 115 69
84 110 65
88 115 69
88 115 68
101 124 92
123 142 120
121 141 120
128 147 130
133 150 138
135 153 138
153 168 161
150 165 159
170 182 180
176 188 192
179 190 196
183 195 202
184 195 203
187 198 204
128 147 126
89 115 69
90 117 70
84 110 65
88 115 68
88 114 68
89 116 69
90 117 70
87 114 68
88 114 68
87 112 67
88 114 68
90 116 69
86 113 67
86 112 66
85 111 65
84 109 65
93 121 73
92 117 77
158 172 170
177 189 194
186 199 206
197 207 216
186 198 207
198 209 219
196 207 214
187 199 206
185 196 200
190 201 206
191 202 211
191 202 210
194 204 213
195 205 213
188 200 208
191 202 210
190 202 209
151 165 160
84 110 66
88 114 68
87 113 67
85 111 65
87 113 68
87 113 67
85 112 67
88 115 68
90 116 70
87 113 67
103 127 90
125 145 121
142 160 148
159 173 168
174 186 186
129 148 126
91 117 70
88 114 68
89 116 69
87 113 67
89 115 68
90 116 70
87 114 68
89 115 69
86 113 68
82 108 64
91 118 70
87 114 68
114 134 108
165 179 180
188 200 207
184 195 201
192 202 209
181 193 198
184 195 201
167 180 181
148 164 155
115 136 111
87 113 70
87 113 67
117 135 114
94 118 83
87 113 67
87 114 68
86 112 67
83 109 64
91 118 71
91 117 70
88 114 68
105 128 94
142 158 148
175 188 191
173 185 191
194 205 213
180 192 197
184 196 202
188 199 206
194 205 213
155 170 167
88 115 69
90 117 70
89 116 70
87 114 68
120 139 117
146 161 152
177 189 193
186 198 205
194 206 215
191 201 207
194 205 214
178 190 193
177 190 196
186 197 203
185 196 202
172 186 191
187 200 209
183 196 202
189 200 206
185 196 202
190 201 206
87 114 68
115 136 110
154 170 162
170 182 182
183 194 201
193 204 213
194 205 213
180 191 195
188 199 206
196 207 215
194 205 213
193 204 211
184 196 203
182 194 200
188 198 206
195 205 215
194 204 213
190 200 206
197 208 215
183 194 199
180 193 199
190 201 208
161 176 176
90 116 70
89 116 72
119 138 116
159 173 167
184 195 200
193 204 212
182 194 201
186 198 206
193 203 210
188 199 204
193 202 209
193 203 211
186 197 204
188 199 207
185 197 204
189 200 208
187 199 207
189 200 208
189 200 207
180 193 200
186 197 203
179 192 198
187 199 206
161 175 173
90 117 69
86 112 67
89 115 69
91 117 70
89 115 69
88 114 68
87 114 67
87 113 67
88 114 68
90 115 73
132 149 134
150 166 156
162 176 173
179 191 195
184 196 203
191 202 209
191 202 210
184 195 203
188 198 204
191 202 210
185 197 204
188 199 206
188 199 206
184 196 200
122 142 123
88 114 68
85 111 65
89 116 69
86 112 67
92 119 71
92 118 70
90 116 69
90 118 70
89 116 69
89 115 68
88 115 68
90 117 69
89 115 69
89 115 68
88 114 67
91 118 70
90 116 70
87 114 68
84 111 65
87 114 68
87 113 67
83 109 63
90 116 69
85 111 66
168 181 181
185 197 205
197 208 218
185 196 201
189 200 205
190 202 210
176 189 190
159 174 171
147 163 155
122 141 121
102 126 89
86 113 67
88 115 69
91 118 71
86 111 65
91 118 71
89 115 69
89 116 68
88 114 68
88 115 69
90 117 71
87 113 67
85 111 66
85 112 66
90 116 69
169 182 184
191 202 208
184 195 200
190 201 210
194 204 211
188 200 207
194 205 213
199 210 218
185 197 202
198 208 216
194 206 215
185 197 204
182 193 199
176 188 195
191 203 211
185 196 201
185 197 203
193 204 213
184 196 202
189 199 206
188 200 207
195 205 214
185 197 204
189 201 207
193 203 210
124 142 123
89 115 68
87 113 67
86 112 67
87 113 67
89 116 69
91 118 70
88 115 69
91 118 70
86 112 66
89 115 69
89 115 68
92 120 72
88 115 69
91 117 70
88 114 68
86 113 67
88 114 67
90 116 69
91 117 69
94 121 73
93 121 73
90 117 71
90 117 70
107 131 94
189 200 203
205 214 225
189 200 206
185 197 204
190 201 208
193 205 213
188 199 208
203 213 222
188 200 206
188 199 205
184 197 203
187 199 207
191 203 214
184 195 200
189 200 209
188 199 206
185 196 202
183 196 201
176 187 189
171 184 185
162 175 173
162 177 176
157 170 166
148 164 156
147 164 152
159 174 168
163 177 174
160 174 168
170 183 183
162 177 177
177 189 192
171 184 188
188 198 202
183 195 200
187 198 204
181 193 197
195 205 213
190 201 207
195 206 217
186 198 206
187 199 205
188 199 206
193 203 210
196 206 214
190 201 208
182 194 200
190 202 210
125 143 128
85 111 65
91 117 69
91 118 70
88 114 67
90 116 69
92 119 71
89 116 69
89 115 69
91 118 71
91 117 70
87 114 68
92 119 72
92 118 71
91 118 70
88 115 68
84 110 65
83 109 64
91 118 70
89 116 70
92 119 71
86 113 67
111 134 102
190 201 207
195 205 213
188 200 208
191 202 210
196 206 214
186 197 203
188 198 205
181 193 199
187 200 207
183 195 201
186 197 202
189 200 204
177 190 192
169 183 181
171 185 185
171 184 183
157 170 169
158 172 166
151 166 159
142 158 150
141 158 146
181 192 195
165 179 179
170 183 186
177 189 194
177 189 192
191 203 212
183 194 197
193 203 210
186 197 203
186 199 207
186 198 205
185 197 203
194 206 215
170 183 188
189 200 207
182 194 200
185 197 203
190 201 209
189 201 210
190 201 208
145 160 150
89 116 69
86 112 66
91 118 71
88 115 69
87 113 68
88 114 68
89 115 68
85 111 66
89 114 68
88 114 67
88 115 69
88 115 68
86 112 66
90 117 69
91 117 71
89 116 69
88 115 69
87 113 67
162 176 176
179 191 197
192 203 209
189 200 208
187 199 207
185 195 199
186 197 205
176 189 193
194 205 213
189 200 206
189 199 206
179 192 198
185 197 203
196 207 217
183 194 199
190 201 207
189 200 205
131 149 135
86 112 67
90 117 70
87 114 67
87 114 68
92 119 72
89 116 70
96 120 82
119 137 118
133 149 135
160 174 171
168 181 182
192 202 210
174 187 192
189 200 208
180 193 198
113 133 108
85 110 65
85 112 66
85 111 66
90 117 70
88 115 68
89 115 68
89 115 69
87 114 67
88 115 68
86 112 66
90 116 70
91 117 70
128 147 132
189 200 206
179 192 196
189 200 205
170 182 185
157 171 170
132 148 133
116 137 109
87 113 67
87 113 68
87 113 68
91 117 72
154 169 161
184 196 201
176 188 193
161 174 172
120 140 113
91 117 73
86 112 66
88 114 68
90 117 70
89 116 69
90 117 70
87 112 67
89 115 68
112 133 106
143 160 151
177 188 190
182 194 200
175 188 193
172 184 187
160 174 171
84 110 64
91 117 70
89 115 68
87 113 67
86 112 67
85 111 66
81 107 63
116 137 114
157 171 165
185 196 202
182 194 202
191 202 208
186 198 204
194 205 212
180 191 198
186 198 205
178 190 193
194 204 211
185 197 206
196 207 217
180 192 197
90 116 69
90 116 69
87 114 68
86 113 67
102 123 96
139 156 142
167 181 180
186 197 203
190 202 209
180 192 197
190 201 206
187 198 204
192 203 208
184 196 203
189 200 207
178 189 193
190 200 206
179 192 198
185 197 204
188 198 204
180 192 196
188 199 205
162 176 175
89 115 69
91 118 71
92 119 71
91 118 70
86 113 68
111 133 106
137 154 141
166 179 178
178 190 193
188 199 206
182 193 199
188 199 205
187 199 207
190 200 206
189 201 208
193 204 213
184 196 201
192 203 210
175 187 193
187 198 204
185 196 202
181 192 198
183 195 201
162 176 169
87 114 68
91 118 71
88 115 68
90 117 69
88 115 68
84 111 65
89 116 68
90 116 69
90 117 70
83 109 64
88 115 69
83 108 64
89 115 69
99 122 86
125 144 127
142 159 144
165 178 177
175 188 192
189 200 206
180 192 198
194 204 211
186 198 205
182 193 198
182 195 202
101 126 87
90 117 69
87 115 68
85 111 66
87 114 68
88 115 68
88 115 68
88 114 68
91 118 71
86 111 66
87 113 67
86 112 67
93 120 72
93 120 72
88 115 68
87 113 66
89 116 69
87 114 68
88 115 68
87 114 68
90 117 69
81 107 63
91 118 71
87 114 67
108 131 100
188 199 206
178 190 195
190 201 208
193 204 211
189 201 208
204 213 221
197 207 215
186 198 203
193 204 211
185 196 200
194 205 213
191 203 209
167 180 179
157 172 167
130 149 129
107 130 98
84 108 67
89 116 69
87 113 67
88 114 68
88 114 68
90 116 69
87 113 67
91 117 70
109 131 100
191 202 208
190 201 208
179 191 196
191 203 210
197 208 218
189 200 206
185 197 204
188 199 205
186 197 201
192 204 212
188 199 206
186 198 204
185 197 204
176 188 192
185 196 202
193 204 213
188 200 209
182 194 199
191 201 207
185 196 201
189 200 210
181 193 201
187 198 203
191 202 210
169 182 183
89 115 68
94 121 72
90 116 69
85 111 67
90 116 69
85 111 66
92 119 71
88 114 67
89 116 69
88 114 68
88 115 68
87 113 67
87 114 67
90 116 69
93 119 71
86 113 67
87 112 66
89 116 70
87 113 67
87 114 68
88 114 69
86 112 66
86 112 66
90 116 69
158 172 168
190 200 206
193 205 214
191 201 208
195 205 214
189 199 206
187 198 204
179 192 198
193 204 211
178 191 198
182 194 199
192 203 208
189 199 205
184 195 200
181 193 200
194 204 210
191 201 207
190 201 208
187 199 206
188 199 205
190 201 207
191 203 211
195 205 211
187 199 206
135 151 136
87 113 67
92 119 71
85 112 66
84 110 64
89 116 69
92 119 71
88 114 68
83 108 64
85 111 65
89 116 70
92 119 71
89 116 70
99 123 85
94 118 79
107 130 97
113 135 106
121 141 116
113 133 106
107 128 102
116 136 111
122 142 121
113 135 108
152 167 160
170 184 183
157 172 166
166 179 179
168 181 181
153 168 163
157 172 168
163 177 174
160 173 168
164 178 177
162 176 172
163 178 175
156 171 165
154 169 163
150 166 158
155 170 164
164 179 175
170 183 184
167 180 176
173 185 184
172 184 184
156 170 168
156 170 167
117 137 112
117 136 113
118 138 115
110 133 103
125 144 124
98 123 83
101 125 89
93 118 81
92 116 77
86 112 69
88 115 69
92 119 71
85 111 66
91 118 70
92 119 71
84 109 64
92 120 72
86 112 67
92 119 71
92 118 70
84 110 65
150 166 156
194 205 214
189 200 208
178 190 195
182 194 199
194 205 213
192 203 209
189 200 207
189 200 206
187 197 205
183 195 202
182 194 199
184 195 200
182 194 199
200 211 220
192 203 212
182 193 200
192 203 211
187 199 207
189 200 209
149 165 157
87 113 67
87 113 67
90 116 69
83 109 65
91 117 70
89 115 69
81 106 62
87 113 67
89 116 69
86 113 67
89 115 69
85 111 67
90 116 69
87 113 66
91 118 71
90 116 70
88 113 67
95 120 79
167 180 182
195 206 214
186 197 204
185 196 205
186 197 204
186 198 205
184 195 203
189 201 209
183 194 199
189 200 208
191 201 208
183 195 202
173 187 190
184 196 201
176 188 193
183 195 202
187 198 204
131 149 128
89 114 67
87 114 68
90 116 74
130 148 132
136 154 141
150 165 157
172 186 190
191 202 210
189 201 209
186 198 206
187 199 205
190 202 210
179 191 196
203 212 222
167 180 180
93 117 81
86 113 67
90 117 70
89 115 69
86 111 66
85 112 67
90 116 69
86 112 66
88 114 68
90 117 70
84 110 66
89 116 70
92 117 74
148 163 157
177 190 194
157 172 170
149 164 155
105 127 93
87 113 67
90 116 69
88 114 68
89 115 69
90 116 70
87 113 68
118 137 118
179 191 194
182 194 200
190 201 207
171 183 187
191 201 208
186 198 206
177 189 191
140 157 143
103 125 93
87 113 67
86 113 67
86 112 67
91 117 70
85 111 66
92 119 71
89 115 68
92 117 75
131 149 130
162 175 172
189 200 206
184 196 199
92 117 77
83 109 64
89 115 68
85 111 66
88 114 69
85 111 66
86 113 66
90 116 69
87 112 66
92 118 74
114 134 109
152 168 161
178 190 193
186 198 206
175 188 191
182 194 199
180 192 197
187 198 203
189 201 210
191 202 208
182 194 200
105 130 96
89 116 69
88 115 68
86 112 66
84 110 65
88 115 69
91 117 71
107 130 99
133 150 137
169 182 180
181 192 197
193 204 211
186 197 206
182 193 199
187 199 206
181 192 197
185 196 203
182 194 200
190 200 206
175 188 191
192 202 207
184 195 199
169 182 184
85 111 65
83 109 65
89 116 69
86 113 67
88 115 68
90 117 70
86 113 67
88 115 69
94 120 77
112 133 106
156 172 170
175 188 190
180 192 199
188 199 206
189 201 206
182 195 203
188 199 205
194 205 213
178 191 199
190 201 207
190 201 207
192 203 211
192 203 210
146 162 154
93 120 72
84 110 64
88 114 68
87 112 67
89 116 69
90 117 70
88 114 68
87 113 67
86 112 66
92 119 71
88 114 68
94 121 73
88 114 68
85 111 66
91 118 70
92 119 72
85 111 65
92 117 77
121 141 119
146 163 154
164 177 174
180 193 197
188 199 206
183 195 199
89 115 68
90 116 69
87 113 68
86 113 67
87 113 67
88 114 68
88 115 69
87 114 68
89 116 69
88 114 68
87 113 67
88 115 68
89 115 69
85 111 66
86 112 67
88 114 68
89 116 70
88 114 67
85 112 66
89 115 69
90 117 70
87 114 68
85 111 65
89 116 70
134 151 136
187 199 208
188 199 208
191 202 209
195 206 214
187 198 206
183 195 201
186 197 205
187 199 209
186 198 206
191 202 210
185 198 205
188 200 208
185 196 200
194 205 213
187 199 208
184 196 202
177 189 195
182 193 198
155 169 165
149 165 156
129 148 129
105 128 97
87 113 67
89 115 68
134 152 137
188 198 203
192 202 207
190 201 208
191 203 213
200 210 218
175 188 191
186 197 204
186 197 203
196 206 212
192 204 211
191 202 210
190 201 208
177 189 190
192 203 210
187 198 205
189 200 207
190 200 206
186 197 202
180 192 197
183 194 200
186 197 202
185 197 206
191 202 209
183 195 200
127 145 131
90 117 70
86 112 66
86 113 67
86 113 67
89 116 69
88 114 68
91 118 70
87 113 68
88 115 68
88 115 69
87 113 68
86 112 66
90 117 70
87 113 67
90 117 70
89 115 69
90 116 69
87 114 68
92 119 71
89 116 69
87 113 67
89 115 69
91 117 70
113 132 111
179 191 194
201 212 222
189 200 208
182 194 200
188 199 205
190 201 210
184 195 200
187 198 206
186 197 203
186 197 204
197 207 215
194 205 212
188 199 205
178 191 197
197 207 216
186 197 204
189 199 204
192 204 212
185 197 204
193 204 212
183 195 202
188 199 205
193 204 211
173 185 190
88 115 69
86 112 66
91 117 70
89 116 69
93 120 73
89 116 69
91 118 71
87 113 67
92 119 71
85 110 65
90 117 70
89 116 69
92 119 71
88 115 69
85 111 65
93 120 71
82 107 63
89 115 69
89 116 68
86 113 68
94 121 72
93 120 72
99 123 88
172 184 186
193 203 210
182 193 199
180 191 196
192 203 212
192 203 210
187 199 206
185 196 200
188 200 205
187 199 209
191 202 211
187 199 205
184 196 204
182 193 196
188 199 208
183 194 199
185 196 201
191 202 208
189 199 203
196 207 216
184 196 202
190 201 208
140 159 146
90 117 69
91 117 70
93 120 72
88 115 69
91 118 71
93 120 72
86 112 67
90 117 69
86 112 67
86 112 66
91 117 70
89 115 68
89 115 69
86 113 68
90 116 69
87 113 68
88 114 68
90 117 70
82 107 64
86 113 67
135 152 138
187 198 203
192 202 208
186 197 204
192 202 211
186 197 204
191 202 212
190 201 209
178 190 196
179 191 196
192 202 210
183 194 199
190 201 209
183 194 198
191 202 210
186 197 204
187 198 202
189 200 208
184 196 201
197 208 218
152 168 159
88 114 67
88 114 68
89 116 68
86 112 66
83 109 64
90 117 70
86 112 67
90 116 70
85 111 65
85 111 66
88 115 68
92 118 70
89 115 68
88 114 68
83 109 64
83 108 63
89 116 69
95 120 79
163 177 177
174 187 192
185 196 202
194 205 212
189 200 206
186 198 205
180 193 200
188 199 205
184 195 201
190 201 209
190 201 206
195 205 214
184 196 201
180 192 197
188 200 209
181 193 200
180 192 196
158 171 168
151 166 158
164 177 175
186 197 203
185 197 203
179 191 196
183 195 199
187 199 205
185 197 204
167 181 186
185 196 202
186 198 206
187 200 208
188 198 204
181 193 199
152 167 159
86 112 70
86 112 66
87 113 68
88 115 69
89 115 69
90 117 69
84 110 65
89 116 69
87 114 69
90 116 69
80 106 63
90 117 70
105 126 95
134 151 137
119 138 118
87 114 68
87 114 68
88 114 68
89 115 68
87 114 69
91 118 70
86 113 67
84 109 65
98 121 86
148 162 157
186 197 203
185 197 204
158 173 169
135 153 139
177 189 193
179 191 197
182 194 198
191 203 212
179 191 196
181 193 198
156 171 171
126 144 127
91 116 75
91 118 70
86 112 67
90 116 69
84 110 65
86 113 68
82 108 64
88 114 68
92 117 75
134 151 136
124 142 122
87 114 68
89 115 69
88 114 68
84 110 65
88 114 68
82 108 64
89 115 68
90 118 71
84 110 65
89 116 70
90 116 69
100 124 86
128 146 127
158 172 168
176 189 193
189 199 206
192 203 209
194 205 212
186 198 206
187 198 206
114 134 112
90 117 71
91 118 70
89 116 68
89 116 70
83 109 64
89 116 69
86 111 65
90 117 70
83 109 65
104 127 93
131 150 134
163 176 173
188 199 206
190 200 206
190 201 208
190 201 208
183 196 203
183 195 202
184 197 205
179 192 199
180 193 198
167 181 180
90 116 69
82 107 64
89 115 69
85 111 66
88 115 69
88 114 68
91 117 69
88 115 68
91 117 70
89 116 69
90 116 69
92 119 71
99 123 90
140 157 145
161 176 173
179 192 195
188 200 209
187 198 203
174 187 193
186 198 205
190 200 207
176 187 192
186 198 206
130 148 132
82 107 63
90 117 69
90 116 69
85 111 66
91 117 70
87 114 68
88 114 68
89 116 70
87 113 67
88 115 68
85 111 66
88 115 69
86 112 67
88 114 68
86 112 66
88 114 68
88 114 67
91 118 71
80 105 61
87 113 67
88 114 68
90 117 70
116 137 108
144 160 148
130 148 135
117 136 114
86 112 67
88 115 68
87 113 67
92 119 71
87 113 67
86 112 66
83 109 65
85 111 66
88 115 69
86 113 67
92 119 71
86 112 67
89 116 69
89 116 70
84 111 65
91 118 71
87 114 68
88 115 68
89 116 69
88 114 68
86 112 67
89 115 68
164 178 176
180 191 196
179 190 194
188 198 203
185 197 206
188 199 205
185 196 201
189 200 205
185 196 202
187 198 204
185 196 203
191 201 209
183 195 202
188 199 204
176 188 192
192 203 211
184 196 203
184 196 201
187 198 204
184 195 202
177 189 193
188 200 210
194 205 211
182 194 199
170 183 186
134 152 136
156 171 164
160 173 170
179 191 196
188 200 206
190 202 209
184 196 203
190 199 204
196 207 216
189 199 206
195 205 212
191 202 211
189 199 206
191 202 209
191 202 208
193 204 212
190 200 208
179 192 198
197 206 214
177 189 194
194 203 211
195 206 214
186 197 202
187 198 203
174 186 191
95 122 76
89 115 69
87 113 66
88 114 67
91 118 71
86 113 68
90 116 69
91 118 71
85 111 66
87 114 67
90 116 69
91 117 70
86 112 67
85 111 66
87 113 67
89 115 68
87 114 67
91 118 70
89 116 69
88 115 69
88 114 68
87 113 68
90 117 70
84 111 67
167 180 181
187 199 206
179 190 194
194 204 212
190 201 208
186 197 203
185 197 205
186 197 204
190 201 206
190 201 207
193 203 210
181 193 198
182 193 198
188 200 206
191 202 210
189 200 207
191 202 209
191 202 208
181 193 197
190 201 207
184 196 202
188 199 205
174 186 192
192 202 207
119 139 118
86 113 67
91 118 71
86 112 67
85 111 66
86 112 66
89 116 69
87 113 68
87 114 68
90 117 70
90 117 70
89 116 69
85 111 67
86 112 66
86 113 67
89 115 68
88 115 69
90 116 69
90 116 70
89 115 68
88 114 68
85 111 66
86 112 66
167 180 180
184 195 201
189 201 209
181 193 197
193 203 210
191 202 210
190 201 210
188 199 204
178 190 197
186 197 206
194 205 213
187 199 206
191 202 210
194 205 213
184 196 202
194 205 213
183 195 199
181 191 194
186 198 204
188 199 205
188 199 205
186 197 203
154 168 163
87 113 67
87 113 67
89 115 68
87 113 67
87 113 67
87 113 67
85 110 65
86 112 66
89 115 69
85 111 65
87 113 67
91 118 71
88 115 70
88 114 68
86 112 67
87 114 68
89 116 69
91 118 71
85 111 66
91 117 70
122 143 119
180 192 197
185 196 202
189 199 207
188 199 205
192 203 211
188 199 205
187 198 205
187 199 207
187 199 206
186 197 205
189 200 207
184 195 202
196 206 215
186 197 204
196 206 214
189 199 204
187 199 204
190 201 207
183 194 199
153 168 164
88 115 68
83 109 65
82 108 63
90 117 71
85 111 66
86 112 66
88 114 68
85 111 66
86 113 67
88 115 68
88 114 68
89 115 68
87 113 66
89 115 68
88 114 67
85 111 65
90 116 70
98 123 81
185 198 204
195 205 214
185 197 204
184 196 204
183 195 201
187 198 203
184 196 202
197 207 215
187 198 205
186 197 204
193 203 212
181 193 197
169 181 181
150 166 158
127 145 129
112 133 110
108 130 101
171 183 185
186 198 205
189 200 207
184 195 202
189 199 208
183 195 201
192 203 210
193 204 213
177 190 196
182 194 200
182 193 198
171 184 189
181 194 202
196 206 213
179 190 194
129 147 129
86 112 66
85 111 66
90 117 70
90 116 69
90 117 69
88 114 69
85 112 66
80 106 62
87 113 67
112 133 108
140 157 146
172 184 185
152 167 162
95 119 82
87 114 69
86 113 67
85 110 65
85 110 64
90 117 71
86 112 66
86 112 66
82 107 63
89 116 69
119 138 117
171 185 187
163 177 175
133 150 134
94 117 83
90 116 69
85 111 66
130 147 133
124 143 127
156 168 169
183 194 199
179 191 197
182 194 200
186 199 205
191 201 209
173 184 188
147 162 157
113 133 108
86 112 67
90 116 69
89 117 71
89 116 69
85 111 66
87 113 67
81 107 62
140 157 146
177 190 191
148 163 157
110 130 105
86 113 68
83 108 63
86 112 67
89 115 68
88 114 69
86 112 66
87 113 67
84 109 64
84 110 66
90 116 69
88 115 69
83 108 67
130 148 132
161 175 172
177 190 194
182 194 200
169 181 180
123 142 124
87 113 67
82 109 64
84 109 64
83 108 64
85 112 66
84 110 64
84 110 65
83 109 64
86 112 66
86 113 67
87 113 66
87 113 67
90 114 73
117 137 114
150 164 159
182 194 200
193 204 213
178 190 195
189 201 207
182 193 199
175 187 189
161 175 175
89 115 69
86 113 68
88 114 68
80 106 62
92 118 71
84 110 65
83 109 64
90 116 69
87 113 67
84 110 65
84 110 66
89 116 69
86 113 67
85 111 66
86 112 66
87 112 69
109 130 105
138 154 144
172 185 186
185 196 202
184 196 203
198 208 216
185 197 205
125 144 125
82 108 64
87 113 67
87 114 68
87 113 67
87 112 66
85 112 66
89 115 68
91 117 70
87 113 68
90 117 70
90 116 69
89 115 69
85 112 67
92 118 71
86 112 66
89 115 69
87 113 67
86 112 67
89 116 70
89 115 69
87 114 68
88 114 68
86 113 68
154 169 163
196 207 214
180 193 197
174 186 187
169 181 175
146 161 154
124 143 121
93 118 75
90 117 70
87 113 66
84 110 65
90 117 70
88 115 69
88 114 68
91 118 70
89 116 69
84 110 66
89 115 68
85 111 66
93 120 73
89 116 69
87 113 67
88 114 68
86 112 66
82 107 63
186 198 203
181 193 199
188 200 207
193 204 212
185 196 204
188 198 204
187 199 206
187 198 205
184 197 204
188 200 207
181 193 198
192 202 211
184 196 200
179 191 199
179 191 196
193 204 212
180 192 198
191 201 207
185 196 203
184 196 200
180 192 197
190 201 211
188 198 206
197 208 216
172 186 186
88 115 68
84 111 65
81 106 62
87 113 67
90 116 70
103 125 94
127 145 127
138 155 144
147 162 154
162 176 173
184 196 201
191 202 209
184 196 202
185 196 202
193 203 210
192 203 211
191 201 208
180 192 197
180 193 201
189 200 207
181 193 200
180 192 198
197 207 215
186 198 205
142 157 147
86 111 66
88 115 68
91 118 70
90 116 70
91 118 70
87 113 67
89 115 69
82 108 63
88 114 67
86 112 66
90 116 69
89 116 69
87 114 68
92 119 72
88 115 68
89 116 70
89 115 69
86 111 66
89 115 69
89 115 68
88 115 68
87 113 68
90 117 70
117 138 112
179 190 195
180 193 197
184 196 204
183 194 199
183 195 199
184 195 199
186 197 204
187 198 203
188 199 206
190 201 207
188 199 205
180 192 199
182 194 199
187 198 203
185 196 203
180 193 200
193 204 211
177 189 194
181 193 198
185 197 204
184 196 203
182 194 200
188 200 207
154 168 160
87 113 67
84 110 65
89 116 68
86 112 66
89 116 69
84 110 65
93 120 72
85 112 66
88 115 69
87 114 69
86 112 66
84 109 64
89 115 69
91 117 70
87 113 67
89 115 69
87 113 67
90 117 70
84 110 65
85 111 66
90 118 71
85 111 66
137 154 142
186 197 205
190 202 208
187 198 204
182 194 200
190 202 210
190 200 205
187 199 206
186 197 204
188 199 208
186 197 202
192 203 211
188 199 204
174 187 192
187 198 202
196 206 214
194 204 213
194 204 211
190 201 210
190 201 210
190 201 209
187 199 207
165 179 179
89 115 68
86 112 66
84 110 65
84 110 65
89 116 69
89 116 69
89 115 68
86 112 66
83 109 64
87 113 66
88 114 68
82 107 63
88 115 68
88 115 69
90 118 71
91 117 71
89 115 68
85 112 66
90 116 69
92 118 71
115 135 112
183 195 201
186 198 205
186 197 204
198 208 216
186 198 203
185 196 202
191 202 208
184 196 201
192 203 210
188 200 207
188 199 207
192 203 210
185 196 202
189 200 208
197 208 217
188 200 207
183 195 201
186 198 204
183 195 201
159 174 170
93 120 71
91 118 70
89 114 67
90 116 69
86 112 66
88 114 68
87 113 67
88 114 68
89 115 68
90 117 70
86 112 67
90 117 70
88 115 69
88 113 67
85 111 66
89 114 69
87 113 67
107 129 97
171 183 185
174 186 189
188 199 205
183 195 201
185 197 207
188 200 209
170 183 184
146 162 157
145 161 152
140 158 146
115 136 109
95 119 79
88 114 68
85 111 66
87 114 68
87 113 67
112 132 108
175 186 190
183 195 203
178 190 197
186 197 205
176 188 192
185 196 204
195 205 214
181 193 200
186 198 205
190 202 210
176 188 194
185 196 202
177 190 197
183 195 201
172 185 187
94 118 80
85 111 66
87 114 68
88 114 67
88 114 68
88 115 68
85 111 69
113 133 112
147 161 152
157 171 168
176 188 193
181 193 198
183 195 200
129 146 131
86 112 66
84 110 65
88 114 68
87 113 67
87 113 68
88 115 68
85 111 66
91 118 71
83 109 65
89 115 72
117 135 114
118 136 117
94 117 80
83 109 65
83 108 64
79 104 60
88 114 68
84 110 66
172 185 189
97 119 83
80 106 62
96 120 83
149 165 157
161 175 177
180 192 197
176 188 192
183 194 201
182 194 198
180 192 196
176 189 191
144 160 150
121 140 121
85 112 66
87 114 68
81 106 62
81 106 63
108 127 104
178 190 196
186 197 202
192 202 209
170 182 183
147 162 154
104 127 96
87 113 67
84 110 65
87 113 67
86 112 66
89 115 69
86 112 67
91 117 70
87 113 67
87 113 67
84 109 65
88 114 68
90 116 72
131 147 131
154 170 161
122 142 121
85 111 65
84 110 64
88 114 68
82 108 65
86 112 67
88 114 67
86 112 66
85 111 65
85 112 67
83 110 65
83 109 65
87 114 67
83 109 65
83 109 63
88 114 68
85 111 66
117 137 113
138 155 142
167 180 181
182 195 201
177 189 194
164 178 173
86 112 67
91 118 71
85 111 65
87 114 67
87 113 67
85 111 65
87 113 67
81 107 63
87 113 67
86 112 66
84 111 66
88 115 69
86 112 68
87 114 68
88 114 67
84 110 66
88 115 68
86 112 66
86 112 67
90 115 76
110 131 105
144 159 151
169 181 181
116 136 111
85 111 65
87 113 67
89 116 70
88 115 69
87 113 67
88 114 68
88 114 67
84 110 66
89 116 69
86 113 67
89 116 69
84 110 65
89 115 69
89 116 69
87 113 67
90 117 71
85 111 66
90 116 68
88 114 68
87 113 68
88 114 67
89 116 69
89 115 69
169 182 183
182 193 198
183 195 202
179 191 194
189 199 205
193 204 214
174 186 190
195 205 212
174 187 188
167 181 178
121 139 119
112 133 104
88 115 69
87 114 67
83 109 64
86 113 67
88 114 68
84 109 65
89 116 69
90 116 69
88 115 69
85 111 66
89 115 69
86 112 67
117 137 114
193 204 213
184 196 201
183 196 205
194 204 212
190 200 207
185 197 202
185 197 204
186 198 204
179 191 197
191 202 209
186 197 205
189 199 206
192 203 210
189 200 208
198 208 216
180 191 197
190 201 208
193 205 214
185 196 202
184 195 200
192 202 211
189 200 206
183 194 202
184 196 201
149 164 153
93 120 72
88 114 68
88 115 69
88 115 68
89 115 69
88 114 68
85 110 64
89 115 68
83 109 64
88 114 68
84 110 64
97 122 81
113 134 110
118 137 115
146 161 153
156 170 168
170 182 183
175 188 189
189 200 207
193 204 212
191 202 210
178 191 197
186 198 206
185 197 203
91 118 73
87 113 68
88 114 68
88 115 68
90 117 70
88 114 67
92 119 71
83 109 64
87 114 68
88 115 68
85 111 66
89 115 69
87 114 68
85 111 65
88 114 68
83 110 65
90 116 70
89 116 69
92 118 71
87 113 67
86 112 67
90 117 69
85 112 66
87 113 67
175 187 189
187 198 204
192 203 209
190 202 209
187 198 206
191 202 209
193 205 214
180 192 196
188 199 206
190 201 208
188 201 210
187 198 203
182 194 200
178 190 194
198 209 217
181 194 202
175 187 193
188 198 206
184 196 202
193 204 213
189 201 209
191 201 209
191 202 209
181 192 197
97 120 81
89 115 68
83 109 64
86 113 67
86 112 66
85 111 65
86 113 67
89 116 70
88 114 68
89 116 69
90 117 70
86 112 66
89 116 69
88 114 68
86 113 66
91 118 70
89 115 69
90 116 70
85 111 65
85 111 66
89 116 71
88 115 68
102 125 89
186 197 202
181 193 200
187 198 205
179 191 196
192 202 209
188 199 204
188 200 208
187 199 206
181 194 201
188 199 206
188 198 205
189 200 206
192 203 211
173 186 189
187 197 203
186 199 208
187 198 206
186 197 204
188 199 204
180 193 201
192 203 211
170 183 182
99 123 85
88 114 68
87 113 66
90 117 69
83 109 64
89 115 69
87 114 68
82 108 64
88 114 67
90 116 69
89 116 69
89 115 69
87 114 68
84 110 64
87 113 67
87 114 68
85 111 66
87 113 67
87 113 68
91 118 71
115 135 107
194 205 212
189 200 205
181 192 200
183 195 202
184 195 201
192 204 214
181 193 196
184 195 202
182 194 201
177 189 193
184 196 202
191 202 208
180 193 199
185 196 202
181 192 198
184 196 202
182 194 200
177 189 192
182 194 198
152 166 162
93 119 74
87 113 67
84 110 65
88 115 69
90 117 70
87 113 68
87 112 67
89 115 68
86 112 66
90 116 70
85 111 66
88 114 68
88 114 69
87 113 67
88 115 68
87 114 68
86 112 67
104 126 96
165 179 177
162 175 174
159 173 171
130 148 134
128 147 128
109 131 101
87 112 69
86 112 67
89 115 68
86 112 66
87 113 68
88 115 68
89 115 68
85 111 66
83 109 65
87 114 68
113 133 110
179 190 195
196 206 215
181 192 198
182 194 198
179 191 198
175 187 192
183 195 201
181 193 199
180 192 196
183 195 204
181 192 199
184 196 203
186 197 205
186 197 203
159 174 171
101 126 86
88 114 68
87 114 68
104 127 95
122 141 120
148 163 158
166 179 179
171 183 185
186 197 202
174 186 191
190 201 208
191 203 211
163 176 173
90 116 71
84 109 65
82 108 64
85 111 66
91 118 71
85 111 66
85 110 65
89 115 75
119 138 117
145 160 154
138 156 143
89 113 74
84 111 66
87 114 68
85 111 66
90 117 70
86 112 66
100 121 91
97 118 91
93 117 80
146 162 152
143 158 152
87 111 71
85 110 68
84 110 65
85 111 65
99 122 89
140 155 145
182 194 199
178 190 195
182 194 202
168 180 184
180 192 199
175 188 194
173 184 186
128 145 132
102 125 92
80 105 61
86 112 67
177 190 193
190 201 209
184 196 202
168 180 184
171 184 187
182 193 200
157 171 170
146 162 152
105 128 92
88 115 68
85 111 66
85 112 66
90 117 70
84 110 64
87 113 67
87 113 67
85 111 65
85 110 65
87 113 66
90 116 69
144 160 152
168 182 183
132 149 134
95 119 86
77 102 59
83 109 64
86 112 66
87 113 67
86 112 67
82 108 64
87 113 67
90 117 70
88 114 68
86 113 66
85 112 66
87 113 67
82 108 63
85 111 66
82 109 65
85 112 67
102 125 93
134 150 138
150 166 158
98 122 84
87 112 67
85 111 64
81 107 63
88 115 68
92 119 71
89 115 68
89 115 69
84 110 65
86 112 67
85 111 66
88 114 68
86 112 66
87 113 66
85 111 65
86 112 67
86 112 66
87 113 67
85 112 67
88 114 68
89 115 69
92 119 72
87 113 68
180 192 193
153 167 159
147 162 154
115 136 112
88 114 70
86 112 67
83 109 64
82 108 63
83 108 63
86 113 67
88 114 68
83 108 64
84 110 65
87 113 67
87 114 69
86 112 67
85 111 66
89 115 69
84 110 65
82 108 63
86 112 67
83 108 64
83 109 64
88 114 68
190 201 208
179 192 199
187 199 207
190 201 209
180 192 198
181 193 200
180 193 200
181 193 199
177 190 196
192 202 209
185 196 204
190 201 210
178 189 193
159 174 174
143 159 146
135 152 140
92 117 78
85 110 68
88 114 68
90 117 70
87 113 67
88 114 68
85 111 66
89 115 68
145 161 150
178 190 196
193 204 211
182 194 198
186 197 204
182 194 200
198 208 217
190 201 208
196 207 216
180 193 199
192 204 212
180 192 196
192 203 210
188 199 207
184 196 202
185 196 202
196 207 216
191 202 210
187 198 205
185 195 200
189 200 207
190 200 206
190 201 208
188 198 206
172 185 189
97 121 84
85 111 66
87 113 66
85 111 65
87 113 67
88 114 68
83 109 65
83 109 64
89 115 69
89 116 69
86 113 67
89 116 69
84 110 65
91 118 70
87 113 67
90 117 70
86 112 66
88 114 68
84 110 65
86 111 69
105 128 97
112 131 109
132 149 134
152 168 164
164 178 173
114 135 109
107 128 99
86 111 68
88 115 69
85 110 65
87 113 67
84 109 65
84 110 65
89 115 69
83 109 64
90 116 69
84 110 65
85 110 65
89 116 69
89 116 69
85 110 65
90 116 69
84 110 65
88 115 68
85 111 66
91 118 70
88 114 68
88 114 68
137 155 141
182 194 201
192 202 209
182 193 200
193 203 211
187 198 204
185 197 207
181 194 201
181 193 200
190 200 206
188 199 207
187 198 204
180 192 198
184 195 200
187 198 204
187 198 204
188 199 205
197 207 216
183 194 198
172 184 187
181 193 198
187 199 205
184 195 201
185 196 201
126 146 127
89 116 69
91 118 71
88 115 68
89 116 69
86 112 66
84 110 65
84 109 65
87 114 68
89 116 69
88 115 68
88 115 68
87 114 68
87 113 67
82 108 64
88 115 68
90 117 70
84 111 65
87 112 66
89 115 69
86 112 67
88 115 69
89 115 69
174 187 190
185 197 205
184 195 201
178 190 195
182 194 202
193 204 211
182 193 199
189 200 208
187 199 207
183 194 200
177 190 193
184 195 201
181 192 198
195 206 215
176 188 193
184 195 201
190 200 208
183 195 200
180 193 199
184 196 203
181 192 196
185 195 200
107 129 95
88 115 69
84 110 65
91 117 70
90 117 71
89 115 69
83 109 64
86 113 68
83 109 63
83 109 64
89 115 69
89 115 69
90 116 70
88 115 68
83 110 65
88 114 67
85 111 66
86 112 66
81 107 63
87 113 67
101 125 89
172 186 190
186 198 205
191 202 209
189 200 205
179 191 194
194 204 211
178 189 193
193 203 210
184 196 203
180 192 197
192 203 213
187 198 206
187 199 205
188 199 206
191 202 210
181 192 197
183 194 200
187 199 207
174 186 188
158 172 167
94 119 73
84 110 65
92 119 71
86 113 68
88 114 68
83 109 65
86 112 66
89 116 69
90 116 69
84 110 65
88 114 68
104 127 96
112 132 109
124 141 126
145 161 151
152 167 163
158 172 171
147 162 154
95 119 85
82 107 63
85 111 66
85 111 66
88 115 68
84 110 65
81 107 63
87 113 67
88 114 67
91 117 70
88 113 68
85 111 66
86 112 66
83 110 65
87 114 68
89 115 70
152 167 159
189 200 207
184 196 203
185 196 201
180 192 196
185 196 203
178 190 196
176 187 191
183 196 204
186 197 204
179 191 195
189 201 208
184 196 202
188 200 209
173 187 192
140 156 147
119 138 117
130 147 131
160 174 171
174 187 191
173 185 190
188 200 209
182 194 201
175 187 191
180 191 196
179 190 193
186 198 208
188 199 207
138 155 147
87 114 68
84 110 65
88 114 68
86 112 67
85 111 66
100 123 90
119 138 117
150 165 160
179 191 195
170 182 186
105 127 98
82 107 64
87 113 68
86 112 67
85 111 66
104 126 98
125 144 126
154 167 163
130 146 138
137 153 141
142 158 149
154 170 165
147 164 156
134 152 135
93 117 80
124 143 121
146 162 154
124 143 127
118 137 116
118 136 116
112 132 114
147 161 157
165 179 181
182 194 200
184 196 202
177 189 196
181 193 199
174 186 193
171 184 185
144 159 151
148 163 154
175 188 193
191 202 209
181 193 199
177 189 194
185 196 203
190 201 207
177 189 197
171 184 190
170 183 183
143 158 149
107 129 99
85 112 66
84 110 66
88 115 68
83 109 65
84 110 65
84 110 65
85 111 66
87 113 68
127 145 130
176 188 192
183 195 203
176 189 193
173 186 188
132 149 134
107 129 104
81 106 63
86 112 67
86 112 67
81 107 64
88 115 69
85 112 66
86 112 67
92 119 71
87 113 67
85 112 66
83 108 63
86 111 66
89 116 69
91 118 71
86 112 65
120 139 121
186 197 202
167 180 181
141 158 147
115 135 110
88 115 68
89 116 69
87 113 67
89 116 70
87 114 68
85 111 66
89 115 69
85 111 66
87 114 67
82 108 64
90 117 70
87 114 68
87 113 67
87 114 68
82 108 63
85 111 65
81 106 63
89 115 69
107 128 98
179 190 197
182 193 198
183 195 200
173 185 188
166 179 182
163 177 176
148 165 157
113 135 105
88 113 67
87 113 67
89 116 69
86 112 66
86 113 67
84 111 66
89 115 69
86 113 67
86 112 67
87 114 68
87 114 68
83 109 64
91 118 71
85 110 66
86 113 67
120 139 117
184 195 202
187 198 205
176 187 193
185 196 201
178 191 195
186 197 203
183 195 201
184 195 199
178 189 195
184 196 204
183 195 201
185 196 203
188 199 206
184 195 199
180 192 199
191 202 210
186 197 203
175 188 192
166 180 178
143 159 149
130 147 131
98 123 86
84 110 65
89 115 68
173 185 188
188 199 205
194 205 213
185 196 203
184 195 201
185 196 202
179 191 196
184 196 202
180 191 196
185 196 201
172 185 189
193 204 214
181 193 198
184 195 201
182 194 201
184 196 202
187 199 206
187 198 204
182 194 201
181 194 201
191 201 209
188 199 206
178 189 194
174 187 192
168 181 183
88 115 68
89 115 68
89 115 68
85 111 66
87 113 67
83 109 65
88 114 68
88 114 67
88 115 69
89 116 70
88 114 68
86 112 66
88 114 68
90 117 70
88 115 68
90 117 70
85 111 66
83 108 64
91 117 70
87 113 67
92 118 71
88 114 67
91 118 71
99 124 85
179 191 198
176 189 193
190 201 210
184 196 202
185 198 204
164 178 178
170 183 184
154 169 163
140 158 146
130 149 128
106 130 96
113 133 107
87 113 68
87 112 67
85 111 66
85 111 66
88 114 68
86 112 67
84 110 65
86 112 67
85 111 65
89 116 69
82 108 64
95 119 79
175 187 192
186 197 203
178 190 194
186 196 200
190 201 208
178 190 195
184 195 202
183 196 201
182 194 201
184 195 201
188 199 206
180 191 195
191 202 209
176 187 190
171 182 187
195 205 211
185 198 206
184 196 204
184 196 202
189 201 209
176 189 195
180 191 196
199 209 218
152 167 161
87 113 67
86 112 67
83 109 64
86 111 66
89 115 69
90 117 70
88 115 68
87 113 67
88 114 68
88 114 68
87 113 68
83 110 65
87 113 67
84 110 65
92 119 71
88 114 68
89 116 70
86 112 67
91 118 71
90 117 70
88 114 68
91 118 70
140 156 148
188 199 207
183 195 203
185 197 205
191 202 209
183 195 201
184 196 204
177 189 192
188 199 204
190 201 207
182 193 197
188 199 207
180 192 197
192 203 210
177 189 192
189 199 206
189 200 206
185 196 204
189 200 206
185 197 204
177 190 194
179 192 198
130 149 132
89 115 69
85 111 65
87 114 67
88 115 68
89 115 68
89 116 69
85 111 67
89 115 68
86 113 68
89 115 69
87 113 68
90 116 70
88 114 68
88 115 69
87 114 68
89 116 70
86 113 67
90 117 70
86 112 66
94 118 83
165 178 177
180 191 195
188 199 204
185 197 205
193 203 210
190 201 206
187 198 205
188 199 207
188 199 207
190 200 207
185 197 204
189 200 206
181 194 201
190 201 209
190 201 207
191 203 211
184 196 201
182 193 199
190 201 209
157 171 164
90 117 70
83 109 64
87 114 68
96 121 80
112 133 105
115 134 110
122 140 121
131 148 134
143 159 147
168 181 180
176 188 192
180 192 195
184 197 206
169 183 187
184 196 202
186 197 203
184 195 202
164 178 175
105 128 95
84 111 65
88 115 69
88 114 68
88 115 69
91 118 71
89 115 69
90 117 70
89 116 69
82 108 63
86 112 66
87 114 69
83 108 64
85 111 66
84 109 64
90 113 77
155 171 167
181 193 199
183 194 199
187 199 204
188 199 207
178 192 198
181 192 197
186 198 205
187 198 205
178 189 193
182 194 199
178 191 197
174 185 186
155 170 165
149 164 158
184 196 201
170 183 186
176 190 197
181 194 202
182 194 201
194 204 211
187 199 208
176 187 192
174 186 190
185 196 203
182 194 200
186 197 204
158 172 170
103 125 95
83 108 64
85 111 65
95 119 81
133 149 136
139 154 146
164 177 178
180 191 197
181 193 200
181 192 196
142 159 148
83 108 66
88 114 68
85 111 65
89 114 77
92 117 77
120 138 118
141 158 150
163 178 178
165 178 181
159 173 170
132 149 133
143 160 149
224 237 254
208 222 235
160 175 175
124 141 127
119 137 120
86 111 69
104 125 99
155 169 164
167 180 183
178 191 198
166 179 180
156 170 168
174 186 189
184 196 201
161 174 174
180 192 200
174 186 189
186 197 204
168 181 183
168 181 183
125 144 128
148 162 156
176 189 194
189 199 206
179 189 194
181 193 198
177 190 198
178 190 196
171 184 189
181 193 196
180 191 196
161 176 173
137 154 140
102 125 91
86 111 66
82 108 64
84 109 64
84 109 64
81 107 63
112 132 108
188 198 205
186 197 205
191 203 210
181 192 197
182 194 200
191 201 207
171 184 187
132 150 137
124 143 125
85 110 65
83 109 63
85 111 66
82 106 63
86 111 66
84 110 65
86 113 67
80 105 61
86 112 67
85 111 65
84 111 66
84 110 65
121 140 121
182 194 200
181 194 201
186 197 203
186 197 204
175 187 191
148 163 157
127 146 125
99 122 87
90 117 70
88 114 68
88 115 69
87 113 66
89 116 70
84 110 65
91 118 71
90 117 70
84 110 66
86 112 66
84 109 65
86 112 67
87 113 67
85 110 65
127 146 129
173 185 189
188 200 208
191 202 208
179 191 195
185 196 202
179 191 197
185 197 203
173 185 188
182 194 199
158 173 169
141 157 145
109 129 106
91 117 73
85 111 66
86 113 67
87 113 67
81 107 63
90 116 69
90 117 70
87 113 68
81 106 63
88 114 68
90 116 69
128 147 130
195 206 213
184 195 200
186 198 204
189 201 207
180 192 195
176 188 193
189 200 207
184 195 203
181 194 201
174 186 188
192 202 210
185 196 200
182 194 198
191 203 212
182 194 199
179 191 197
181 192 196
188 200 207
181 192 198
175 188 193
191 202 211
183 195 202
184 196 203
147 163 157
135 152 141
160 174 171
175 186 189
192 202 208
184 195 199
180 192 198
183 195 201
179 190 195
187 198 203
199 209 219
187 197 205
186 197 205
181 193 200
184 195 201
176 188 192
182 194 199
182 194 201
181 194 201
193 203 211
189 199 208
188 199 206
184 196 204
179 191 198
188 200 209
130 150 129
89 117 70
84 111 66
86 112 66
88 115 69
92 119 71
88 114 67
91 118 70
89 116 69
87 113 67
87 113 67
89 116 69
88 115 68
82 109 65
84 111 66
85 111 66
85 111 65
85 111 66
87 114 67
90 116 69
88 114 68
89 116 69
85 111 66
86 113 67
136 154 139
188 198 204
181 193 196
186 197 202
183 194 200
191 202 209
180 192 198
184 196 202
184 195 200
189 200 208
185 197 205
182 193 199
192 203 211
180 191 197
178 190 193
170 183 181
154 168 162
155 170 162
149 163 154
145 161 152
137 154 140
110 130 107
98 122 82
94 118 78
146 162 149
188 199 207
184 196 204
178 190 195
188 200 207
181 193 198
188 200 209
185 196 202
189 200 206
183 194 198
184 196 204
182 193 197
187 198 206
182 193 197
188 199 207
181 194 202
197 208 216
194 205 214
186 197 204
185 196 203
187 199 206
186 197 204
191 201 209
179 191 194
98 123 88
87 114 68
85 112 66
87 114 68
85 111 66
86 113 67
87 114 68
87 114 67
84 110 66
88 114 68
88 115 69
91 117 70
88 115 68
92 118 71
90 117 70
85 111 65
86 111 66
83 109 64
85 111 66
87 114 68
86 113 67
84 110 64
119 138 118
181 193 197
188 199 205
186 197 205
176 188 195
182 193 198
185 197 204
185 197 202
195 206 215
185 196 203
189 200 208
195 206 216
180 192 200
177 189 192
183 195 203
182 194 199
177 189 194
190 201 209
186 197 205
192 203 211
193 203 212
177 189 191
151 165 161
87 113 68
88 115 69
84 110 66
83 108 64
86 113 68
84 110 65
88 114 67
88 115 69
83 108 65
83 108 64
90 117 70
88 115 69
86 112 67
87 113 68
88 114 68
92 119 71
86 112 67
85 111 66
89 115 69
87 114 68
170 184 186
188 199 206
188 199 205
186 196 201
183 195 202
191 202 210
173 185 190
182 193 198
187 199 205
188 199 205
182 194 199
183 195 204
187 197 205
183 195 201
188 199 204
180 192 198
165 180 180
165 178 177
147 162 155
173 185 190
152 166 160
164 177 175
159 174 172
183 195 204
187 198 205
185 197 204
181 192 198
187 196 201
181 193 199
191 201 209
179 191 198
182 194 200
188 200 208
181 193 200
185 197 203
187 198 206
184 196 203
156 170 163
91 116 74
87 113 67
84 109 64
88 114 68
86 112 67
84 111 66
82 107 63
89 115 68
88 115 68
86 112 67
90 116 69
82 108 64
89 115 69
87 113 68
87 113 66
98 123 85
174 185 189
174 187 193
185 196 201
179 192 199
191 202 211
186 198 204
171 184 187
176 189 193
176 188 191
154 169 166
153 169 164
122 141 122
103 125 96
81 107 63
130 147 133
190 201 209
179 190 195
180 193 200
181 193 200
182 193 199
174 186 190
192 204 215
175 187 194
188 199 208
191 202 211
182 193 199
182 193 196
127 145 130
86 112 67
108 129 99
132 150 134
167 180 183
172 185 188
190 201 207
183 195 201
166 179 181
180 193 198
165 178 181
141 158 147
151 166 158
155 169 163
118 137 119
105 127 96
84 111 66
91 114 76
163 178 179
150 164 162
134 150 141
106 127 101
165 180 181
208 221 234
224 237 254
224 237 254
224 237 254
224 237 254
221 233 251
213 225 240
188 201 208
127 145 132
102 123 95
86 111 69
115 134 117
154 167 162
176 188 191
177 189 196
186 198 205
171 183 186
150 164 158
116 135 112
100 122 90
118 138 115
130 148 134
131 148 135
133 150 136
128 145 129
124 142 124
157 172 170
175 188 191
177 189 193
178 190 191
182 193 198
183 194 200
185 197 203
167 180 184
186 198 203
177 189 195
162 175 177
149 163 155
111 131 106
87 113 67
84 110 64
98 122 85
179 192 200
179 191 196
180 192 198
180 191 196
186 198 205
192 203 212
186 196 203
191 202 211
179 191 197
170 183 186
157 169 167
123 140 125
97 120 86
85 111 66
85 112 67
86 112 67
83 108 63
86 112 66
82 107 63
88 114 68
84 109 64
117 137 116
185 196 202
176 188 193
194 204 211
185 197 204
186 196 202
183 194 200
182 193 199
181 193 199
173 185 187
147 163 155
114 135 111
85 110 68
82 108 64
79 104 62
87 114 68
86 111 65
89 116 69
85 111 66
86 113 67
85 111 66
89 115 69
90 116 69
130 147 135
188 199 207
180 192 198
187 198 204
184 195 201
193 204 211
164 178 182
178 191 199
183 195 200
178 190 198
192 203 211
185 196 203
194 203 211
172 185 188
171 183 182
143 159 150
122 142 122
83 109 65
89 115 68
81 107 63
87 112 66
84 110 65
82 109 64
86 112 66
163 176 176
180 193 198
186 197 202
180 192 197
167 180 180
183 195 202
186 198 205
180 192 198
177 190 197
186 197 202
187 198 202
177 189 195
183 195 200
182 193 199
170 183 191
192 203 210
185 196 201
184 194 200
184 196 206
192 203 212
188 199 208
184 196 200
181 193 198
179 191 195
145 160 152
83 109 65
89 116 70
85 110 65
87 111 71
119 139 113
130 147 134
162 176 172
166 179 178
174 187 192
183 195 200
197 207 215
180 192 198
178 190 195
179 191 194
184 195 201
176 187 191
193 204 212
186 197 203
181 193 196
178 190 196
187 198 202
182 194 200
180 192 198
174 186 191
92 119 71
83 109 65
89 115 68
84 110 65
87 113 67
89 116 69
86 111 66
85 111 66
87 113 67
85 111 65
84 110 66
87 113 67
88 114 68
88 114 67
87 113 67
92 119 72
88 115 68
86 112 66
84 110 65
87 114 68
88 114 68
89 115 68
91 117 70
92 118 76
181 193 197
188 199 205
188 199 208
181 193 200
186 198 203
182 194 200
184 195 201
182 193 197
197 208 217
181 192 198
185 197 203
193 203 210
180 192 197
191 203 210
179 191 197
181 193 199
185 196 203
179 191 197
180 192 197
190 203 215
185 197 204
190 201 208
191 202 210
182 194 199
108 130 102
103 126 94
126 144 126
121 141 118
138 154 142
143 159 149
148 163 157
158 172 169
168 181 180
169 182 180
173 186 189
181 193 198
178 189 194
183 194 200
186 198 205
185 197 203
183 195 200
180 192 198
186 198 205
193 203 210
180 192 196
190 200 208
181 193 198
129 147 133
87 114 68
85 111 66
87 114 68
85 111 66
84 109 64
90 117 70
91 117 69
83 109 64
86 112 67
87 113 67
85 112 66
89 116 69
88 114 68
84 109 64
87 113 68
86 112 66
85 111 66
86 112 67
89 115 69
90 117 71
86 112 66
121 140 114
181 193 198
183 195 201
182 194 199
186 197 205
175 188 191
184 195 201
179 190 193
187 198 205
184 195 202
176 188 192
189 201 209
189 201 208
183 194 201
184 195 201
187 198 206
182 194 202
187 198 204
179 191 197
184 196 202
184 197 204
191 202 209
151 166 160
87 113 69
83 110 65
86 112 67
86 112 67
90 116 69
88 115 69
87 113 67
87 113 68
86 112 67
87 113 67
86 113 67
89 116 69
83 108 64
87 113 67
90 117 70
83 109 65
89 115 68
81 107 63
89 116 69
89 114 70
160 175 173
195 205 213
181 193 199
187 198 204
168 181 181
183 195 199
172 184 185
156 170 166
144 158 150
147 162 157
132 148 137
125 144 123
109 129 107
107 129 101
91 115 76
89 115 68
86 112 66
87 114 69
84 111 66
118 137 117
188 199 207
194 205 214
180 192 195
185 197 205
178 190 195
170 183 187
191 201 209
180 193 199
183 194 197
179 191 198
179 189 195
182 193 199
192 203 210
185 196 203
183 195 204
181 192 197
189 199 206
142 158 150
84 110 65
86 113 68
85 111 66
91 119 71
84 110 65
84 110 65
87 113 67
84 110 65
85 111 66
91 119 72
79 105 61
87 113 67
88 115 68
91 117 70
85 112 66
111 132 106
178 190 195
191 201 206
178 190 194
182 194 200
168 181 182
166 179 180
125 143 127
138 154 143
97 120 89
90 117 70
90 116 70
84 110 66
86 113 67
93 117 78
149 164 157
180 193 199
174 187 193
190 202 210
180 191 196
178 190 196
173 185 189
176 189 194
169 182 186
182 192 198
182 194 201
172 184 187
169 182 183
145 161 153
164 178 175
161 174 175
168 181 184
145 160 156
137 154 143
132 147 134
105 125 101
101 123 95
114 135 113
166 180 183
150 165 159
123 141 123
92 115 80
83 108 64
86 111 67
98 119 90
122 140 125
111 132 113
108 129 104
152 169 164
198 212 223
222 234 252
224 237 254
224 237 254
224 237 254
224 237 254
224 237 254
224 237 254
224 237 254
224 237 254
224 237 254
218 231 247
209 221 235
162 176 175
133 150 135
93 115 83
94 117 80
127 145 129
159 173 173
177 189 194
175 189 194
178 191 197
169 181 182
132 149 137
107 127 100
156 169 167
172 184 187
181 193 199
185 195 199
168 181 184
164 177 177
166 180 182
154 169 167
142 158 149
137 153 145
150 166 160
158 172 168
174 187 191
174 187 193
177 188 193
168 182 186
180 192 198
168 181 182
137 151 140
112 131 108
183 195 201
176 188 193
185 196 203
176 188 192
183 195 202
186 198 207
184 194 199
184 196 202
187 198 205
182 194 203
188 199 206
180 192 199
179 191 195
152 167 162
125 143 126
102 123 94
87 114 68
86 112 67
85 110 65
81 106 62
88 115 68
126 143 129
184 196 203
178 190 196
185 196 202
177 189 195
176 189 194
171 184 189
170 183 187
180 192 200
180 193 199
175 187 192
186 198 204
177 189 191
157 170 169
122 142 123
110 130 105
84 110 66
83 108 64
86 112 67
83 109 64
82 108 64
85 111 66
83 108 63
139 156 144
170 184 188
182 193 200
186 196 202
181 191 197
188 200 206
188 199 205
185 196 203
192 202 209
185 196 203
179 191 197
177 189 195
177 189 195
175 188 194
176 189 194
181 193 197
187 199 205
170 183 184
175 188 192
143 158 149
125 143 123
88 115 68
84 110 64
85 111 68
177 189 193
181 194 201
190 201 207
176 188 191
186 198 204
182 194 200
182 194 200
185 196 202
189 200 206
183 194 198
181 192 197
186 198 204
182 195 203
179 191 196
189 199 205
186 196 202
186 198 205
178 190 195
187 198 205
190 200 205
176 187 191
179 190 196
178 189 193
180 192 197
99 121 92
84 109 64
80 106 62
85 111 66
84 110 65
90 117 70
84 110 65
92 119 71
79 105 61
80 105 62
111 132 104
117 138 114
137 154 142
139 156 146
170 183 184
186 197 204
180 191 197
174 187 191
182 194 202
190 200 207
188 199 207
193 203 209
179 191 196
187 198 205
128 146 131
92 118 71
88 115 68
88 114 68
89 116 69
90 117 69
85 112 66
88 115 68
86 112 66
86 112 66
83 109 64
86 112 66
88 114 68
84 110 65
84 111 65
86 113 68
85 111 66
83 109 64
86 112 66
88 115 68
88 115 69
91 117 70
86 112 66
86 112 67
150 165 157
188 200 208
187 198 205
188 199 205
184 194 200
186 197 205
191 202 210
184 196 203
191 202 212
175 187 190
190 201 211
188 199 205
176 188 191
187 198 206
190 202 211
183 194 199
188 200 207
180 192 198
181 193 198
191 202 209
183 195 202
188 199 205
195 206 215
182 194 198
123 142 121
84 111 66
86 112 66
85 111 65
86 112 67
86 112 67
89 115 69
86 112 66
85 112 67
87 114 67
87 113 67
90 116 69
93 120 71
86 112 67
92 116 79
103 126 93
103 124 97
119 139 117
136 153 138
131 148 133
124 142 127
134 150 139
156 170 167
149 163 155
118 137 116
127 145 125
116 135 117
112 132 108
111 132 102
111 131 107
105 129 93
94 118 82
91 115 79
84 110 65
90 117 70
84 110 65
86 112 67
88 114 67
83 109 64
86 113 67
89 116 69
82 107 63
85 111 66
89 116 70
86 111 65
89 115 71
169 181 181
175 187 191
178 190 194
176 188 193
185 196 203
198 208 217
183 194 200
187 198 206
185 196 201
182 194 201
182 193 199
181 193 200
191 202 211
181 194 202
190 202 211
188 200 209
178 191 197
187 198 205
187 198 202
191 201 208
180 192 199
170 182 183
100 123 88
84 110 65
89 115 68
90 117 70
92 117 75
100 124 86
99 122 86
111 131 108
103 124 93
103 124 95
126 145 124
117 137 115
128 146 130
141 157 147
140 156 143
151 166 157
138 153 140
148 164 158
160 174 170
159 172 168
112 133 109
108 129 102
101 123 94
88 114 68
88 114 68
81 106 63
88 114 68
87 114 68
86 113 68
86 112 66
86 113 67
85 111 67
79 105 61
89 116 69
84 110 65
88 114 68
88 115 69
82 108 64
84 110 65
133 150 139
178 190 194
192 203 210
179 190 195
182 194 199
181 193 198
189 200 208
181 192 198
175 188 191
185 196 203
182 193 200
183 195 201
182 193 197
175 188 195
182 193 199
183 195 200
188 199 208
176 187 193
128 146 134
85 111 66
82 108 64
83 109 64
88 115 69
86 112 66
81 107 63
84 110 65
89 116 70
83 109 64
90 116 70
84 111 66
83 109 64
89 115 68
87 113 67
86 113 67
130 148 135
162 176 174
150 165 159
146 162 154
124 142 122
91 116 75
84 110 65
85 111 65
85 111 66
88 114 68
89 116 69
90 116 70
86 112 67
86 112 67
112 131 105
164 177 174
180 192 196
182 194 201
187 198 206
183 196 204
181 192 197
174 186 190
168 180 181
162 176 177
176 188 189
181 193 200
164 177 179
113 135 110
119 139 118
97 119 85
87 111 71
80 106 63
86 112 66
84 110 66
85 111 66
88 115 68
94 117 82
119 138 119
132 149 135
92 115 79
83 109 64
88 114 68
81 107 63
89 114 78
84 108 72
103 122 97
135 152 142
190 203 212
216 229 246
224 237 254
224 237 254
224 237 254
224 237 254
224 237 254
224 237 254
224 237 254
224 237 254
224 237 254
224 237 254
224 237 254
224 237 254
224 237 254
224 237 254
224 237 254
218 231 248
189 202 212
156 170 170
119 139 119
84 109 73
98 120 91
134 150 137
168 181 182
160 173 174
164 177 179
177 188 193
154 168 168
143 158 151
165 179 179
178 190 196
178 190 197
174 186 190
171 183 187
173 185 191
181 193 198
139 155 147
122 139 124
92 115 79
86 112 67
80 105 62
92 116 79
109 131 101
114 132 112
116 136 118
130 147 131
142 156 148
134 151 143
156 169 167
166 179 180
168 181 182
176 188 193
167 180 182
171 184 187
175 187 192
177 189 194
186 196 203
176 188 193
179 190 193
185 196 202
179 191 196
184 196 203
174 187 191
165 179 179
140 156 146
117 137 113
93 118 78
76 100 58
136 153 143
176 189 196
183 196 204
177 190 196
181 192 197
174 187 193
183 194 201
179 190 196
181 192 195
184 195 200
179 191 197
183 194 200
182 194 199
183 194 200
190 199 205
193 204 212
171 184 188
148 162 156
142 158 147
104 125 97
81 107 63
84 110 66
84 109 65
160 173 170
186 198 204
175 187 190
182 194 199
174 188 193
185 197 204
182 193 199
190 201 208
190 201 208
184 196 204
190 202 210
187 198 206
179 191 195
179 192 197
193 204 213
181 194 201
182 193 199
184 196 202
185 197 205
184 196 204
180 192 199
187 199 206
174 187 189
147 162 154
152 167 162
181 193 198
184 195 201
183 194 200
184 195 202
189 201 211
181 193 200
174 187 191
180 193 199
184 195 200
188 199 206
182 194 200
191 202 209
171 183 186
176 188 196
175 187 191
186 196 203
181 193 200
190 201 210
184 196 203
175 188 193
179 192 199
180 191 198
172 184 188
88 114 68
84 110 65
80 105 62
90 117 70
87 113 68
88 114 68
89 115 68
82 109 65
83 109 65
87 113 67
88 114 67
89 115 69
87 113 67
84 111 65
88 115 69
83 109 63
106 127 100
140 156 143
147 163 154
144 160 152
168 181 181
186 196 201
182 193 199
183 195 201
91 115 79
86 112 67
87 113 67
88 114 67
83 109 65
84 110 66
86 112 67
88 114 68
87 113 67
87 114 68
84 110 65
86 112 66
88 114 68
89 115 69
85 111 66
83 109 64
88 114 68
85 111 66
86 112 67
85 111 66
85 111 66
87 113 67
89 115 69
98 122 85
178 190 194
174 187 193
187 200 207
181 193 198
188 199 207
187 198 203
178 190 196
177 189 195
185 197 206
180 193 199
182 195 201
183 194 198
185 196 201
180 192 197
175 188 191
183 195 200
177 189 191
184 195 202
185 196 203
179 190 195
181 192 198
178 191 197
178 189 194
162 176 176
84 110 65
87 114 68
88 114 68
83 109 64
87 113 68
82 108 64
90 116 69
84 110 65
87 113 68
89 115 68
87 114 69
85 111 65
80 106 62
87 114 69
86 112 66
84 111 66
87 113 67
88 114 68
90 116 69
85 110 65
86 111 65
85 111 66
94 117 77
181 194 200
183 194 200
183 195 200
192 204 213
187 198 207
186 196 203
181 192 197
176 188 192
189 200 207
183 195 201
178 190 194
173 186 190
174 186 189
176 189 194
172 185 188
164 177 177
167 181 180
174 185 189
164 177 177
158 171 170
164 177 176
158 174 173
120 141 117
120 140 119
125 143 119
124 142 128
127 144 126
129 146 134
124 143 122
121 139 121
130 147 133
128 145 130
129 147 132
126 144 125
127 144 128
122 141 121
114 134 113
115 135 113
123 143 122
108 128 102
114 135 109
118 138 115
110 132 103
117 137 114
176 189 194
170 182 184
174 186 191
178 190 194
180 192 198
182 195 202
182 193 198
177 190 196
176 188 194
184 196 203
182 194 200
185 197 203
176 189 194
173 185 188
178 191 197
188 198 206
187 198 208
187 198 205
186 197 204
184 195 202
130 147 132
87 113 67
83 109 64
87 113 67
85 111 65
85 111 66
87 113 67
87 113 67
86 111 66
84 110 65
85 111 66
86 113 67
85 111 66
85 111 66
88 114 69
81 107 63
88 114 68
87 114 68
88 114 68
132 149 138
180 192 198
186 197 202
195 205 212
177 188 194
170 182 185
178 190 196
183 195 204
187 199 206
190 201 208
179 190 196
174 186 189
171 184 187
180 192 199
182 193 200
173 186 191
182 194 202
168 181 182
124 143 123
84 110 65
84 110 66
87 113 67
88 114 67
89 116 69
84 110 65
82 108 64
86 112 66
82 108 63
86 112 67
85 111 68
102 124 91
122 140 121
127 144 128
151 164 162
108 127 103
86 112 67
89 116 70
90 116 70
86 111 66
82 107 64
89 115 69
87 113 67
87 114 68
82 108 63
84 111 66
89 112 77
106 126 101
113 134 108
109 129 105
149 164 159
133 148 138
123 142 124
117 136 118
124 141 128
99 121 88
118 137 120
127 145 132
157 171 165
166 179 182
173 185 192
146 162 155
96 119 85
83 110 65
82 108 64
86 112 67
83 109 64
85 111 66
92 118 75
100 124 91
130 148 134
111 130 107
89 113 73
79 104 61
87 113 68
85 110 71
118 136 118
127 144 130
110 131 107
131 148 136
168 183 185
215 228 243
224 237 254
224 237 254
224 237 254
224 237 254
224 237 254
224 237 254
224 237 254
224 237 254
224 237 254
224 237 254
224 237 254
224 237 254
224 237 254
224 237 254
224 237 254
224 237 254
224 237 254
224 237 254
224 237 254
224 237 254
223 236 253
212 224 240
186 199 207
156 170 168
121 140 121
79 104 64
96 118 85
143 159 145
178 190 193
179 189 194
111 131 107
90 116 69
103 125 95
132 149 138
171 183 186
178 189 194
181 194 200
181 192 198
171 183 189
180 192 197
174 187 192
150 166 158
127 145 128
90 114 76
80 106 62
86 112 67
84 110 65
85 110 65
82 107 63
149 164 162
185 197 203
176 188 195
176 188 192
148 164 156
125 142 127
110 131 109
117 136 115
122 141 123
130 147 134
135 152 137
145 161 150
164 177 173
151 166 164
172 184 185
178 190 195
182 193 198
183 195 200
182 194 203
172 185 188
165 178 178
154 169 163
176 189 192
179 191 195
171 184 188
182 194 201
175 187 191
172 183 189
179 191 195
178 190 197
183 194 199
180 193 198
187 198 204
179 192 197
176 189 193
177 189 194
182 193 199
182 194 201
177 190 196
181 192 197
182 193 199
181 193 197
137 154 145
133 151 134
162 176 174
182 194 201
174 186 191
168 181 181
178 192 199
183 194 199
179 191 197
171 184 187
185 196 204
182 194 202
184 195 201
190 201 208
184 195 201
165 178 181
182 194 201
182 193 199
184 195 201
184 195 202
182 194 200
184 195 202
184 195 200
182 193 199
185 196 204
152 167 162
84 109 63
88 114 68
89 114 72
113 132 112
154 170 167
157 170 169
186 198 205
174 187 192
179 190 197
178 189 194
185 196 203
179 190 197
185 197 203
173 185 191
181 192 197
183 195 202
174 187 191
186 198 206
190 200 206
190 200 208
188 200 208
178 189 194
182 194 201
148 163 155
88 114 68
87 113 66
84 110 65
87 112 66
83 109 64
85 111 66
86 112 66
81 107 62
88 114 68
84 110 65
87 113 67
84 110 65
83 108 64
84 110 65
88 115 69
87 114 69
80 106 61
87 114 68
82 108 64
86 113 68
87 114 68
85 110 71
107 129 98
143 158 149
142 157 147
129 147 129
118 136 116
102 124 94
82 108 63
87 113 68
86 113 68
85 111 66
86 112 66
86 112 67
88 114 68
87 113 67
88 115 69
87 113 67
85 111 65
83 109 64
86 113 67
85 112 66
82 107 64
82 108 64
85 111 66
88 115 69
86 112 66
147 163 155
184 196 203
184 196 200
184 195 202
183 195 203
181 193 202
181 192 197
179 192 198
177 188 193
188 200 208
181 192 198
194 206 216
186 198 206
186 198 204
188 199 207
179 190 195
179 192 200
178 190 197
187 198 207
178 190 195
184 196 203
185 197 204
187 199 207
173 187 192
105 126 99
87 113 66
85 111 66
88 114 67
84 110 65
90 117 70
83 109 64
84 110 65
85 111 66
89 115 68
84 110 65
85 111 66
85 110 65
90 117 70
86 112 67
84 110 65
79 104 61
87 113 68
86 112 67
88 114 67
83 109 64
79 105 62
80 106 62
158 173 170
182 193 200
187 199 206
180 192 198
176 189 193
192 203 211
183 195 201
183 195 204
187 197 204
190 202 210
180 191 198
181 193 198
178 190 196
183 196 203
187 198 204
175 186 189
191 201 207
182 195 200
175 188 194
179 191 196
186 197 205
193 204 212
153 166 161
87 112 67
89 115 69
85 112 66
84 110 65
89 115 69
87 113 67
82 108 64
88 115 68
88 114 68
82 108 63
87 113 67
86 112 67
89 115 68
81 106 63
90 117 70
88 114 68
87 113 67
86 112 66
89 116 69
87 114 67
90 116 74
174 187 188
184 195 201
178 190 196
180 192 198
168 182 186
177 189 195
175 187 192
192 203 211
177 190 197
178 191 199
179 192 197
187 199 207
175 187 192
183 194 200
179 191 195
179 191 197
176 187 191
178 190 194
176 189 195
187 199 207
139 155 142
85 112 67
88 115 69
83 108 64
83 108 63
90 117 70
85 111 66
88 115 69
81 106 63
85 111 65
82 107 64
85 110 65
84 110 65
87 113 67
87 112 67
84 110 65
86 112 67
84 109 64
81 107 62
137 153 138
186 197 204
181 193 201
179 191 196
180 193 201
181 192 199
181 192 199
183 193 197
187 198 204
181 192 198
190 200 208
184 196 204
184 195 202
181 194 203
185 196 202
185 197 206
179 190 195
181 192 196
114 135 109
86 113 68
87 113 68
85 111 65
89 115 69
88 114 68
87 113 67
103 125 97
117 136 114
143 159 151
157 171 167
172 186 191
160 173 172
181 193 200
180 191 198
172 185 190
118 138 114
100 122 92
107 130 102
128 147 132
121 141 119
132 150 138
139 154 146
154 168 164
154 168 163
161 175 175
162 175 174
173 186 188
183 194 202
174 188 195
111 130 112
85 110 65
81 107 63
95 118 85
117 136 116
147 162 155
165 178 177
178 191 198
174 186 189
171 183 190
170 182 184
147 162 158
111 130 106
84 111 66
85 111 66
85 112 66
83 109 64
97 119 87
130 147 134
158 172 169
166 179 180
119 136 122
90 113 80
81 107 63
86 111 70
130 147 133
149 164 161
148 162 157
136 153 142
167 182 184
211 224 238
224 237 254
224 237 254
224 237 254
224 237 254
224 237 254
224 237 254
224 237 254
224 237 254
224 237 254
224 237 254
224 237 254
224 237 254
224 237 254
224 237 254
224 237 254
224 237 254
224 237 254
224 237 254
224 237 254
224 237 254
224 237 254
224 237 254
224 237 254
224 237 254
224 237 254
224 237 254
224 237 254
207 218 232
183 196 204
138 154 148
116 135 117
85 110 65
106 126 102
120 139 121
98 119 89
79 104 61
82 108 64
82 107 63
108 127 107
146 160 157
160 174 174
178 189 194
183 195 202
185 198 207
173 187 192
182 193 197
169 181 183
137 154 150
123 140 123
94 119 84
80 106 62
81 106 62
143 159 150
169 180 183
176 189 194
187 199 210
179 192 197
182 194 199
186 197 204
161 174 172
137 152 142
98 121 90
84 110 65
83 109 64
85 111 66
90 116 69
84 109 64
84 110 65
87 113 67
78 103 60
83 108 66
104 126 97
114 134 111
133 149 135
146 162 155
168 181 181
178 191 198
165 177 179
161 174 176
156 169 169
160 173 172
157 171 170
183 194 199
175 187 192
162 175 179
164 177 178
186 197 204
187 199 206
198 209 221
178 190 198
178 189 191
178 190 196
180 191 196
182 193 199
178 191 197
182 193 199
95 119 80
101 124 95
133 149 136
141 157 150
175 187 192
181 193 200
182 194 200
178 190 194
184 196 203
171 184 186
182 193 202
177 188 195
181 193 198
174 186 189
181 191 198
178 190 195
174 187 192
162 175 176
186 198 207
175 188 191
178 190 195
180 191 196
183 195 201
133 150 138
86 112 67
85 112 66
83 109 65
84 110 65
81 106 63
83 109 65
87 113 67
92 115 79
132 148 134
144 159 150
155 169 165
180 191 195
183 194 200
182 194 200
181 192 196
176 188 195
184 196 203
182 194 201
180 192 198
179 191 195
178 189 194
178 190 197
176 188 193
92 116 82
85 112 67
89 115 69
85 111 66
85 112 66
85 111 66
85 111 66
91 117 69
79 105 62
86 112 67
81 107 63
89 116 69
84 110 64
86 112 66
84 110 65
89 116 69
87 113 67
88 114 68
84 109 64
86 112 67
86 112 67
85 111 66
87 113 68
89 115 70
185 196 201
178 189 196
178 190 195
181 192 200
190 201 210
175 186 190
169 182 183
155 170 164
149 164 158
128 146 131
108 129 103
108 128 100
90 116 73
85 110 65
86 112 67
87 113 67
85 111 66
85 111 65
86 111 67
89 116 69
82 107 63
84 110 65
84 110 65
90 113 76
184 195 202
175 189 195
185 196 201
187 199 206
172 185 187
174 186 191
186 197 203
188 200 207
184 195 200
188 199 207
180 193 199
177 189 194
183 195 202
186 197 204
192 202 210
176 188 191
176 188 191
176 187 191
187 198 203
189 200 207
185 196 200
177 190 194
179 192 200
139 156 145
86 112 66
88 114 67
87 114 67
86 111 66
82 107 63
88 114 68
83 109 64
85 110 66
86 112 66
84 110 65
87 113 66
88 114 68
85 111 66
86 112 66
85 111 65
85 111 66
84 111 66
87 113 67
80 105 62
85 112 66
83 108 64
89 116 70
130 147 136
180 191 197
189 200 206
190 201 209
178 191 198
179 191 199
176 187 193
182 193 200
187 199 207
185 196 201
175 188 195
182 194 200
186 197 203
173 186 192
182 194 199
185 196 202
185 197 204
176 189 195
183 195 203
177 189 193
173 184 187
180 193 198
173 186 188
87 110 73
85 111 66
88 114 67
84 110 65
85 110 66
89 115 69
86 112 66
84 110 65
87 114 68
82 108 64
84 110 65
87 113 67
88 115 69
82 107 63
85 111 66
87 113 67
84 110 65
83 109 65
85 111 66
86 112 67
91 117 73
161 174 172
180 191 194
181 192 199
182 194 198
174 186 189
180 192 196
180 192 197
184 194 200
174 187 193
184 196 203
186 198 205
182 195 201
173 186 192
180 192 198
181 193 199
185 198 204
190 202 210
186 197 205
178 190 199
186 197 206
135 151 139
85 112 67
83 110 65
87 113 67
86 113 67
88 114 68
80 105 62
86 113 68
80 105 61
87 113 67
85 111 66
86 113 67
80 106 62
88 115 68
85 112 67
87 114 68
82 108 64
86 112 67
82 107 67
138 155 143
182 193 199
184 195 202
186 198 204
182 194 199
179 191 198
183 195 201
177 189 193
178 190 195
171 184 187
174 186 190
181 193 198
177 189 195
173 186 190
185 196 203
178 190 197
170 183 189
165 178 180
104 125 99
103 126 93
105 125 97
123 142 124
119 139 117
124 143 128
146 162 157
156 169 167
140 156 148
131 148 136
115 134 113
121 139 121
112 130 110
105 126 98
102 125 94
112 133 110
173 184 188
171 184 190
177 189 196
179 191 196
181 193 201
176 189 195
175 187 191
179 191 197
178 190 195
171 185 189
185 197 206
186 197 204
185 196 203
147 162 156
100 123 91
120 139 122
135 152 143
163 176 178
175 188 193
179 190 196
183 193 198
179 191 197
170 182 186
181 193 199
184 195 200
132 149 137
83 108 64
83 108 64
91 116 77
128 146 131
131 148 135
162 176 178
170 183 188
177 189 194
153 167 162
92 115 81
94 118 79
125 142 127
155 171 170
164 177 181
149 164 158
156 171 171
205 218 231
224 236 254
224 237 254
224 237 254
224 237 254
224 237 254
224 237 254
224 237 254
224 237 254
224 237 254
224 237 254
224 237 254
224 237 254
224 237 254
224 237 254
224 237 254
224 237 254
224 237 254
224 237 254
224 237 254
224 237 254
224 237 254
224 237 254
224 237 254
224 237 254
224 237 254
224 237 254
224 237 254
224 237 254
224 237 254
224 237 254
224 237 254
224 237 254
223 236 253
198 210 224
171 184 188
145 158 153
109 128 104
148 163 158
161 174 175
138 153 145
86 108 75
82 108 64
80 106 62
79 104 60
111 130 109
137 153 144
160 174 173
174 186 191
181 192 197
176 188 193
176 190 197
177 189 196
169 183 189
154 167 165
130 147 137
144 160 154
173 185 189
173 185 189
174 186 189
181 192 198
182 195 199
183 195 201
175 186 191
172 184 186
177 188 193
173 185 189
140 156 147
121 139 122
83 107 66
84 110 65
81 106 63
84 110 65
79 104 61
82 108 63
82 108 64
85 110 65
139 156 145
174 187 193
172 184 188
177 191 199
173 186 191
171 184 187
150 165 163
144 160 151
103 123 99
85 111 67
86 113 68
86 111 69
91 116 75
94 118 83
104 127 97
101 123 93
108 127 105
126 144 130
136 152 139
128 146 131
141 156 146
147 161 155
153 167 161
121 140 123
115 137 110
120 139 117
113 133 110
107 128 100
109 128 103
132 148 137
165 179 180
177 190 194
173 185 190
180 192 198
178 191 198
180 192 198
171 184 188
178 191 198
189 200 209
174 187 191
174 186 190
186 196 202
181 193 197
194 204 212
178 190 196
181 193 199
106 128 98
81 107 62
83 108 63
86 112 66
85 111 66
83 108 64
83 109 65
89 115 69
85 111 66
83 109 64
82 107 63
86 112 66
88 113 70
101 122 95
125 142 125
143 158 150
156 169 165
176 188 191
189 200 206
171 183 188
178 190 195
184 196 203
180 191 195
169 182 183
82 107 63
87 112 67
83 109 64
85 111 66
89 115 69
90 116 69
84 109 65
88 114 68
88 114 67
86 113 67
83 108 63
82 108 64
90 117 70
90 116 69
87 114 68
83 109 64
85 111 66
84 110 65
82 108 64
82 108 64
83 109 64
84 110 64
84 110 65
122 141 122
189 201 211
179 191 197
189 200 208
184 195 200
180 192 198
174 186 191
188 199 207
176 189 195
188 198 208
190 200 206
174 186 191
174 187 191
177 190 194
167 180 181
150 165 160
161 175 173
141 157 148
124 142 122
112 133 107
97 120 86
88 115 69
85 111 66
86 112 67
147 163 153
178 190 197
173 185 189
174 186 190
177 190 196
184 196 204
170 183 188
186 199 206
186 197 204
183 195 201
189 201 209
182 193 200
192 203 210
181 193 200
189 200 207
183 195 202
193 204 212
177 189 193
182 194 200
178 191 196
181 192 200
188 199 206
179 190 196
177 190 194
97 121 85
90 117 70
84 110 65
86 112 67
85 111 65
87 112 67
83 109 64
87 113 67
84 110 65
89 116 69
86 113 67
82 107 63
89 116 70
84 110 65
85 111 66
83 109 64
83 109 64
88 114 67
83 109 65
88 114 68
83 109 64
83 109 65
99 122 92
184 196 202
190 201 208
192 203 209
178 190 197
184 196 204
186 197 203
192 202 211
178 189 194
181 193 198
177 189 195
180 192 196
183 194 198
177 189 194
179 191 198
191 201 207
186 198 206
188 200 209
180 192 198
175 188 194
181 192 198
176 188 195
183 194 201
100 122 93
82 108 64
85 111 66
84 109 65
83 110 66
83 109 64
82 107 63
85 111 66
87 114 68
85 111 66
84 110 66
86 111 66
83 108 64
86 112 67
85 112 66
89 116 69
88 114 68
85 110 66
81 106 63
85 111 66
88 114 70
145 160 153
179 191 196
174 187 191
189 200 207
178 190 195
183 194 201
187 198 204
182 194 198
178 190 195
177 189 193
176 188 193
172 184 188
175 188 190
189 200 207
175 187 193
178 190 196
173 186 190
172 185 189
186 197 204
178 191 197
154 169 168
85 111 66
84 110 65
86 112 66
82 107 62
85 111 66
83 109 64
83 109 64
81 107 63
88 115 69
88 115 69
87 113 67
81 107 63
85 111 66
85 111 65
82 108 62
84 110 65
87 114 68
82 108 64
164 178 177
178 190 194
173 186 191
178 190 194
159 174 174
167 180 180
167 179 180
149 164 157
153 167 163
149 164 158
155 170 168
146 162 154
139 155 149
135 151 139
151 165 162
153 166 165
164 176 177
134 150 140
102 125 93
89 115 74
82 107 63
85 111 66
85 111 66
87 113 67
86 113 67
84 110 64
87 113 67
85 111 66
84 110 65
82 108 64
87 114 68
86 112 67
93 118 75
151 165 165
179 191 197
178 190 197
189 199 206
179 191 198
178 190 195
177 189 195
184 195 203
175 187 192
173 186 192
177 189 193
171 184 187
171 184 187
154 167 165
152 166 164
172 183 186
180 192 197
175 187 191
180 192 197
179 191 199
175 187 192
177 189 194
174 187 194
172 185 189
166 178 183
148 162 156
103 124 98
90 113 80
135 152 142
155 169 168
177 189 195
181 193 201
175 186 193
173 186 193
150 164 159
117 136 116
138 154 145
158 171 170
177 189 196
182 194 200
190 203 212
199 212 224
223 235 253
224 237 254
224 237 254
224 237 254
224 237 254
224 237 254
224 237 254
224 237 254
224 237 254
224 237 254
224 237 254
224 237 254
224 237 254
224 237 254
224 237 254
224 237 254
224 237 254
224 237 254
224 237 254
224 237 254
224 237 254
224 237 254
224 237 254
224 237 254
224 237 254
224 237 254
224 237 254
224 237 254
224 237 254
224 237 254
224 237 254
224 237 254
224 237 254
224 237 254
224 237 254
224 237 254
224 237 254
224 237 254
219 232 248
202 215 227
183 196 204
147 160 156
166 179 181
171 183 186
156 171 169
126 143 131
90 112 83
82 108 63
87 113 67
82 107 62
98 120 92
146 161 154
158 172 171
172 184 187
173 186 193
169 182 185
178 190 195
175 188 193
152 166 165
111 130 107
135 151 141
150 164 163
179 191 198
180 192 199
173 184 186
174 185 190
169 182 186
167 179 182
174 186 190
175 187 193
171 183 187
167 180 182
145 160 154
136 152 138
93 115 81
85 111 66
84 110 65
83 108 65
87 113 68
129 147 137
166 179 181
182 194 202
176 188 192
182 195 201
169 181 187
175 187 191
172 185 191
165 178 182
173 184 186
144 159 155
126 143 127
88 112 75
81 107 63
85 111 66
79 104 61
83 108 63
79 104 61
81 107 63
76 101 58
81 107 64
76 101 59
109 129 104
180 193 202
177 189 194
177 189 195
174 186 191
171 184 190
174 186 192
174 187 194
176 187 191
170 182 187
174 187 192
164 177 177
148 162 153
137 153 142
127 145 127
119 139 119
123 142 124
125 143 127
127 145 131
145 160 151
139 156 145
150 165 160
147 162 158
152 166 162
129 145 131
115 135 115
120 140 122
102 124 93
98 122 85
97 121 82
96 119 86
87 112 70
80 106 62
84 111 66
86 111 65
89 116 69
87 113 67
83 108 64
92 119 72
80 105 62
82 108 64
83 109 65
104 125 99
115 135 111
140 156 146
165 178 179
172 185 185
140 157 144
89 115 69
83 109 64
89 116 69
82 108 63
87 114 68
84 110 65
82 108 64
82 108 64
82 108 64
84 109 66
79 105 62
88 114 68
86 112 66
84 110 65
88 114 68
86 112 67
81 107 63
88 114 69
79 105 62
84 109 64
85 112 66
84 110 65
82 108 64
163 176 177
181 192 200
183 194 202
178 190 195
177 188 193
179 191 195
182 193 197
171 183 187
181 193 198
177 189 195
179 190 196
184 196 202
185 196 203
181 193 199
188 199 207
188 199 207
186 197 203
181 193 198
188 198 206
186 197 204
178 190 193
176 189 193
166 179 180
157 172 168
135 153 137
152 166 159
146 162 154
167 180 178
172 184 188
172 184 189
183 195 202
176 188 194
175 187 193
179 191 197
184 196 203
182 194 200
195 205 213
184 196 203
187 198 204
181 193 198
174 186 189
185 197 203
178 190 195
172 186 191
181 193 200
179 190 197
189 199 207
123 143 127
89 115 69
86 111 65
85 111 66
87 113 67
88 114 68
86 112 66
83 109 64
83 109 64
86 112 67
84 109 65
83 110 66
83 109 64
90 117 70
83 108 64
87 114 68
84 110 65
83 109 64
85 111 67
86 111 65
86 112 67
81 107 64
92 115 78
161 175 175
174 188 195
184 196 204
179 190 193
187 198 204
188 199 205
188 199 207
182 193 199
181 193 199
186 198 207
182 194 198
174 185 187
175 187 190
177 189 196
183 194 200
181 192 199
182 194 201
179 191 198
177 188 193
181 193 201
188 200 208
184 195 202
112 133 112
85 112 66
84 110 66
82 108 63
85 110 65
84 110 65
86 113 68
81 108 64
85 111 66
84 110 64
79 105 61
87 114 69
89 115 69
83 109 64
88 114 67
81 106 62
86 112 66
82 107 64
84 109 65
87 113 68
88 115 68
145 160 151
187 197 204
190 201 207
182 195 203
174 187 193
181 193 198
181 193 200
183 195 200
182 193 201
177 189 194
178 191 197
177 189 194
184 195 202
174 186 190
185 196 201
178 190 194
182 195 201
184 195 201
186 198 207
161 174 175
145 160 153
110 130 105
116 135 113
117 138 115
112 131 109
120 138 117
133 151 137
128 146 132
121 139 122
141 157 146
137 153 144
147 162 154
156 170 164
147 163 159
154 168 165
152 166 164
150 164 162
174 185 186
164 177 176
110 130 109
90 113 78
84 110 65
85 111 65
82 107 62
87 110 73
98 120 89
118 138 113
134 150 137
143 158 150
131 148 139
160 174 174
177 189 192
177 189 194
183 194 201
178 190 192
177 189 194
135 152 140
89 114 71
80 106 63
81 107 64
86 112 66
83 109 65
84 110 66
82 108 64
84 110 64
84 110 66
84 110 65
83 109 65
86 111 66
83 109 64
82 107 63
104 126 96
161 175 176
182 193 199
190 201 209
180 192 197
175 187 191
161 174 177
174 186 190
164 177 179
164 178 176
131 148 136
127 143 133
96 117 88
81 107 63
118 137 119
186 197 202
167 180 182
177 189 194
171 183 187
182 193 199
182 194 199
170 182 185
181 194 201
170 184 189
173 184 187
175 188 193
145 161 154
159 174 172
163 176 179
179 191 194
179 191 196
170 181 187
173 186 191
174 186 193
159 172 170
143 158 154
169 182 187
174 186 188
166 180 183
176 189 195
204 216 229
222 234 251
224 237 254
224 237 254
224 237 254
224 237 254
224 237 254
224 237 254
224 237 254
224 237 254
224 237 254
224 237 254
224 237 254
224 237 254
224 237 254
224 237 254
224 237 254
224 237 254
224 237 254
224 237 254
224 237 254
224 237 254
224 237 254
224 237 254
224 237 254
224 237 254
224 237 254
224 237 254
224 237 254
224 237 254
224 237 254
224 237 254
224 237 254
224 237 254
224 237 254
224 237 254
224 237 254
224 237 254
224 237 254
224 237 254
224 237 254
224 237 254
224 237 254
224 237 254
224 237 254
218 231 247
195 209 218
140 156 149
139 155 147
151 166 166
159 172 173
164 177 179
133 149 141
104 124 98
80 105 62
82 107 62
78 103 61
107 128 101
136 151 142
159 172 170
171 183 187
176 188 192
168 182 185
79 104 62
78 103 61
81 106 63
101 122 97
139 155 147
150 164 160
173 186 190
176 187 194
175 187 193
181 192 198
188 199 205
170 181 186
175 188 192
166 179 181
176 187 193
185 197 204
164 177 176
153 167 163
113 132 113
80 105 62
132 148 136
187 197 203
194 205 213
175 187 192
171 184 187
173 185 189
181 194 202
180 192 195
181 192 196
175 186 190
193 203 211
175 187 191
183 195 203
165 178 181
142 158 148
132 148 134
96 119 85
83 109 64
88 115 69
82 108 64
83 109 65
84 110 64
114 132 113
178 190 194
180 192 198
175 188 194
175 187 192
176 189 193
183 194 200
169 181 184
183 195 201
179 190 197
168 181 184
180 192 198
181 193 200
181 193 200
171 185 189
163 176 174
136 152 142
123 141 125
94 117 82
85 111 66
79 104 62
85 111 65
85 111 67
126 144 124
188 199 205
176 188 193
185 196 201
178 190 197
188 199 207
180 191 197
173 185 189
185 197 206
174 186 192
174 187 191
182 195 201
164 177 179
164 177 175
166 179 180
169 182 183
161 175 176
151 166 161
163 176 176
154 168 164
159 172 169
146 162 154
143 157 148
138 154 145
131 148 134
102 123 98
101 124 93
96 118 85
110 129 110
131 149 136
117 136 116
128 144 128
126 144 127
113 133 112
114 133 116
111 132 104
118 137 113
109 130 103
101 121 96
107 128 102
103 124 96
97 119 87
99 121 86
90 115 77
97 121 83
90 115 74
88 113 70
108 130 101
184 196 205
182 194 200
183 195 201
178 190 197
181 193 199
169 183 185
180 193 200
188 199 207
178 190 197
180 192 199
177 190 196
169 181 182
179 192 198
178 190 195
179 191 198
168 180 184
183 195 203
177 190 197
172 185 189
188 198 205
194 204 211
184 196 202
171 184 189
120 139 123
86 111 66
82 107 63
81 107 63
83 108 64
82 108 64
82 108 65
102 124 95
106 127 100
123 142 127
132 149 138
144 160 152
147 162 156
150 165 163
171 184 184
154 169 168
182 193 199
175 188 194
181 192 197
182 193 198
175 188 193
185 197 204
181 193 199
165 179 179
86 113 68
88 115 68
80 106 62
82 107 63
84 110 65
87 114 69
88 114 68
88 114 68
79 105 62
85 112 66
84 110 65
83 109 64
87 113 67
84 109 65
87 114 68
88 115 69
83 109 64
86 113 68
82 107 63
89 115 69
87 113 68
83 108 64
145 160 150
183 195 204
178 190 195
177 189 195
166 180 183
175 186 189
185 196 202
189 201 210
185 197 205
184 196 204
183 195 202
180 192 198
185 196 202
170 183 188
182 194 200
173 185 188
177 190 194
184 195 200
186 197 203
189 200 208
186 197 201
184 195 200
141 156 146
87 114 67
84 109 68
87 112 72
88 113 73
94 117 84
101 124 95
98 119 89
99 121 93
112 133 108
119 137 120
116 136 113
114 133 115
114 136 111
125 144 126
122 139 120
118 136 120
122 141 120
130 148 131
136 153 142
129 146 130
116 135 114
137 152 141
144 159 150
139 155 146
123 141 125
122 140 127
138 154 143
126 144 131
112 131 113
118 136 121
105 127 100
129 147 129
118 136 120
93 117 80
97 118 89
104 127 97
95 117 84
88 112 77
86 113 68
86 112 66
136 153 143
183 194 200
177 189 196
178 190 196
179 192 198
176 189 194
182 193 200
183 196 205
172 184 187
175 188 193
181 193 199
179 190 197
181 192 198
179 191 198
181 192 199
179 191 196
175 186 189
164 178 180
163 176 177
143 157 151
137 153 141
154 168 166
159 172 173
160 174 174
160 173 174
182 193 199
170 183 188
175 188 196
175 187 191
173 186 192
179 191 197
166 179 185
175 187 194
177 188 194
177 189 193
163 176 178
116 134 117
88 115 69
83 109 64
88 114 68
85 111 66
85 111 66
86 112 66
82 107 64
83 108 64
82 107 63
84 110 65
81 106 62
84 109 65
87 114 69
80 105 62
124 142 130
172 184 187
179 190 196
174 186 192
166 179 181
147 163 159
131 149 141
130 145 133
108 126 103
84 110 65
79 104 61
79 104 61
87 113 68
115 136 113
154 167 166
173 185 188
173 185 192
176 187 191
166 179 183
179 191 199
181 193 198
172 184 189
168 181 182
138 155 146
142 157 150
136 150 145
178 190 197
176 188 196
178 190 197
184 195 201
173 185 191
156 169 169
147 161 158
155 170 171
161 174 175
152 166 164
145 160 154
169 182 186
186 200 208
222 235 252
224 237 254
224 237 254
224 237 254
224 237 254
224 237 254
224 237 254
224 237 254
224 237 254
224 237 254
224 237 254
224 237 254
224 237 254
224 237 254
224 237 254
224 237 254
224 237 254
224 237 254
224 237 254
224 237 254
224 237 254
224 237 254
224 237 254
224 237 254
224 237 254
224 237 254
224 237 254
224 237 254
224 237 254
224 237 254
224 237 254
224 237 254
224 237 254
224 237 254
224 237 254
224 237 254
224 237 254
224 237 254
224 237 254
224 237 254
224 237 254
224 237 254
224 237 254
224 237 254
224 237 254
224 237 254
224 237 254
224 237 254
224 237 254
224 237 254
218 231 247
184 198 206
142 158 151
129 145 136
143 158 152
166 179 183
172 184 187
138 153 146
97 119 89
82 108 64
85 111 65
81 107 63
87 110 76
126 144 130
146 161 157
94 116 82
81 107 63
80 105 61
79 103 60
83 108 64
79 104 60
101 123 90
122 140 120
136 151 143
181 194 199
171 183 186
180 191 195
181 192 198
171 184 189
175 188 192
169 182 187
170 183 188
176 188 194
171 184 186
174 185 191
141 156 149
147 161 156
166 179 181
170 182 187
179 190 194
181 193 200
171 184 188
173 185 188
172 185 190
174 186 191
169 181 186
176 188 193
178 190 195
170 182 184
181 193 201
173 186 190
172 185 192
167 181 182
149 163 157
114 134 115
92 116 77
85 111 66
146 162 157
175 188 194
180 191 197
178 190 196
177 189 192
181 193 200
177 189 194
163 177 180
180 191 196
189 200 208
180 191 197
168 182 187
184 196 202
174 186 192
171 183 184
175 187 193
173 185 190
174 186 189
177 189 193
160 174 175
152 167 162
125 143 127
102 124 93
140 156 146
180 191 197
184 195 202
170 183 189
180 191 198
177 189 194
180 192 199
195 205 211
159 173 174
186 197 205
179 191 196
173 186 192
189 199 206
173 186 189
185 196 205
171 184 188
183 194 201
169 182 188
172 185 186
179 191 199
173 186 192
185 196 204
168 181 186
163 177 177
85 111 66
84 110 65
85 111 66
84 110 65
81 106 62
84 108 67
103 127 93
128 143 129
147 162 156
151 166 161
169 182 184
186 196 203
174 186 192
187 199 208
180 190 196
185 197 203
175 188 193
178 189 195
188 199 206
176 189 196
178 189 194
179 192 198
182 193 200
129 147 133
85 110 68
82 107 66
94 117 82
87 111 73
104 126 95
107 128 100
111 132 104
97 118 87
110 131 104
102 124 97
101 124 91
119 139 116
105 126 97
112 131 110
119 139 118
110 130 109
119 138 113
112 130 112
126 143 126
114 134 112
123 141 124
124 143 125
156 170 165
160 173 172
148 163 156
166 179 178
157 170 168
145 159 154
145 159 154
162 176 177
142 157 149
138 154 143
155 170 167
148 164 159
140 157 149
148 163 154
157 172 167
133 150 140
141 158 148
148 163 154
146 162 155
170 183 187
170 183 184
184 196 202
171 184 190
170 183 186
118 137 118
116 135 116
127 143 131
136 153 143
147 163 155
145 160 153
143 160 151
152 165 164
148 164 155
138 154 146
141 156 148
146 161 155
155 168 163
159 173 172
147 161 157
161 175 170
158 172 170
162 175 173
150 164 159
144 159 151
157 171 167
156 170 167
134 152 140
118 138 118
136 152 141
114 133 117
122 140 124
127 145 126
111 132 108
117 136 115
112 133 109
119 139 120
112 132 108
111 130 109
110 130 105
98 120 90
95 118 84
105 127 97
110 131 104
90 113 78
90 113 80
88 113 71
91 116 74
89 113 75
132 151 135
172 184 189
175 187 192
171 184 187
181 192 199
184 196 203
184 195 203
180 191 194
182 194 201
176 189 193
183 195 201
181 192 198
179 190 194
179 192 198
184 195 200
185 196 201
186 198 207
174 187 191
169 182 185
171 183 186
180 191 196
148 164 156
84 110 65
83 108 64
89 115 70
85 111 66
84 110 65
82 107 64
85 111 66
84 110 65
83 108 64
81 108 64
85 110 65
87 113 67
88 114 68
82 108 64
84 110 65
86 112 67
80 105 61
82 108 64
84 110 65
143 158 152
181 192 197
185 196 203
183 194 201
178 190 197
170 183 185
174 186 190
162 176 176
158 172 169
151 165 164
153 167 163
130 146 135
136 153 142
117 136 113
124 143 121
93 116 84
94 118 81
81 107 64
103 125 94
172 185 189
167 180 185
171 184 189
175 188 193
182 194 200
179 190 196
181 194 201
182 193 199
174 186 190
187 198 204
182 194 200
165 178 181
178 190 197
184 195 205
171 184 190
182 193 199
166 179 179
100 123 90
85 111 65
83 108 64
85 111 66
84 110 65
81 107 62
85 110 66
80 106 62
82 108 63
83 108 65
86 112 67
81 106 63
86 112 67
81 107 63
98 120 88
130 147 136
158 172 174
143 159 149
115 133 117
96 117 90
87 112 66
87 113 67
87 113 67
79 104 61
87 114 68
79 105 62
86 112 67
88 113 72
144 159 153
174 187 192
183 195 204
170 182 186
179 191 199
167 180 185
162 176 176
145 161 155
120 138 119
86 111 71
90 113 78
145 160 153
165 178 182
177 189 195
171 185 193
163 176 180
145 159 155
134 151 140
118 136 119
157 170 169
172 184 188
137 154 146
169 183 187
191 205 213
222 235 252
224 237 254
224 237 254
224 237 254
224 237 254
224 237 254
224 237 254
224 237 254
224 237 254
224 237 254
224 237 254
224 237 254
224 237 254
224 237 254
224 237 254
224 237 254
224 237 254
224 237 254
224 237 254
224 237 254
224 237 254
224 237 254
224 237 254
224 237 254
224 237 254
224 237 254
224 237 254
224 237 254
224 237 254
224 237 254
224 237 254
224 237 254
224 237 254
224 237 254
224 237 254
224 237 254
224 237 254
224 237 254
224 237 254
224 237 254
224 237 254
224 237 254
224 237 254
224 237 254
224 237 254
224 237 254
224 237 254
224 237 254
224 237 254
224 237 254
224 237 254
224 237 254
224 237 254
224 237 254
224 237 254
224 237 254
220 233 249
196 209 219
138 155 147
134 150 144
151 165 163
169 182 184
166 179 182
134 149 144
112 132 110
83 109 65
79 104 61
77 102 59
138 154 147
149 164 159
131 148 133
92 116 81
82 107 63
81 107 63
77 102 59
75 101 59
85 111 66
81 107 64
104 123 100
134 151 141
156 170 168
166 178 181
173 186 191
164 176 176
178 189 194
182 194 201
172 185 189
164 176 179
135 152 146
76 101 58
86 112 70
109 130 104
135 152 140
143 157 152
159 173 175
174 187 194
180 192 200
171 183 186
176 188 194
172 184 187
171 184 187
173 186 189
167 180 186
182 193 200
181 193 200
181 194 202
176 188 193
170 182 188
175 187 192
161 174 173
146 160 155
144 160 153
176 187 190
186 197 202
164 178 180
174 186 190
183 194 199
176 188 193
159 174 176
179 192 201
175 188 194
173 186 190
170 182 186
179 190 194
180 192 197
171 183 187
179 191 196
178 190 194
164 177 181
175 188 193
181 193 200
173 186 191
170 183 189
109 128 104
112 132 109
139 156 151
154 169 164
164 177 177
173 185 189
186 197 205
185 197 205
177 189 194
176 189 195
165 177 180
173 184 188
183 195 200
178 189 194
175 187 193
173 185 189
175 187 193
183 194 203
179 191 197
178 192 199
173 186 191
183 194 199
172 185 188
133 149 141
83 108 64
84 110 65
82 108 63
81 106 63
83 109 65
85 112 66
83 108 63
82 108 63
82 108 64
85 111 66
86 112 66
86 111 72
105 127 96
126 144 125
141 155 148
154 168 167
170 182 185
161 174 177
184 195 202
179 191 199
176 188 190
167 181 184
164 176 177
87 112 69
83 109 65
83 109 65
82 107 63
86 112 67
81 106 63
87 113 68
84 110 65
83 108 65
87 113 68
80 105 61
83 108 64
86 112 68
85 110 66
80 106 63
81 107 63
83 108 63
77 102 59
88 114 68
84 110 64
80 105 62
87 114 67
88 115 68
152 167 163
182 194 201
174 186 190
178 190 194
181 192 196
178 190 198
186 198 206
174 186 190
174 186 191
181 193 201
176 188 194
182 194 201
179 191 197
179 191 197
178 190 196
187 198 206
185 195 201
173 186 191
185 196 202
173 185 189
180 192 199
171 186 191
181 192 199
123 141 126
83 108 64
85 111 66
82 107 63
86 112 66
81 106 62
85 110 71
95 119 81
115 134 112
115 135 112
120 138 120
128 146 130
129 147 133
122 140 127
137 155 150
152 167 160
147 163 159
147 161 156
148 162 155
162 175 178
171 183 184
170 182 182
157 172 171
96 119 85
85 111 66
81 107 63
83 109 64
82 108 64
82 108 64
86 113 66
85 111 66
84 109 64
86 112 67
83 109 65
87 113 67
78 104 61
85 111 65
87 113 68
80 105 61
85 111 66
88 115 69
86 112 66
86 112 67
80 106 63
112 132 112
176 188 191
167 179 183
174 187 190
186 198 206
179 191 198
179 190 196
177 188 194
180 191 198
171 184 189
175 188 194
169 181 184
180 192 199
184 196 202
177 189 194
172 185 190
181 192 199
168 181 185
181 192 198
173 187 193
180 191 197
151 166 162
86 112 67
83 109 64
88 114 68
83 109 65
81 107 63
85 110 65
84 110 65
82 107 63
88 113 73
93 116 80
89 114 73
99 120 94
105 125 98
109 130 103
123 142 124
128 145 131
134 151 142
132 148 138
149 164 162
114 134 110
130 148 135
132 150 135
110 130 105
104 125 99
88 112 72
81 107 63
79 103 60
83 109 65
83 110 65
85 111 66
82 109 65
86 113 68
79 104 61
84 110 66
77 103 60
81 106 63
84 110 65
118 136 118
168 181 184
179 192 199
180 192 199
177 190 198
172 185 190
183 194 199
172 185 189
164 178 182
177 189 193
179 191 196
168 180 182
177 189 192
175 187 192
173 185 190
175 186 190
167 179 185
149 164 161
82 107 66
82 107 64
84 110 65
87 113 68
84 110 65
82 107 63
83 109 65
84 109 65
83 109 64
87 113 68
95 118 85
113 132 112
139 154 148
142 158 152
139 155 144
91 116 75
82 107 63
81 106 62
82 107 64
85 111 66
87 113 67
77 102 60
80 106 62
82 107 63
81 107 64
82 108 64
79 104 61
128 145 132
171 184 188
170 183 188
173 186 190
153 166 161
128 145 132
114 134 110
86 110 71
83 109 65
83 109 65
88 112 74
130 147 137
171 183 188
180 192 198
149 162 161
137 153 146
111 131 108
82 107 64
118 137 121
133 148 141
140 155 147
151 167 166
187 200 209
213 226 241
224 237 254
224 237 254
224 237 254
224 237 254
224 237 254
224 237 254
224 237 254
224 237 254
224 237 254
224 237 254
224 237 254
224 237 254
224 237 254
224 237 254
224 237 254
224 237 254
224 237 254
224 237 254
224 237 254
224 237 254
224 237 254
224 237 254
224 237 254
224 237 254
224 237 254
224 237 254
224 237 254
224 237 254
224 237 254
224 237 254
224 237 254
224 237 254
224 237 254
224 237 254
224 237 254
224 237 254
224 237 254
224 237 254
224 237 254
224 237 254
224 237 254
224 237 254
224 237 254
224 237 254
224 237 254
224 237 254
224 237 254
224 237 254
224 237 254
224 237 254
224 237 254
224 237 254
224 237 254
224 237 254
224 237 254
224 237 254
224 237 254
224 237 254
224 237 254
224 237 254
224 237 254
222 235 252
202 215 227
149 165 161
123 141 126
145 159 154
159 172 171
159 172 175
130 145 136
102 122 102
139 153 147
180 192 200
159 173 176
172 184 189
155 170 170
131 147 137
117 134 118
78 103 61
79 104 61
78 103 60
84 109 65
81 107 62
82 108 64
93 115 83
117 136 118
143 158 152
173 185 189
169 180 184
172 185 192
165 178 180
128 145 132
82 106 63
80 105 62
78 103 60
82 107 63
79 104 61
82 107 66
108 128 106
122 140 125
157 171 171
170 183 185
175 187 191
172 184 189
178 189 192
179 190 194
170 182 184
175 188 194
173 184 188
166 179 182
169 179 184
181 193 197
161 175 177
102 124 95
82 107 63
76 101 59
108 130 98
123 140 127
153 167 167
170 183 187
174 187 194
168 181 186
175 188 193
173 185 190
168 181 188
168 180 183
169 181 184
185 195 202
177 190 196
177 189 195
171 184 186
177 188 194
183 194 200
181 192 199
169 181 185
171 183 185
84 110 66
83 109 65
81 107 63
85 111 66
83 108 64
108 129 105
127 144 129
129 147 134
154 168 166
173 185 187
172 184 189
170 183 187
177 189 194
184 196 203
185 197 204
176 189 194
166 179 182
184 195 203
174 187 192
183 195 202
180 192 197
181 193 202
168 182 187
94 116 84
83 109 65
81 106 62
80 106 62
87 113 68
81 106 63
83 109 65
88 115 69
85 111 66
80 105 61
85 111 66
85 110 66
81 107 63
87 113 68
79 105 62
86 112 66
82 108 64
82 108 63
84 110 68
109 129 106
124 142 121
136 152 139
149 163 159
142 158 152
98 118 87
83 108 66
88 114 68
86 111 66
85 112 67
80 105 62
87 113 68
81 107 63
87 114 69
85 111 65
83 109 64
84 110 66
85 111 66
76 101 59
85 111 66
83 109 65
84 110 66
82 107 63
80 104 61
84 110 66
80 106 63
80 105 63
110 130 108
176 188 192
162 175 179
180 192 197
173 184 187
180 192 198
189 200 206
180 192 198
175 187 194
176 189 194
181 192 197
177 188 193
178 190 195
188 199 206
174 186 190
180 193 199
176 189 195
180 191 197
181 192 199
177 189 195
165 178 180
173 186 191
174 186 191
157 171 168
84 109 65
89 115 70
84 110 66
87 113 68
83 108 63
85 111 66
82 107 64
85 111 66
86 112 67
85 111 67
87 113 67
82 108 64
88 115 69
85 110 65
83 109 65
84 110 65
84 110 65
86 111 66
84 109 65
81 106 62
83 109 64
86 110 70
155 169 169
176 188 193
176 187 191
172 184 186
150 164 164
158 173 170
163 176 177
145 160 152
158 173 168
155 168 167
160 174 172
151 164 160
144 159 157
146 161 154
150 164 159
128 145 131
139 154 147
140 155 148
137 154 146
141 157 148
142 156 149
127 145 128
136 152 142
148 162 156
146 162 156
149 164 160
140 157 150
143 159 151
136 152 143
148 163 158
144 159 152
138 154 143
159 172 169
126 144 129
144 160 153
141 156 147
144 160 154
126 143 130
130 147 134
144 159 151
138 153 142
121 139 121
150 166 159
166 180 180
161 175 177
168 180 181
157 170 172
167 180 180
172 184 190
172 185 187
172 183 188
184 195 200
180 192 199
170 183 187
178 190 196
173 184 190
178 190 196
173 185 191
176 189 194
183 194 200
178 190 195
167 179 182
125 143 127
82 107 63
88 114 69
81 107 63
78 103 60
84 110 65
80 105 62
84 109 65
84 110 65
83 109 64
86 113 67
85 111 66
84 110 65
83 109 65
79 103 61
81 107 62
88 114 69
82 107 63
126 143 130
184 196 202
186 197 206
178 190 197
182 193 198
176 187 192
185 197 203
171 183 187
176 188 193
174 185 187
188 199 206
178 190 197
175 188 193
174 185 188
185 196 204
174 186 192
162 176 178
129 146 130
82 108 64
82 107 63
77 101 59
83 109 65
87 112 72
105 128 95
108 128 106
131 149 138
147 161 157
159 172 172
172 184 187
178 190 197
182 193 200
167 180 185
110 131 106
79 105 62
83 109 65
85 111 66
79 105 61
76 100 59
81 107 63
75 99 58
82 108 63
81 107 63
86 112 67
83 110 65
96 117 89
146 160 152
143 158 154
128 145 131
104 125 99
85 110 68
83 109 64
80 105 62
81 106 63
81 107 63
93 116 82
131 147 139
157 170 167
137 153 145
117 136 118
79 103 63
80 105 62
80 105 65
90 113 75
114 133 114
152 168 162
185 199 206
220 232 249
224 237 254
224 237 254
224 237 254
224 237 254
224 237 254
224 237 254
224 237 254
224 237 254
224 237 254
224 237 254
224 237 254
224 237 254
224 237 254
224 237 254
224 237 254
224 237 254
224 237 254
224 237 254
224 237 254
224 237 254
224 237 254
224 237 254
224 237 254
224 237 254
224 237 254
224 237 254
224 237 254
224 237 254
224 237 254
224 237 254
224 237 254
224 237 254
224 237 254
224 237 254
224 237 254
224 237 254
224 237 254
224 237 254
224 237 254
224 237 254
224 237 254
224 237 254
224 237 254
224 237 254
224 237 254
224 237 254
224 237 254
224 237 254
224 237 254
224 237 254
225 237 254
225 237 254
225 237 254
225 237 254
225 237 254
225 237 254
225 237 254
225 237 254
225 237 254
225 237 254
225 237 254
225 237 254
225 237 254
225 237 254
225 237 254
225 237 254
225 237 254
224 236 253
208 221 234
156 172 169
134 149 142
136 153 144
162 174 178
144 159 156
104 124 98
143 158 151
159 173 174
176 187 193
171 184 189
173 186 191
165 177 182
141 156 151
113 132 116
90 113 78
79 103 60
77 102 60
78 103 61
80 105 62
80 105 62
79 104 61
110 130 105
132 149 138
152 167 165
123 140 124
85 111 66
86 113 67
78 102 60
80 106 62
77 102 60
79 105 62
81 107 63
77 102 60
80 106 62
91 114 81
117 136 121
132 148 137
156 170 168
167 180 184
176 188 192
181 193 198
172 184 188
180 191 196
176 187 193
170 183 188
168 182 188
85 111 66
78 102 60
79 104 60
82 107 64
78 103 61
80 105 63
79 104 61
108 129 102
121 138 125
150 164 162
160 173 174
179 191 195
172 185 190
184 196 203
181 192 201
179 190 196
158 173 175
177 189 194
166 179 180
175 187 193
177 190 196
177 188 193
140 157 148
86 113 68
79 104 61
83 109 65
81 106 62
81 106 62
82 107 63
82 107 63
83 108 64
84 110 66
82 108 64
105 127 98
122 142 122
151 166 164
166 180 181
168 181 182
170 183 187
179 190 195
172 184 189
172 185 189
170 182 185
178 190 196
175 188 194
150 165 158
87 113 67
86 112 67
81 106 63
86 113 68
84 109 65
83 108 64
85 111 66
82 107 64
82 108 64
83 109 64
80 106 62
81 107 63
85 111 66
83 107 63
83 108 65
85 111 66
86 112 66
78 103 60
87 114 67
83 109 65
88 114 68
83 109 64
103 124 98
184 195 201
185 196 204
167 179 182
157 170 169
155 169 165
141 157 149
132 148 136
94 116 84
102 125 93
84 108 66
78 104 60
84 109 65
81 107 63
83 108 64
82 107 63
85 111 67
82 107 63
87 113 66
86 112 67
84 110 65
80 105 62
84 110 66
78 103 64
172 184 187
178 189 197
170 182 186
172 184 189
179 192 198
179 191 197
166 179 181
176 188 195
176 188 193
177 190 195
185 196 203
175 189 196
180 192 198
176 188 193
182 195 201
181 193 199
195 205 214
177 190 195
180 191 196
171 184 187
181 192 199
180 191 197
164 177 176
103 123 95
79 104 60
80 106 63
86 111 66
85 112 67
86 112 67
84 111 66
80 105 62
82 108 65
77 102 60
84 110 66
84 110 65
86 112 67
77 102 60
82 107 64
85 112 66
82 107 63
86 113 67
78 103 60
84 110 66
82 108 63
81 107 63
146 161 156
179 190 198
174 186 192
180 192 198
177 190 197
179 191 197
179 191 199
177 188 193
180 191 198
171 184 190
182 194 203
176 187 193
178 189 195
180 192 199
187 199 206
173 185 187
169 183 187
178 190 197
182 194 198
169 183 188
188 198 205
168 181 183
102 124 93
80 105 62
85 111 66
80 105 61
84 110 64
79 104 62
81 106 62
84 110 66
82 108 64
79 106 63
86 111 66
82 107 63
79 104 61
85 111 66
84 110 66
81 106 63
83 109 64
79 104 61
80 106 62
86 112 67
126 143 127
172 184 188
173 185 189
172 184 187
166 179 182
179 192 199
187 197 204
182 194 202
179 191 196
174 187 191
174 186 189
173 185 187
184 195 203
185 196 202
183 193 198
177 189 196
174 186 190
168 181 186
178 190 195
169 182 186
107 126 101
81 106 62
83 109 65
85 110 66
84 111 66
81 107 63
84 110 65
84 110 66
80 105 62
83 109 65
79 104 62
80 105 61
81 106 63
81 106 63
85 111 66
80 104 61
86 111 66
90 115 74
147 161 155
173 185 187
171 183 185
174 187 191
179 192 198
166 179 182
169 182 187
170 180 185
170 184 188
183 194 198
174 186 192
180 192 199
170 183 189
169 182 188
183 194 200
183 195 204
158 172 171
103 124 99
115 134 113
126 144 130
139 156 147
165 178 179
168 181 186
176 188 195
182 193 200
173 185 189
168 182 186
176 188 195
169 181 184
172 185 190
169 181 184
156 170 169
87 110 73
81 106 62
80 105 61
83 109 65
76 100 58
77 102 59
78 104 61
78 103 61
76 101 59
102 123 94
114 132 116
136 153 143
104 124 100
79 105 62
81 106 63
74 99 58
83 109 65
79 104 61
81 106 63
79 104 62
76 100 58
91 114 78
92 115 81
108 126 107
88 111 76
78 103 62
81 107 63
104 125 102
117 135 116
121 138 124
168 182 184
195 208 218
223 236 253
225 237 254
225 237 254
225 237 254
225 237 254
225 237 254
225 237 254
225 237 254
225 237 254
225 237 254
225 237 254
225 237 254
225 237 254
225 237 254
225 237 254
225 237 254
225 237 254
225 237 254
225 237 254
224 237 254
224 237 254
224 237 254
224 237 254
224 237 254
224 237 254
224 237 254
224 237 254
224 237 254
224 237 254
224 237 254
224 237 254
224 237 254
224 237 254
224 237 254
224 237 254
224 237 254
225 237 254
225 237 254
225 237 254
225 237 254
225 237 254
225 237 254
225 237 254
225 237 254
225 237 254
225 237 254
225 237 254
225 237 254
225 237 254
225 237 254
225 237 254
225 237 254
225 237 254
225 237 254
225 237 254
225 237 254
225 237 254
225 237 254
225 237 254
225 237 254
225 237 254
225 237 254
225 237 254
225 237 254
225 237 254
225 237 254
225 237 254
225 237 254
225 237 254
225 237 254
225 237 254
225 237 254
225 237 254
225 237 254
225 237 254
208 221 235
192 206 215
155 171 168
113 130 114
102 122 96
78 103 60
103 124 100
131 146 141
152 166 168
163 176 178
164 175 179
152 166 167
169 182 187
147 162 158
133 148 141
92 112 86
80 106 62
83 108 64
79 105 62
74 99 57
78 102 60
81 106 63
144 158 155
144 158 152
129 145 131
86 107 77
78 104 61
78 102 60
81 106 62
83 110 65
78 103 60
83 108 65
81 106 63
81 107 63
79 104 61
83 108 64
90 113 78
118 137 117
133 150 140
159 172 172
181 193 200
168 181 185
170 183 186
163 177 177
80 105 62
82 108 65
76 100 58
82 107 64
81 107 62
85 111 66
86 112 67
83 108 64
85 111 66
83 108 64
81 107 63
89 113 74
114 131 116
126 142 130
152 166 165
173 185 189
183 195 202
179 191 197
177 190 197
175 188 193
177 189 195
179 190 195
113 132 110
77 103 61
80 105 61
82 108 64
81 107 63
82 108 64
82 108 64
81 106 62
81 106 62
82 108 64
82 108 64
78 103 61
84 110 65
79 104 61
79 104 61
84 109 65
96 118 87
113 130 114
138 154 141
154 168 164
168 181 182
180 192 198
178 190 194
126 144 127
80 105 62
83 109 64
82 108 63
82 107 63
79 105 62
82 107 63
84 109 65
85 110 65
78 102 59
82 107 63
83 108 64
78 103 60
82 108 64
80 105 62
81 107 64
82 108 64
85 111 66
80 106 62
85 111 65
80 105 61
79 105 62
80 105 63
145 160 154
172 184 189
180 191 197
174 186 191
177 188 194
168 181 184
177 189 194
181 193 199
167 179 184
176 188 194
173 185 190
160 172 171
157 171 172
142 157 150
146 161 152
118 136 117
100 124 91
98 121 86
78 103 60
84 110 65
84 110 65
86 113 67
84 110 65
136 152 143
166 179 182
185 195 204
181 193 200
168 180 181
177 189 197
188 199 206
178 190 197
179 191 194
181 192 198
178 190 195
164 177 180
180 192 198
182 194 201
177 189 194
170 182 188
176 187 189
178 189 195
170 183 189
174 187 192
168 180 186
181 193 199
179 191 196
121 140 120
84 109 65
85 112 66
82 108 63
83 108 64
87 113 68
83 108 64
87 114 68
85 111 66
86 113 68
85 111 66
79 105 62
86 112 66
83 108 64
88 115 69
84 110 66
80 105 61
83 109 65
82 108 64
84 110 65
79 104 61
84 110 65
117 135 117
180 191 196
177 189 195
180 192 198
174 187 191
186 197 203
185 196 205
174 187 192
182 194 202
172 184 186
174 186 190
183 194 201
180 191 196
174 186 191
179 191 199
181 192 196
180 192 198
172 185 190
166 178 182
169 181 183
174 186 190
165 178 182
101 123 96
79 104 60
77 101 59
84 110 65
86 111 66
85 111 65
81 107 64
85 110 65
81 107 63
85 111 65
81 106 63
85 112 67
85 111 66
79 104 62
82 107 63
82 107 64
75 99 57
78 103 60
81 106 62
81 106 62
107 127 105
183 196 205
177 189 195
171 183 185
183 194 201
170 183 188
177 188 195
178 189 194
175 186 191
166 179 186
171 184 188
172 184 188
168 181 184
172 185 190
175 188 194
174 186 190
168 180 184
181 192 198
178 189 194
170 183 188
109 129 105
82 108 64
84 110 65
87 113 67
81 106 63
80 105 61
79 103 60
74 98 57
83 109 65
82 108 64
84 110 65
85 111 66
80 105 62
85 111 66
80 105 61
81 107 63
85 111 66
82 107 66
165 178 179
171 184 189
171 183 186
174 188 194
171 183 190
179 191 197
165 178 181
168 181 184
172 183 185
173 184 190
168 181 185
172 184 189
147 161 156
153 168 163
132 148 136
114 131 116
145 161 155
176 188 193
178 189 194
175 188 193
165 178 179
181 194 202
179 190 197
175 187 191
171 184 188
173 185 189
171 185 190
178 190 194
175 187 192
172 184 186
168 180 180
121 140 121
80 105 61
83 108 65
80 106 63
80 106 63
78 103 61
100 120 94
115 133 115
134 150 144
149 163 158
154 166 169
179 191 196
131 147 137
90 113 82
78 103 60
80 106 63
77 102 61
77 102 60
86 110 68
100 120 94
111 129 111
130 145 139
114 131 116
90 113 78
75 99 58
88 111 77
129 145 134
131 146 135
170 183 189
194 208 217
212 225 239
225 237 254
225 237 254
225 237 254
225 237 254
225 237 254
225 237 254
225 237 254
225 237 254
225 237 254
225 237 254
225 237 254
225 237 254
225 237 254
225 237 254
225 237 254
225 237 254
225 237 254
225 237 254
225 237 254
225 237 254
225 237 254
225 237 254
225 237 254
225 237 254
225 237 254
225 237 254
225 237 254
225 237 254
225 237 254
225 237 254
225 237 254
225 237 254
225 237 254
225 237 254
225 237 254
225 237 254
225 237 254
225 237 254
225 237 254
225 237 254
225 237 254
225 237 254
225 237 254
225 237 254
225 237 254
225 237 254
225 237 254
225 237 254
225 237 254
225 237 254
225 237 254
225 237 254
225 237 254
225 237 254
225 237 254
225 237 254
225 237 254
225 237 254
225 237 254
225 237 254
225 237 254
225 237 254
225 237 254
225 237 254
225 237 254
225 237 254
225 237 254
225 237 254
225 237 254
225 237 254
225 237 254
225 237 254
225 237 254
225 237 254
225 237 254
225 237 254
225 237 254
225 237 254
225 237 254
225 237 254
225 237 254
219 232 248
187 200 210
149 164 163
98 119 96
78 101 67
92 114 87
92 113 81
112 130 116
144 158 153
165 178 181
172 185 189
170 182 188
161 173 178
161 174 174
145 160 155
106 124 105
92 115 81
76 100 59
79 104 61
134 150 145
164 176 176
172 184 191
172 184 187
161 173 175
141 156 150
124 140 127
98 118 94
77 101 59
78 103 60
80 104 61
81 106 61
82 107 64
83 108 64
82 107 64
78 103 61
79 104 61
77 101 59
91 114 81
111 130 112
133 150 140
131 147 138
85 110 69
81 107 63
83 109 65
79 105 62
82 108 64
79 104 61
82 107 63
80 105 62
77 101 59
79 104 61
79 104 61
81 106 63
79 104 62
82 107 63
79 104 61
80 105 62
101 121 95
132 148 138
147 161 159
174 186 189
169 182 185
169 182 185
79 104 64
77 101 59
79 104 61
83 109 65
84 110 66
78 103 61
79 104 61
82 108 64
83 109 65
78 102 59
83 108 64
85 112 66
80 105 62
81 106 62
80 105 62
81 107 64
85 111 67
79 104 61
79 104 61
82 108 64
78 104 61
93 115 82
118 134 121
146 162 159
132 150 139
106 126 104
85 110 68
82 108 65
80 105 62
78 104 61
78 103 60
83 108 64
82 108 64
80 105 61
84 110 65
78 103 61
82 107 63
77 102 60
84 110 66
77 103 60
77 103 60
79 105 62
83 108 64
83 108 64
84 110 66
97 118 89
175 187 193
173 186 192
169 181 188
180 191 199
173 185 191
170 182 188
181 192 197
181 193 199
170 183 187
174 185 190
174 187 193
172 185 187
174 187 194
182 194 199
168 180 182
173 185 190
180 191 199
179 191 198
178 190 195
173 185 187
159 174 174
143 159 151
123 139 125
152 167 162
167 180 180
168 181 184
172 185 188
178 190 198
173 185 189
174 187 190
177 189 195
169 181 184
179 192 199
176 188 193
175 187 190
171 183 186
179 191 199
180 191 197
170 183 183
170 182 187
171 184 187
178 190 195
172 185 191
164 177 178
171 183 187
134 150 139
85 111 66
84 110 65
77 102 59
86 113 67
80 106 63
79 104 62
83 108 64
84 110 65
84 111 66
85 111 66
85 111 66
83 109 65
84 110 66
79 105 62
83 109 65
78 103 60
81 106 63
83 109 65
79 104 61
82 107 63
77 102 60
100 120 95
179 191 196
171 184 190
169 182 185
172 184 188
178 190 196
181 192 198
164 176 178
176 187 194
174 187 191
171 183 187
176 189 193
186 197 203
166 178 181
175 187 190
184 195 201
175 187 192
177 189 195
179 191 198
180 193 200
172 184 188
174 187 189
119 138 117
81 107 63
84 110 65
85 111 66
85 110 65
84 110 66
85 111 67
84 109 64
82 107 63
81 106 62
87 113 67
84 109 65
79 104 61
79 104 62
84 109 65
80 105 61
83 110 66
80 106 63
83 109 64
76 101 59
121 139 124
175 187 190
176 188 192
170 183 187
170 182 187
177 190 197
167 179 182
167 179 183
167 180 184
182 193 199
178 189 195
168 180 183
188 200 209
177 189 193
181 194 200
167 180 184
173 185 190
167 179 181
181 193 198
165 178 180
92 114 85
83 109 64
83 110 65
82 107 64
75 100 58
79 104 61
81 106 62
82 108 64
78 103 61
81 107 63
84 110 65
80 105 62
76 101 59
82 108 64
86 112 67
79 104 61
76 100 58
109 128 106
173 185 190
180 192 198
159 173 174
177 189 190
161 174 174
161 174 173
125 141 129
134 151 141
108 126 106
108 127 102
102 125 97
83 108 67
85 110 65
81 107 64
77 102 60
95 118 84
157 171 173
176 188 193
171 184 189
176 188 193
166 179 181
166 179 184
165 179 186
181 193 197
173 185 191
165 179 183
176 187 193
170 182 187
171 182 187
171 183 188
136 151 144
86 111 71
80 105 65
100 122 91
125 142 130
145 160 153
147 160 157
160 173 177
168 182 187
165 178 182
163 176 181
163 176 178
142 157 154
86 108 75
77 102 60
77 102 60
78 101 65
95 118 82
134 150 141
140 156 147
149 162 163
157 171 171
124 142 124
83 107 68
101 122 97
95 116 89
115 133 118
169 183 184
199 212 222
213 226 241
225 237 254
225 237 254
225 237 254
225 237 254
225 237 254
225 237 254
225 237 254
225 237 254
225 237 254
225 237 254
225 237 254
225 237 254
225 237 254
225 237 254
225 237 254
225 237 254
225 237 254
225 237 254
225 237 254
225 237 254
225 237 254
225 237 254
225 237 254
225 237 254
225 237 254
225 237 254
225 237 254
225 237 254
225 237 254
225 237 254
225 237 254
225 237 254
225 237 254
225 237 254
225 237 254
225 237 254
225 237 254
225 237 254
225 237 254
225 237 254
225 237 254
225 237 254
225 237 254
225 237 254
225 237 254
225 237 254
225 237 254
225 237 254
225 237 254
225 237 254
225 237 254
225 237 254
225 237 254
225 237 254
225 237 254
225 237 254
225 237 254
225 237 254
225 237 254
225 237 254
225 237 254
225 237 254
225 237 254
225 237 254
225 237 254
225 237 254
225 237 254
225 237 254
225 237 254
225 237 254
225 237 254
225 237 254
225 237 254
225 237 254
225 237 254
225 237 254
225 237 254
225 237 254
225 237 254
225 237 254
225 237 254
225 237 254
225 237 254
225 237 254
225 237 254
225 237 254
225 237 254
224 236 253
200 213 224
162 177 176
140 157 150
108 124 109
120 137 122
126 142 130
120 138 125
143 157 153
142 156 151
170 182 187
167 180 186
172 184 189
158 171 171
158 170 169
125 140 134
147 160 158
169 181 186
174 187 192
160 173 178
176 187 191
168 180 183
157 171 173
165 179 183
157 169 171
136 152 143
124 142 127
91 114 80
82 108 64
80 106 63
79 104 61
82 108 63
78 103 62
83 108 65
82 107 64
80 105 62
80 106 63
131 146 136
167 179 185
145 160 157
124 142 125
103 123 100
85 108 75
78 103 60
76 100 58
81 106 62
80 105 62
77 103 60
76 101 58
80 104 62
82 108 63
81 107 63
76 101 60
80 105 62
82 107 63
84 110 65
79 104 61
79 104 61
84 108 72
130 146 132
120 138 123
110 129 113
86 110 73
84 110 65
85 111 66
76 100 58
79 105 62
76 101 58
81 106 63
84 109 65
82 107 63
85 111 66
83 108 64
83 109 64
79 105 62
88 114 68
79 104 61
82 107 64
82 108 64
84 109 65
82 108 64
83 108 64
143 159 154
175 188 194
177 190 196
174 187 191
173 185 190
168 181 184
156 170 170
133 148 142
132 150 142
111 130 108
90 114 75
81 106 62
84 110 65
81 107 63
85 111 66
78 104 60
85 111 66
83 109 64
78 104 61
83 110 65
79 104 61
76 101 59
85 111 65
150 163 160
174 187 190
169 182 187
183 194 200
171 183 188
178 190 196
178 190 194
173 185 190
182 194 201
174 185 191
180 191 196
177 189 195
161 176 179
176 189 194
173 184 188
170 182 185
167 179 182
175 187 191
173 184 188
183 194 202
156 169 171
187 198 204
172 185 188
119 138 121
83 108 64
83 109 65
86 112 66
77 102 59
86 110 73
105 127 96
116 135 115
122 137 126
120 140 121
157 171 165
156 171 165
150 163 159
174 186 189
176 188 194
167 180 182
170 182 187
169 181 187
164 176 177
174 186 191
178 190 196
175 188 193
166 179 182
95 118 85
82 108 64
85 111 66
81 107 64
80 105 62
76 101 59
90 117 70
79 104 61
82 108 64
82 108 64
77 102 61
83 108 64
80 105 62
82 108 64
83 109 64
85 111 66
81 106 62
85 111 66
89 116 70
81 106 63
76 100 59
92 116 77
173 185 190
181 192 198
179 190 196
166 178 182
173 186 193
171 183 188
182 194 201
180 191 198
177 188 192
167 179 183
167 179 182
177 189 196
178 190 197
176 188 194
180 192 197
183 194 200
179 191 197
171 184 189
173 185 191
188 199 209
168 181 185
122 140 123
81 107 63
85 110 65
85 111 65
81 106 62
84 111 66
78 103 61
81 107 63
87 113 67
77 102 60
76 100 58
81 106 63
83 109 64
80 105 62
79 104 61
79 105 62
81 107 63
86 112 66
82 107 64
87 113 68
126 143 130
163 175 178
177 190 196
175 187 193
176 188 192
177 188 193
175 186 191
162 176 179
167 179 184
177 188 192
173 185 190
163 176 179
172 185 191
175 188 193
180 192 199
167 179 184
169 182 184
169 182 187
177 189 194
155 169 169
100 122 93
82 107 63
84 110 66
84 110 65
82 108 64
80 105 61
85 111 66
77 102 61
80 105 62
79 104 61
82 107 63
84 109 64
80 103 66
103 124 98
107 127 101
130 148 132
132 148 137
108 127 107
107 124 105
108 127 105
102 122 95
86 110 71
80 105 62
83 108 65
83 108 64
82 107 63
80 105 62
79 104 60
78 104 61
78 102 60
79 104 61
78 103 60
84 109 64
134 150 140
160 173 176
177 189 195
171 184 189
169 182 185
181 193 199
179 192 198
183 193 198
173 186 192
182 194 201
172 184 187
177 189 197
174 185 191
159 172 174
157 171 171
154 168 166
145 160 156
143 158 155
175 187 193
160 174 178
176 189 195
167 179 183
165 178 183
170 182 187
164 176 179
157 171 177
143 158 155
97 116 95
93 115 83
120 138 122
142 157 154
150 164 161
159 172 175
157 169 174
157 170 173
167 180 185
120 137 124
98 118 95
86 108 75
125 142 129
158 173 172
191 204 213
223 236 253
225 237 254
225 237 254
225 237 254
225 237 254
225 237 254
225 237 254
225 237 254
225 237 254
225 237 254
225 237 254
225 237 254
225 237 254
225 237 254
225 237 254
225 237 254
225 237 254
225 237 254
225 237 254
225 237 254
225 237 254
225 237 254
225 237 254
225 237 254
225 237 254
225 237 254
225 237 254
225 237 254
225 237 254
225 237 254
225 237 254
225 237 254
225 237 254
225 237 254
225 237 254
225 237 254
225 237 254
225 237 254
225 237 254
225 237 254
225 237 254
225 237 254
225 237 254
225 237 254
225 237 254
225 237 254
225 237 254
225 237 254
225 237 254
225 237 254
225 237 254
225 237 254
225 237 254
225 237 254
225 237 254
225 237 254
225 237 254
225 237 254
225 237 254
225 237 254
225 237 254
225 237 254
225 237 254
225 237 254
225 237 254
225 237 254
225 237 254
225 237 254
225 237 254
225 237 254
225 237 254
225 237 254
225 237 254
225 237 254
225 237 254
225 237 254
225 237 254
225 237 254
225 237 254
225 237 254
225 237 254
225 237 254
225 237 254
225 237 254
225 237 254
225 237 254
225 237 254
225 237 254
225 237 254
225 237 254
225 237 254
225 237 254
225 237 254
225 237 254
225 237 254
212 225 240
181 194 202
136 152 147
144 160 156
143 158 157
167 179 182
142 157 152
144 157 156
156 169 170
160 173 175
151 164 163
170 182 187
92 114 88
79 103 63
109 128 111
134 149 142
147 163 161
167 179 183
159 172 173
164 176 177
170 182 187
174 186 192
172 185 192
164 177 181
160 174 175
135 150 141
117 135 120
83 107 69
80 105 62
82 108 63
83 109 65
79 104 62
78 103 61
152 166 162
179 191 196
169 180 184
181 193 202
164 176 179
171 184 189
164 177 178
144 160 153
114 133 113
85 108 76
83 109 65
81 106 63
84 110 65
77 101 59
77 102 58
84 109 65
80 106 63
81 106 63
74 98 57
77 102 59
81 106 62
81 106 63
146 161 158
164 176 178
164 177 179
171 183 186
159 172 173
151 164 162
135 152 141
120 138 120
97 119 90
82 108 64
83 108 65
80 105 63
84 110 65
80 105 61
83 108 64
82 107 63
79 104 61
85 111 65
85 111 66
80 106 63
77 102 60
81 107 63
98 120 86
159 172 173
179 191 196
171 183 185
183 195 202
180 192 198
171 183 186
167 180 183
171 183 186
177 190 196
173 185 189
172 184 188
167 180 182
147 162 158
135 152 143
142 157 147
110 131 105
96 118 86
88 114 69
82 108 64
82 107 63
82 108 63
81 106 62
107 126 102
170 183 188
176 189 195
166 178 183
177 189 194
177 190 194
172 184 188
172 185 191
167 180 182
171 182 187
169 180 183
179 190 198
166 179 182
173 185 192
174 186 192
174 187 193
177 188 192
189 200 208
175 187 192
165 178 179
175 187 193
171 184 190
173 186 192
138 153 146
82 108 63
84 110 65
84 110 66
83 109 65
80 105 61
81 106 62
81 106 63
82 107 64
82 107 64
88 114 68
80 106 62
81 106 63
84 110 66
82 107 63
85 111 67
91 114 79
94 115 86
118 136 120
126 143 127
117 137 117
139 154 146
146 161 158
138 153 145
117 136 118
99 120 92
109 131 100
104 126 97
87 113 70
85 111 66
82 107 64
79 104 61
83 109 65
79 105 61
79 104 61
82 107 63
83 109 65
83 109 64
79 105 62
82 108 64
85 110 65
77 102 60
81 107 63
84 110 66
85 109 71
163 176 176
172 185 190
171 184 190
169 182 187
168 181 185
186 198 207
172 184 187
169 182 186
171 183 186
171 185 189
174 187 194
172 183 187
176 188 193
174 186 191
170 184 190
168 180 185
175 188 194
182 194 201
177 189 194
176 189 194
171 185 191
119 136 120
79 105 62
74 99 58
80 106 62
83 109 64
81 107 63
84 109 65
76 101 59
78 103 62
85 110 65
82 108 64
89 115 68
80 106 62
85 111 66
79 104 62
80 105 61
79 104 61
81 107 62
82 108 64
80 105 61
118 135 121
172 183 187
168 181 185
179 191 199
173 185 191
180 193 199
167 180 184
181 192 197
171 183 189
167 179 184
174 186 191
172 185 190
170 182 188
168 181 187
166 179 182
165 177 179
165 177 179
166 178 184
170 184 190
157 172 170
80 106 63
90 113 76
106 126 101
105 124 102
108 128 105
124 142 126
134 149 141
129 145 134
136 152 144
144 159 155
149 161 159
159 172 170
166 178 182
172 185 190
177 188 194
173 186 192
173 185 188
127 144 130
80 105 62
79 104 61
82 108 64
81 106 62
77 101 59
82 107 63
81 106 63
78 104 61
80 106 63
82 107 64
82 106 63
79 104 61
83 108 65
80 105 62
88 112 74
138 153 147
169 182 185
162 176 180
171 182 188
167 180 184
167 180 184
164 178 181
175 187 192
159 173 174
148 163 163
144 159 155
129 145 135
103 125 98
102 123 95
134 151 143
172 184 191
164 177 183
172 183 187
168 180 187
164 177 180
168 181 186
162 175 176
168 182 188
157 170 171
159 173 175
155 169 170
130 146 136
148 162 161
159 172 175
170 183 188
147 161 159
120 138 123
120 138 124
111 128 114
79 103 66
85 106 76
98 117 99
153 168 166
187 200 208
219 231 247
225 237 254
225 237 254
225 237 254
225 237 254
225 237 254
225 237 254
225 237 254
225 237 254
225 237 254
225 237 254
225 237 254
225 237 254
225 237 254
225 237 254
225 237 254
225 237 254
225 237 254
225 237 254
225 237 254
225 237 254
225 237 254
225 237 254
225 237 254
225 237 254
225 237 254
225 237 254
225 237 254
225 237 254
225 237 254
225 237 254
225 237 254
225 237 254
225 237 254
225 237 254
225 237 254
225 237 254
225 237 254
225 237 254
225 237 254
225 237 254
225 237 254
225 237 254
225 237 254
225 237 254
225 237 254
225 237 254
225 237 254
225 237 254
225 237 254
225 237 254
225 237 254
225 237 254
225 237 254
225 237 254
225 237 254
225 237 254
225 237 254
225 237 254
225 237 254
225 237 254
225 237 254
225 237 254
225 237 254
225 237 254
225 237 254
225 237 254
225 237 254
225 237 254
225 237 254
225 237 254
225 237 254
225 237 254
225 237 254
225 237 254
225 237 254
225 237 254
225 237 254
225 237 254
225 237 254
225 237 254
225 237 254
225 237 254
225 237 254
225 237 254
225 237 254
225 237 254
225 237 254
225 237 254
225 237 254
225 237 254
225 237 254
225 237 254
225 237 254
225 237 254
225 237 254
225 237 254
225 237 254
225 237 254
225 237 254
225 237 254
225 237 254
223 235 252
200 213 225
178 191 199
145 160 156
126 141 135
146 160 157
166 178 183
150 164 164
140 155 149
129 144 136
149 164 163
133 148 140
109 126 109
119 136 122
125 140 129
127 144 133
137 152 147
158 171 173
173 185 191
155 168 168
165 177 180
167 180 183
161 173 175
156 169 170
166 178 181
148 163 159
131 146 134
117 133 120
104 125 96
89 110 78
158 171 172
179 191 198
166 179 184
166 178 181
168 180 186
171 183 190
165 178 181
167 180 183
164 177 180
162 174 173
152 165 164
145 160 153
121 138 127
104 124 102
79 104 64
78 103 60
83 108 64
73 98 56
80 106 62
78 103 60
79 104 61
88 109 82
169 182 186
171 183 188
179 190 194
165 178 181
172 185 189
170 183 188
168 181 186
159 173 175
163 175 178
164 178 181
144 158 156
138 152 146
113 132 112
104 127 96
81 105 64
80 105 62
78 103 61
78 102 60
75 100 58
80 105 62
78 104 61
80 105 62
131 147 136
177 189 195
169 180 183
174 187 193
177 190 197
174 187 192
174 186 193
174 186 193
167 181 185
172 184 188
173 185 188
164 177 182
165 178 182
170 182 186
176 189 194
170 182 185
165 178 182
173 185 190
174 186 189
167 180 184
148 164 155
130 147 136
117 135 118
150 164 161
175 187 192
167 181 186
176 189 195
180 191 197
169 183 189
165 177 182
172 185 187
166 179 182
165 178 182
169 181 187
182 194 201
177 188 194
187 199 207
160 172 174
181 192 199
180 191 197
179 190 196
159 172 174
165 177 181
173 184 185
182 193 199
164 176 176
91 115 79
80 105 62
82 109 65
79 104 61
81 107 64
78 103 61
78 103 61
82 108 65
84 110 66
77 102 59
80 105 61
85 110 66
77 101 58
80 106 63
80 105 62
79 104 61
82 107 64
83 109 65
83 109 64
79 104 61
83 108 64
78 104 61
129 146 135
166 179 180
171 184 189
166 178 182
168 180 184
155 167 168
161 174 176
171 184 189
174 188 191
162 174 173
160 174 176
154 169 169
151 165 160
149 163 159
140 155 145
125 142 130
125 143 130
124 142 127
130 147 132
123 142 124
101 121 94
99 122 90
134 150 139
173 186 189
163 175 178
169 183 187
172 185 190
176 187 193
171 184 189
179 192 199
163 176 181
173 186 191
164 176 181
168 180 184
166 179 183
181 194 204
165 178 181
166 180 185
166 178 179
173 185 189
164 177 181
180 192 200
173 184 187
126 141 131
81 107 63
81 106 62
84 110 65
81 106 63
82 108 64
77 102 60
78 102 59
79 104 62
82 108 64
80 106 63
77 102 60
78 103 61
78 104 61
76 101 59
80 105 62
85 111 66
85 110 66
84 109 65
78 104 61
129 146 137
171 183 188
171 183 188
178 189 193
174 186 190
176 188 194
157 171 170
156 169 169
147 162 159
150 164 161
151 166 160
143 157 150
136 151 144
145 159 150
123 139 125
128 145 133
109 126 110
117 136 117
110 131 107
155 168 167
154 167 167
179 191 196
171 183 188
171 184 190
176 188 194
168 180 184
168 181 187
159 172 173
170 181 184
177 189 195
172 185 191
169 181 187
176 188 194
170 182 188
157 171 174
165 177 181
171 183 187
102 123 100
78 103 60
81 106 63
80 105 61
76 101 59
75 100 59
78 103 60
71 95 56
79 104 61
76 101 59
80 105 62
77 102 60
77 102 60
79 104 61
78 103 60
122 140 125
164 177 179
163 177 181
156 168 169
159 171 170
151 166 165
128 144 133
122 140 125
102 122 97
89 111 76
77 102 60
78 103 61
81 106 63
78 102 61
123 141 127
175 188 194
165 178 182
176 187 192
175 186 190
165 178 182
172 184 191
167 180 182
157 171 173
144 159 156
151 164 160
113 132 115
113 131 114
108 126 111
98 120 92
90 110 84
90 112 82
93 113 89
125 142 130
122 137 126
128 145 133
141 156 153
164 178 181
214 226 242
224 236 253
225 237 254
225 237 254
225 237 254
225 237 254
225 237 254
225 237 254
225 237 254
225 237 254
225 237 254
225 237 254
225 237 254
225 237 254
225 237 254
225 237 254
225 237 254
225 237 254
225 237 254
225 237 254
225 237 254
225 237 254
225 237 254
225 237 254
225 237 254
225 237 254
225 237 254
225 237 254
225 237 254
225 237 254
225 237 254
225 237 254
225 237 254
225 237 254
225 237 254
225 237 254
225 237 254
225 237 254
225 237 254
225 237 254
225 237 254
225 237 254
225 237 254
225 237 254
225 237 254
225 237 254
225 237 254
225 237 254
225 237 254
225 237 254
225 237 254
225 237 254
225 237 254
225 237 254
225 237 254
225 237 254
225 237 254
225 237 254
225 237 254
225 237 254
225 237 254
225 237 254
225 237 254
225 237 254
225 237 254
225 237 254
225 237 254
225 237 254
225 237 254
225 237 254
225 237 254
225 237 254
225 237 254
225 237 254
225 237 254
225 237 254
225 237 254
225 237 254
225 237 254
225 237 254
225 237 254
225 237 254
225 237 254
225 237 254
225 237 254
225 237 254
225 237 254
225 237 254
225 237 254
225 237 254
225 237 254
225 237 254
225 237 254
225 237 254
225 237 254
225 237 254
225 237 254
225 237 254
225 237 254
225 237 254
225 237 254
225 237 254
225 237 254
225 237 254
225 237 254
225 237 254
225 237 254
225 237 254
225 237 254
225 237 254
215 227 242
190 203 212
148 164 161
144 159 154
141 155 151
93 113 87
71 95 56
100 119 95
114 132 117
143 157 154
158 171 170
157 170 173
174 185 193
147 161 160
153 166 168
172 185 188
157 170 171
141 155 152
143 159 153
157 171 172
157 170 172
176 188 192
170 181 186
160 173 177
172 185 191
143 159 152
130 146 135
134 150 141
163 176 178
160 172 174
172 184 189
158 171 175
157 171 172
160 173 175
174 186 190
170 183 186
163 175 177
165 178 182
170 183 190
158 171 173
158 171 174
151 167 166
128 145 133
114 134 115
97 119 90
79 104 61
77 102 60
133 150 140
163 176 178
173 184 188
171 184 188
163 174 176
160 172 173
172 185 190
172 185 190
167 179 182
167 180 186
163 175 180
175 187 190
170 183 187
173 186 191
175 187 192
168 181 184
153 167 163
149 164 161
132 149 136
106 125 101
78 102 62
75 100 58
94 116 83
177 189 194
160 174 175
172 183 187
169 181 187
175 187 195
177 189 195
162 174 180
165 178 184
173 185 191
167 179 183
170 181 186
155 169 171
174 187 194
172 185 191
166 178 182
172 185 191
166 179 183
169 183 188
170 183 190
156 170 173
170 182 188
182 194 202
159 173 173
81 106 63
80 105 64
91 114 80
103 123 99
126 144 128
133 151 139
155 167 163
142 158 154
167 180 182
160 173 175
156 170 172
170 182 186
168 181 185
172 184 188
161 174 175
175 187 189
180 191 198
170 184 190
176 189 197
163 175 179
179 191 199
163 176 179
111 129 111
80 105 62
71 96 55
79 104 61
76 101 59
83 109 64
79 104 61
84 110 65
82 108 64
85 110 65
85 111 65
83 109 64
81 106 63
83 109 65
82 108 64
81 106 63
80 105 62
81 106 64
78 103 61
81 106 62
80 105 62
81 107 64
107 126 104
180 191 197
182 193 200
168 180 184
164 177 180
183 194 201
171 183 187
170 182 189
167 179 183
171 184 190
169 182 184
174 186 189
168 181 185
166 177 181
164 177 181
169 181 185
173 186 190
166 178 181
168 181 185
176 187 194
181 193 201
164 177 178
126 144 133
81 107 63
79 105 62
79 105 62
83 109 66
79 104 62
82 107 66
95 117 84
94 116 88
96 118 85
105 124 101
110 129 108
114 132 112
111 131 109
115 135 111
109 130 107
115 134 117
123 141 124
120 138 120
125 143 126
108 127 107
148 163 162
146 160 153
156 169 166
152 167 164
155 169 171
140 155 147
158 172 171
150 165 164
147 163 156
147 162 156
150 165 160
157 172 171
149 163 161
144 159 155
158 172 170
163 177 181
148 161 158
166 178 181
155 169 168
153 167 167
112 131 114
92 115 81
84 109 68
78 103 60
75 99 58
82 107 64
79 104 61
84 109 65
84 110 66
78 103 61
79 104 62
80 105 62
79 104 61
81 107 63
83 109 65
82 108 64
77 103 60
86 112 67
84 108 67
152 167 161
176 188 195
174 187 194
164 176 180
168 181 184
172 185 191
166 178 183
176 189 196
174 186 190
164 177 180
167 179 181
168 180 182
164 178 182
162 175 178
171 183 189
173 185 192
163 176 179
141 156 148
81 105 67
79 104 62
78 102 60
79 104 61
76 101 59
76 101 60
80 105 62
82 107 64
80 106 62
74 99 58
72 96 56
84 109 65
83 108 64
96 117 87
94 115 90
112 131 109
132 148 137
118 137 121
92 113 87
85 110 68
79 104 61
80 105 63
80 105 62
72 96 56
74 98 57
77 101 59
79 104 62
78 102 63
116 134 119
161 174 176
148 161 161
161 175 177
157 170 170
151 165 166
154 168 168
170 183 187
160 174 176
153 166 166
159 172 174
140 154 145
89 111 78
79 104 62
90 112 82
102 121 102
127 143 135
132 147 140
143 157 154
157 170 172
174 188 192
199 211 223
220 233 250
225 237 254
225 237 254
225 237 254
225 237 254
225 237 254
225 237 254
225 237 254
225 237 254
225 237 254
225 237 254
225 237 254
225 237 254
225 237 254
225 237 254
225 237 254
225 237 254
225 237 254
225 237 254
225 237 254
225 237 254
225 237 254
225 237 254
225 237 254
225 237 254
225 237 254
225 237 254
225 237 254
225 237 254
225 237 254
225 237 254
225 237 254
225 237 254
225 237 254
225 237 254
225 237 254
225 237 254
225 237 254
225 237 254
225 237 254
225 237 254
225 237 254
225 237 254
225 237 254
225 237 254
225 237 254
225 237 254
225 237 254
225 237 254
225 237 254
225 237 254
225 237 254
225 237 254
225 237 254
225 237 254
225 237 254
225 237 254
225 237 254
225 237 254
225 237 254
225 237 254
225 237 254
225 237 254
225 237 254
225 237 254
225 237 254
225 237 254
225 237 254
225 237 254
225 237 254
225 237 254
225 237 254
225 237 254
225 237 254
225 237 254
225 237 254
225 237 254
225 237 254
225 237 254
225 237 254
225 237 254
225 237 254
225 237 254
225 237 254
225 237 254
225 237 254
225 237 254
225 237 254
225 237 254
225 237 254
225 237 254
225 237 254
225 237 254
225 237 254
225 237 254
225 237 254
225 237 254
225 237 254
225 237 254
225 237 254
225 237 254
225 237 254
225 237 254
225 237 254
225 237 254
225 237 254
225 237 254
225 237 254
225 237 254
225 237 254
225 237 254
225 237 254
225 237 254
225 237 254
225 237 254
225 237 254
225 237 254
210 223 237
204 216 230
180 194 203
136 151 146
111 129 115
88 110 78
83 105 71
90 109 87
124 140 134
147 161 159
155 169 170
166 178 182
168 180 181
155 169 172
148 162 160
138 153 149
113 132 115
92 112 84
96 116 92
113 130 114
114 132 116
132 147 140
128 144 132
109 126 112
108 128 109
116 135 117
123 140 126
125 141 133
150 163 162
156 169 168
160 174 176
166 179 182
175 186 190
164 176 179
156 170 171
160 172 173
169 182 189
163 175 177
165 178 180
168 180 184
169 181 186
163 177 181
145 159 153
128 144 134
157 170 173
157 171 171
173 185 189
171 183 189
164 177 181
165 178 183
171 183 187
180 192 199
175 188 194
164 178 182
168 181 183
161 174 175
174 186 190
166 179 182
171 184 191
164 177 180
171 183 187
169 181 187
174 186 191
155 167 171
159 172 175
125 141 133
124 141 126
157 170 172
165 177 179
168 180 185
169 182 186
171 183 188
169 182 185
168 181 186
183 194 201
172 185 190
172 183 190
163 176 179
160 173 176
165 179 182
167 179 181
170 182 186
168 180 185
159 174 177
170 182 185
168 181 185
154 166 169
164 177 180
104 123 99
81 107 63
80 105 62
83 109 65
81 106 62
81 107 63
83 108 64
80 106 62
77 102 60
79 104 61
90 111 79
93 115 85
119 137 117
116 133 118
135 153 141
147 161 159
155 169 169
161 174 174
172 185 192
177 190 198
169 182 187
159 173 176
147 163 160
82 107 64
79 104 62
79 104 62
73 98 56
82 107 64
84 110 65
80 106 63
82 107 65
82 107 63
80 106 62
84 110 65
83 109 65
76 100 58
78 103 61
79 103 61
78 103 61
78 103 60
82 108 64
81 107 63
80 106 63
76 101 59
96 117 91
170 182 185
174 186 189
168 181 187
180 193 200
159 172 174
171 183 189
168 181 184
180 192 199
178 189 195
171 184 189
171 184 191
179 191 199
172 185 192
173 184 188
166 180 186
168 181 188
173 185 191
168 181 185
176 187 192
176 188 194
166 179 183
135 151 143
82 108 64
77 101 60
85 110 65
80 105 62
80 106 62
81 106 63
78 103 61
81 107 63
86 112 67
76 101 59
80 106 62
84 109 65
84 109 65
80 106 63
80 104 62
77 101 59
80 105 61
76 101 59
78 103 60
79 103 61
131 149 141
173 185 187
175 188 193
177 189 196
168 180 185
159 171 172
178 190 194
169 181 186
172 185 191
169 182 184
165 177 178
164 177 180
180 191 195
177 189 195
167 179 184
169 181 186
176 188 192
170 183 189
168 180 182
174 185 189
128 145 132
79 104 62
77 102 59
78 102 60
82 108 63
78 103 60
69 93 53
76 101 60
78 102 60
78 103 60
81 107 64
78 103 61
76 101 59
81 106 62
83 109 65
82 108 64
82 107 63
81 107 64
101 123 94
163 176 178
164 177 182
157 171 174
156 170 172
174 186 189
167 180 186
163 176 178
168 180 184
160 175 178
163 175 179
168 181 186
168 180 187
158 171 174
163 175 177
166 178 181
168 181 185
161 175 179
116 135 116
81 106 62
80 106 62
78 103 61
68 92 53
82 107 63
80 105 65
91 112 84
105 124 102
120 139 122
137 153 144
134 151 139
156 170 171
148 162 159
162 174 177
121 138 126
85 109 70
83 109 65
76 101 59
77 102 60
78 103 62
82 106 67
87 110 76
100 120 93
107 125 109
128 145 131
125 141 129
144 159 155
110 128 112
97 117 92
112 131 112
132 147 139
141 155 152
143 157 155
153 166 168
168 181 188
150 163 165
156 169 171
167 179 183
115 132 117
114 131 115
122 138 127
134 149 141
159 172 177
151 164 164
152 166 167
187 200 209
194 207 217
217 229 245
225 237 254
225 237 254
225 237 254
225 237 254
225 237 254
225 237 254
225 237 254
225 237 254
225 237 254
225 237 254
225 237 254
225 237 254
225 237 254
225 237 254
225 237 254
225 237 254
225 237 254
225 237 254
225 237 254
225 237 254
225 237 254
225 237 254
225 237 254
225 237 254
225 237 254
225 237 254
225 237 254
225 237 254
225 237 254
225 237 254
225 237 254
225 237 254
225 237 254
225 237 254
225 237 254
225 237 254
225 237 254
225 237 254
225 237 254
225 237 254
225 237 254
225 237 254
225 237 254
225 237 254
225 237 254
225 237 254
225 237 254
225 237 254
225 237 254
225 237 254
225 237 254
225 237 254
225 237 254
225 237 254
225 237 254
225 237 254
225 237 254
225 237 254
225 237 254
225 237 254
225 237 254
225 237 254
225 237 254
225 237 254
225 237 254
225 237 254
225 237 254
225 237 254
225 237 254
225 237 254
225 237 254
225 237 254
225 237 254
225 237 254
225 237 254
225 237 254
225 237 254
225 237 254
225 237 254
225 237 254
225 237 254
225 237 254
225 237 254
225 237 254
225 237 254
225 237 254
225 237 254
225 237 254
225 237 254
225 237 254
225 237 254
225 237 254
225 237 254
225 237 254
225 237 254
225 237 254
225 237 254
225 237 254
225 237 254
225 237 254
225 237 254
225 237 254
225 237 254
225 237 254
225 237 254
225 237 254
225 237 254
225 237 254
225 237 254
225 237 254
225 237 254
225 237 254
225 237 254
225 237 254
225 237 254
225 237 254
225 237 254
225 237 254
225 237 254
225 237 254
225 237 254
225 237 254
225 237 254
225 237 254
216 228 244
191 204 215
167 179 181
131 146 141
104 121 106
84 106 73
85 106 75
97 117 96
118 135 124
151 164 164
163 175 178
151 164 164
160 173 176
162 174 176
146 161 159
141 156 153
105 123 103
131 145 139
159 172 176
164 178 184
164 176 179
169 182 185
159 172 176
157 169 172
151 165 166
144 158 158
150 165 165
151 166 165
162 175 177
139 154 147
136 152 143
147 161 157
151 165 162
141 156 152
157 170 171
155 169 171
159 172 173
159 171 172
148 161 161
77 102 60
76 100 59
75 100 58
96 117 89
124 140 127
131 147 137
122 138 129
166 179 184
170 181 186
162 175 179
165 178 181
176 188 193
166 178 181
153 165 165
161 173 177
177 188 195
162 174 178
159 173 174
163 176 182
164 177 183
169 180 184
162 174 173
94 116 87
80 106 63
76 100 59
80 105 61
79 104 61
101 123 92
125 140 127
138 153 147
147 161 155
164 177 180
170 182 188
174 186 193
171 183 189
176 188 193
161 175 178
174 185 189
168 180 185
169 181 186
165 178 181
156 170 174
174 186 192
162 174 176
146 162 155
84 110 66
79 104 62
83 108 64
79 104 62
76 101 59
79 104 61
75 100 59
78 103 60
78 103 61
77 101 60
78 103 61
79 104 61
83 109 64
72 96 55
75 99 58
79 104 62
77 102 60
74 99 56
83 108 67
106 126 100
112 132 113
127 145 132
137 153 143
125 142 129
113 131 111
107 126 107
92 114 83
86 109 72
79 104 61
79 104 61
81 106 63
79 104 61
77 101 59
80 105 62
76 102 59
79 104 60
74 99 57
82 108 64
82 108 64
85 111 66
80 105 62
79 104 62
78 104 61
92 115 79
163 175 176
167 179 183
167 179 181
167 179 183
162 175 177
168 181 184
167 181 184
164 178 184
178 190 197
165 178 181
162 175 178
178 190 196
166 179 182
173 186 192
179 191 199
160 173 177
173 186 191
175 187 192
169 181 186
163 177 183
171 183 187
144 159 156
84 109 67
83 108 64
76 101 59
79 105 61
75 99 58
79 104 61
82 107 64
73 97 57
79 104 62
81 106 63
82 108 65
83 108 64
79 105 63
82 108 65
81 106 63
79 103 61
78 102 60
81 106 63
80 105 63
81 107 63
140 154 147
163 177 183
169 182 186
169 181 183
173 186 192
169 181 186
167 180 183
175 188 195
168 180 185
171 184 187
160 173 175
175 187 193
176 188 194
178 190 196
170 182 186
162 175 178
166 178 182
172 185 189
164 175 181
161 175 179
109 129 105
72 96 56
78 103 61
82 108 64
80 105 61
81 106 63
76 101 59
74 99 57
80 106 62
77 102 60
84 110 66
73 97 57
75 99 58
81 106 62
74 98 57
77 102 60
78 103 61
79 104 61
114 131 116
157 171 171
170 182 189
166 178 182
177 189 197
167 179 183
161 175 178
163 176 182
166 178 183
163 175 178
170 183 186
171 183 186
171 185 192
156 171 172
167 179 185
163 176 182
156 169 171
154 167 164
110 129 108
102 121 103
112 129 117
119 135 123
138 153 146
144 159 159
154 167 167
163 175 178
166 179 184
162 175 176
160 174 176
145 158 157
152 166 168
147 161 159
147 160 157
136 151 145
134 150 143
122 138 129
130 146 139
144 158 154
152 166 164
173 187 193
163 176 179
153 165 170
170 182 188
154 166 169
132 148 143
128 146 136
167 181 186
155 170 169
157 169 172
167 180 186
158 171 173
162 175 177
149 163 163
160 172 176
154 167 168
155 167 169
146 160 161
139 154 152
169 181 186
148 162 160
137 151 148
164 177 182
188 202 210
213 225 240
225 237 254
225 237 254
225 237 254
225 237 254
225 237 254
225 237 254
225 237 254
225 237 254
225 237 254
225 237 254
225 237 254
225 237 254
225 237 254
225 237 254
225 237 254
225 237 254
225 237 254
225 237 254
225 237 254
225 237 254
225 237 254
225 237 254
225 237 254
225 237 254
225 237 254
225 237 254
225 237 254
225 237 254
225 237 254
225 237 254
225 237 254
225 237 254
225 237 254
225 237 254
225 237 254
225 237 254
225 237 254
225 237 254
225 237 254
225 237 254
225 237 254
225 237 254
225 237 254
225 237 254
225 237 254
225 237 254
225 237 254
225 237 254
225 237 254
225 237 254
225 237 254
225 237 254
225 237 254
225 237 254
225 237 254
225 237 254
225 237 254
225 237 254
225 237 254
225 237 254
225 237 254
225 237 254
225 237 254
225 237 254
225 237 254
225 237 254
225 237 254
225 237 254
225 237 254
225 237 254
225 237 254
225 237 254
225 237 254
225 237 254
225 237 254
225 237 254
225 237 254
225 237 254
225 237 254
225 237 254
225 237 254
225 237 254
225 237 254
225 237 254
225 237 254
225 237 254
225 237 254
225 237 254
225 237 254
225 237 254
225 237 254
225 237 254
225 237 254
225 237 254
225 237 254
225 237 254
225 237 254
225 237 254
225 237 254
225 237 254
225 237 254
225 237 254
225 237 254
225 237 254
225 237 254
225 237 254
225 237 254
225 237 254
225 237 254
225 237 254
225 237 254
225 237 254
225 237 254
225 237 254
225 237 254
225 237 254
225 237 254
225 237 254
225 237 254
225 237 254
225 237 254
225 237 254
225 237 254
225 237 254
225 237 254
225 237 254
225 237 254
225 237 254
225 237 254
225 237 254
225 237 254
225 237 254
214 226 241
202 215 228
165 178 183
126 142 136
109 126 109
84 106 76
76 98 63
97 115 94
115 134 118
144 159 154
157 170 173
155 168 170
140 155 153
74 98 58
82 106 68
110 128 107
119 135 122
134 149 147
160 172 179
159 173 175
170 182 187
155 167 166
163 175 178
168 179 183
148 163 162
165 178 183
153 164 163
139 154 147
115 132 118
106 127 104
82 107 66
74 99 57
78 103 63
93 114 85
137 152 147
154 168 169
137 152 146
122 139 129
127 143 134
125 143 129
116 133 118
116 134 118
113 131 112
115 134 115
117 135 123
130 144 135
137 152 145
164 176 181
166 178 184
163 176 179
156 168 169
152 165 167
163 176 178
166 178 180
160 174 177
165 178 183
133 149 140
76 101 60
76 101 59
71 95 55
76 101 58
77 102 60
76 100 58
77 101 60
76 101 59
80 105 62
77 102 60
76 101 59
92 114 81
108 128 108
121 139 125
149 163 161
154 167 163
148 163 165
177 189 194
189 200 206
166 178 181
168 181 186
148 163 162
81 106 65
78 102 60
74 98 57
82 108 64
80 105 62
81 106 63
80 105 62
81 106 63
79 104 60
81 107 63
83 108 64
76 100 58
82 108 64
78 103 61
77 103 60
81 106 63
75 100 59
79 104 61
78 103 61
76 100 59
81 106 63
82 107 66
152 166 163
176 187 191
179 191 196
177 189 196
173 186 190
170 182 185
171 183 187
154 168 167
158 171 170
149 163 159
134 150 142
129 145 134
134 151 142
125 141 125
113 131 115
105 125 100
88 109 80
87 110 73
74 98 56
76 101 59
71 95 54
75 98 60
144 157 155
168 181 187
167 181 186
178 189 197
169 180 184
168 180 184
176 187 193
173 185 191
169 183 188
173 185 188
166 179 182
162 174 177
169 181 185
173 186 191
158 172 177
168 181 185
176 188 193
175 186 192
165 178 182
165 178 182
174 186 193
151 165 158
79 104 64
80 105 62
83 109 65
77 102 60
81 106 63
74 99 58
84 109 65
75 100 58
73 97 57
79 104 61
77 102 60
78 103 61
78 103 61
79 104 60
77 102 60
78 102 62
75 100 59
74 97 57
85 111 67
81 107 64
145 159 154
168 180 185
164 177 178
170 181 187
166 180 183
172 184 190
173 184 189
170 182 187
163 177 179
157 170 171
161 174 175
166 178 183
163 177 179
172 184 189
173 185 190
171 184 189
164 176 178
166 178 181
175 188 196
156 169 170
102 121 99
77 101 59
73 97 57
83 109 65
83 109 65
80 105 62
79 104 61
79 104 62
76 100 59
79 103 61
76 101 59
76 101 58
80 105 62
78 102 60
72 96 55
77 102 61
78 103 60
85 107 74
149 164 159
162 174 178
167 179 183
164 177 182
160 173 176
162 175 178
169 181 184
170 183 188
159 173 174
149 162 162
136 150 144
136 150 146
130 145 136
124 141 133
118 137 119
106 125 105
107 126 102
132 147 139
150 163 161
141 155 150
139 155 152
133 148 142
108 126 109
118 136 121
111 128 114
109 128 108
81 103 73
94 113 87
80 103 67
78 103 61
75 100 59
93 115 88
143 156 151
158 171 172
158 170 172
161 174 176
165 178 181
164 177 180
124 140 132
123 140 129
117 133 123
109 128 108
94 116 86
79 103 64
91 110 90
157 170 170
168 180 186
147 162 164
163 175 180
154 168 169
139 153 150
132 148 144
125 141 132
119 136 123
116 131 121
142 156 153
148 161 162
152 164 164
166 179 184
193 206 216
208 221 234
225 237 254
225 237 254
225 237 254
225 237 254
225 237 254
225 237 254
225 237 254
225 237 254
225 237 254
225 237 254
225 237 254
225 237 254
225 237 254
225 237 254
225 237 254
225 237 254
225 237 254
225 237 254
225 237 254
225 237 254
225 237 254
225 237 254
225 237 254
225 237 254
225 237 254
225 237 254
225 237 254
225 237 254
225 237 254
225 237 254
225 237 254
225 237 254
225 237 254
225 237 254
225 237 254
225 237 254
225 237 254
225 237 254
225 237 254
225 237 254
225 237 254
225 237 254
225 237 254
225 237 254
225 237 254
225 237 254
225 237 254
225 237 254
225 237 254
225 237 254
225 237 254
225 237 254
225 237 254
225 237 254
225 237 254
225 237 254
225 237 254
225 237 254
225 237 254
225 237 254
225 237 254
225 237 254
225 237 254
225 237 254
225 237 254
225 237 254
225 237 254
225 237 254
225 237 254
225 237 254
225 237 254
225 237 254
225 237 254
225 237 254
225 237 254
225 237 254
225 237 254
225 237 254
225 237 254
225 237 254
225 237 254
225 237 254
225 237 254
225 237 254
225 237 254
225 237 254
225 237 254
225 237 254
225 237 254
225 237 254
225 237 254
225 237 254
225 237 254
225 237 254
225 237 254
225 237 254
225 237 254
225 237 254
225 237 254
225 237 254
225 237 254
225 237 254
225 237 254
225 237 254
225 237 254
225 237 254
225 237 254
225 237 254
225 237 254
225 237 254
225 237 254
225 237 254
225 237 254
225 237 254
225 237 254
225 237 254
225 237 254
225 237 254
225 237 254
225 237 254
225 237 254
225 237 254
225 237 254
225 237 254
225 237 254
225 237 254
225 237 254
225 237 254
225 237 254
225 237 254
225 237 254
225 237 254
225 237 254
225 237 254
225 237 254
225 237 254
225 237 254
225 237 254
225 237 254
225 237 254
215 228 243
188 201 212
169 182 186
154 167 169
112 130 118
89 108 84
68 92 53
89 109 84
133 147 143
98 117 97
85 104 79
75 98 58
75 99 58
72 97 56
81 105 67
96 116 91
116 132 121
147 161 159
138 153 150
153 166 166
157 171 174
160 174 179
169 181 187
163 175 178
157 169 171
156 168 168
160 173 176
148 162 160
130 145 140
124 140 131
151 165 165
153 165 166
148 160 160
153 166 168
161 174 178
166 178 182
160 174 178
153 166 168
153 166 167
158 173 176
161 173 177
169 180 184
157 169 172
167 179 184
158 171 171
157 170 172
159 173 175
138 152 149
138 153 146
122 138 130
128 144 134
131 146 137
136 151 143
117 134 120
118 135 119
105 123 103
114 132 115
107 128 105
93 113 86
82 105 71
82 106 68
81 105 65
76 100 61
71 95 55
75 99 58
80 105 62
74 98 56
77 102 60
78 102 60
82 107 64
97 118 87
103 122 99
125 143 132
127 142 131
136 151 144
110 129 110
94 117 82
81 106 63
79 104 62
79 104 61
73 98 56
82 108 64
79 104 61
79 104 61
78 103 60
78 104 62
76 100 58
83 109 65
80 105 63
79 104 62
75 100 58
77 102 58
81 107 63
78 102 61
78 102 60
77 102 60
128 145 135
176 188 195
166 178 180
171 182 186
168 181 187
169 181 186
162 174 175
156 169 171
165 179 183
167 180 184
171 183 187
179 190 197
166 179 183
170 182 187
171 184 189
161 174 179
167 179 180
160 171 174
162 175 177
152 165 167
166 178 181
155 168 169
118 136 117
131 146 137
105 125 101
122 139 128
130 146 136
139 153 148
142 157 152
142 157 152
162 176 178
168 180 182
162 173 175
166 179 181
155 168 169
167 179 184
162 174 178
166 179 182
166 179 183
170 182 188
160 173 175
164 176 180
153 167 167
143 156 152
84 107 72
80 106 63
80 104 61
78 103 60
76 101 58
78 102 61
77 102 60
73 97 56
76 100 59
75 99 58
76 101 59
78 103 61
76 101 58
76 101 60
78 104 61
79 105 63
81 106 63
77 102 60
82 107 64
81 105 66
135 149 143
175 186 191
165 178 179
162 175 176
166 179 182
164 176 181
163 176 180
171 184 191
156 169 174
166 179 183
170 182 188
163 175 179
176 187 192
170 182 188
173 184 187
164 176 180
175 187 194
161 173 175
164 177 181
147 162 161
84 106 73
76 100 58
80 105 63
75 100 58
80 105 62
77 102 60
80 105 62
80 105 63
74 98 57
79 104 62
81 106 63
85 109 70
78 101 63
95 118 87
94 115 88
104 123 102
104 123 100
105 122 107
135 150 146
154 167 168
139 155 150
147 160 158
141 156 151
130 146 138
130 145 138
145 160 156
134 151 143
157 171 173
136 152 146
152 167 166
153 166 165
151 165 165
159 173 176
163 176 179
136 152 146
77 101 61
74 98 57
75 99 58
77 102 61
75 99 59
80 105 63
74 99 58
80 104 61
71 94 54
80 105 63
76 100 59
76 100 58
77 101 59
83 106 73
130 147 138
141 155 153
124 139 133
124 139 130
137 153 146
102 123 98
87 107 79
79 104 62
73 96 56
71 95 56
76 101 59
76 99 61
119 137 126
154 168 170
160 172 174
139 154 149
130 146 140
122 138 129
109 127 110
85 104 78
87 107 81
85 104 78
101 120 102
134 150 141
165 178 182
180 194 201
207 219 233
225 237 254
225 237 254
225 237 254
225 237 254
225 237 254
225 237 254
225 237 254
225 237 254
225 237 254
225 237 254
225 237 254
225 237 254
225 237 254
225 237 254
225 237 254
225 237 254
225 237 254
225 237 254
225 237 254
225 237 254
225 237 254
225 237 254
225 237 254
225 237 254
225 237 254
225 237 254
225 237 254
225 237 254
225 237 254
225 237 254
225 237 254
225 237 254
225 237 254
225 237 254
225 237 254
225 237 254
225 237 254
225 237 254
225 237 254
225 237 254
225 237 254
225 237 254
225 237 254
225 237 254
225 237 254
225 237 254
225 237 254
225 237 254
225 237 254
225 237 254
225 237 254
225 237 254
225 237 254
225 237 254
225 237 254
225 237 254
225 237 254
225 237 254
225 237 254
225 237 254
225 237 254
225 237 254
225 237 254
225 237 254
225 237 254
225 237 254
225 237 254
225 237 254
225 237 254
225 237 254
225 237 254
225 237 254
225 237 254
225 237 254
225 237 254
225 237 254
225 237 254
225 237 254
225 237 254
225 237 254
225 237 254
225 237 254
225 237 254
225 237 254
225 237 254
225 237 254
225 237 254
225 237 254
225 237 254
225 237 254
225 237 254
225 237 254
225 237 254
225 237 254
225 237 254
225 237 254
225 237 254
225 237 254
225 237 254
225 237 254
225 237 254
225 237 254
225 237 254
225 237 254
225 237 254
225 237 254
225 237 254
225 237 254
225 237 254
225 237 254
225 237 254
225 237 254
225 237 254
225 237 254
225 237 254
225 237 254
225 237 254
225 237 254
225 237 254
225 237 254
225 237 254
225 237 254
225 237 254
225 237 254
225 237 254
225 237 254
225 237 254
225 237 254
225 237 254
225 237 254
225 237 254
225 237 254
225 237 254
225 237 254
225 237 254
225 237 254
225 237 254
225 237 254
225 237 254
225 237 254
225 237 254
225 237 254
225 237 254
225 237 254
225 237 254
225 237 254
225 237 254
225 237 254
221 233 249
203 215 228
177 190 197
147 162 160
126 140 134
138 151 147
147 161 161
140 154 152
126 141 132
118 132 124
100 119 97
78 100 67
73 97 57
74 97 57
73 96 55
80 103 67
98 116 96
120 136 124
145 160 158
148 162 163
158 171 174
165 177 180
164 176 178
170 182 188
161 173 176
98 118 97
72 95 56
75 99 58
88 109 80
119 136 123
147 162 158
132 147 139
157 170 174
160 172 181
163 176 182
167 179 184
163 175 178
157 170 173
167 179 185
161 174 177
162 174 179
160 173 174
170 182 188
160 174 176
153 167 170
168 179 183
160 173 175
116 133 121
124 141 130
139 154 149
148 163 161
161 173 175
160 172 174
169 181 185
163 176 178
167 180 184
156 170 172
160 173 176
168 181 185
162 175 178
151 165 164
155 169 170
152 166 165
147 161 157
144 159 159
151 164 161
146 159 156
139 154 147
136 151 144
114 131 118
121 138 124
113 130 113
135 152 142
121 138 127
119 135 122
97 117 92
91 111 85
85 109 71
78 103 63
78 101 68
101 122 93
101 121 97
96 119 91
89 113 80
93 116 86
90 114 76
83 108 69
88 110 78
77 101 60
75 100 57
80 106 63
94 115 92
167 180 183
164 177 181
146 160 159
163 176 179
164 177 179
164 177 180
176 188 193
160 173 176
170 183 187
158 171 175
178 189 197
169 182 187
170 182 187
166 179 183
165 177 181
164 177 180
161 174 177
156 169 170
166 179 184
157 169 172
155 168 169
129 145 137
78 104 61
77 102 60
74 98 57
80 106 63
75 99 58
83 109 64
81 107 63
77 101 60
83 108 65
79 104 62
78 102 59
72 96 55
89 114 75
98 117 94
106 126 105
112 131 112
98 119 93
110 130 107
119 135 121
94 115 89
141 155 151
142 157 152
140 156 149
129 145 134
116 133 120
120 137 123
120 137 124
117 134 120
106 125 105
108 125 108
98 119 94
110 129 107
111 129 110
101 122 95
94 115 85
104 124 104
90 111 83
96 117 93
88 109 82
100 121 93
95 117 89
129 145 136
153 167 169
157 170 172
158 172 174
149 162 161
156 169 171
162 175 179
150 163 164
160 173 175
165 177 181
172 185 190
160 173 174
165 179 182
146 159 160
160 174 179
150 164 162
164 177 182
166 179 184
166 178 181
131 147 135
77 100 61
75 99 58
85 110 65
78 103 61
80 104 61
77 100 62
75 100 58
80 102 68
84 107 72
80 104 68
84 104 74
89 110 81
86 108 74
85 108 72
80 103 66
77 102 60
78 102 62
119 134 126
160 172 175
168 180 185
167 179 185
152 166 167
154 166 167
161 174 179
165 177 179
169 181 186
171 182 188
170 182 188
163 175 181
166 179 185
162 175 178
162 176 180
164 177 182
142 157 152
101 120 96
70 94 55
75 99 57
75 100 58
78 103 61
73 97 56
79 104 62
71 95 55
79 103 64
85 106 76
91 112 85
94 114 88
134 149 143
116 130 120
100 120 98
86 109 72
77 102 63
79 104 61
73 98 58
81 107 64
73 97 56
72 97 57
76 100 59
74 99 58
72 97 56
81 104 68
94 114 89
120 136 126
111 129 116
76 98 69
72 94 58
71 94 55
80 101 70
89 107 87
92 110 89
126 140 134
165 179 181
193 206 216
219 231 247
225 237 254
225 237 254
225 237 254
225 237 254
225 237 254
225 237 254
225 237 254
225 237 254
225 237 254
225 237 254
225 237 254
225 237 254
225 237 254
225 237 254
225 237 254
225 237 254
225 237 254
225 237 254
225 237 254
225 237 254
225 237 254
225 237 254
225 237 254
225 237 254
225 237 254
225 237 254
225 237 254
225 237 254
225 237 254
225 237 254
225 237 254
225 237 254
225 237 254
225 237 254
225 237 254
225 237 254
225 237 254
225 237 254
225 237 254
225 237 254
225 237 254
225 237 254
225 237 254
225 237 254
225 237 254
225 237 254
225 237 254
225 237 254
225 237 254
225 237 254
225 237 254
225 237 254
225 237 254
225 237 254
225 237 254
225 237 254
225 237 254
225 237 254
225 237 254
225 237 254
225 237 254
225 237 254
225 237 254
225 237 254
225 237 254
225 237 254
225 237 254
225 237 254
225 237 254
225 237 254
225 237 254
225 237 254
225 237 254
225 237 254
225 237 254
225 237 254
225 237 254
225 237 254
225 237 254
225 237 254
225 237 254
225 237 254
225 237 254
225 237 254
225 237 254
225 237 254
225 237 254
225 237 254
225 237 254
225 237 254
225 237 254
225 237 254
225 237 254
225 237 254
225 237 254
225 237 254
225 237 254
225 237 254
225 237 254
225 237 254
225 237 254
225 237 254
225 237 254
225 237 254
225 237 254
225 237 254
225 237 254
225 237 254
225 237 254
225 237 254
225 237 254
225 237 254
225 237 254
225 237 254
225 237 254
225 237 254
225 237 254
225 237 254
225 237 254
225 237 254
225 237 254
225 237 254
225 237 254
225 237 254
225 237 254
225 237 254
225 237 254
225 237 254
225 237 254
225 237 254
225 237 254
225 237 254
225 237 254
225 237 254
225 237 254
225 237 254
225 237 254
225 237 254
225 237 254
225 237 254
225 237 254
225 237 254
225 237 254
225 237 254
225 237 254
225 237 254
225 237 254
225 237 254
225 237 254
225 237 254
225 237 254
225 237 254
225 237 254
225 237 254
225 237 254
225 237 254
222 234 251
200 212 224
169 183 187
170 183 188
129 145 136
122 139 127
143 157 157
142 156 157
135 149 146
128 143 136
109 125 110
85 105 76
75 99 58
73 97 57
73 97 57
76 101 60
80 101 70
108 126 109
116 132 121
133 147 142
134 149 140
73 97 56
67 91 52
72 97 56
73 98 57
73 96 56
71 95 55
71 95 55
79 102 63
88 108 83
96 117 91
114 132 118
138 153 148
152 165 163
155 168 171
163 175 179
142 154 152
159 172 174
154 167 171
150 164 164
172 184 189
152 165 165
149 164 164
78 103 61
73 97 57
81 106 63
74 98 57
77 102 63
92 113 87
106 126 103
113 130 116
144 159 153
149 162 158
159 171 174
159 172 177
153 165 165
165 178 182
151 165 164
164 178 181
162 175 179
153 166 169
161 173 178
166 178 182
164 177 182
157 171 172
72 96 56
73 97 56
79 104 61
78 102 60
74 99 59
77 101 59
77 102 60
74 98 57
69 92 52
80 105 62
75 100 58
82 107 63
82 105 69
96 116 91
99 119 94
125 142 132
115 132 118
151 165 162
145 159 155
159 172 172
160 173 176
153 166 167
87 110 76
88 110 75
82 107 66
79 103 61
95 116 90
93 113 87
91 112 82
101 119 98
101 121 95
91 113 84
98 118 93
107 127 106
93 114 85
93 113 88
104 124 100
101 119 96
111 130 111
114 132 113
108 128 107
119 137 124
107 125 106
134 150 142
150 165 162
135 149 144
140 155 152
142 157 152
140 154 149
155 169 169
132 148 139
134 148 142
132 147 141
136 151 144
147 161 161
124 139 129
131 147 140
150 164 161
144 159 156
132 148 142
140 155 151
132 148 140
143 157 152
144 158 154
121 139 126
109 129 109
108 125 111
124 139 130
118 135 119
108 127 109
106 124 104
115 134 115
91 110 87
108 125 107
103 122 103
104 123 104
118 136 118
110 127 107
100 122 94
101 122 97
92 112 86
83 107 70
89 111 83
90 112 79
98 119 96
159 172 174
163 176 179
174 186 192
160 173 175
161 173 176
172 183 186
156 168 171
157 170 174
169 182 188
156 170 174
156 170 174
158 170 174
153 166 168
164 177 183
167 180 185
153 166 167
170 184 190
167 180 183
159 173 176
124 141 130
77 101 59
79 104 61
80 104 62
73 97 56
76 100 60
75 100 58
77 101 59
80 105 62
76 101 60
72 96 56
79 105 62
78 104 62
72 96 56
74 98 57
80 105 63
74 99 57
78 101 71
143 157 157
155 167 170
157 170 174
159 171 175
162 174 177
159 171 174
160 174 178
166 180 186
154 168 171
155 168 171
164 177 182
154 167 167
164 177 183
168 181 185
159 172 175
148 162 162
124 140 129
73 98 58
72 96 56
94 113 93
101 119 100
97 116 98
115 131 119
128 142 137
144 159 158
145 160 158
151 165 165
159 172 176
154 168 169
161 174 178
129 144 137
80 104 67
77 102 60
72 96 56
70 93 54
64 87 49
74 98 57
89 108 82
117 134 120
104 123 105
124 139 131
124 140 130
95 113 91
78 102 64
74 99 58
75 99 62
94 114 91
109 126 114
145 159 157
164 177 181
193 206 216
204 217 229
224 236 253
225 237 254
225 237 254
225 237 254
225 237 254
225 237 254
225 237 254
225 237 254
225 237 254
225 237 254
225 237 254
225 237 254
225 237 254
225 237 254
225 237 254
225 237 254
225 237 254
225 237 254
225 237 254
225 237 254
225 237 254
225 237 254
225 237 254
225 237 254
225 237 254
225 237 254
225 237 254
225 237 254
225 237 254
225 237 254
225 237 254
225 237 254
225 237 254
225 237 254
225 237 254
225 237 254
225 237 254
225 237 254
225 237 254
225 237 254
225 237 254
225 237 254
225 237 254
225 237 254
225 237 254
225 237 254
225 237 254
225 237 254
225 237 254
225 237 254
225 237 254
225 237 254
225 237 254
225 237 254
225 237 254
225 237 254
225 237 254
225 237 254
225 237 254
225 237 254
225 237 254
225 237 254
225 237 254
225 237 254
225 237 254
225 237 254
225 237 254
225 237 254
225 237 254
225 237 254
225 237 254
225 237 254
225 237 254
225 237 254
225 237 254
225 237 254
225 237 254
225 237 254
225 237 254
225 237 254
225 237 254
225 237 254
225 237 254
225 237 254
225 237 254
225 237 254
225 237 254
225 237 254
225 237 254
225 237 254
225 237 254
225 237 254
225 237 254
225 237 254
225 237 254
225 237 254
225 237 254
225 237 254
225 237 254
225 237 254
225 237 254
225 237 254
225 237 254
225 237 254
225 237 254
225 237 254
225 237 254
225 237 254
225 237 254
225 237 254
225 237 254
225 237 254
225 237 254
225 237 254
225 237 254
225 237 254
225 237 254
225 237 254
225 237 254
225 237 254
225 237 254
225 237 254
225 237 254
225 237 254
225 237 254
225 237 254
225 237 254
225 237 254
225 237 254
225 237 254
225 237 254
225 237 254
225 237 254
225 237 254
225 237 254
225 237 254
225 237 254
225 237 254
225 237 254
225 237 254
225 237 254
225 237 254
225 237 254
225 237 254
225 237 254
225 237 254
225 237 254
225 237 254
225 237 254
225 237 254
225 237 254
225 237 254
225 237 254
225 237 254
225 237 254
225 237 254
225 237 254
225 237 254
225 237 254
225 237 254
225 237 254
225 237 254
225 237 254
225 237 254
225 237 254
225 237 254
215 227 243
191 204 213
163 176 180
154 167 168
136 150 145
133 147 143
139 153 152
148 160 161
137 151 147
116 133 125
83 102 79
82 104 70
75 99 58
71 95 55
88 110 79
150 163 163
138 152 149
136 150 149
114 130 117
98 117 98
82 103 72
71 95 55
73 97 57
72 96 55
75 100 59
75 99 58
68 92 54
73 97 56
75 100 58
76 99 61
105 124 102
128 144 135
126 140 135
145 159 157
147 161 159
154 167 170
148 161 161
91 113 86
74 99 58
77 101 59
73 97 56
78 102 60
69 92 53
74 99 57
71 94 55
69 92 53
79 104 61
75 99 58
74 98 58
80 103 70
104 124 102
117 133 125
136 152 145
121 137 126
139 154 153
158 172 174
150 163 163
153 166 166
154 168 170
94 113 90
73 97 57
71 94 54
73 97 56
75 100 58
73 96 56
74 98 57
73 97 57
81 106 63
71 95 55
75 100 59
77 102 60
75 100 58
76 100 59
71 95 55
78 103 61
76 101 59
75 99 58
78 103 62
74 98 58
73 97 56
81 105 68
152 166 165
159 171 175
130 145 139
147 161 159
128 143 136
117 132 120
112 129 114
105 125 101
87 108 80
81 105 66
79 105 62
72 96 55
76 101 59
81 107 63
78 102 60
76 101 58
76 100 58
79 105 63
78 102 60
74 98 57
77 102 60
97 116 95
161 174 177
160 173 177
169 181 185
161 174 178
160 173 178
170 182 188
149 163 164
165 177 183
160 173 176
164 176 181
154 167 169
168 180 183
156 169 170
154 166 169
160 173 177
165 178 182
156 169 169
161 174 178
159 171 175
158 171 171
130 145 134
81 104 67
71 94 54
80 105 61
75 100 58
73 97 57
79 104 61
75 99 58
72 96 55
74 98 58
74 98 57
78 102 60
75 99 58
72 96 56
71 94 55
80 105 62
80 105 62
72 96 56
75 100 60
77 102 60
105 124 103
157 171 172
149 164 163
161 174 179
162 174 177
170 182 188
159 172 178
158 171 174
159 170 175
155 167 171
162 175 176
170 182 187
172 184 188
160 172 176
160 171 175
165 178 183
163 177 181
167 179 184
164 176 181
150 164 164
101 121 96
75 100 59
72 96 56
74 98 58
76 100 60
76 100 58
72 96 56
72 96 55
79 104 61
70 94 55
78 103 60
77 101 60
72 97 56
74 98 58
74 98 57
75 99 58
79 104 61
116 134 120
154 167 167
163 176 179
168 180 186
161 174 177
159 172 176
159 172 176
159 173 177
162 174 179
160 173 178
155 169 170
160 172 176
148 163 160
142 156 154
137 152 149
125 139 130
145 159 158
135 150 146
146 159 158
160 174 177
149 163 164
157 171 176
158 170 172
167 180 186
159 172 176
163 176 181
157 169 175
172 183 190
162 175 180
153 165 165
128 144 136
68 91 53
76 99 61
86 107 77
106 125 103
120 135 125
121 136 131
131 144 142
160 172 175
158 171 176
137 150 148
120 135 126
112 130 112
106 123 107
129 145 140
132 147 143
156 169 172
190 201 211
212 224 239
216 228 244
225 237 254
225 237 254
225 237 254
225 237 254
225 237 254
225 237 254
225 237 254
225 237 254
225 237 254
225 237 254
225 237 254
225 237 254
225 237 254
225 237 254
225 237 254
225 237 254
225 237 254
225 237 254
225 237 254
225 237 254
225 237 254
225 237 254
225 237 254
225 237 254
225 237 254
225 237 254
225 237 254
225 237 254
225 237 254
225 237 254
225 237 254
225 237 254
225 237 254
225 237 254
225 237 254
225 237 254
225 237 254
225 237 254
225 237 254
225 237 254
225 237 254
225 237 254
225 237 254
225 237 254
225 237 254
225 237 254
225 237 254
225 237 254
225 237 254
225 237 254
225 237 254
225 237 254
225 237 254
225 237 254
225 237 254
225 237 254
225 237 254
225 237 254
225 237 254
225 237 254
225 237 254
225 237 254
225 237 254
225 237 254
225 237 254
225 237 254
225 237 254
225 237 254
225 237 254
225 237 254
225 237 254
225 237 254
225 237 254
225 237 254
225 237 254
225 237 254
225 237 254
225 237 254
225 237 254
225 237 254
225 237 254
225 237 254
225 237 254
225 237 254
225 237 254
225 237 254
225 237 254
225 237 254
225 237 254
225 237 254
225 237 254
225 237 254
225 237 254
225 237 254
225 237 254
225 237 254
225 237 254
225 237 254
225 237 254
225 237 254
225 237 254
225 237 254
225 237 254
225 237 254
225 237 254
225 237 254
225 237 254
225 237 254
225 237 254
225 237 254
225 237 254
225 237 254
225 237 254
225 237 254
225 237 254
225 237 254
225 237 254
225 237 254
225 237 254
225 237 254
225 237 254
225 237 254
225 237 254
225 237 254
225 237 254
225 237 254
225 237 254
225 237 254
225 237 254
225 237 254
225 237 254
225 237 254
225 237 254
225 237 254
225 237 254
225 237 254
225 237 254
225 237 254
225 237 254
225 237 254
225 237 254
225 237 254
225 237 254
225 237 254
225 237 254
225 237 254
225 237 254
225 237 254
225 237 254
225 237 254
225 237 254
225 237 254
225 237 254
225 237 254
225 237 254
225 237 254
225 237 254
225 237 254
225 237 254
225 237 254
225 237 254
225 237 254
225 237 254
225 237 254
225 237 254
225 237 254
225 237 254
225 237 254
225 237 254
225 237 254
225 237 254
225 237 254
225 237 254
225 237 254
225 237 254
210 222 235
187 200 209
176 189 196
149 162 162
119 134 128
114 129 123
148 161 163
136 150 147
120 136 129
111 130 114
139 152 152
130 145 141
144 157 161
143 157 157
149 162 165
152 166 167
132 145 140
124 138 134
124 139 133
111 126 116
85 106 78
70 94 55
71 95 55
71 95 55
70 93 55
67 90 52
73 97 57
71 94 54
72 96 56
74 97 60
87 109 78
140 154 152
112 128 119
104 122 106
92 112 89
82 104 72
76 101 60
67 90 51
72 96 56
71 95 55
76 100 59
73 97 57
68 92 52
77 101 60
74 98 57
74 99 58
72 96 56
69 93 53
77 101 60
71 95 56
70 93 54
78 101 62
97 117 95
125 140 134
131 145 138
105 124 106
100 119 95
85 107 75
71 95 56
73 97 57
69 94 54
73 96 56
80 106 63
80 104 62
73 98 57
71 94 55
78 103 60
79 104 62
77 102 60
67 91 52
75 99 58
74 98 58
73 97 56
71 94 55
75 98 61
147 162 159
154 167 168
167 178 184
166 177 181
156 171 170
162 176 181
152 165 168
154 167 168
162 174 179
151 164 164
155 168 171
175 187 194
155 168 170
144 159 156
139 154 151
114 130 121
120 135 125
119 137 124
105 124 105
92 111 86
109 126 111
102 120 102
145 156 156
153 166 168
154 168 170
152 164 166
155 168 172
159 172 175
148 162 162
164 176 178
167 179 185
168 181 186
156 169 171
156 171 175
163 175 179
161 175 180
160 173 178
152 165 167
162 174 180
163 175 179
161 175 177
146 159 159
140 156 153
77 101 62
75 99 58
72 96 56
77 102 60
76 100 59
73 97 56
74 99 58
76 101 60
76 100 59
77 102 60
74 98 58
71 95 55
81 106 63
70 94 54
77 102 61
77 101 60
71 95 55
76 99 58
73 97 57
116 133 119
155 167 168
158 170 172
158 171 172
160 172 179
162 174 177
161 175 179
152 165 167
156 169 174
156 169 173
160 173 177
160 172 174
151 163 166
163 175 178
161 173 177
155 167 168
157 169 172
166 178 181
150 162 162
121 138 126
71 95 54
73 97 57
71 94 55
70 94 54
76 101 59
71 94 54
69 93 54
74 98 57
76 101 60
72 96 56
76 100 59
76 100 59
77 102 60
72 96 55
76 100 59
78 102 60
82 103 74
133 147 143
150 163 161
143 157 152
135 150 145
136 150 147
118 134 122
112 128 114
109 127 112
104 121 104
98 118 93
85 107 76
72 95 56
77 102 61
72 97 56
69 91 55
112 129 115
159 173 176
150 164 167
152 164 165
153 165 167
141 154 155
153 166 170
150 164 166
150 163 163
145 159 155
155 167 171
153 166 167
131 146 142
134 148 145
159 173 175
136 150 148
128 143 141
148 162 162
153 166 168
143 157 158
154 168 172
138 152 151
145 158 159
135 150 146
132 145 143
127 141 135
137 151 148
158 171 175
178 189 197
200 212 224
211 223 238
225 237 254
225 237 254
225 237 254
225 237 254
225 237 254
225 237 254
225 237 254
225 237 254
225 237 254
225 237 254
225 237 254
225 237 254
225 237 254
225 237 254
225 237 254
225 237 254
225 237 254
225 237 254
225 237 254
225 237 254
225 237 254
225 237 254
225 237 254
225 237 254
225 237 254
225 237 254
225 237 254
225 237 254
225 237 254
225 237 254
225 237 254
225 237 254
225 237 254
225 237 254
225 237 254
225 237 254
225 237 254
225 237 254
225 237 254
225 237 254
225 237 254
225 237 254
225 237 254
225 237 254
225 237 254
225 237 254
225 237 254
225 237 254
225 237 254
225 237 254
225 237 254
225 237 254
225 237 254
225 237 254
225 237 254
225 237 254
225 237 254
225 237 254
225 237 254
225 237 254
225 237 254
225 237 254
225 237 254
225 237 254
225 237 254
225 237 254
225 237 254
225 237 254
225 237 254
225 237 254
225 237 254
225 237 254
225 237 254
225 237 254
225 237 254
225 237 254
225 237 254
225 237 254
225 237 254
225 237 254
225 237 254
225 237 254
225 237 254
225 237 254
225 237 254
225 237 254
225 237 254
225 237 254
225 237 254
225 237 254
225 237 254
225 237 254
225 237 254
225 237 254
225 237 254
225 237 254
225 237 254
225 237 254
225 237 254
225 237 254
225 237 254
225 237 254
225 237 254
225 237 254
225 237 254
225 237 254
225 237 254
225 237 254
225 237 254
225 237 254
225 237 254
225 237 254
225 237 254
225 237 254
225 237 254
225 237 254
225 237 254
225 237 254
225 237 254
225 237 254
225 237 254
225 237 254
225 237 254
225 237 254
225 237 254
225 237 254
225 237 254
225 237 254
225 237 254
225 237 254
225 237 254
225 237 254
225 237 254
225 237 254
225 237 254
225 237 254
225 237 254
225 237 254
225 237 254
225 237 254
225 237 254
225 237 254
225 237 254
225 237 254
225 237 254
225 237 254
225 237 254
225 237 254
225 237 254
225 237 254
225 237 254
225 237 254
225 237 254
225 237 254
225 237 254
225 237 254
225 237 254
225 237 254
225 237 254
225 237 254
225 237 254
225 237 254
225 237 254
225 237 254
225 237 254
225 237 254
225 237 254
225 237 254
225 237 254
225 237 254
225 237 254
225 237 254
225 237 254
225 237 254
225 237 254
225 237 254
225 237 254
225 237 254
225 237 254
225 237 254
225 237 254
225 237 254
225 237 254
225 237 254
225 237 254
204 216 228
188 201 210
169 181 187
155 167 169
120 137 126
90 108 86
74 95 64
79 100 68
96 116 91
100 117 104
126 142 136
125 140 137
137 151 149
163 176 181
150 164 167
161 173 177
135 149 145
142 156 155
129 146 139
114 130 118
90 109 87
81 102 73
68 91 52
71 94 55
70 92 54
134 148 141
162 175 179
156 169 171
157 169 174
148 161 163
156 169 171
150 163 164
131 145 143
124 139 132
114 128 118
102 119 105
83 104 75
70 93 56
73 98 57
70 92 54
74 98 58
69 92 54
70 94 55
73 98 57
76 100 59
75 99 57
76 100 59
116 132 121
155 167 169
156 169 171
162 174 179
161 173 178
151 165 166
159 173 175
140 154 151
127 141 136
126 141 133
124 141 131
126 142 132
95 115 90
93 113 89
75 98 63
66 89 51
75 100 59
79 103 61
67 90 51
73 97 56
73 97 57
76 100 62
130 145 139
151 166 167
166 178 182
162 175 178
151 164 168
156 170 170
167 179 184
170 182 187
153 166 166
144 157 159
160 173 175
153 167 169
153 167 169
169 181 189
160 173 177
160 173 176
148 161 163
164 176 181
173 185 190
161 174 179
158 171 172
131 145 140
78 102 61
72 96 56
74 97 57
79 103 66
90 111 83
96 115 92
92 112 86
112 130 112
122 139 127
122 140 126
115 132 117
120 136 126
131 147 139
129 144 139
132 147 142
132 147 140
139 154 149
145 157 157
139 153 151
148 161 160
119 135 125
85 106 76
73 98 56
73 97 57
75 99 58
79 104 61
74 98 58
78 102 61
70 93 53
75 99 58
71 95 55
76 100 60
74 97 57
73 97 57
72 96 56
72 96 56
76 100 58
78 103 60
72 96 56
82 104 74
127 142 136
160 174 179
154 166 167
163 175 179
155 168 169
155 169 171
149 162 163
167 180 187
163 176 180
153 166 169
158 172 176
158 171 175
155 168 169
154 167 168
153 166 168
162 174 179
158 171 173
159 171 173
150 164 165
96 115 93
89 111 81
86 106 81
102 123 98
100 118 99
114 131 114
122 138 127
113 130 117
117 134 119
110 127 112
127 144 135
141 154 152
130 145 140
132 145 142
145 159 159
145 159 162
136 150 143
113 130 115
73 97 57
71 95 54
75 100 59
76 100 59
71 95 55
72 96 56
68 92 54
77 102 60
70 93 54
65 88 51
74 98 57
70 93 54
74 98 58
75 99 58
107 125 108
157 170 174
147 160 161
143 158 157
144 157 156
135 149 148
150 164 164
131 145 143
127 141 138
114 130 118
84 105 78
99 118 99
91 110 88
97 114 95
145 159 159
152 164 165
147 161 162
143 158 159
136 150 148
118 134 127
128 143 137
122 137 127
102 120 102
119 134 127
157 170 174
173 186 193
199 211 223
205 217 230
225 237 254
225 237 254
225 237 254
225 237 254
225 237 254
225 237 254
225 237 254
225 237 254
225 237 254
225 237 254
225 237 254
225 237 254
225 237 254
225 237 254
225 237 254
225 237 254
225 237 254
225 237 254
225 237 254
225 237 254
225 237 254
225 237 254
225 237 254
225 237 254
225 237 254
225 237 254
225 237 254
225 237 254
225 237 254
225 237 254
225 237 254
225 237 254
225 237 254
225 237 254
225 237 254
225 237 254
225 237 254
225 237 254
225 237 254
225 237 254
225 237 254
225 237 254
225 237 254
225 237 254
225 237 254
225 237 254
225 237 254
225 237 254
225 237 254
225 237 254
225 237 254
225 237 254
225 237 254
225 237 254
225 237 254
225 237 254
225 237 254
225 237 254
225 237 254
225 237 254
225 237 254
225 237 254
225 237 254
225 237 254
225 237 254
225 237 254
225 237 254
225 237 254
225 237 254
225 237 254
225 237 254
225 237 254
225 237 254
225 237 254
225 237 254
225 237 254
225 237 254
225 237 254
225 237 254
225 237 254
225 237 254
225 237 254
225 237 254
225 237 254
225 237 254
225 237 254
225 237 254
225 237 254
225 237 254
225 237 254
225 237 254
225 237 254
225 237 254
225 237 254
225 237 254
225 237 254
225 237 254
225 237 254
225 237 254
225 237 254
225 237 254
225 237 254
225 237 254
225 237 254
225 237 254
225 237 254
225 237 254
225 237 254
225 237 254
225 237 254
225 237 254
225 237 254
225 237 254
225 237 254
225 237 254
225 237 254
225 237 254
225 237 254
225 237 254
225 237 254
225 237 254
225 237 254
225 237 254
225 237 254
225 237 254
225 237 254
225 237 254
225 237 254
225 237 254
225 237 254
225 237 254
225 237 254
225 237 254
225 237 254
225 237 254
225 237 254
225 237 254
225 237 254
225 237 254
225 237 254
225 237 254
225 237 254
225 237 254
225 237 254
225 237 254
225 237 254
225 237 254
225 237 254
225 237 254
225 237 254
225 237 254
225 237 254
225 237 254
225 237 254
225 237 254
225 237 254
225 237 254
225 237 254
225 237 254
225 237 254
225 237 254
225 237 254
225 237 254
225 237 254
225 237 254
225 237 254
225 238 254
225 237 254
225 238 254
225 238 254
225 238 254
225 238 254
225 238 254
225 238 254
225 238 254
225 238 254
225 238 254
225 238 254
225 238 254
225 238 254
225 238 254
225 238 254
225 238 254
225 238 254
225 238 254
225 238 254
225 238 254
225 238 254
225 238 254
225 238 254
225 238 254
225 238 254
225 238 254
225 238 254
225 238 254
217 229 245
208 221 234
180 192 200
165 178 183
131 145 142
100 116 104
74 95 64
77 98 66
83 102 79
98 116 99
118 131 126
135 149 147
138 151 150
145 159 160
152 163 167
143 157 156
132 146 143
159 172 175
129 142 138
88 105 87
130 145 138
128 144 139
148 161 161
144 158 159
155 167 171
142 154 156
152 165 167
146 159 161
149 163 167
162 175 178
148 161 162
155 168 169
156 169 171
146 159 158
116 131 122
118 134 124
96 112 95
99 115 98
92 112 88
75 99 58
71 95 55
114 130 121
148 161 163
147 160 162
142 156 156
147 161 161
155 167 171
156 169 172
152 165 169
150 163 166
166 178 182
146 159 159
161 173 178
146 159 158
148 161 160
139 153 150
166 180 187
147 161 160
135 149 144
124 139 130
115 129 124
111 130 111
110 127 110
118 135 125
142 155 156
152 165 166
148 162 166
160 173 177
145 158 158
156 169 171
146 158 160
141 156 154
149 162 164
154 167 171
154 167 170
157 170 173
151 165 166
162 174 178
164 176 179
157 169 171
153 166 169
162 175 182
153 165 168
164 176 179
121 137 129
80 103 67
75 99 57
75 99 59
73 98 57
74 99 57
70 94 55
75 99 58
75 99 58
78 102 60
74 98 58
69 93 53
75 99 58
73 97 56
73 96 56
75 99 57
75 99 58
77 102 59
70 94 54
67 91 52
79 102 63
132 145 143
165 178 184
155 168 169
165 177 181
154 167 169
152 166 168
158 171 174
148 161 163
160 172 175
151 163 164
156 169 173
149 162 161
150 163 163
141 156 156
153 166 169
131 146 140
147 161 158
153 166 168
126 141 135
133 148 142
95 115 89
94 112 91
96 115 92
95 115 93
102 121 99
100 119 96
88 108 82
87 107 81
97 116 94
89 109 85
88 109 80
91 112 84
84 105 76
76 98 63
85 106 76
80 101 71
76 100 62
66 89 51
120 134 129
154 167 169
153 165 166
142 157 157
157 170 172
148 162 161
162 175 179
149 162 165
155 168 170
144 158 156
151 165 168
159 172 177
153 166 169
160 172 177
148 162 163
158 170 175
159 171 174
133 148 145
85 109 73
65 88 50
74 99 58
70 93 54
67 90 51
68 91 53
71 94 55
72 96 57
72 95 56
71 94 55
68 91 53
72 94 56
73 96 57
86 106 82
91 111 86
121 134 129
111 125 117
122 138 128
97 114 97
87 107 82
81 103 72
71 93 58
68 91 53
77 101 59
67 89 52
69 91 53
79 99 72
115 133 117
131 144 143
126 141 135
114 130 121
90 109 87
95 114 93
93 112 89
114 128 120
127 143 135
170 182 188
201 214 226
216 228 244
225 238 254
225 238 254
225 238 254
225 238 254
225 238 254
225 238 254
225 238 254
225 238 254
225 238 254
225 238 254
225 238 254
225 238 254
225 238 254
225 238 254
225 238 254
225 238 254
225 238 254
225 238 254
225 238 254
225 238 254
225 238 254
225 238 254
225 238 254
225 238 254
225 238 254
225 238 254
225 238 254
225 238 254
225 237 254
225 237 254
225 238 254
225 237 254
225 237 254
225 237 254
225 237 254
225 237 254
225 237 254
225 237 254
225 237 254
225 237 254
225 237 254
225 237 254
225 237 254
225 237 254
225 237 254
225 237 254
225 237 254
225 237 254
225 237 254
225 237 254
225 237 254
225 237 254
225 237 254
225 237 254
225 237 254
225 237 254
225 237 254
225 237 254
225 237 254
225 237 254
225 237 254
225 237 254
225 237 254
225 237 254
225 237 254
225 237 254
225 237 254
225 237 254
225 237 254
225 237 254
225 237 254
225 237 254
225 237 254
225 237 254
225 237 254
225 237 254
225 237 254
225 237 254
225 237 254
225 237 254
225 237 254
225 237 254
225 237 254
225 237 254
225 237 254
225 237 254
225 237 254
225 237 254
225 237 254
225 237 254
225 237 254
225 237 254
225 237 254
225 237 254
225 237 254
225 237 254
225 237 254
225 237 254
225 237 254
225 237 254
225 237 254
225 237 254
225 237 254
225 237 254
225 237 254
225 237 254
225 237 254
225 237 254
225 237 254
225 237 254
225 237 254
225 237 254
225 237 254
225 237 254
225 237 254
225 237 254
225 237 254
225 237 254
225 237 254
225 237 254
225 237 254
225 237 254
225 237 254
225 237 254
225 237 254
225 237 254
225 237 254
225 237 254
225 237 254
225 237 254
225 237 254
225 237 254
225 237 254
225 237 254
225 237 254
225 237 254
225 237 254
225 237 254
225 237 254
225 238 254
225 238 254
225 238 254
225 238 254
225 238 254
225 238 254
225 238 254
225 238 254
225 238 254
225 238 254
225 238 254
225 238 254
225 238 254
225 238 254
225 238 254
225 238 254
225 238 254
225 238 254
225 238 254
225 238 254
225 238 254
225 238 254
225 238 254
225 238 254
226 238 254
226 238 254
226 238 254
226 238 254
226 238 254
226 238 254
226 238 254
226 238 254
226 238 254
226 238 254
226 238 254
226 238 254
226 238 254
226 238 254
226 238 254
226 238 254
226 238 254
226 238 254
226 238 254
226 238 254
226 238 254
226 238 254
226 238 254
226 238 254
226 238 254
226 238 254
226 238 254
226 238 254
226 238 254
226 238 254
226 238 254
226 238 254
226 238 254
226 238 254
226 238 254
226 238 254
226 238 254
226 238 254
226 238 254
226 238 254
226 238 254
226 238 254
221 233 250
206 218 231
197 209 220
163 177 179
135 148 148
108 122 114
79 96 76
79 100 71
64 85 53
98 116 99
110 126 115
132 146 140
136 148 146
88 106 85
66 89 51
71 94 55
67 90 53
66 89 51
73 94 61
77 96 71
113 129 114
122 138 127
130 145 137
133 148 146
147 159 160
134 149 145
145 158 158
152 164 166
141 154 153
156 169 174
145 158 160
140 153 153
155 168 170
146 160 161
148 160 161
111 127 112
95 113 94
111 128 117
120 137 125
122 135 130
144 157 158
145 158 159
153 165 168
158 170 172
152 165 165
149 162 163
149 162 165
144 157 158
141 155 153
150 162 163
140 155 155
156 169 173
152 166 168
160 173 178
155 167 169
152 165 169
140 154 153
108 125 113
71 95 55
66 89 51
74 98 58
80 103 69
89 111 80
96 115 94
110 128 114
117 132 121
128 144 135
150 163 163
132 147 141
126 141 135
154 168 168
135 151 147
146 159 159
150 162 164
151 164 166
135 149 147
151 163 164
148 161 160
105 121 107
72 96 56
75 99 59
66 89 50
68 91 52
74 99 58
73 97 57
70 93 54
72 96 56
73 96 56
68 91 52
77 101 60
75 100 59
75 99 58
70 94 56
72 96 57
74 97 56
70 93 54
71 95 56
71 94 55
82 102 74
132 146 142
150 163 168
157 168 173
151 164 165
151 163 164
159 172 175
157 169 173
144 157 159
155 167 169
153 166 168
161 174 177
150 163 164
159 171 177
145 159 160
166 177 180
147 160 162
161 173 178
153 165 166
151 164 166
125 140 132
73 96 61
73 97 56
73 97 57
74 98 58
68 91 53
74 98 57
69 91 53
69 92 53
73 97 57
72 96 56
70 94 55
70 94 54
78 102 61
71 94 55
68 91 52
71 95 56
72 96 55
97 118 91
138 154 150
147 161 164
143 157 157
133 147 145
158 171 174
149 162 166
154 167 171
150 163 166
152 165 166
156 168 173
147 160 161
130 143 142
149 161 165
145 158 160
141 154 155
138 152 152
135 150 145
79 101 66
72 96 55
67 89 52
76 99 62
73 95 62
79 100 69
95 113 94
112 128 115
132 146 141
109 125 112
125 139 135
131 145 142
135 150 146
133 147 144
107 123 113
74 95 62
69 92 53
68 91 53
68 92 53
74 98 58
65 87 50
66 89 52
75 97 63
89 108 86
92 109 92
102 118 106
81 102 72
65 87 54
77 99 70
65 85 53
92 110 90
123 139 131
155 169 168
188 200 210
198 210 223
221 233 249
226 238 254
226 238 254
226 238 254
226 238 254
226 238 254
226 238 254
226 238 254
226 238 254
226 238 254
226 238 254
226 238 254
226 238 254
226 238 254
226 238 254
226 238 254
226 238 254
226 238 254
226 238 254
226 238 254
226 238 254
226 238 254
226 238 254
226 238 254
226 238 254
226 238 254
226 238 254
226 238 254
226 238 254
226 238 254
226 238 254
226 238 254
226 238 254
226 238 254
226 238 254
226 238 254
226 238 254
226 238 254
226 238 254
226 238 254
226 238 254
226 238 254
226 238 254
225 238 254
225 238 254
225 238 254
225 238 254
225 238 254
225 238 254
225 238 254
225 238 254
225 238 254
225 238 254
225 238 254
225 238 254
225 238 254
225 238 254
225 238 254
225 238 254
225 238 254
225 238 254
225 238 254
225 238 254
225 238 254
225 238 254
225 238 254
225 237 254
225 237 254
225 237 254
225 237 254
225 237 254
225 237 254
225 237 254
225 237 254
225 237 254
225 237 254
225 237 254
225 237 254
225 237 254
225 237 254
225 237 254
225 237 254
225 237 254
225 237 254
225 237 254
225 237 254
225 237 254
225 237 254
225 237 254
225 237 254
225 237 254
225 237 254
225 237 254
225 237 254
225 237 254
225 237 254
225 237 254
225 237 254
225 237 254
225 237 254
225 237 254
225 237 254
225 237 254
225 237 254
225 237 254
225 237 254
225 237 254
225 237 254
225 237 254
225 237 254
225 237 254
225 237 254
225 237 254
225 237 254
225 237 254
225 237 254
225 237 254
225 237 254
225 237 254
225 237 254
225 238 254
225 238 254
225 238 254
225 238 254
225 238 254
225 238 254
225 238 254
225 238 254
225 238 254
225 238 254
225 238 254
225 238 254
225 238 254
225 238 254
225 238 254
225 238 254
225 238 254
225 238 254
225 238 254
226 238 254
226 238 254
226 238 254
226 238 254
226 238 254
226 238 254
226 238 254
226 238 254
226 238 254
226 238 254
226 238 254
226 238 254
226 238 254
226 238 254
226 238 254
226 238 254
226 238 254
226 238 254
226 238 254
226 238 254
226 238 254
226 238 254
226 238 254
226 238 254
226 238 254
226 238 254
226 238 254
226 238 254
226 238 254
226 238 254
226 238 254
226 238 254
226 238 254
226 238 254
226 238 254
226 238 254
226 238 254
226 238 254
226 238 254
226 238 254
226 238 254
226 238 254
226 238 254
226 238 254
226 238 254
226 238 254
226 238 254
226 238 254
226 238 254
226 238 254
226 238 254
226 238 254
226 238 254
226 238 254
226 238 254
226 238 254
226 238 254
226 238 254
226 238 254
226 238 254
226 238 254
226 238 254
226 238 254
226 238 254
226 238 254
226 238 254
226 238 254
226 238 254
226 238 254
226 238 254
226 238 254
226 238 254
226 238 254
226 238 254
226 238 254
226 238 254
226 238 254
226 238 254
221 233 250
200 213 224
174 186 192
166 179 183
135 148 147
142 155 155
129 142 141
129 142 139
118 132 127
124 138 133
105 122 111
93 110 93
94 112 95
85 105 80
68 90 56
65 87 50
70 92 54
67 90 52
71 93 58
79 100 70
87 106 83
110 127 112
106 123 108
121 136 133
133 146 144
148 162 164
142 155 156
141 154 154
103 122 103
71 94 55
66 89 52
66 89 51
67 90 52
67 90 52
69 92 54
71 95 56
80 102 71
88 108 81
103 121 104
100 119 103
98 115 101
113 129 121
126 142 134
133 147 145
155 167 169
158 171 176
149 160 161
148 162 163
146 158 157
144 159 158
94 112 90
66 89 51
70 94 55
77 101 60
66 89 52
67 91 52
74 98 57
70 92 54
71 95 55
73 97 57
68 91 53
70 94 54
65 87 50
71 95 56
70 94 55
75 99 58
75 99 59
74 96 64
101 120 100
95 114 90
98 118 96
146 159 161
109 124 115
113 129 116
115 131 116
115 133 117
88 106 84
101 120 102
99 118 96
84 103 79
79 101 73
82 105 70
66 89 51
69 92 53
66 89 51
72 96 56
73 98 58
71 96 56
71 94 54
73 97 57
67 90 52
109 126 112
163 176 182
154 167 168
155 167 171
154 167 171
142 156 155
141 155 155
151 166 168
151 164 166
149 162 163
150 165 168
147 161 165
152 165 169
133 147 146
149 163 163
149 161 163
153 166 169
155 168 170
151 164 167
154 167 169
105 123 107
68 92 54
73 97 57
75 100 59
64 86 49
68 91 52
71 94 55
67 90 52
71 95 55
70 92 53
71 94 56
63 85 48
70 93 54
73 97 57
76 100 59
71 95 57
72 96 56
78 99 67
127 142 134
156 169 173
149 162 163
141 153 152
143 157 157
148 161 163
139 151 150
138 152 155
145 158 158
138 153 151
149 162 165
142 156 154
131 145 141
123 138 131
121 138 126
99 117 101
135 148 146
129 144 140
126 141 137
130 143 140
140 151 150
146 158 161
148 160 163
151 164 165
145 158 158
144 158 160
140 152 152
149 161 164
143 156 160
144 157 158
127 141 137
124 137 131
77 98 67
78 98 67
75 95 66
97 114 99
103 118 105
116 132 121
119 133 128
129 142 141
138 151 150
139 151 153
107 123 109
122 137 131
128 143 136
163 176 181
179 191 199
200 212 225
221 233 250
226 238 254
226 238 254
226 238 254
226 238 254
226 238 254
226 238 254
226 238 254
226 238 254
226 238 254
226 238 254
226 238 254
226 238 254
226 238 254
226 238 254
226 238 254
226 238 254
226 238 254
226 238 254
226 238 254
226 238 254
226 238 254
226 238 254
226 238 254
226 238 254
226 238 254
226 238 254
226 238 254
226 238 254
226 238 254
226 238 254
226 238 254
226 238 254
226 238 254
226 238 254
226 238 254
226 238 254
226 238 254
226 238 254
226 238 254
226 238 254
226 238 254
226 238 254
226 238 254
226 238 254
226 238 254
226 238 254
226 238 254
226 238 254
226 238 254
226 238 254
226 238 254
226 238 254
226 238 254
226 238 254
226 238 254
226 238 254
226 238 254
226 238 254
226 238 254
226 238 254
226 238 254
226 238 254
226 238 254
226 238 254
226 238 254
226 238 254
226 238 254
226 238 254
226 238 254
226 238 254
226 238 254
226 238 254
226 238 254
226 238 254
226 238 254
226 238 254
225 238 254
226 238 254
225 238 254
225 238 254
225 238 254
225 238 254
225 238 254
225 238 254
225 238 254
225 238 254
225 238 254
225 238 254
225 238 254
225 238 254
225 238 254
225 238 254
225 238 254
225 238 254
225 238 254
225 238 254
225 238 254
225 238 254
225 237 254
225 237 254
225 237 254
225 237 254
225 237 254
225 237 254
225 237 254
225 237 254
225 237 254
225 237 254
225 237 254
225 237 254
225 237 254
225 238 254
225 238 254
225 238 254
225 238 254
225 238 254
225 238 254
225 238 254
226 238 254
226 238 254
226 238 254
226 238 254
226 238 254
226 238 254
226 238 254
226 238 254
226 238 254
226 238 254
226 238 254
226 238 254
226 238 254
226 238 254
226 238 254
226 238 254
226 238 254
226 238 254
226 238 254
226 238 254
226 238 254
226 238 254
226 238 254
226 238 254
226 238 254
226 238 254
226 238 254
226 238 254
226 238 254
226 238 254
226 238 254
226 238 254
226 238 254
226 238 254
226 238 254
226 238 254
226 238 254
226 238 254
226 238 254
226 238 254
226 238 254
226 238 254
226 238 254
226 238 254
226 238 254
226 238 254
226 238 254
226 238 254
226 238 254
226 238 254
226 238 254
226 238 254
226 238 254
226 238 254
226 238 254
226 238 254
226 238 254
226 238 254
226 238 254
226 238 254
226 238 254
226 238 254
226 238 254
226 238 254
226 238 254
226 238 254
226 238 254
226 238 254
226 238 254
226 238 254
226 238 254
226 238 254
226 238 254
226 238 254
226 238 254
226 238 254
226 238 254
226 238 254
226 238 254
226 238 254
226 238 254
226 238 254
226 238 254
226 238 254
226 238 254
226 238 254
226 238 254
226 238 254
226 238 254
226 238 254
226 238 254
226 238 254
226 238 254
226 238 254
226 238 254
226 238 254
226 238 254
226 238 254
226 238 254
226 238 254
226 238 254
226 238 254
226 238 254
226 238 254
226 238 254
226 238 254
226 238 254
226 238 254
226 238 254
226 238 254
223 235 251
215 227 242
203 215 228
168 181 186
167 179 186
151 164 166
121 136 130
109 124 115
88 104 90
106 121 112
105 121 107
104 119 107
85 101 87
80 99 75
76 97 68
66 87 57
63 84 49
68 91 54
67 90 53
71 93 57
75 96 68
122 138 131
117 132 123
106 122 106
107 123 108
101 118 103
78 99 70
69 92 53
68 91 54
73 97 56
66 89 51
65 88 50
66 89 52
67 90 52
67 90 52
69 93 54
70 95 55
65 87 49
69 92 53
71 92 60
94 111 90
101 120 103
126 139 134
114 130 118
107 124 109
110 126 116
87 106 83
85 107 76
81 103 68
71 95 55
62 84 48
71 95 55
68 90 52
73 96 56
71 95 56
67 90 52
69 92 53
69 93 53
66 88 51
62 84 48
72 95 55
69 93 53
71 96 56
94 111 92
147 161 162
154 167 171
137 151 151
141 155 155
152 165 166
149 163 164
144 158 160
140 154 153
154 166 169
151 164 164
150 164 166
143 156 153
152 165 167
141 153 155
146 159 161
135 149 145
132 148 143
140 153 153
122 137 130
126 142 135
95 114 91
95 116 93
98 115 99
111 127 118
120 135 125
122 138 131
115 130 120
122 138 132
118 134 127
112 129 116
139 153 152
131 145 138
121 138 128
126 141 134
134 148 142
112 128 119
118 132 125
131 144 141
136 149 147
150 163 163
94 114 91
99 118 97
112 130 116
100 116 99
96 112 96
117 133 123
114 130 119
124 139 132
113 128 117
115 131 124
117 133 124
114 131 120
122 138 130
121 138 129
125 142 133
127 141 135
113 128 119
76 96 69
96 114 95
88 105 86
94 111 94
99 117 97
86 105 82
75 96 62
74 95 62
70 93 53
69 92 53
65 87 50
68 90 52
65 88 51
67 90 51
62 84 48
80 101 68
113 129 116
119 134 127
161 174 179
139 151 152
145 158 161
148 160 165
140 153 152
139 152 152
140 153 152
140 153 153
124 137 133
134 148 148
111 125 117
138 152 148
123 138 134
131 146 142
114 128 123
127 140 136
120 135 126
112 126 119
112 127 118
116 130 123
110 123 117
144 156 158
142 154 157
167 180 186
197 209 220
211 223 238
223 235 251
226 238 254
226 238 254
226 238 254
226 238 254
226 238 254
226 238 254
226 238 254
226 238 254
226 238 254
226 238 254
226 238 254
226 238 254
226 238 254
226 238 254
226 238 254
226 238 254
226 238 254
226 238 254
226 238 254
226 238 254
226 238 254
226 238 254
226 238 254
226 238 254
226 238 254
226 238 254
226 238 254
226 238 254
226 238 254
226 238 254
226 238 254
226 238 254
226 238 254
226 238 254
226 238 254
226 238 254
226 238 254
226 238 254
226 238 254
226 238 254
226 238 254
226 238 254
226 238 254
226 238 254
226 238 254
226 238 254
226 238 254
226 238 254
226 238 254
226 238 254
226 238 254
226 238 254
226 238 254
226 238 254
226 238 254
226 238 254
226 238 254
226 238 254
226 238 254
226 238 254
226 238 254
226 238 254
226 238 254
226 238 254
226 238 254
226 238 254
226 238 254
226 238 254
226 238 254
226 238 254
226 238 254
226 238 254
226 238 254
226 238 254
226 238 254
226 238 254
226 238 254
226 238 254
226 238 254
226 238 254
226 238 254
226 238 254
226 238 254
226 238 254
226 238 254
226 238 254
226 238 254
226 238 254
226 238 254
226 238 254
226 238 254
226 238 254
226 238 254
226 238 254
226 238 254
226 238 254
226 238 254
226 238 254
226 238 254
226 238 254
226 238 254
226 238 254
226 238 254
226 238 254
226 238 254
226 238 254
226 238 254
226 238 254
226 238 254
226 238 254
225 238 254
225 238 254
225 238 254
225 238 254
225 238 254
225 238 254
225 238 254
226 238 254
226 238 254
226 238 254
226 238 254
226 238 254
226 238 254
226 238 254
226 238 254
226 238 254
226 238 254
226 238 254
226 238 254
226 238 254
226 238 254
226 238 254
226 238 254
226 238 254
226 238 254
226 238 254
226 238 254
226 238 254
226 238 254
226 238 254
226 238 254
226 238 254
226 238 254
226 238 254
226 238 254
226 238 254
226 238 254
226 238 254
226 238 254
226 238 254
226 238 254
226 238 254
226 238 254
226 238 254
226 238 254
226 238 254
226 238 254
226 238 254
226 238 254
226 238 254
226 238 254
226 238 254
226 238 254
226 238 254
226 238 254
226 238 254
226 238 254
226 238 254
226 238 254
226 238 254
226 238 254
226 238 254
226 238 254
226 238 254
226 238 254
226 238 254
226 238 254
226 238 254
226 238 254
226 238 254
226 238 254
226 238 254
226 238 254
226 238 254
226 238 254
226 238 254
226 238 254
226 238 254
226 238 254
226 238 254
226 238 254
226 238 254
226 238 254
226 238 254
226 238 254
226 238 254
226 238 254
226 238 254
226 238 254
226 238 254
226 238 254
226 238 254
226 238 254
226 238 254
226 238 254
226 238 254
226 238 254
226 238 254
226 238 254
226 238 254
226 238 254
226 238 254
226 238 254
226 238 254
226 238 254
226 238 254
226 238 254
226 238 254
226 238 254
226 238 254
226 238 254
226 238 254
226 238 254
226 238 254
226 238 254
226 238 254
226 238 254
226 238 254
226 238 254
226 238 254
226 238 254
226 238 254
226 238 254
226 238 254
226 238 254
226 238 254
226 238 254
226 238 254
226 238 254
226 238 254
226 238 254
219 231 247
208 220 234
189 201 210
171 183 191
100 114 105
93 107 97
86 102 87
83 99 84
72 90 69
84 102 79
77 96 71
100 115 103
124 138 134
126 139 138
131 145 144
135 148 147
122 136 133
125 140 137
130 145 144
125 139 135
131 144 142
126 140 139
132 145 145
126 140 135
116 130 123
105 122 109
85 102 81
76 96 71
82 103 73
67 88 54
67 90 52
64 86 49
65 87 51
77 97 71
127 143 138
129 142 138
148 160 161
150 163 165
140 153 156
137 149 150
142 155 155
143 157 154
128 142 138
147 159 162
126 140 138
137 149 146
117 133 123
113 128 120
106 121 109
105 121 108
100 117 100
96 113 94
90 108 89
86 106 79
75 98 61
119 135 126
137 151 147
147 159 160
144 157 157
136 150 150
150 164 164
141 154 154
146 160 163
139 154 153
151 164 166
140 154 154
141 156 155
152 164 167
142 154 155
139 152 152
137 150 150
152 165 167
162 175 181
147 160 162
145 158 159
121 137 130
77 98 67
69 92 54
70 93 55
70 94 56
72 96 56
64 86 49
69 93 54
73 97 57
69 93 53
72 95 56
71 94 55
65 87 50
70 93 55
63 85 49
67 91 52
69 92 53
61 82 47
66 89 52
115 131 119
145 158 160
147 159 160
144 156 158
127 141 135
145 159 161
144 159 160
145 159 160
150 162 167
130 143 141
149 161 164
135 150 148
132 145 144
136 150 149
145 159 159
150 163 166
131 144 143
138 151 151
107 123 114
70 92 57
67 90 52
64 86 49
74 98 58
66 89 51
65 87 50
64 86 49
73 97 57
66 89 52
70 92 54
65 87 51
65 88 51
70 93 54
74 96 63
85 103 81
103 117 110
118 134 127
108 122 117
122 136 129
106 120 111
121 136 132
93 109 93
108 125 113
100 118 103
112 127 119
94 112 93
118 132 126
99 114 102
92 107 96
86 104 82
101 116 104
96 111 99
99 116 103
95 111 100
118 132 130
173 185 194
206 217 231
214 226 241
222 234 250
226 238 254
226 238 254
226 238 254
226 238 254
226 238 254
226 238 254
226 238 254
226 238 254
226 238 254
226 238 254
226 238 254
226 238 254
226 238 254
226 238 254
226 238 254
226 238 254
226 238 254
226 238 254
226 238 254
226 238 254
226 238 254
226 238 254
226 238 254
226 238 254
226 238 254
226 238 254
226 238 254
226 238 254
226 238 254
226 238 254
226 238 254
226 238 254
226 238 254
226 238 254
226 238 254
226 238 254
226 238 254
226 238 254
226 238 254
226 238 254
226 238 254
226 238 254
226 238 254
226 238 254
226 238 254
226 238 254
226 238 254
226 238 254
226 238 254
226 238 254
226 238 254
226 238 254
226 238 254
226 238 254
226 238 254
226 238 254
226 238 254
226 238 254
226 238 254
226 238 254
226 238 254
226 238 254
226 238 254
226 238 254
226 238 254
226 238 254
226 238 254
226 238 254
226 238 254
226 238 254
226 238 254
226 238 254
226 238 254
226 238 254
226 238 254
226 238 254
226 238 254
226 238 254
226 238 254
226 238 254
226 238 254
226 238 254
226 238 254
226 238 254
226 238 254
226 238 254
226 238 254
226 238 254
226 238 254
226 238 254
226 238 254
226 238 254
226 238 254
226 238 254
226 238 254
226 238 254
226 238 254
226 238 254
226 238 254
226 238 254
226 238 254
226 238 254
226 238 254
226 238 254
226 238 254
226 238 254
226 238 254
226 238 254
226 238 254
226 238 254
226 238 254
226 238 254
226 238 254
226 238 254
226 238 254
226 238 254
226 238 254
226 238 254
226 238 254
226 238 254
226 238 254
226 238 254
226 238 254
226 238 254
226 238 254
226 238 254
226 238 254
226 238 254
226 238 254
226 238 254
226 238 254
226 238 254
226 238 254
226 238 254
226 238 254
226 238 254
226 238 254
226 238 254
226 238 254
226 238 254
226 238 254
226 238 254
226 238 254
226 238 254
226 238 254
226 238 254
226 238 254
226 238 254
226 238 254
226 238 254
226 238 254
226 238 254
226 238 254
226 238 254
226 238 254
226 238 254
226 238 254
226 238 254
226 238 254
226 238 254
226 238 254
226 238 254
226 238 254
226 238 254
226 238 254
226 238 254
226 238 254
226 238 254
226 238 254
226 238 254
226 238 254
226 238 254
226 238 254
226 238 254
226 238 254
226 238 254
226 238 254
226 238 254
226 238 254
226 238 254
226 238 254
226 238 254
226 238 254
226 238 254
226 238 254
226 238 254
226 238 254
226 238 254
226 238 254
226 238 254
226 238 254
226 238 254
226 238 254
226 238 254
226 238 254
226 238 254
226 238 254
226 238 254
226 238 254
226 238 254
226 238 254
226 238 254
226 238 254
226 238 254
226 238 254
226 238 254
226 238 254
226 238 254
226 238 254
226 238 254
226 238 254
226 238 254
226 238 254
226 238 254
226 238 254
226 238 254
226 238 254
226 238 254
226 238 254
226 238 254
226 238 254
226 238 254
226 238 254
226 238 254
226 238 254
226 238 254
226 238 254
226 238 254
226 238 254
226 238 254
226 238 254
226 238 254
226 238 254
226 238 254
226 238 254
226 238 254
226 238 254
226 238 254
226 238 254
226 238 254
226 238 254
226 238 254
226 238 254
226 238 254
226 238 254
226 238 254
204 216 229
176 187 198
163 174 182
146 158 162
100 112 109
93 106 101
86 98 96
84 99 90
83 95 88
53 70 48
49 63 44
50 67 43
65 81 60
81 96 83
106 118 113
102 116 109
100 114 105
101 116 108
114 127 123
111 125 117
115 127 124
105 119 112
111 124 119
104 120 111
98 113 102
93 107 97
91 107 91
88 105 88
106 121 111
110 123 117
108 124 112
112 128 117
111 126 117
107 123 112
99 114 104
121 135 129
126 140 138
121 136 128
123 138 134
134 147 146
124 138 133
140 153 155
134 147 148
145 158 161
146 160 161
126 138 137
145 157 159
134 147 148
130 143 139
140 153 153
130 143 143
129 142 139
159 172 175
159 171 176
136 150 149
110 125 118
77 96 71
61 83 47
76 97 68
96 112 96
75 92 70
92 111 88
98 118 100
98 115 98
109 125 114
107 123 111
121 136 127
128 142 136
122 137 129
119 135 128
130 145 142
136 149 152
129 143 139
126 139 136
135 148 147
121 135 131
87 105 87
69 90 57
66 86 54
65 87 50
69 93 54
70 92 54
63 85 48
66 88 50
68 90 51
66 89 51
73 97 56
61 82 48
66 88 51
64 85 49
68 90 53
68 91 53
69 92 53
65 87 50
97 114 99
138 151 151
146 157 159
138 151 151
141 154 157
136 150 150
142 155 155
138 150 154
145 158 159
144 157 159
141 153 157
145 158 160
136 151 150
148 161 165
129 141 141
141 155 153
141 155 153
124 138 136
113 128 122
91 108 91
91 107 93
100 116 101
86 104 85
92 109 92
93 111 94
94 109 99
90 106 92
81 99 77
102 120 104
91 107 92
92 108 93
100 117 103
102 118 106
123 137 134
131 144 146
119 134 128
120 133 130
131 143 142
125 137 135
134 148 146
108 122 117
114 128 125
109 122 116
103 119 110
117 131 126
105 118 112
109 123 120
98 110 105
100 113 109
112 125 126
107 118 119
98 109 110
82 96 87
64 79 65
71 85 73
75 89 76
100 114 112
132 143 146
148 160 165
170 182 191
183 195 205
204 216 230
226 238 254
226 238 254
226 238 254
226 238 254
226 238 254
226 238 254
226 238 254
226 238 254
226 238 254
226 238 254
226 238 254
226 238 254
226 238 254
226 238 254
226 238 254
226 238 254
226 238 254
226 238 254
226 238 254
226 238 254
226 238 254
226 238 254
226 238 254
226 238 254
226 238 254
226 238 254
226 238 254
226 238 254
226 238 254
226 238 254
226 238 254
226 238 254
226 238 254
226 238 254
226 238 254
226 238 254
226 238 254
226 238 254
226 238 254
226 238 254
226 238 254
226 238 254
226 238 254
226 238 254
226 238 254
226 238 254
226 238 254
226 238 254
226 238 254
226 238 254
226 238 254
226 238 254
226 238 254
226 238 254
226 238 254
226 238 254
226 238 254
226 238 254
226 238 254
226 238 254
226 238 254
226 238 254
226 238 254
226 238 254
226 238 254
226 238 254
226 238 254
226 238 254
226 238 254
226 238 254
226 238 254
226 238 254
226 238 254
226 238 254
226 238 254
226 238 254
226 238 254
226 238 254
226 238 254
226 238 254
226 238 254
226 238 254
226 238 254
226 238 254
226 238 254
226 238 254
226 238 254
226 238 254
226 238 254
226 238 254
226 238 254
226 238 254
226 238 254
226 238 254
226 238 254
226 238 254
226 238 254
226 238 254
226 238 254
226 238 254
226 238 254
226 238 254
226 238 254
226 238 254
226 238 254
226 238 254
226 238 254
226 238 254
226 238 254
226 238 254
226 238 254
226 238 254
226 238 254
226 238 254
226 238 254
226 238 254
226 238 254
226 238 254
226 238 254
226 238 254
226 238 254
226 238 254
226 238 254
226 238 254
226 238 254
226 238 254
226 238 254
226 238 254
226 238 254
226 238 254
226 238 254
226 238 254
226 238 254
226 238 254
226 238 254
226 238 254
226 238 254
226 238 254
226 238 254
226 238 254
226 238 254
226 238 254
226 238 254
226 238 254
226 238 254
226 238 254
226 238 254
226 238 254
226 238 254
226 238 254
226 238 254
226 238 254
226 238 254
226 238 254
226 238 254
226 238 254
226 238 254
226 238 254
226 238 254
226 238 254
226 238 254
226 238 254
226 238 254
226 238 254
226 238 254
226 238 254
226 238 254
226 238 254
226 238 254
226 238 254
226 238 254
226 238 254
226 238 254
226 238 254
226 238 254
226 238 254
226 238 254
226 238 254
226 238 254
226 238 254
226 238 254
226 238 254
226 238 254
226 238 254
226 238 254
226 238 254
226 238 254
226 238 254
226 238 254
226 238 254
226 238 254
226 238 254
226 238 254
226 238 254
226 238 254
226 238 254
226 238 254
226 238 254
226 238 254
226 238 254
226 238 254
226 238 254
226 238 254
226 238 254
226 238 254
226 238 254
226 238 254
226 238 254
226 238 254
226 238 254
226 238 254
226 238 254
226 238 254
226 238 254
226 238 254
226 238 254
226 238 254
226 238 254
226 238 254
226 238 254
226 238 254
226 238 254
226 238 254
226 238 254
226 238 254
226 238 254
226 238 254
226 238 254
226 238 254
226 238 254
226 238 254
226 238 254
226 238 254
226 238 254
226 238 254
226 238 254
226 238 254
226 238 254
224 236 252
208 220 235
171 183 192
155 167 172
122 134 134
100 114 109
100 113 111
90 104 98
70 83 73
81 94 87
54 67 55
54 70 48
39 56 30
38 53 29
58 73 56
52 67 48
54 67 54
77 92 80
67 78 71
87 99 97
65 78 69
43 57 38
38 54 30
32 45 24
45 59 39
57 69 60
67 80 67
70 82 74
80 93 82
100 112 108
96 107 105
101 116 108
106 118 114
99 112 106
116 130 127
106 121 112
102 117 108
70 89 64
85 102 81
106 120 111
115 128 124
116 128 128
130 144 142
128 140 141
127 140 139
137 150 151
122 134 133
140 152 155
111 124 118
139 151 152
120 134 128
134 147 146
113 128 120
131 143 141
120 133 131
116 130 122
107 121 112
112 127 122
120 132 131
116 130 123
109 125 114
100 119 101
103 117 110
99 115 104
107 123 114
108 124 114
96 111 102
106 121 111
112 126 117
100 115 105
102 119 103
85 101 84
85 101 84
94 112 94
95 113 94
95 112 94
92 111 90
95 114 91
79 98 77
75 96 65
110 126 115
124 137 132
123 137 134
111 125 119
121 135 132
120 136 131
112 127 120
120 135 132
112 127 120
104 119 109
115 129 123
104 121 109
106 119 112
93 108 98
104 119 109
97 114 101
98 115 97
94 108 98
135 148 147
106 122 111
115 128 122
127 139 136
120 134 131
102 119 105
109 123 116
115 131 123
114 129 121
109 123 118
100 115 104
112 128 120
123 139 133
107 122 113
97 113 101
108 121 114
114 130 121
85 100 90
74 94 67
77 95 71
77 96 73
66 88 52
57 78 48
56 77 43
57 77 44
54 73 42
59 81 46
69 89 58
72 93 61
81 99 74
77 96 72
66 87 54
71 88 64
80 96 78
96 112 98
96 110 101
99 115 104
82 96 83
65 79 65
78 93 80
69 84 69
52 68 47
67 81 70
71 85 72
79 90 87
74 85 79
55 68 55
37 52 28
46 63 37
37 52 29
38 53 30
42 56 36
54 67 53
52 65 51
83 96 91
74 87 79
61 76 61
56 72 50
53 72 42
46 63 36
54 70 48
65 80 64
77 92 77
87 101 93
79 93 84
119 132 129
146 158 161
162 174 180
206 218 232
221 233 249
226 238 254
226 238 254
226 238 254
226 238 254
226 238 254
226 238 254
226 238 254
226 238 254
226 238 254
226 238 254
226 238 254
226 238 254
226 238 254
226 238 254
226 238 254
226 238 254
226 238 254
226 238 254
226 238 254
226 238 254
226 238 254
226 238 254
226 238 254
226 238 254
226 238 254
226 238 254
226 238 254
226 238 254
226 238 254
226 238 254
226 238 254
226 238 254
226 238 254
226 238 254
226 238 254
226 238 254
226 238 254
226 238 254
226 238 254
226 238 254
226 238 254
226 238 254
226 238 254
226 238 254
226 238 254
226 238 254
226 238 254
226 238 254
226 238 254
226 238 254
226 238 254
226 238 254
226 238 254
226 238 254
226 238 254
226 238 254
226 238 254
226 238 254
226 238 254
226 238 254
226 238 254
226 238 254
226 238 254
226 238 254
226 238 254
226 238 254
226 238 254
226 238 254
226 238 254
226 238 254
226 238 254
226 238 254
226 238 254
226 238 254
226 238 254
226 238 254
226 238 254
226 238 254
226 238 254
226 238 254
226 238 254
226 238 254
226 238 254
226 238 254
226 238 254
226 238 254
226 238 254
226 238 254
226 238 254
226 238 254
226 238 254
226 238 254
226 238 254
226 238 254
226 238 254
226 238 254
226 238 254
226 238 254
226 238 254
226 238 254
226 238 254
226 238 254
226 238 254
226 238 254
226 238 254
226 238 254
226 238 254
226 238 254
226 238 254
226 238 254
226 238 254
226 238 254
226 238 254
226 238 254
226 238 254
226 238 254
226 238 254
226 238 254
226 238 254
226 238 254
226 238 254
226 238 254
226 238 254
226 238 254
226 238 254
226 238 254
226 238 254
226 238 254
226 238 254
226 238 254
226 238 254
226 238 254
226 238 254
226 238 254
226 238 254
226 238 254
226 238 254
226 238 254
226 238 254
226 238 254
226 238 254
226 238 254
226 238 254
226 238 254
226 238 254
226 238 254
226 238 254
226 238 254
226 238 254
226 238 254
226 238 254
226 238 254
226 238 254
226 238 254
226 238 254
226 238 254
226 238 254
226 238 254
226 238 254
226 238 254
226 238 254
226 238 254
226 238 254
226 238 254
226 238 254
226 238 254
226 238 254
226 238 254
226 238 254
226 238 254
226 238 254
226 238 254
226 238 254
226 238 254
226 238 254
226 238 254
226 238 254
226 238 254
226 238 254
226 238 254
226 238 254
226 238 254
226 238 254
226 238 254
226 238 254
226 238 254
226 238 254
226 238 254
226 238 254
226 238 254
226 238 254
226 238 254
226 238 254
226 238 254
226 238 254
226 238 254
226 238 254
226 238 254
226 238 254
226 238 254
226 238 254
226 238 254
226 238 254
226 238 254
226 238 254
226 238 254
226 238 254
226 238 254
226 238 254
226 238 254
226 238 254
226 238 254
226 238 254
226 238 254
226 238 254
226 238 254
226 238 254
226 238 254
226 238 254
226 238 254
226 238 254
226 238 254
226 238 254
226 238 254
226 238 254
226 238 254
226 238 254
224 236 253
199 211 224
184 196 207
140 153 154
134 147 149
88 101 95
73 89 72
58 75 52
93 107 102
78 91 83
50 67 42
44 61 34
51 70 40
58 74 55
58 71 55
76 92 79
90 102 99
98 111 107
81 93 89
83 95 90
84 94 94
89 100 98
97 109 108
86 97 95
85 96 94
69 81 73
51 62 53
70 81 78
84 95 91
80 90 87
72 82 81
70 81 76
72 84 78
66 75 72
55 67 58
59 70 64
60 70 64
64 75 68
63 72 70
72 83 78
74 84 80
71 82 74
62 75 65
55 67 54
65 81 61
62 78 58
67 82 68
62 78 57
65 83 56
70 87 69
84 100 85
82 97 83
79 96 77
86 102 84
97 110 101
107 122 114
102 116 108
107 121 115
110 124 116
115 128 127
120 134 130
97 112 103
92 107 95
75 91 72
54 73 41
66 88 52
51 70 38
70 93 58
69 87 62
73 91 68
83 98 82
80 97 75
91 107 92
95 111 101
102 118 110
94 109 98
108 121 113
110 124 117
111 126 118
98 114 104
100 116 107
129 142 143
113 128 123
102 116 110
81 98 78
91 108 89
82 100 79
75 92 72
67 88 55
68 86 61
66 83 61
80 98 76
71 90 63
85 105 77
71 89 64
72 92 64
66 88 54
71 87 66
68 87 60
72 91 63
80 100 77
101 115 108
102 117 109
134 147 148
109 123 118
128 140 141
121 133 134
123 136 132
121 133 131
120 133 128
123 136 131
114 128 122
110 124 121
106 121 113
110 124 115
104 118 110
119 133 130
126 139 136
116 128 127
85 101 85
102 117 105
95 111 98
107 121 117
114 128 122
101 115 109
108 123 117
114 127 124
96 109 103
125 137 135
114 126 125
110 121 119
96 107 104
84 97 90
68 82 66
62 76 62
57 68 59
70 82 73
68 79 70
61 71 65
31 44 23
31 43 24
29 40 23
31 42 24
36 47 32
47 61 44
53 64 54
38 51 32
65 76 69
60 72 62
71 83 76
71 82 78
33 47 26
38 50 35
42 55 37
34 49 26
41 57 31
44 60 35
38 54 29
46 64 36
37 52 28
39 55 30
59 73 60
87 98 95
78 91 83
78 90 84
78 91 84
67 82 68
57 72 53
50 69 40
51 70 40
59 75 58
89 105 97
85 101 88
129 142 140
140 154 152
183 195 204
199 211 223
223 235 251
226 238 254
226 238 254
226 238 254
226 238 254
226 238 254
226 238 254
226 238 254
226 238 254
226 238 254
226 238 254
226 238 254
226 238 254
226 238 254
226 238 254
226 238 254
226 238 254
226 238 254
226 238 254
226 238 254
226 238 254
226 238 254
226 238 254
226 238 254
226 238 254
226 238 254
226 238 254
226 238 254
226 238 254
226 238 254
226 238 254
226 238 254
226 238 254
226 238 254
226 238 254
226 238 254
226 238 254
226 238 254
226 238 254
226 238 254
226 238 254
226 238 254
226 238 254
226 238 254
226 238 254
226 238 254
226 238 254
226 238 254
226 238 254
226 238 254
226 238 254
226 238 254
226 238 254
226 238 254
226 238 254
226 238 254
226 238 254
226 238 254
226 238 254
226 238 254
226 238 254
226 238 254
226 238 254
226 238 254
226 238 254
226 238 254
226 238 254
226 238 254
226 238 254
226 238 254
226 238 254
226 238 254
226 238 254
226 238 254
226 238 254
226 238 254
226 238 254
226 238 254
226 238 254
226 238 254
226 238 254
226 238 254
226 238 254
226 238 254
226 238 254
226 238 254
226 238 254
226 238 254
226 238 254
226 238 254
226 238 254
226 238 254
226 238 254
226 238 254
226 238 254
226 238 254
226 238 254
226 238 254
226 238 254
226 238 254
226 238 254
226 238 254
226 238 254
226 238 254
226 238 254
226 238 254
226 238 254
226 238 254
226 238 254
226 238 254
226 238 254
226 238 254
226 238 254
226 238 254
226 238 254
226 238 254
226 238 254
226 238 254
226 238 254
226 238 254
226 238 254
226 238 254
226 238 254
226 238 254
226 238 254
226 238 254
226 238 254
226 238 254
226 238 254
226 238 254
226 238 254
226 238 254
226 238 254
226 238 254
226 238 254
226 238 254
226 238 254
226 238 254
226 238 254
226 238 254
226 238 254
226 238 254
226 238 254
226 238 254
226 238 254
226 238 254
226 238 254
226 238 254
226 238 254
226 238 254
226 238 254
226 238 254
226 238 254
226 238 254
226 238 254
226 238 254
226 238 254
226 238 254
226 238 254
226 238 254
226 238 254
226 238 254
226 238 254
226 238 254
226 238 254
226 238 254
226 238 254
226 238 254
226 238 254
226 238 254
226 238 254
226 238 254
226 238 254
226 238 254
226 238 254
226 238 254
226 238 254
226 238 254
226 238 254
226 238 254
226 238 254
226 238 254
226 238 254
226 238 254
226 238 254
226 238 254
226 238 254
226 238 254
226 238 254
226 238 254
226 238 254
226 238 254
226 238 254
226 238 254
226 238 254
226 238 254
226 238 254
226 238 254
226 238 254
226 238 254
226 238 254
226 238 254
226 238 254
226 238 254
226 238 254
226 238 254
226 238 254
226 238 254
226 238 254
226 238 254
226 238 254
226 238 254
226 238 254
226 238 254
226 238 254
226 238 254
226 238 254
226 238 254
226 238 254
210 222 237
196 208 222
154 167 170
123 137 133
84 100 88
76 92 79
68 84 69
84 101 89
100 114 112
101 115 112
86 99 93
101 113 111
101 113 114
82 97 84
64 79 62
77 90 83
89 100 99
108 120 124
94 107 103
91 103 101
94 106 103
94 106 105
73 85 78
69 83 72
67 78 70
63 77 62
52 65 49
40 55 30
31 45 24
39 54 31
39 53 31
55 66 57
82 92 91
74 84 84
80 89 89
91 102 104
60 72 64
62 73 67
61 72 65
51 60 55
39 51 35
40 52 36
31 43 24
32 44 25
31 43 24
32 45 25
35 47 27
31 44 24
30 41 23
46 54 50
61 69 68
46 54 49
59 67 65
45 54 47
45 55 47
68 77 75
64 74 70
72 83 78
67 76 73
53 65 51
53 66 51
49 64 42
61 75 59
70 82 70
86 99 94
104 114 114
98 109 107
81 93 83
105 117 117
82 95 86
90 104 93
85 100 87
91 108 93
90 106 93
79 95 80
94 107 100
70 86 70
77 92 76
91 107 95
87 101 90
96 112 97
60 78 52
59 77 50
81 98 81
104 116 114
111 125 119
112 124 122
116 130 126
130 141 142
113 126 121
120 134 130
111 124 121
130 142 141
106 119 116
113 126 124
123 135 134
108 121 119
114 129 124
115 127 126
122 134 132
114 128 121
97 112 103
102 116 107
64 83 55
57 75 47
57 73 50
66 84 61
53 72 41
75 93 70
72 90 66
75 91 73
73 91 70
64 82 60
78 95 78
66 82 62
61 76 57
52 69 42
57 74 51
74 90 72
88 102 91
89 101 95
98 108 107
79 90 86
81 91 89
75 87 82
63 75 65
57 67 60
51 61 49
36 46 33
36 47 33
41 48 43
39 47 39
52 59 57
46 53 50
44 53 46
59 68 65
52 61 56
48 56 50
62 72 67
42 53 40
58 66 65
59 68 65
59 69 62
60 68 65
35 47 32
28 39 21
32 45 25
32 46 25
34 47 26
41 56 32
41 57 32
41 57 33
31 45 23
33 47 25
33 47 25
38 53 30
52 62 56
74 84 81
87 98 96
82 94 91
75 87 82
60 76 56
72 84 77
62 75 61
54 70 49
55 72 50
47 64 38
52 66 50
90 103 99
103 115 115
88 101 97
98 111 109
99 112 110
89 101 97
79 92 86
85 98 92
76 90 80
89 105 93
107 120 118
123 137 139
105 119 119
93 109 98
129 143 142
148 161 163
184 196 206
216 228 243
226 238 254
226 238 254
226 238 254
226 238 254
226 238 254
226 238 254
226 238 254
226 238 254
226 238 254
226 238 254
226 238 254
226 238 254
226 238 254
226 238 254
226 238 254
226 238 254
226 238 254
226 238 254
226 238 254
226 238 254
226 238 254
226 238 254
226 238 254
226 238 254
226 238 254
226 238 254
226 238 254
226 238 254
226 238 254
226 238 254
226 238 254
226 238 254
226 238 254
226 238 254
226 238 254
226 238 254
226 238 254
226 238 254
226 238 254
226 238 254
226 238 254
226 238 254
226 238 254
226 238 254
226 238 254
226 238 254
226 238 254
226 238 254
226 238 254
226 238 254
226 238 254
226 238 254
226 238 254
226 238 254
226 238 254
226 238 254
226 238 254
226 238 254
226 238 254
226 238 254
226 238 254
226 238 254
226 238 254
226 238 254
226 238 254
226 238 254
226 238 254
226 238 254
226 238 254
226 238 254
226 238 254
226 238 254
226 238 254
226 238 254
226 238 254
226 238 254
226 238 254
226 238 254
226 238 254
226 238 254
226 238 254
226 238 254
226 238 254
226 238 254
226 238 254
226 238 254
226 238 254
226 238 254
226 238 254
226 238 254
226 238 254
226 238 254
226 238 254
226 238 254
226 238 254
226 238 254
226 238 254
226 238 254
226 238 254
226 238 254
226 238 254
226 238 254
226 238 254
226 238 254
226 238 254
226 238 254
226 238 254
226 238 254
226 238 254
226 238 254
226 238 254
226 238 254
226 238 254
226 238 254
226 238 254
226 238 254
226 238 254
226 238 254
226 238 254
226 238 254
226 238 254
226 238 254
226 238 254
226 238 254
226 238 254
226 238 254
226 238 254
226 238 254
226 238 254
226 238 254
226 238 254
226 238 254
226 238 254
226 238 254
226 238 254
226 238 254
226 238 254
226 238 254
226 238 254
226 238 254
226 238 254
226 238 254
226 238 254
226 238 254
226 238 254
226 238 254
226 238 254
226 238 254
226 238 254
226 238 254
226 238 254
226 238 254
226 238 254
226 238 254
226 238 254
226 238 254
226 238 254
226 238 254
226 238 254
226 238 254
226 238 254
226 238 254
226 238 254
226 238 254
226 238 254
226 238 254
226 238 254
226 238 254
226 238 254
226 238 254
226 238 254
226 238 254
226 238 254
226 238 254
226 238 254
226 238 254
226 238 254
226 238 254
226 238 254
226 238 254
226 238 254
226 238 254
226 238 254
226 238 254
226 238 254
226 238 254
226 238 254
226 238 254
226 238 254
226 238 254
226 238 254
226 238 254
226 238 254
226 238 254
226 238 254
226 238 254
226 238 254
226 238 254
226 238 254
226 238 254
226 238 254
226 238 254
226 238 254
226 238 254
226 238 254
226 238 254
226 238 254
226 238 254
226 238 254
223 234 251
199 210 223
179 191 201
142 155 159
104 120 110
89 108 92
73 92 70
82 99 84
93 107 102
105 119 117
105 119 114
111 124 124
89 102 97
97 110 107
70 85 73
75 90 79
49 67 41
46 64 37
45 63 35
51 68 45
91 102 101
82 95 90
81 94 88
73 85 80
66 78 67
49 64 45
48 62 44
43 59 33
45 62 35
42 59 33
42 58 33
37 51 29
46 62 37
42 58 32
40 55 31
46 61 41
58 71 56
60 71 63
53 64 54
51 63 49
40 52 36
33 46 26
39 54 30
23 34 17
34 48 26
29 41 22
33 45 25
32 46 25
33 46 25
28 39 22
27 39 20
31 43 25
29 40 22
28 39 22
31 43 24
51 59 54
58 67 61
49 59 49
45 53 48
34 43 31
40 52 37
26 37 19
32 45 25
23 33 18
23 34 17
29 39 22
24 35 18
33 44 26
20 29 15
25 35 18
18 26 14
20 29 15
46 53 48
33 38 36
41 48 44
43 51 45
51 59 53
42 50 45
40 46 43
33 42 32
48 54 53
56 64 60
50 57 52
48 56 51
51 60 55
45 53 49
63 72 68
39 50 35
45 55 45
47 59 44
39 50 34
34 47 26
44 57 38
34 48 26
31 43 24
43 54 41
38 49 34
47 59 44
34 45 31
38 52 29
42 54 37
46 58 44
55 64 56
72 81 77
70 79 77
72 81 79
69 77 75
66 76 72
55 64 55
54 60 59
47 52 49
52 59 57
40 49 39
39 48 39
54 61 60
43 51 44
33 43 31
15 23 10
27 38 21
25 35 19
28 38 22
32 42 30
45 52 48
52 59 57
28 35 28
52 60 57
44 50 49
58 67 63
39 47 39
59 66 67
64 72 70
40 50 40
62 69 71
52 61 55
41 50 41
71 80 80
44 53 46
23 32 17
34 47 27
32 45 25
40 50 40
33 42 30
28 39 21
28 39 21
42 52 41
50 60 52
43 53 44
46 56 48
46 59 42
48 58 47
36 50 27
42 51 43
38 51 34
42 52 40
38 53 31
37 51 28
30 42 23
33 46 26
41 57 31
35 49 27
37 52 28
36 50 28
45 61 35
67 78 73
94 105 103
89 100 99
95 107 108
85 97 93
88 101 97
97 109 111
104 117 114
87 101 94
79 91 86
86 99 94
81 92 88
89 102 95
81 96 88
90 105 98
99 111 111
104 117 116
97 109 108
96 108 106
101 114 112
98 111 111
104 118 113
100 115 109
87 103 94
81 96 86
116 130 130
118 132 133
108 123 121
136 150 155
158 170 176
177 189 198
202 214 227
222 234 250
226 238 254
226 238 254
226 238 254
226 238 254
226 238 254
226 238 254
226 238 254
226 238 254
226 238 254
226 238 254
226 238 254
226 238 254
226 238 254
226 238 254
226 238 254
226 238 254
226 238 254
226 238 254
226 238 254
226 238 254
226 238 254
226 238 254
226 238 254
226 238 254
226 238 254
226 238 254
226 238 254
226 238 254
226 238 254
226 238 254
226 238 254
226 238 254
226 238 254
226 238 254
226 238 254
226 238 254
226 238 254
226 238 254
226 238 254
226 238 254
226 238 254
226 238 254
226 238 254
226 238 254
226 238 254
226 238 254
226 238 254
226 238 254
226 238 254
226 238 254
226 238 254
226 238 254
226 238 254
226 238 254
226 238 254
226 238 254
226 238 254
226 238 254
226 238 254
226 238 254
226 238 254
226 238 254
226 238 254
226 238 254
226 238 254
226 238 254
226 238 254
226 238 254
226 238 254
226 238 254
226 238 254
226 238 254
226 238 254
226 238 254
226 238 254
226 238 254
226 238 254
226 238 254
226 238 254
226 238 254
226 238 254
226 238 254
226 238 254
226 238 254
226 238 254
226 238 254
226 238 254
226 238 254
226 238 254
226 238 254
226 238 254
226 238 254
226 238 254
226 238 254
226 238 254
226 238 254
226 238 254
226 238 254
226 238 254
226 238 254
226 238 254
226 238 254
226 238 254
226 238 254
226 238 254
226 238 254
226 238 254
226 238 254
226 238 254
226 238 254
226 238 254
226 238 254
226 238 254
226 238 254
226 238 254
226 238 254
226 238 254
226 238 254
226 238 254
226 238 254
226 238 254
226 238 254
226 238 254
226 238 254
226 238 254
226 238 254
226 238 254
226 238 254
226 238 254
226 238 254
226 238 254
226 238 254
226 238 254
226 238 254
226 238 254
226 238 254
226 238 254
226 238 254
226 238 254
226 238 254
226 238 254
226 238 254
226 238 254
226 238 254
226 238 254
226 238 254
226 238 254
226 238 254
226 238 254
226 238 254
226 238 254
226 238 254
226 238 254
226 238 254
226 238 254
226 238 254
226 238 254
226 238 254
226 238 254
226 238 254
226 238 254
226 238 254
226 238 254
226 238 254
226 238 254
226 238 254
226 238 254
226 238 254
226 238 254
226 238 254
226 238 254
226 238 254
226 238 254
226 238 254
226 238 254
226 238 254
226 238 254
226 238 254
226 238 254
226 238 254
226 238 254
226 238 254
226 238 254
226 238 254
226 238 254
226 238 254
226 238 254
226 238 254
226 238 254
226 238 254
226 238 254
226 238 254
226 238 254
226 238 254
226 238 254
226 238 254
226 238 254
226 238 254
226 238 254
226 238 254
216 228 243
187 199 209
157 169 176
132 145 144
111 126 122
110 125 121
86 102 87
81 98 87
103 117 114
125 138 143
111 124 125
114 127 128
96 110 102
87 102 93
77 92 82
62 80 58
51 71 41
49 67 40
49 68 39
42 58 33
49 66 42
75 91 76
70 84 75
90 102 100
92 105 98
47 63 41
47 64 37
38 54 29
44 61 33
38 53 29
48 65 38
44 61 34
48 64 38
46 61 40
52 68 48
65 75 71
68 80 72
70 82 75
64 75 70
73 83 81
82 94 91
87 96 97
57 68 62
30 43 23
37 51 29
34 47 26
35 48 27
34 47 26
33 46 26
32 44 24
33 47 25
39 53 30
42 52 41
49 58 50
56 67 59
53 65 51
40 49 40
67 77 71
67 79 72
72 80 82
38 50 35
17 26 12
28 39 22
30 42 23
30 42 23
26 38 20
32 44 26
29 40 22
35 47 28
24 34 18
25 36 18
33 45 26
22 31 18
32 44 25
21 30 16
26 35 21
26 36 19
34 43 31
45 51 49
59 67 65
51 59 55
48 55 53
52 60 57
58 66 63
37 44 38
50 57 56
40 45 43
30 38 28
36 44 35
19 28 14
19 27 14
23 32 18
26 36 20
14 22 9
38 46 39
47 52 53
44 53 46
47 54 51
29 36 28
47 54 51
27 34 26
36 41 42
46 55 46
41 48 45
26 32 27
41 48 45
38 46 39
36 43 38
36 43 38
36 44 38
35 41 37
19 27 14
26 36 20
24 33 19
15 23 10
19 28 15
22 31 16
32 44 26
25 36 19
30 41 24
27 38 22
28 39 22
27 37 21
25 34 20
24 34 18
19 28 14
42 51 44
55 63 61
47 54 51
43 50 45
48 58 48
53 61 57
38 48 38
50 60 52
39 48 40
37 45 37
57 67 59
35 45 33
47 57 48
51 59 55
68 77 75
41 48 43
28 39 22
28 40 21
24 34 18
30 43 23
38 51 30
37 50 29
29 41 22
29 41 22
38 53 30
36 49 29
35 48 27
39 54 31
34 48 27
45 58 42
61 73 61
68 81 74
70 80 78
74 86 80
83 93 91
64 74 69
83 94 93
69 80 73
60 70 64
53 64 54
60 70 65
67 80 69
66 80 68
95 107 106
84 94 96
79 92 88
87 98 97
82 95 88
82 96 87
89 101 100
88 100 97
68 80 72
92 105 101
96 108 109
74 87 76
45 60 38
46 63 35
52 67 47
50 67 42
69 85 70
85 100 94
90 104 97
104 118 117
111 124 126
97 111 105
64 81 63
47 65 36
59 79 50
61 77 59
88 104 93
99 113 111
101 116 109
99 114 105
101 117 107
120 134 130
145 158 159
193 205 216
216 228 243
226 238 254
226 238 254
226 238 254
226 238 254
226 238 254
226 238 254
226 238 254
226 238 254
226 238 254
226 238 254
226 238 254
226 238 254
226 238 254
226 238 254
226 238 254
226 238 254
226 238 254
226 238 254
226 238 254
226 238 254
226 238 254
226 238 254
226 238 254
226 238 254
226 238 254
226 238 254
226 238 254
226 238 254
226 238 254
226 238 254
226 238 254
226 238 254
226 238 254
226 238 254
226 238 254
226 238 254
226 238 254
226 238 254
226 238 254
226 238 254
226 238 254
226 238 254
226 238 254
226 238 254
226 238 254
226 238 254
226 238 254
226 238 254
226 238 254
226 238 254
226 238 254
226 238 254
226 238 254
226 238 254
226 238 254
226 238 254
226 238 254
226 238 254
226 238 254
226 238 254
226 238 254
226 238 254
226 238 254
226 238 254
226 238 254
226 238 254
226 238 254
226 238 254
226 238 254
226 238 254
226 238 254
226 238 254
226 238 254
226 238 254
226 238 254
226 238 254
226 238 254
226 238 254
226 238 254
226 238 254
226 238 254
226 238 254
226 238 254
226 238 254
226 238 254
226 238 254
226 238 254
226 238 254
226 238 254
226 238 254
226 238 254
226 238 254
226 238 254
226 238 254
226 238 254
226 238 254
226 238 254
226 238 254
226 238 254
226 238 254
226 238 254
226 238 254
226 238 254
226 238 254
226 238 254
226 238 254
226 238 254
226 238 254
226 238 254
226 238 254
226 238 254
226 238 254
226 238 254
226 238 254
226 238 254
226 238 254
226 238 254
226 238 254
226 238 254
226 238 254
226 238 254
226 238 254
226 238 254
226 238 254
226 238 254
226 238 254
226 238 254
226 238 254
226 238 254
226 238 254
226 238 254
226 238 254
226 238 254
226 238 254
226 238 254
226 238 254
226 238 254
226 238 254
226 238 254
226 238 254
226 238 254
226 238 254
226 238 254
226 238 254
226 238 254
226 238 254
226 238 254
226 238 254
226 238 254
226 238 254
226 238 254
226 238 254
226 238 254
226 238 254
226 238 254
226 238 254
226 238 254
226 238 254
226 238 254
226 238 254
226 238 254
226 238 254
226 238 254
226 238 254
226 238 254
226 238 254
226 238 254
226 238 254
226 238 254
226 238 254
226 238 254
226 238 254
226 238 254
226 238 254
226 238 254
226 238 254
226 238 254
226 238 254
226 238 254
226 238 254
226 238 254
226 238 254
226 238 254
226 238 254
226 238 254
226 238 254
226 238 254
226 238 254
226 238 254
226 238 254
226 238 254
226 238 254
215 227 243
196 208 220
161 174 179
134 148 149
111 129 124
112 127 127
93 109 99
93 110 99
70 90 64
57 78 46
57 77 45
81 96 84
90 105 97
76 90 77
64 81 61
56 76 45
52 71 41
48 66 38
57 77 46
55 74 44
64 80 62
79 93 84
79 93 84
102 115 114
98 112 107
80 93 84
91 104 98
88 101 96
89 103 98
73 85 79
44 61 35
49 66 38
54 71 50
77 90 81
67 80 69
67 79 71
89 100 99
95 106 106
74 85 81
94 105 106
78 90 86
75 87 80
76 87 83
81 94 88
67 78 73
77 87 84
90 103 99
56 67 58
38 53 29
40 52 35
47 60 45
62 74 65
50 61 49
61 71 63
63 75 65
68 78 73
67 77 70
74 85 81
50 60 50
83 92 92
55 65 57
70 80 75
58 67 63
60 69 66
41 50 42
35 45 33
27 39 21
26 38 20
30 41 23
34 47 27
29 42 22
33 46 26
31 43 24
32 44 24
27 38 20
40 52 37
24 34 19
42 50 44
43 52 45
55 64 61
41 48 43
58 65 64
39 49 39
20 30 14
26 36 20
22 32 16
27 38 20
27 37 21
27 37 21
28 40 22
25 35 18
23 33 18
28 39 22
24 34 18
25 35 20
24 33 19
29 40 22
27 37 21
23 32 17
49 58 51
50 57 55
55 61 63
40 46 43
54 61 60
37 44 39
46 56 47
51 59 56
34 44 32
31 39 29
47 57 48
31 39 29
59 67 66
54 63 59
52 60 57
49 55 54
47 56 50
26 36 20
21 30 16
26 36 21
27 39 21
21 31 15
29 39 22
18 27 12
31 44 24
28 37 22
32 44 25
18 25 14
25 36 18
29 40 22
23 34 17
22 31 16
34 44 32
69 78 77
55 62 61
48 56 51
50 59 52
52 60 56
69 78 76
49 58 48
67 76 74
76 86 85
60 69 65
45 54 49
70 78 77
77 86 87
78 88 87
59 69 62
28 40 21
34 47 25
31 43 24
41 57 32
28 40 22
42 58 33
32 44 24
34 47 26
35 49 27
44 59 35
33 47 25
38 52 29
38 54 30
47 59 45
82 92 91
71 82 76
66 77 73
70 81 75
75 88 81
83 94 92
71 83 75
75 88 81
87 96 95
81 91 90
85 97 94
74 85 80
83 95 91
45 58 41
36 51 28
49 60 47
64 77 66
70 83 73
66 78 70
67 80 69
83 96 90
73 86 77
78 90 86
93 105 104
104 116 116
67 81 70
44 62 35
44 61 35
43 61 34
45 63 35
51 70 40
52 72 41
48 67 38
53 69 49
71 85 74
68 88 61
64 80 63
71 88 67
51 69 44
53 73 42
53 73 41
54 74 43
80 97 81
81 98 84
60 81 47
71 88 71
76 93 76
125 140 136
148 160 163
189 202 211
219 231 247
226 238 254
226 238 254
226 238 254
226 238 254
226 238 254
226 238 254
226 238 254
226 238 254
226 238 254
226 238 254
226 238 254
226 238 254
226 238 254
226 238 254
226 238 254
226 238 254
226 238 254
226 238 254
226 238 254
226 238 254
226 238 254
226 238 254
226 238 254
226 238 254
226 238 254
226 238 254
226 238 254
226 238 254
226 238 254
226 238 254
226 238 254
226 238 254
226 238 254
226 238 254
226 238 254
226 238 254
226 238 254
226 238 254
226 238 254
226 238 254
226 238 254
226 238 254
226 238 254
226 238 254
226 238 254
226 238 254
226 238 254
226 238 254
226 238 254
226 238 254
226 238 254
226 238 254
226 238 254
226 238 254
226 238 254
226 238 254
226 238 254
226 238 254
226 238 254
226 238 254
226 238 254
226 238 254
226 238 254
226 238 254
226 238 254
226 238 254
226 238 254
226 238 254
226 238 254
226 238 254
226 238 254
226 238 254
226 238 254
226 238 254
226 238 254
226 238 254
226 238 254
226 238 254
226 238 254
226 238 254
226 238 254
226 238 254
226 238 254
226 238 254
226 238 254
226 238 254
226 238 254
226 238 254
226 238 254
226 238 254
226 238 254
226 238 254
226 238 254
226 238 254
226 238 254
226 238 254
226 238 254
226 238 254
226 238 254
226 238 254
226 238 254
226 238 254
226 238 254
226 238 254
226 238 254
226 238 254
226 238 254
226 238 254
226 238 254
226 238 254
226 238 254
226 238 254
226 238 254
226 238 254
226 238 254
226 238 254
226 238 254
226 238 254
226 238 254
226 238 254
226 238 254
226 238 254
226 238 254
226 238 254
226 238 254
226 238 254
226 238 254
226 238 254
226 238 254
226 238 254
226 238 254
226 238 254
226 238 254
226 238 254
226 238 254
226 238 254
226 238 254
226 238 254
226 238 254
226 238 254
226 238 254
226 238 254
226 238 254
226 238 254
226 238 254
226 238 254
226 238 254
226 238 254
226 238 254
226 238 254
226 238 254
226 238 254
226 238 254
226 238 254
226 238 254
226 238 254
226 238 254
226 238 254
226 238 254
226 238 254
226 238 254
226 238 254
226 238 254
226 238 254
226 238 254
226 238 254
226 238 254
226 238 254
226 238 254
226 238 254
226 238 254
226 238 254
226 238 254
226 238 254
226 238 254
226 238 254
226 238 254
226 238 254
226 238 254
226 238 254
226 238 254
226 238 254
226 238 254
226 238 254
216 228 243
203 215 228
174 187 195
159 173 180
131 144 149
119 133 134
100 116 111
91 108 94
65 84 59
57 79 46
57 78 46
82 100 84
81 98 83
99 113 111
110 125 124
121 133 136
101 115 111
49 67 42
53 74 42
57 74 51
56 73 53
84 99 89
82 94 88
98 113 106
102 116 113
107 119 118
100 113 111
82 95 87
99 112 107
94 107 105
89 102 98
96 108 106
61 76 59
63 78 60
62 76 62
85 98 91
95 107 108
97 110 109
93 105 102
89 103 98
84 95 92
90 101 101
79 91 86
79 90 86
93 105 104
68 79 74
70 81 71
69 80 77
73 85 80
61 72 64
64 75 67
49 63 45
73 83 80
56 67 57
85 94 94
95 105 107
69 80 74
70 82 74
77 89 85
87 98 98
68 76 76
72 82 80
65 75 70
59 69 62
75 85 82
69 80 75
63 74 68
73 84 80
65 74 68
65 73 72
35 49 27
41 53 36
34 45 31
46 60 43
45 55 47
53 63 56
40 50 40
56 65 61
57 66 61
52 62 54
59 68 65
47 55 49
40 49 40
66 74 72
57 66 62
65 73 74
61 70 66
42 53 41
34 46 27
26 36 20
28 39 22
31 43 24
31 43 24
26 37 20
34 47 27
30 41 23
23 32 18
30 41 23
22 32 16
21 29 15
30 42 23
15 24 10
26 37 21
38 44 42
47 55 50
42 48 44
59 68 63
40 47 44
47 55 50
47 55 50
60 70 64
54 62 61
55 63 59
56 63 63
50 58 54
47 56 50
52 59 58
49 55 55
68 77 74
53 60 59
47 55 49
27 35 26
31 43 24
34 44 31
45 54 46
43 52 44
45 53 48
37 44 37
46 54 49
32 41 31
46 55 50
33 45 25
32 42 30
45 54 46
42 50 43
40 49 39
55 64 58
42 50 43
25 36 19
47 55 50
37 46 38
50 60 53
48 59 48
49 59 52
58 69 60
48 58 51
57 66 61
61 71 64
53 63 58
56 67 57
56 66 60
50 60 53
45 56 46
40 50 39
46 58 45
44 54 45
28 40 20
34 46 26
37 49 34
39 53 31
35 49 27
41 56 32
38 52 30
32 45 25
32 45 24
29 42 22
57 67 61
90 101 100
86 98 95
79 91 86
88 98 97
73 84 79
77 88 85
75 87 84
74 84 82
77 89 82
77 88 86
81 92 91
80 91 88
80 91 91
43 59 34
45 61 36
39 55 30
44 60 35
43 59 35
44 60 35
48 66 39
45 62 34
47 62 40
56 71 53
77 91 82
66 81 67
62 78 62
72 87 75
65 82 62
51 67 46
47 66 36
55 75 43
54 75 43
53 72 41
47 64 37
45 64 35
77 94 78
100 112 110
99 113 108
103 118 116
89 106 93
78 95 81
63 82 55
57 77 49
57 76 48
91 109 92
105 120 116
107 123 117
99 116 104
80 101 77
115 129 125
176 188 199
193 206 216
221 233 249
226 238 254
226 238 254
226 238 254
226 238 254
226 238 254
226 238 254
226 238 254
226 238 254
226 238 254
226 238 254
226 238 254
226 238 254
226 238 254
226 238 254
226 238 254
226 238 254
226 238 254
226 238 254
226 238 254
226 238 254
226 238 254
226 238 254
226 238 254
226 238 254
226 238 254
226 238 254
226 238 254
226 238 254
226 238 254
226 238 254
226 238 254
226 238 254
226 238 254
226 238 254
226 238 254
226 238 254
226 238 254
226 238 254
226 238 254
226 238 254
226 238 254
226 238 254
226 238 254
226 238 254
226 238 254
226 238 254
226 238 254
226 238 254
226 238 254
226 238 254
226 238 254
226 238 254
226 238 254
226 238 254
226 238 254
226 238 254
226 238 254
226 238 254
226 238 254
226 238 254
226 238 254
226 238 254
226 238 254
226 238 254
226 238 254
226 238 254
226 238 254
226 238 254
226 238 254
226 238 254
226 238 254
226 238 254
226 238 254
226 238 254
226 238 254
226 238 254
226 238 254
226 238 254
226 238 254
226 238 254
226 238 254
226 238 254
226 238 254
226 238 254
226 238 254
226 238 254
226 238 254
226 238 254
226 238 254
226 238 254
226 238 254
226 238 254
226 238 254
226 238 254
226 238 254
226 238 254
226 238 254
226 238 254
226 238 254
226 238 254
226 238 254
226 238 254
226 238 254
226 238 254
226 238 254
226 238 254
226 238 254
226 238 254
226 238 254
226 238 254
226 238 254
226 238 254
226 238 254
226 238 254
226 238 254
226 238 254
226 238 254
226 238 254
226 238 254
226 238 254
226 238 254
226 238 254
226 238 254
226 238 254
226 238 254
226 238 254
226 238 254
226 238 254
226 238 254
226 238 254
226 238 254
226 238 254
226 238 254
226 238 254
226 238 254
226 238 254
226 238 254
226 238 254
226 238 254
226 238 254
226 238 254
226 238 254
226 238 254
226 238 254
226 238 254
226 238 254
226 238 254
226 238 254
226 238 254
226 238 254
226 238 254
226 238 254
226 238 254
226 238 254
226 238 254
226 238 254
226 238 254
226 238 254
226 238 254
226 238 254
226 238 254
226 238 254
226 238 254
226 238 254
226 238 254
226 238 254
226 238 254
226 238 254
226 238 254
226 238 254
226 238 254
226 238 254
226 238 254
226 238 254
226 238 254
226 238 254
224 236 252
191 203 214
168 181 187
130 145 142
117 133 127
114 129 128
114 129 127
83 102 82
78 97 74
60 83 48
57 78 45
65 83 60
82 98 88
105 120 114
121 135 134
115 128 128
117 130 129
105 119 117
91 106 99
115 128 127
86 100 95
82 97 85
101 115 111
107 119 120
106 119 120
102 115 113
112 125 126
93 107 104
103 115 113
94 107 105
102 114 111
83 96 91
80 92 87
80 94 84
48 65 41
51 70 40
46 63 36
46 63 36
55 72 46
86 98 92
105 117 117
86 98 95
73 84 81
76 88 83
82 94 90
78 90 85
79 92 83
78 92 84
72 84 78
48 64 41
51 66 48
38 53 29
47 64 37
41 56 32
45 62 35
34 49 26
44 56 42
75 87 80
78 90 85
81 90 90
80 92 86
67 77 71
75 83 84
84 94 95
79 91 86
72 83 79
78 88 87
74 84 81
78 88 86
84 95 92
56 66 61
47 59 46
52 65 50
47 60 43
49 60 52
61 68 67
56 64 60
53 63 57
75 85 84
66 77 72
70 80 77
72 81 81
65 73 71
62 72 66
52 62 57
72 80 81
54 64 56
66 76 71
54 64 57
49 58 52
63 72 71
70 80 77
24 35 17
25 35 19
30 41 23
36 50 29
19 28 13
30 41 23
33 45 26
27 38 20
21 31 15
32 44 24
29 40 22
32 44 25
30 41 23
34 44 31
26 37 19
30 43 23
37 48 34
32 40 31
56 65 57
50 59 52
35 42 35
47 58 48
37 48 34
40 51 39
30 39 29
33 45 26
38 48 37
41 54 35
29 40 22
26 38 20
26 37 21
30 42 23
27 38 21
35 46 32
61 71 66
68 77 77
53 62 59
42 52 41
74 83 83
69 78 76
38 50 35
68 76 74
66 74 73
63 74 67
70 78 78
23 34 17
66 74 74
49 59 48
39 48 38
49 58 53
30 42 23
27 38 19
33 46 25
29 41 22
29 41 22
32 45 23
35 49 28
39 54 31
32 45 24
32 44 25
34 47 27
40 55 32
30 43 23
28 40 21
40 52 36
70 81 76
67 77 73
82 93 90
77 86 86
72 83 79
74 83 81
75 86 82
73 82 81
84 95 93
79 90 87
84 95 93
65 76 70
63 76 63
56 67 59
71 83 74
70 83 73
71 84 74
65 79 67
67 80 70
77 89 84
78 88 87
89 101 100
83 95 91
90 101 100
85 95 94
91 101 101
83 95 93
102 114 115
65 79 67
39 55 31
44 62 35
44 60 34
48 66 37
47 64 37
43 59 34
46 64 37
54 73 43
50 69 40
49 68 39
46 64 35
69 81 74
100 114 110
106 119 118
98 112 107
103 117 113
78 92 81
100 115 110
75 89 77
63 81 58
60 81 52
62 80 55
79 93 87
124 137 141
115 129 130
125 139 141
117 130 130
113 129 126
103 118 114
96 112 103
85 102 90
111 126 121
107 121 116
119 134 136
119 134 133
104 119 116
107 123 118
110 125 120
126 141 136
167 179 186
193 205 217
224 236 253
226 238 254
226 238 254
226 238 254
226 238 254
226 238 254
226 238 254
226 238 254
226 238 254
226 238 254
226 238 254
226 238 254
226 238 254
226 238 254
226 238 254
226 238 254
226 238 254
226 238 254
226 238 254
226 238 254
226 238 254
226 238 254
226 238 254
226 238 254
226 238 254
226 238 254
226 238 254
226 238 254
226 238 254
226 238 254
226 238 254
226 238 254
226 238 254
226 238 254
226 238 254
226 238 254
226 238 254
226 238 254
226 238 254
226 238 254
226 238 254
226 238 254
226 238 254
226 238 254
226 238 254
226 238 254
226 238 254
226 238 254
226 238 254
226 238 254
226 238 254
226 238 254
226 238 254
226 238 254
226 238 254
226 238 254
226 238 254
226 238 254
226 238 254
226 238 254
226 238 254
226 238 254
226 238 254
226 238 254
226 238 254
226 238 254
226 238 254
226 238 254
226 238 254
226 238 254
226 238 254
226 238 254
226 238 254
226 238 254
226 238 254
226 238 254
226 238 254
226 238 254
226 238 254
226 238 254
226 238 254
226 238 254
226 238 254
226 238 254
226 238 254
226 238 254
226 238 254
226 238 254
226 238 254
226 238 254
226 238 254
226 238 254
226 238 254
226 238 254
226 238 254
226 238 254
226 238 254
226 238 254
226 238 254
226 238 254
226 238 254
226 238 254
226 238 254
226 238 254
226 238 254
226 238 254
226 238 254
226 238 254
226 238 254
226 238 254
226 238 254
226 238 254
226 238 254
226 238 254
226 238 254
226 238 254
226 238 254
226 238 254
226 238 254
226 238 254
226 238 254
226 238 254
226 238 254
226 238 254
226 238 254
226 238 254
226 238 254
226 238 254
226 238 254
226 238 254
226 238 254
226 238 254
226 238 254
226 238 254
226 238 254
226 238 254
226 238 254
226 238 254
226 238 254
226 238 254
226 238 254
226 238 254
226 238 254
226 238 254
226 238 254
226 238 254
226 238 254
226 238 254
226 238 254
226 238 254
226 238 254
226 238 254
226 238 254
226 238 254
226 238 254
226 238 254
226 238 254
226 238 254
226 238 254
226 238 254
226 238 254
226 238 254
226 238 254
226 238 254
226 238 254
226 238 254
226 238 254
226 238 254
226 238 254
226 238 254
197 210 221
178 190 198
151 164 168
106 122 116
129 145 146
115 132 127
120 135 133
102 117 110
58 80 47
62 83 53
65 84 63
98 114 106
113 127 126
115 128 130
120 135 136
115 130 128
109 124 119
118 132 130
94 109 103
79 95 83
91 107 98
57 75 50
52 72 40
52 72 41
52 72 40
96 110 105
100 114 107
118 133 132
96 110 106
95 108 104
86 97 95
71 86 70
51 69 40
51 71 40
51 69 41
52 71 42
49 69 39
47 65 37
46 64 37
46 64 36
42 58 33
44 61 35
46 61 39
93 104 102
89 99 100
78 91 84
65 77 71
58 72 57
51 67 43
34 49 26
47 65 37
44 61 35
45 63 35
38 52 30
48 66 38
44 61 35
34 49 26
34 48 26
40 56 31
44 61 34
57 68 58
91 103 100
73 83 79
66 77 72
60 72 63
76 87 83
63 76 65
51 64 51
54 66 53
42 53 41
36 50 27
30 43 23
34 47 27
31 45 23
34 48 27
41 56 33
40 56 32
36 51 28
59 71 61
54 65 54
73 86 77
72 81 79
64 74 70
70 81 76
59 69 63
65 75 69
77 87 83
54 65 57
68 76 77
74 84 81
70 79 75
57 66 61
67 77 71
67 76 73
83 92 93
53 64 56
26 38 20
21 32 15
39 50 39
49 61 49
56 67 58
40 50 38
58 68 62
49 58 51
47 56 46
52 60 56
62 73 67
76 84 86
65 75 70
86 96 97
48 58 51
72 81 81
54 64 56
30 42 24
22 32 16
33 46 25
25 36 19
32 44 25
27 38 20
32 45 26
36 49 28
40 55 32
26 37 20
34 48 27
32 44 25
32 44 25
28 40 21
31 44 24
31 43 24
53 62 56
63 71 69
64 73 71
76 85 85
68 78 75
45 54 46
68 77 77
54 64 57
51 61 53
62 73 68
76 86 84
63 73 68
64 74 71
58 66 64
64 73 71
77 87 87
66 76 74
36 50 28
27 40 20
33 46 25
42 58 33
34 46 26
35 49 28
36 50 28
36 50 27
39 54 30
40 54 31
41 56 32
38 53 29
30 42 23
38 52 30
41 53 36
67 75 74
80 89 89
53 65 57
88 97 98
65 78 66
68 78 76
66 76 73
63 74 70
74 85 78
82 93 90
88 99 97
92 104 102
72 83 77
88 97 99
63 75 66
43 60 34
37 52 28
45 63 35
39 56 30
39 54 31
37 52 29
41 57 32
37 54 28
50 62 49
53 70 45
64 79 66
61 76 60
66 79 67
60 75 61
57 73 54
60 74 56
49 66 42
47 63 40
45 63 35
44 61 35
49 67 38
45 63 35
49 68 39
46 64 36
46 64 36
57 75 51
104 115 116
118 131 132
110 122 126
100 114 107
108 120 121
108 122 120
102 115 115
123 137 140
98 112 108
104 117 114
79 94 81
103 115 111
110 125 120
114 127 128
105 119 116
116 131 130
127 141 144
114 128 128
125 139 142
118 133 132
117 132 128
95 109 104
101 117 110
136 149 150
123 139 141
122 137 137
112 127 124
80 99 77
83 101 82
136 150 150
168 181 186
209 221 234
226 238 254
226 238 254
226 238 254
226 238 254
226 238 254
226 238 254
226 238 254
226 238 254
226 238 254
226 238 254
226 238 254
226 238 254
226 238 254
226 238 254
226 238 254
226 238 254
226 238 254
226 238 254
226 238 254
226 238 254
226 238 254
226 238 254
226 238 254
226 238 254
226 238 254
226 238 254
226 238 254
226 238 254
226 238 254
226 238 254
226 238 254
226 238 254
226 238 254
226 238 254
226 238 254
226 238 254
226 238 254
226 238 254
226 238 254
226 238 254
226 238 254
226 238 254
226 238 254
226 238 254
226 238 254
226 238 254
226 238 254
226 238 254
226 238 254
226 238 254
226 238 254
226 238 254
226 238 254
226 238 254
226 238 254
226 238 254
226 238 254
226 238 254
226 238 254
226 238 254
226 238 254
226 238 254
226 238 254
226 238 254
226 238 254
226 238 254
226 238 254
226 238 254
226 238 254
226 238 254
226 238 254
226 238 254
226 238 254
226 238 254
226 238 254
226 238 254
226 238 254
226 238 254
226 238 254
226 238 254
226 238 254
226 238 254
226 238 254
226 238 254
226 238 254
226 238 254
226 238 254
226 238 254
226 238 254
226 238 254
226 238 254
226 238 254
226 238 254
226 238 254
226 238 254
226 238 254
226 238 254
226 238 254
226 238 254
226 238 254
226 238 254
226 238 254
226 238 254
226 238 254
226 238 254
226 238 254
226 238 254
226 238 254
226 238 254
226 238 254
226 238 254
226 238 254
226 238 254
226 238 254
226 238 254
226 238 254
226 238 254
226 238 254
226 238 254
226 238 254
226 238 254
226 238 254
226 238 254
226 238 254
226 238 254
226 238 254
226 238 254
226 238 254
226 238 254
226 238 254
226 238 254
226 238 254
226 238 254
226 238 254
226 238 254
226 238 254
226 238 254
226 238 254
226 238 254
226 238 254
226 238 254
226 238 254
226 238 254
226 238 254
226 238 254
226 238 254
226 238 254
226 238 254
226 238 254
226 238 254
226 238 254
226 238 254
226 238 254
226 238 254
226 238 254
226 238 254
226 238 254
226 238 254
226 238 254
226 238 254
226 238 254
226 238 254
217 229 244
180 193 199
173 187 191
125 140 138
124 140 141
118 135 132
120 134 134
134 149 153
127 142 144
121 134 135
115 129 127
103 119 113
100 117 108
123 138 139
106 121 116
124 137 141
116 131 131
127 143 146
103 118 113
82 99 85
83 99 88
55 76 43
54 74 43
50 69 39
55 75 43
58 79 46
54 74 43
55 75 44
61 79 57
78 93 84
79 95 83
69 84 69
50 70 39
50 69 39
54 73 43
49 68 38
55 74 44
47 65 36
46 63 37
43 60 32
48 66 38
45 63 35
46 63 39
59 73 60
72 86 75
78 90 84
96 108 108
79 92 83
42 59 32
47 65 36
42 58 32
43 60 33
44 61 34
43 59 33
45 63 36
48 65 38
42 59 33
43 59 34
39 55 30
37 52 28
38 53 29
40 56 31
46 62 41
47 59 46
68 80 72
66 79 69
49 62 49
40 51 36
45 61 35
43 61 34
38 53 29
37 53 28
42 57 33
45 62 36
37 51 29
34 48 26
36 50 28
38 52 30
33 47 26
41 58 33
30 43 22
34 48 27
47 60 44
70 81 76
71 81 77
74 84 79
70 80 77
70 80 78
71 80 79
73 82 79
88 99 97
84 95 92
64 75 69
61 71 66
63 74 67
60 69 65
50 61 50
50 62 48
45 58 42
29 41 21
77 87 85
56 66 61
71 80 79
77 85 87
71 80 78
57 68 59
70 80 76
74 83 83
57 68 62
59 72 58
75 85 83
53 64 53
58 67 63
79 89 87
67 77 73
59 68 64
74 84 80
66 76 70
30 43 22
42 58 33
28 41 21
27 38 21
28 41 20
30 43 23
36 50 29
34 48 27
35 49 26
34 47 26
30 43 23
38 52 29
37 52 29
38 52 30
32 45 25
40 55 32
45 54 48
78 88 86
63 74 66
73 84 79
59 68 65
76 87 83
62 73 67
70 79 76
67 77 74
58 69 60
69 79 74
60 71 63
70 80 78
72 82 79
57 68 60
76 85 83
70 81 75
34 48 27
27 38 20
37 51 28
34 48 27
37 51 29
32 45 24
28 40 21
38 53 30
39 54 31
39 55 30
40 56 32
37 52 29
34 48 26
36 50 28
32 46 25
78 89 87
73 85 78
83 93 92
76 86 83
87 98 97
71 82 77
93 105 105
85 97 93
65 77 70
83 96 91
74 85 82
85 97 94
82 92 91
92 103 103
81 92 90
51 66 47
41 58 32
44 61 34
40 57 31
40 56 31
40 56 30
49 67 38
47 64 37
42 58 32
42 59 32
45 63 35
45 63 35
37 53 28
71 87 71
87 101 94
101 113 113
86 100 95
110 124 121
81 94 86
91 103 101
72 87 73
84 97 90
74 89 78
72 87 75
62 79 59
52 69 45
81 95 87
106 119 118
99 111 109
94 108 103
113 125 127
95 109 103
110 122 122
114 127 127
112 128 123
108 122 121
123 137 137
95 111 103
69 88 67
68 87 62
94 110 101
82 99 84
96 111 101
102 117 114
126 140 143
127 141 143
119 133 133
92 107 100
67 88 58
60 81 51
85 102 86
110 126 122
119 134 130
102 120 110
87 106 87
95 113 101
116 132 132
108 124 116
149 163 163
196 209 219
219 231 246
226 238 254
226 238 254
226 238 254
226 238 254
226 238 254
226 238 254
226 238 254
226 238 254
226 238 254
226 238 254
226 238 254
226 238 254
226 238 254
226 238 254
226 238 254
226 238 254
226 238 254
226 238 254
226 238 254
226 238 254
226 238 254
226 238 254
226 238 254
226 238 254
226 238 254
226 238 254
226 238 254
226 238 254
226 238 254
226 238 254
226 238 254
226 238 254
226 238 254
226 238 254
226 238 254
226 238 254
226 238 254
226 238 254
226 238 254
226 238 254
226 238 254
226 238 254
226 238 254
226 238 254
226 238 254
226 238 254
226 238 254
226 238 254
226 238 254
226 238 254
226 238 254
226 238 254
226 238 254
226 238 254
226 238 254
226 238 254
226 238 254
226 238 254
226 238 254
226 238 254
226 238 254
226 238 254
226 238 254
226 238 254
226 238 254
226 238 254
226 238 254
226 238 254
226 238 254
226 238 254
226 238 254
226 238 254
226 238 254
226 238 254
226 238 254
226 238 254
226 238 254
226 238 254
226 238 254
226 238 254
226 238 254
226 238 254
226 238 254
226 238 254
226 238 254
226 238 254
226 238 254
226 238 254
226 238 254
226 238 254
226 238 254
226 238 254
226 238 254
226 238 254
226 238 254
226 238 254
226 238 254
226 238 254
226 238 254
226 238 254
226 238 254
226 238 254
226 238 254
226 238 254
226 238 254
226 238 254
226 238 254
226 238 254
226 238 254
226 238 254
226 238 254
226 238 254
226 238 254
226 238 254
226 238 254
226 238 254
226 238 254
226 238 254
226 238 254
226 238 254
226 238 254
226 238 254
226 238 254
226 238 254
226 238 254
226 238 254
226 238 254
226 238 254
226 238 254
226 238 254
226 238 254
226 238 254
226 238 254
226 238 254
226 238 254
226 238 254
226 238 254
226 238 254
226 238 254
226 238 254
226 238 254
226 238 254
226 238 254
226 238 254
226 238 254
226 238 254
226 238 254
226 238 254
226 238 254
226 238 254
226 238 254
226 238 254
226 238 254
226 238 254
226 238 254
207 219 232
185 198 207
133 147 147
125 141 141
121 137 135
106 123 116
83 102 84
75 94 77
105 122 114
120 133 136
127 143 146
108 124 119
71 92 64
61 84 49
51 71 40
70 90 65
109 125 120
105 121 115
93 108 100
82 100 83
58 78 53
51 71 40
54 74 43
58 79 46
51 71 40
55 75 44
55 76 44
72 88 72
82 100 84
96 110 106
112 124 127
123 137 138
115 129 131
87 100 96
60 81 47
53 72 43
49 68 38
56 76 44
45 63 34
51 71 41
46 63 36
58 76 55
78 93 83
95 109 102
83 98 88
87 100 95
103 115 116
109 120 123
92 104 103
89 102 100
89 103 96
43 59 34
45 63 35
40 56 31
52 71 42
52 72 42
40 55 31
46 63 37
40 55 31
39 55 30
59 76 55
71 85 73
71 83 75
74 85 80
86 98 92
96 106 107
96 109 105
85 97 94
80 93 89
42 57 33
40 56 31
43 60 33
40 56 31
37 52 29
38 53 29
37 53 29
43 59 35
48 64 38
43 59 34
40 56 31
40 55 31
40 54 31
43 59 34
34 49 26
34 48 26
44 60 35
55 65 58
83 95 93
73 84 80
58 70 59
55 66 57
56 69 55
58 70 59
41 55 33
34 50 25
38 52 30
30 42 23
34 48 26
39 53 31
34 47 25
34 47 26
33 47 26
41 57 32
50 62 48
68 78 73
76 85 86
71 81 77
83 94 92
72 80 81
61 72 63
59 67 65
71 80 78
58 68 61
70 78 79
55 65 61
69 78 76
72 84 79
74 84 80
57 65 60
68 78 76
86 96 97
54 65 55
37 51 29
29 41 23
38 54 29
32 45 25
33 46 26
38 53 30
33 45 26
38 53 29
34 48 26
30 42 23
37 51 29
44 60 34
37 52 29
41 56 32
38 53 29
44 58 39
51 63 50
76 86 84
71 81 79
81 92 90
72 82 81
67 77 72
67 79 69
67 79 69
73 84 79
61 72 64
60 70 62
70 81 76
79 89 88
62 72 66
69 80 75
87 98 97
67 78 72
43 57 39
43 57 38
42 56 37
42 56 37
48 61 45
34 49 27
36 50 28
42 57 32
39 54 31
37 53 29
36 50 29
39 55 30
40 55 32
35 49 27
49 63 45
81 92 88
85 96 93
90 103 99
83 95 91
83 94 93
86 97 95
83 93 93
73 85 78
85 97 96
74 84 84
96 108 108
98 109 108
100 112 111
94 105 103
81 94 89
53 68 51
43 60 34
45 62 35
42 58 33
43 61 34
46 63 37
44 61 35
46 63 36
41 58 32
48 66 38
53 71 41
45 63 34
45 63 35
61 78 57
110 122 124
104 117 118
99 112 107
96 109 108
112 125 125
90 102 98
99 113 108
125 139 142
107 119 121
99 112 111
102 114 113
105 119 117
97 110 106
75 90 78
82 97 86
87 102 92
90 105 97
101 116 112
108 122 119
116 128 129
114 128 129
118 132 134
109 123 120
120 135 136
85 102 88
56 78 45
54 74 43
50 71 39
54 74 43
67 83 65
76 93 74
90 107 94
112 127 122
112 128 123
83 98 90
59 81 48
61 83 48
57 79 45
57 79 45
67 89 62
72 93 64
94 112 99
121 137 137
134 149 154
131 146 145
123 139 136
130 146 142
173 186 191
215 227 243
226 238 254
226 238 254
226 238 254
226 238 254
226 238 254
226 238 254
226 238 254
226 238 254
226 238 254
226 238 254
226 238 254
226 238 254
226 238 254
226 238 254
226 238 254
226 238 254
226 238 254
226 238 254
226 238 254
226 238 254
226 238 254
226 238 254
226 238 254
226 238 254
226 238 254
226 238 254
226 238 254
226 238 254
226 238 254
226 238 254
226 238 254
226 238 254
226 238 254
226 238 254
226 238 254
226 238 254
226 238 254
226 238 254
226 238 254
226 238 254
226 238 254
226 238 254
226 238 254
226 238 254
226 238 254
226 238 254
226 238 254
226 238 254
226 238 254
226 238 254
226 238 254
226 238 254
226 238 254
226 238 254
226 238 254
226 238 254
226 238 254
226 238 254
226 238 254
226 238 254
226 238 254
226 238 254
226 238 254
226 238 254
226 238 254
226 238 254
226 238 254
226 238 254
226 238 254
226 238 254
226 238 254
226 238 254
226 238 254
226 238 254
226 238 254
226 238 254
226 238 254
226 238 254
226 238 254
226 238 254
226 238 254
226 238 254
226 238 254
226 238 254
226 238 254
226 238 254
226 238 254
226 238 254
226 238 254
226 238 254
226 238 254
226 238 254
226 238 254
226 238 254
226 238 254
226 238 254
226 238 254
226 238 254
226 238 254
226 238 254
226 238 254
226 238 254
226 238 254
226 238 254
226 238 254
226 238 254
226 238 254
226 238 254
226 238 254
226 238 254
226 238 254
226 238 254
226 238 254
226 238 254
226 238 254
226 238 254
226 238 254
226 238 254
226 238 254
226 238 254
226 238 254
226 238 254
226 238 254
226 238 254
226 238 254
226 238 254
226 238 254
226 238 254
226 238 254
226 238 254
226 238 254
226 238 254
226 238 254
226 238 254
226 238 254
226 238 254
226 238 254
226 238 254
226 238 254
226 238 254
226 238 254
226 238 254
226 238 254
226 238 254
226 238 254
226 238 254
226 238 254
226 238 254
221 232 248
199 211 224
171 184 192
117 134 127
131 147 146
129 142 143
99 116 105
82 100 84
63 85 50
69 91 60
73 95 65
92 109 99
90 108 94
61 82 51
61 83 48
54 75 42
60 82 48
70 91 64
82 98 84
110 126 122
74 91 74
58 80 46
53 73 41
55 76 44
59 81 47
54 74 41
57 78 45
80 97 80
82 97 82
88 104 95
104 118 117
125 140 140
112 125 125
111 125 122
119 133 135
104 117 117
109 123 120
94 109 103
46 66 35
48 67 38
54 72 45
71 87 74
92 107 99
97 111 107
100 114 112
89 102 96
108 120 122
102 115 112
114 127 129
117 130 133
94 106 105
99 112 111
96 108 108
99 111 109
88 100 95
81 94 86
40 56 31
52 70 41
56 71 54
62 77 61
60 76 57
66 78 69
94 106 105
92 105 104
90 102 101
96 107 105
87 98 98
80 94 84
98 110 110
98 110 107
86 99 93
86 99 94
87 100 92
80 93 87
39 55 29
45 60 35
38 53 30
36 51 28
45 62 36
29 43 21
44 62 34
39 54 30
36 51 27
32 44 24
38 51 32
47 62 41
54 68 52
66 79 70
68 81 72
68 79 73
70 81 75
59 71 62
35 50 27
35 50 27
40 54 31
35 49 27
42 57 33
39 53 30
38 52 29
39 54 31
42 58 33
39 53 31
48 65 38
39 54 31
41 56 33
43 58 34
24 37 17
38 53 29
50 62 48
72 83 81
84 95 92
74 86 79
71 81 79
65 76 69
76 86 84
76 86 86
70 80 75
69 79 75
78 88 85
75 87 78
69 79 76
75 85 82
73 85 79
84 95 93
74 85 81
72 82 79
45 58 42
35 49 27
39 54 30
35 48 27
36 50 28
36 51 28
45 58 43
33 48 25
55 66 55
39 52 35
45 58 40
56 67 60
53 64 53
61 73 63
79 90 86
63 75 67
70 80 77
58 69 63
44 57 41
53 65 53
52 67 50
44 57 41
38 53 29
42 59 33
42 55 38
35 49 28
50 63 50
37 52 30
41 56 32
34 48 27
39 54 31
36 52 28
31 44 23
68 78 75
83 93 93
79 89 87
89 101 99
91 102 102
93 104 104
83 95 90
94 105 103
75 87 79
84 96 91
86 97 95
80 91 88
75 86 82
58 68 61
86 95 97
76 86 83
68 81 74
48 62 43
47 60 44
46 59 43
51 65 50
60 72 61
63 79 61
64 76 67
67 83 65
73 84 79
76 87 80
72 84 78
78 92 82
92 105 102
82 96 88
66 80 65
57 73 54
52 68 47
38 53 29
53 73 42
48 65 38
48 66 38
52 71 41
42 58 33
51 70 41
48 67 38
45 63 35
46 64 37
47 64 36
94 108 101
98 110 109
106 119 119
98 110 108
121 136 137
112 125 125
102 115 112
98 111 108
115 128 129
101 114 110
108 121 120
110 122 124
94 108 103
65 80 65
55 76 44
54 74 42
52 71 41
59 78 53
65 80 63
79 95 84
99 114 110
92 105 100
110 125 121
112 125 124
98 113 108
62 81 54
51 70 40
59 80 46
59 81 47
56 77 45
57 79 45
63 85 50
61 83 50
70 92 63
70 90 68
88 106 93
80 98 81
72 93 66
60 82 48
62 84 50
76 96 73
115 132 128
134 149 152
128 143 143
111 129 124
126 141 142
134 148 150
124 140 137
141 155 159
174 187 196
210 223 238
224 236 252
226 238 254
226 238 254
226 238 254
226 238 254
226 238 254
226 238 254
226 238 254
226 238 254
226 238 254
226 238 254
226 238 254
226 238 254
226 238 254
226 238 254
226 238 254
226 238 254
226 238 254
226 238 254
226 238 254
226 238 254
226 238 254
226 238 254
226 238 254
226 238 254
226 238 254
226 238 254
226 238 254
226 238 254
226 238 254
226 238 254
226 238 254
226 238 254
226 238 254
226 238 254
226 238 254
226 238 254
226 238 254
226 238 254
226 238 254
226 238 254
226 238 254
226 238 254
226 238 254
226 238 254
226 238 254
226 238 254
226 238 254
226 238 254
226 238 254
226 238 254
226 238 254
226 238 254
226 238 254
226 238 254
226 238 254
226 238 254
226 238 254
226 238 254
226 238 254
226 238 254
226 238 254
226 238 254
226 238 254
226 238 254
226 238 254
226 238 254
226 238 254
226 238 254
226 238 254
226 238 254
226 238 254
226 238 254
226 238 254
226 238 254
226 238 254
226 238 254
226 238 254
226 238 254
226 238 254
226 238 254
226 238 254
226 238 254
226 238 254
226 238 254
226 238 254
226 238 254
226 238 254
226 238 254
226 238 254
226 238 254
226 238 254
226 238 254
226 238 254
226 238 254
226 238 254
226 238 254
226 238 254
226 238 254
226 238 254
226 238 254
226 238 254
226 238 254
226 238 254
226 238 254
226 238 254
226 238 254
226 238 254
226 238 254
226 238 254
226 238 254
226 238 254
226 238 254
226 238 254
226 238 254
226 238 254
226 238 254
226 238 254
226 238 254
226 238 254
226 238 254
226 238 254
226 238 254
226 238 254
226 238 254
226 238 254
226 238 254
226 238 254
226 238 254
226 238 254
226 238 254
226 238 254
226 238 254
226 238 254
226 238 254
226 238 254
226 238 254
226 238 254
226 238 254
226 238 254
226 238 254
226 238 254
221 233 249
201 213 225
162 175 181
111 129 119
68 90 62
95 115 100
111 128 120
71 93 65
61 84 49
67 88 60
95 114 96
103 120 113
105 121 114
63 86 50
63 86 50
60 82 49
73 93 66
88 106 90
98 114 107
128 143 147
136 150 153
113 128 126
124 136 142
113 128 126
57 79 46
57 78 45
79 96 81
88 105 95
99 117 108
112 125 128
114 128 128
119 132 132
111 124 124
115 130 132
113 127 125
130 144 149
113 127 126
118 131 134
105 119 116
103 116 116
78 95 80
79 95 81
88 102 95
100 113 111
98 112 109
96 109 106
107 120 121
106 120 118
116 130 130
115 127 128
109 123 121
108 120 121
96 107 104
113 126 127
97 110 109
104 117 117
108 121 122
71 85 75
89 101 99
85 97 94
81 94 87
92 105 100
106 119 115
112 125 126
88 101 93
98 112 107
84 96 91
99 113 109
93 106 101
93 104 102
80 93 86
79 92 84
93 105 102
85 97 93
96 108 106
99 113 111
81 94 90
47 63 41
46 63 37
45 62 35
45 62 36
49 63 45
83 95 90
71 83 76
76 90 79
76 88 83
86 98 95
87 99 95
80 91 87
72 82 78
89 100 99
77 88 84
80 91 88
89 101 98
74 86 81
35 49 26
38 54 29
36 51 27
37 53 29
42 59 33
44 61 34
46 63 36
42 58 33
41 57 32
40 55 31
40 56 31
38 52 29
41 57 32
33 47 25
36 51 28
34 47 26
44 60 35
73 85 77
77 89 82
66 79 66
53 65 54
91 102 103
83 94 95
55 66 58
75 85 83
73 83 80
66 76 71
78 90 84
78 91 84
58 70 59
76 87 83
62 77 62
63 75 65
61 72 63
46 57 46
72 83 78
71 83 76
71 83 77
68 80 72
65 75 70
68 79 73
74 84 83
78 88 85
63 75 64
89 101 98
79 89 88
82 94 92
78 89 85
72 83 77
94 106 106
82 94 90
81 93 90
40 53 35
37 52 28
45 62 35
41 57 33
39 55 30
37 51 28
40 56 31
39 54 30
35 49 27
39 54 29
33 47 26
42 58 33
37 52 29
39 55 31
41 57 32
44 60 34
45 59 42
83 94 93
68 79 76
71 81 77
74 85 79
62 74 63
98 110 110
88 100 95
79 91 86
74 85 81
81 92 87
88 101 96
96 107 106
78 90 80
87 98 97
85 97 93
36 51 28
40 55 31
42 59 31
43 60 34
43 60 34
47 63 37
38 53 30
41 57 32
42 59 32
45 62 35
40 56 30
45 63 35
33 48 26
44 61 33
49 66 42
82 94 89
100 111 111
115 128 130
98 110 109
79 92 86
98 112 109
83 96 92
87 101 95
77 92 82
63 75 66
54 70 48
74 88 79
60 76 56
62 79 59
92 105 99
102 116 113
117 129 132
94 108 101
104 117 117
97 111 107
98 111 106
103 115 113
94 107 102
111 125 122
102 115 114
109 122 124
118 131 134
78 93 83
53 73 42
50 69 38
56 77 45
53 74 42
44 62 33
48 67 38
53 73 43
48 66 38
56 76 48
82 99 85
74 91 75
60 77 56
79 95 83
67 85 64
56 77 44
59 81 47
58 79 45
61 83 49
56 77 44
58 79 46
56 77 45
77 95 79
128 142 144
123 137 139
107 123 119
106 122 116
85 103 88
118 133 129
138 153 156
130 145 147
95 115 102
72 94 65
101 119 107
110 129 121
132 149 151
142 158 163
138 154 158
166 181 186
195 207 219
224 235 252
226 238 254
226 238 254
226 238 254
226 238 254
226 238 254
226 238 254
226 238 254
226 238 254
226 238 254
226 238 254
226 238 254
226 238 254
226 238 254
226 238 254
226 238 254
226 238 254
226 238 254
226 238 254
226 238 254
226 238 254
226 238 254
226 238 254
226 238 254
226 238 254
226 238 254
226 238 254
226 238 254
226 238 254
226 238 254
226 238 254
226 238 254
226 238 254
226 238 254
226 238 254
226 238 254
226 238 254
226 238 254
226 238 254
226 238 254
226 238 254
226 238 254
226 238 254
226 238 254
226 238 254
226 238 254
226 238 254
226 238 254
226 238 254
226 238 254
226 238 254
226 238 254
226 238 254
226 238 254
226 238 254
226 238 254
226 238 254
226 238 254
226 238 254
226 238 254
226 238 254
226 238 254
226 238 254
226 238 254
226 238 254
226 238 254
226 238 254
226 238 254
226 238 254
226 238 254
226 238 254
226 238 254
226 238 254
226 238 254
226 238 254
226 238 254
226 238 254
226 238 254
226 238 254
226 238 254
226 238 254
226 238 254
226 238 254
226 238 254
226 238 254
226 238 254
226 238 254
226 238 254
226 238 254
226 238 254
226 238 254
226 238 254
226 238 254
226 238 254
226 238 254
226 238 254
226 238 254
226 238 254
226 238 254
226 238 254
226 238 254
226 238 254
226 238 254
226 238 254
226 238 254
226 238 254
226 238 254
226 238 254
226 238 254
226 238 254
226 238 254
226 238 254
226 238 254
226 238 254
226 238 254
226 238 254
226 238 254
226 238 254
226 238 254
226 238 254
226 238 254
226 238 254
226 238 254
226 238 254
226 238 254
226 238 254
226 238 254
226 238 254
226 238 254
226 238 254
226 238 254
226 238 254
226 238 254
226 238 254
226 238 254
226 238 254
216 228 244
187 200 211
135 150 149
98 118 104
80 101 77
109 128 119
129 146 146
136 151 155
139 154 158
134 151 153
106 123 113
126 141 142
122 136 138
136 151 153
116 132 128
66 88 55
73 94 69
105 122 115
137 150 155
129 144 145
135 148 154
110 126 124
125 139 141
126 140 142
122 136 139
115 130 127
97 114 101
91 106 100
114 127 128
120 134 136
122 136 136
123 136 139
122 135 139
108 122 120
114 127 128
119 134 134
120 134 133
106 120 118
105 120 117
91 106 103
70 87 69
54 75 43
52 72 41
57 79 45
78 95 79
102 116 113
116 129 131
101 115 112
104 118 117
122 136 140
103 117 111
111 124 124
113 127 127
104 117 117
104 117 114
106 119 120
91 106 98
75 90 76
57 76 51
54 74 43
47 64 37
53 73 42
74 88 79
94 106 105
111 124 126
85 98 93
96 108 108
101 114 113
111 123 124
98 110 110
106 120 119
105 117 118
95 108 105
90 103 99
97 109 108
95 107 107
87 99 97
84 97 91
86 99 95
87 99 96
78 90 84
84 96 93
92 104 100
92 105 102
88 100 100
88 99 99
91 104 100
107 118 118
82 92 90
85 97 95
87 98 96
85 96 95
83 95 91
87 98 93
87 99 96
83 97 92
79 91 84
89 99 99
62 75 66
45 62 35
40 55 32
39 55 30
44 60 34
37 54 29
46 63 37
46 62 37
43 60 34
45 62 36
37 51 28
38 53 29
47 64 37
46 63 36
32 46 24
39 51 33
44 58 39
45 59 40
71 84 76
51 65 49
70 82 74
71 84 76
62 77 63
52 65 50
43 53 41
42 58 33
42 57 33
43 60 34
39 54 30
34 49 26
41 56 32
40 56 31
38 53 29
37 52 28
41 56 32
65 78 68
87 97 98
86 96 95
82 93 90
87 98 96
77 87 85
79 90 86
78 89 83
86 96 97
73 84 80
86 97 96
84 94 92
71 82 80
69 82 73
82 93 91
71 83 77
80 92 88
75 87 81
45 61 39
42 58 32
41 56 32
36 51 28
41 57 31
43 59 33
35 49 27
38 54 30
40 55 31
45 62 36
41 57 32
40 56 32
40 55 32
46 63 36
34 48 26
42 58 33
79 90 87
83 94 93
90 102 99
82 93 88
92 105 103
91 103 102
77 88 84
95 106 105
81 92 87
72 82 77
88 100 97
100 112 112
82 94 90
94 105 106
88 100 95
90 102 101
46 59 43
36 51 28
48 65 37
43 60 33
45 62 34
42 59 32
41 57 33
40 57 31
47 64 37
41 58 32
53 72 43
47 65 37
44 61 34
45 63 35
44 62 35
81 94 86
107 119 121
96 108 105
112 124 127
77 90 85
107 119 120
104 117 117
107 119 119
95 107 107
108 124 120
108 121 121
102 115 112
110 122 123
98 109 111
108 121 122
62 79 59
72 90 71
68 84 71
80 94 84
98 114 109
84 98 88
109 121 121
101 116 112
115 128 128
114 127 128
102 118 112
107 121 116
91 105 99
47 66 37
56 76 44
59 81 48
45 65 34
51 71 39
48 67 37
51 71 40
50 69 39
52 72 40
51 70 40
54 74 43
84 100 88
115 129 128
104 119 114
124 139 138
106 122 117
80 97 83
67 86 64
64 86 54
61 84 50
59 80 47
62 83 51
93 107 99
125 139 142
127 140 141
116 130 129
128 144 145
95 112 97
93 112 96
111 127 123
107 124 118
86 105 87
64 87 51
68 91 54
84 105 82
95 112 100
127 144 140
109 128 115
112 129 122
148 163 164
191 204 214
218 229 244
226 238 254
226 238 254
226 238 254
226 238 254
226 238 254
226 238 254
226 238 254
226 238 254
226 238 254
226 238 254
226 238 254
226 238 254
226 238 254
226 238 254
226 238 254
226 238 254
226 238 254
226 238 254
226 238 254
226 238 254
226 238 254
226 238 254
226 238 254
226 238 254
226 238 254
226 238 254
226 238 254
226 238 254
226 238 254
226 238 254
226 238 254
226 238 254
226 238 254
226 238 254
226 238 254
226 238 254
226 238 254
226 238 254
226 238 254
226 238 254
226 238 254
226 238 254
226 238 254
226 238 254
226 238 254
226 238 254
226 238 254
226 238 254
226 238 254
226 238 254
226 238 254
226 238 254
226 238 254
226 238 254
226 238 254
226 238 254
226 238 254
226 238 254
226 238 254
226 238 254
226 238 254
226 238 254
226 238 254
226 238 254
226 238 254
226 238 254
226 238 254
226 238 254
226 238 254
226 238 254
226 238 254
226 238 254
226 238 254
226 238 254
226 238 254
226 238 254
226 238 254
226 238 254
226 238 254
226 238 254
226 238 254
226 238 254
226 238 254
226 238 254
226 238 254
226 238 254
226 238 254
226 238 254
226 238 254
226 238 254
226 238 254
226 238 254
226 238 254
226 238 254
226 238 254
226 238 254
226 238 254
226 238 254
226 238 254
226 238 254
226 238 254
226 238 254
226 238 254
226 238 254
226 238 254
226 238 254
226 238 254
226 238 254
226 238 254
226 238 254
226 238 254
226 238 254
226 238 254
226 238 254
227 238 254
227 238 254
227 238 254
227 238 254
227 238 254
227 238 254
227 238 254
227 238 254
227 238 254
227 238 254
227 238 254
227 238 254
227 238 254
227 238 254
227 238 254
215 227 241
186 199 208
152 167 168
87 107 87
83 103 84
115 133 124
127 142 141
143 159 166
135 150 154
122 137 135
110 127 119
74 96 69
62 85 50
111 127 120
121 137 135
120 136 132
117 134 130
129 145 148
131 146 150
114 128 127
124 139 142
118 132 133
122 138 139
127 142 144
122 137 137
108 122 118
105 121 118
74 91 74
54 75 42
56 77 45
99 116 108
116 130 132
123 137 139
117 131 131
118 133 130
122 136 139
123 137 136
111 126 123
96 112 103
79 95 80
60 80 50
54 75 43
58 78 46
53 74 42
56 76 45
50 69 39
52 71 41
52 72 41
91 106 97
128 143 147
103 117 115
102 115 113
114 127 128
104 116 117
109 122 122
76 89 79
75 88 79
48 67 38
47 64 37
45 63 35
48 67 38
54 74 43
42 58 33
49 68 39
46 63 35
47 65 38
100 112 111
108 121 121
99 111 108
109 121 124
99 111 110
91 103 102
106 119 121
98 111 111
88 101 99
87 98 96
83 95 89
80 95 85
71 85 75
54 69 49
50 67 43
44 61 34
46 64 36
52 68 48
84 95 92
94 106 103
94 106 101
106 118 118
93 105 107
90 102 101
88 100 96
85 97 95
87 98 97
104 116 118
98 109 111
98 109 111
83 94 92
85 99 92
89 100 99
92 104 102
97 107 109
95 107 106
54 70 48
37 52 28
39 55 31
44 61 34
45 61 36
35 50 27
46 61 40
53 69 49
49 61 48
72 87 74
57 69 59
78 91 83
87 99 96
104 116 116
85 98 94
75 86 81
85 95 94
89 101 99
52 69 45
44 61 34
40 56 31
41 57 32
44 61 35
38 53 29
42 58 32
39 53 30
41 57 33
46 63 37
32 46 24
46 63 36
44 60 34
40 56 30
37 51 29
49 67 39
41 57 32
64 76 67
94 105 106
92 103 101
89 100 100
85 98 95
75 86 82
83 93 92
82 93 90
71 83 79
75 87 84
68 80 70
82 92 91
86 98 92
84 95 93
83 94 93
85 96 94
77 89 83
73 85 77
45 63 35
45 62 35
43 61 33
43 60 33
38 53 29
44 60 35
36 51 27
38 54 29
47 65 37
43 60 34
44 61 35
44 61 35
47 66 37
47 64 37
41 57 32
46 61 40
83 93 93
79 91 86
86 98 96
87 99 97
95 107 106
92 105 101
90 102 99
85 98 94
88 100 100
87 100 95
99 112 108
86 95 96
94 106 105
93 104 102
106 119 120
110 124 121
54 70 50
44 61 35
49 67 39
49 67 39
44 59 35
44 61 34
41 58 33
45 62 34
42 60 33
40 55 31
48 66 38
49 67 38
46 63 36
53 72 42
45 62 35
86 100 94
116 129 131
104 116 117
107 121 118
94 107 104
98 110 112
96 110 104
105 118 118
105 117 116
96 108 105
103 116 115
106 118 118
101 115 112
100 113 112
91 104 102
49 67 39
46 64 36
43 61 34
50 69 39
51 69 40
50 69 40
55 75 43
58 78 50
70 87 66
68 86 66
86 102 93
84 99 91
82 98 87
68 86 67
56 74 49
57 77 46
54 74 43
56 76 45
53 74 42
54 74 43
57 78 46
52 71 40
53 73 41
53 74 42
78 98 76
117 133 130
111 124 122
125 137 139
110 125 122
124 138 139
120 135 135
124 139 140
115 132 127
86 102 90
83 101 84
91 109 96
121 137 138
131 146 151
117 132 130
114 130 126
65 88 55
65 87 51
62 85 50
70 90 65
68 89 62
83 103 83
72 93 65
68 93 55
63 87 50
60 83 48
83 102 84
86 107 86
68 92 58
78 100 74
144 160 157
187 200 209
215 227 242
227 238 254
227 238 254
227 238 254
227 238 254
227 238 254
227 238 254
227 238 254
227 238 254
227 238 254
227 238 254
227 238 254
227 238 254
227 238 254
227 238 254
227 238 254
226 238 254
226 238 254
226 238 254
226 238 254
226 238 254
226 238 254
226 238 254
226 238 254
226 238 254
226 238 254
226 238 254
226 238 254
226 238 254
226 238 254
226 238 254
226 238 254
226 238 254
226 238 254
226 238 254
226 238 254
226 238 254
226 238 254
226 238 254
226 238 254
226 238 254
226 238 254
226 238 254
226 238 254
226 238 254
226 238 254
226 238 254
226 238 254
226 238 254
226 238 254
226 238 254
226 238 254
226 238 254
226 238 254
226 238 254
226 238 254
226 238 254
226 238 254
226 238 254
226 238 254
226 238 254
226 238 254
226 238 254
226 238 254
226 238 254
226 238 254
226 238 254
226 238 254
226 238 254
226 238 254
226 238 254
226 238 254
226 238 254
226 238 254
226 238 254
226 238 254
226 238 254
226 238 254
226 238 254
226 238 254
226 238 254
226 238 254
226 238 254
226 238 254
226 238 254
226 238 254
226 238 254
226 238 254
226 238 254
227 238 254
227 238 254
227 238 254
227 238 254
227 238 254
227 238 254
227 238 254
227 238 254
227 238 254
227 238 254
227 238 254
227 238 254
227 238 254
227 238 254
227 238 254
227 238 254
227 238 254
227 238 254
227 238 254
227 238 254
227 238 254
227 238 254
227 238 254
227 238 254
227 238 254
227 238 254
227 238 254
227 238 254
227 238 254
227 238 254
227 238 254
227 238 254
227 238 254
227 238 254
227 238 254
215 227 241
191 203 214
136 152 148
93 113 95
92 112 98
111 127 120
124 140 140
144 160 166
129 146 148
123 138 137
86 104 87
73 96 64
64 88 51
63 85 50
64 88 51
80 102 77
102 118 109
86 103 86
67 89 57
78 98 79
135 150 155
124 137 140
135 149 154
123 137 137
130 144 149
107 123 116
77 96 74
55 77 44
59 81 46
63 85 50
58 79 47
54 75 42
61 83 49
73 92 70
122 136 137
116 130 131
105 121 118
107 122 118
74 92 70
60 81 51
51 71 40
52 72 41
54 74 41
54 75 43
59 80 46
47 66 37
55 76 44
54 74 42
55 76 44
53 72 42
52 72 41
78 93 80
105 121 117
83 99 86
80 95 84
58 75 50
55 74 43
47 65 38
49 68 39
50 70 39
50 70 40
56 76 44
47 66 37
43 61 33
49 69 39
49 67 38
52 71 40
49 68 39
44 62 33
82 95 88
102 114 114
103 117 114
104 117 114
99 111 110
90 103 99
91 105 99
48 64 40
61 74 61
48 66 37
50 68 39
40 56 31
44 62 34
55 74 43
51 70 41
46 63 36
54 73 42
38 54 28
68 80 72
93 107 104
96 110 104
94 107 103
89 100 98
77 90 81
97 109 108
93 105 103
90 103 99
104 117 117
106 119 119
97 109 109
106 118 119
94 107 104
97 109 105
90 101 98
101 114 112
74 88 77
75 89 81
68 80 75
79 92 85
99 110 109
90 103 99
68 80 75
89 102 97
86 99 94
96 108 105
83 95 90
86 99 95
89 102 98
94 106 104
103 114 115
93 106 102
101 113 113
82 94 88
97 110 107
85 98 92
43 59 34
45 62 35
39 55 30
46 64 36
40 56 30
46 64 37
42 59 33
42 57 33
42 59 32
42 58 34
44 61 34
38 54 29
40 55 31
43 60 34
45 62 36
41 56 32
47 61 44
83 96 87
94 107 105
86 97 95
76 88 82
76 87 85
93 105 102
89 101 99
78 90 84
94 105 106
95 106 107
85 97 93
94 107 102
80 92 87
92 105 103
102 115 114
80 92 87
90 101 100
61 73 63
42 58 32
55 75 44
45 62 36
40 56 31
41 56 32
40 57 30
37 52 27
43 59 33
40 56 30
47 63 36
40 55 31
48 66 38
48 65 39
38 54 29
48 65 37
45 62 36
88 100 96
109 121 126
87 100 95
92 105 102
85 97 92
94 106 104
90 103 101
95 108 106
106 118 119
86 98 96
108 120 123
98 110 111
89 102 97
99 113 109
83 96 91
93 104 104
47 64 41
42 58 32
48 66 38
44 62 34
39 55 29
48 66 37
48 67 39
47 65 38
43 59 33
45 63 35
54 73 42
47 65 38
45 62 36
49 68 39
47 66 37
93 107 103
107 119 121
113 126 127
103 116 113
86 100 92
88 101 95
117 130 133
83 96 89
99 113 107
113 126 125
112 124 126
106 119 119
114 128 128
111 125 122
106 119 118
44 61 33
46 64 36
49 68 37
52 72 41
52 72 42
57 78 46
57 78 46
47 65 37
54 75 43
51 71 41
56 77 45
55 75 43
54 73 46
99 112 109
115 129 129
109 123 121
94 111 102
87 101 93
90 106 93
71 89 71
65 85 57
50 70 38
58 79 47
61 84 49
63 83 56
87 102 95
111 125 125
116 130 128
119 134 134
120 133 135
117 133 130
119 135 135
121 137 136
128 142 146
112 126 123
126 141 142
101 116 109
87 102 90
120 136 136
89 106 96
60 82 47
64 87 50
61 84 49
61 84 49
56 78 45
96 114 100
129 144 147
117 132 128
113 131 123
86 107 84
57 79 45
68 93 56
93 113 99
104 122 111
100 119 106
91 111 90
117 134 124
164 177 179
212 224 237
227 238 254
227 238 254
227 238 254
227 238 254
227 238 254
227 238 254
227 238 254
227 238 254
227 238 254
227 238 254
227 238 254
227 238 254
227 238 254
227 238 254
227 238 254
227 238 254
227 238 254
227 238 254
227 238 254
227 238 254
227 238 254
227 238 254
227 238 254
227 238 254
227 238 254
227 238 254
227 238 254
227 238 254
227 238 254
227 238 254
227 238 254
227 238 254
227 238 254
227 238 254
227 238 254
227 238 254
226 238 254
226 238 254
226 238 254
226 238 254
226 238 254
226 238 254
226 238 254
226 238 254
226 238 254
226 238 254
226 238 254
226 238 254
226 238 254
226 238 254
226 238 254
226 238 254
226 238 254
226 238 254
226 238 254
226 238 254
226 238 254
226 238 254
226 238 254
226 238 254
226 238 254
226 238 254
226 238 254
226 238 254
226 238 254
227 238 254
227 238 254
227 238 254
227 238 254
227 238 254
227 238 254
227 238 254
227 238 254
227 238 254
227 238 254
227 238 254
227 238 254
227 238 254
227 238 254
227 238 254
227 238 254
227 238 254
227 238 254
227 238 254
227 238 254
227 238 254
227 238 254
227 238 254
227 238 254
227 238 254
227 238 254
227 238 254
227 238 254
227 238 254
227 238 254
227 238 254
227 238 254
227 238 254
227 238 254
227 238 254
227 238 254
227 238 254
227 238 254
227 238 254
227 238 254
227 238 254
227 238 254
227 238 254
227 238 254
227 238 254
227 238 254
227 238 254
227 238 254
227 238 254
227 238 254
227 238 254
227 238 254
214 226 239
174 187 193
144 159 161
119 136 129
90 113 86
102 119 106
135 151 154
138 154 157
130 147 149
121 139 136
85 106 87
77 100 69
65 88 51
64 88 52
65 87 52
92 111 97
112 130 122
133 147 147
135 151 153
121 136 136
59 81 47
63 86 50
84 101 88
143 158 162
118 133 130
94 111 99
57 79 45
59 81 47
61 84 49
60 82 47
60 82 48
56 76 44
60 83 48
61 83 48
57 78 45
68 84 65
95 109 101
85 101 89
67 86 60
51 71 39
59 79 45
59 80 47
51 70 40
57 78 44
54 75 43
55 76 44
55 75 43
50 70 39
61 82 48
60 82 48
47 66 36
75 91 79
87 102 92
110 123 121
125 138 140
54 73 43
55 76 45
55 75 43
53 73 42
49 67 39
48 67 36
53 73 41
53 72 41
50 70 40
53 72 41
55 74 43
53 73 43
54 74 43
47 65 38
49 68 37
51 69 44
56 74 46
67 82 68
90 105 97
65 81 65
57 74 52
46 64 36
48 67 38
53 72 43
50 69 40
49 68 39
56 76 44
51 71 41
55 76 44
48 66 38
46 63 36
46 64 36
50 69 40
47 64 37
51 70 39
46 64 36
95 107 105
96 108 105
103 116 114
106 119 120
95 108 108
105 120 116
96 108 106
96 109 105
101 113 115
98 109 110
92 104 102
86 99 93
77 89 82
72 85 75
60 75 58
47 64 37
44 61 34
47 62 40
84 97 91
93 105 101
91 104 101
97 109 108
97 109 110
96 109 106
99 111 110
91 104 99
110 123 125
85 97 93
98 111 108
99 112 109
84 97 93
80 91 88
87 98 94
95 106 105
94 107 105
63 76 65
70 84 72
46 63 36
37 53 29
42 59 32
48 66 38
49 66 39
40 55 31
46 63 36
45 62 35
39 55 31
44 61 34
43 60 34
36 51 27
41 57 32
41 56 32
44 61 35
45 62 36
58 71 60
97 108 109
84 96 91
94 105 106
83 96 90
89 100 97
106 118 119
85 98 92
105 116 120
98 108 109
93 104 104
93 105 101
93 107 104
95 107 106
92 105 102
94 106 104
80 93 84
76 89 80
70 84 72
67 82 67
75 88 82
78 92 83
78 91 81
74 85 79
74 86 80
85 97 95
80 92 85
79 92 83
87 102 92
88 102 96
84 97 90
83 96 91
81 93 89
78 90 82
74 87 80
67 80 69
50 66 45
46 60 43
55 72 50
48 63 44
64 76 69
50 67 43
60 78 56
75 88 78
56 70 54
63 79 64
75 90 79
63 78 62
69 82 72
66 81 64
60 74 58
77 90 82
80 93 87
87 101 96
67 80 71
72 85 77
78 92 82
67 80 70
83 98 88
66 80 69
75 91 76
76 91 79
75 89 78
74 90 78
61 76 61
61 77 58
91 104 99
111 124 125
108 121 120
106 120 116
98 112 107
105 118 116
111 126 126
117 131 132
106 121 116
110 123 124
101 115 112
113 127 127
96 110 109
103 117 115
92 105 99
62 81 55
54 74 42
55 76 44
52 71 41
58 79 47
53 74 42
58 79 46
51 71 40
50 69 40
57 78 45
56 78 45
57 79 45
63 84 52
98 113 106
112 127 126
117 131 130
125 140 141
120 135 134
109 124 122
124 139 141
121 135 135
112 126 123
102 118 110
92 110 93
84 100 87
107 122 118
110 125 122
127 141 142
140 155 160
126 141 143
123 138 140
125 140 143
133 148 151
135 150 153
136 149 154
118 132 132
97 114 107
68 88 62
120 136 138
123 139 138
112 130 124
100 117 106
90 108 93
70 93 59
64 87 52
65 85 59
105 121 115
127 142 145
133 148 152
126 142 144
118 135 128
96 114 99
79 99 75
98 117 103
134 151 154
141 157 162
118 135 130
87 106 85
123 141 131
177 190 197
215 227 240
227 238 254
227 238 254
227 238 254
227 238 254
227 238 254
227 238 254
227 238 254
227 238 254
227 238 254
227 238 254
227 238 254
227 238 254
227 238 254
227 238 254
227 238 254
227 238 254
227 238 254
227 238 254
227 238 254
227 238 254
227 238 254
227 238 254
227 238 254
227 238 254
227 238 254
227 238 254
227 238 254
227 238 254
227 238 254
227 238 254
227 238 254
227 238 254
227 238 254
227 238 254
227 238 254
227 238 254
227 238 254
227 238 254
227 238 254
227 238 254
227 238 254
227 238 254
227 238 254
227 238 254
227 238 254
227 238 254
227 238 254
227 238 254
227 238 254
227 238 254
227 238 254
227 238 254
227 238 254
226 238 254
226 238 254
226 238 254
226 238 254
227 238 254
227 238 254
227 238 254
227 238 254
227 238 254
227 238 254
227 238 254
227 238 254
227 238 254
227 238 254
227 238 254
227 238 254
227 238 254
227 238 254
227 238 254
227 238 254
227 238 254
227 238 254
227 238 254
227 238 254
227 238 254
227 238 254
227 238 254
227 238 254
227 238 254
227 238 254
227 238 254
227 238 254
227 238 254
227 238 254
227 238 254
227 238 254
227 238 254
227 238 254
227 238 254
227 238 254
227 238 254
227 238 254
227 238 254
227 238 254
227 238 254
227 238 254
227 238 254
227 238 254
227 238 254
227 238 254
227 238 254
227 238 254
227 238 254
227 238 254
227 238 254
227 238 254
227 238 254
227 238 254
216 228 242
173 186 192
152 167 170
145 163 167
135 151 153
110 129 120
86 108 83
144 159 164
138 153 157
121 137 136
94 114 101
71 94 59
66 90 53
68 93 56
70 92 61
87 107 90
122 137 137
132 147 149
138 153 160
126 141 142
125 140 140
136 150 155
130 146 145
89 108 94
88 105 91
105 119 115
63 86 53
61 83 48
60 81 48
58 80 46
62 85 51
62 84 49
58 80 46
60 82 48
63 84 53
90 107 95
104 121 114
115 130 125
135 149 153
121 136 134
93 110 99
56 77 45
55 76 44
55 75 43
51 71 41
56 77 44
54 75 43
52 73 41
58 80 46
62 81 54
81 99 82
88 104 95
107 121 121
95 108 107
122 136 134
112 125 123
108 121 123
127 143 147
70 88 70
52 72 41
50 69 39
56 76 44
51 70 39
50 69 39
51 70 40
53 72 42
55 75 44
53 74 43
52 71 40
55 73 46
80 95 82
76 91 76
95 110 104
117 131 130
106 120 120
119 131 135
84 99 88
52 72 41
54 73 42
57 78 45
51 69 40
55 75 45
53 72 42
55 75 43
44 62 33
56 76 45
50 69 39
44 61 34
49 67 38
52 72 41
47 65 36
47 66 37
42 59 33
51 70 40
75 90 79
104 118 118
99 111 111
102 115 116
91 104 99
88 102 95
73 88 75
62 78 60
58 76 55
42 58 32
53 73 43
49 67 38
44 62 34
47 65 37
48 66 38
46 64 36
45 64 36
43 60 34
76 90 81
89 101 98
95 108 106
104 117 116
90 103 101
91 103 99
95 108 104
84 98 93
99 111 110
96 109 107
106 120 119
100 112 111
102 115 113
103 115 116
103 115 113
81 93 89
92 104 100
86 99 95
70 83 73
45 63 35
46 64 36
50 68 39
43 60 32
50 69 40
45 64 35
42 59 33
51 70 41
45 63 35
37 53 29
40 56 29
38 54 29
41 57 32
54 69 47
54 68 50
74 87 80
70 83 73
87 99 95
79 91 87
69 82 75
60 73 63
66 83 61
46 61 41
62 77 59
52 67 48
57 74 51
47 64 37
47 65 36
46 63 36
48 66 38
42 59 32
42 58 33
44 61 34
48 66 38
53 68 51
97 109 106
95 107 104
88 103 95
92 105 101
101 114 113
90 102 101
90 101 100
95 107 104
98 110 109
94 107 102
91 103 97
104 117 115
110 122 123
85 98 94
111 122 125
81 93 89
92 103 104
46 64 36
48 65 37
49 67 39
50 69 39
56 76 44
50 69 38
51 71 40
49 68 39
47 64 37
53 72 42
52 70 41
49 68 38
42 59 31
42 59 33
48 66 37
55 72 52
109 122 121
105 118 117
96 110 107
122 134 139
108 122 121
113 127 126
102 116 113
101 112 113
110 123 122
115 129 129
104 117 115
103 117 115
113 127 127
107 119 120
116 129 132
85 99 90
57 77 49
68 80 71
62 77 62
69 85 68
76 90 82
80 96 85
102 117 112
91 106 98
106 121 117
91 104 97
116 131 128
109 123 122
96 107 107
105 121 116
62 83 53
53 73 41
56 77 44
50 70 40
52 71 41
53 72 42
51 70 41
61 83 49
58 79 46
47 67 36
50 69 39
61 83 49
58 79 46
94 111 98
113 128 124
110 125 120
121 135 139
113 128 127
120 135 133
134 148 150
124 138 141
122 136 135
130 145 148
132 147 151
130 146 146
112 125 124
89 105 92
95 112 102
82 99 83
108 122 118
120 135 137
133 147 150
112 127 127
124 138 138
120 135 135
125 140 140
106 122 116
117 133 134
143 158 164
135 150 152
136 151 154
125 141 140
130 147 147
119 135 132
100 117 106
86 103 88
99 117 109
128 143 145
135 151 149
141 157 161
135 152 155
143 158 165
146 162 167
119 135 131
118 136 133
148 165 172
146 164 169
136 153 158
129 145 145
120 139 132
140 156 154
186 199 209
221 232 248
227 238 254
227 238 254
227 238 254
227 238 254
227 238 254
227 238 254
227 238 254
227 238 254
227 238 254
227 238 254
227 238 254
227 238 254
227 238 254
227 238 254
227 238 254
227 238 254
227 238 254
227 238 254
227 238 254
227 238 254
227 238 254
227 238 254
227 238 254
227 238 254
227 238 254
227 238 254
227 238 254
227 238 254
227 238 254
227 238 254
227 238 254
227 238 254
227 238 254
227 238 254
227 238 254
227 238 254
227 238 254
227 238 254
227 238 254
227 238 254
227 238 254
227 238 254
227 238 254
227 238 254
227 238 254
227 238 254
227 238 254
227 238 254
227 238 254
227 238 254
227 238 254
227 238 254
227 238 254
227 238 254
227 238 254
227 238 254
227 238 254
227 238 254
227 238 254
227 238 254
227 238 254
227 238 254
227 238 254
227 238 254
227 238 254
227 238 254
227 238 254
227 238 254
227 238 254
227 238 254
227 238 254
227 238 254
227 238 254
227 238 254
227 238 254
227 238 254
227 238 254
227 238 254
227 238 254
227 238 254
227 238 254
227 238 254
227 238 254
227 238 254
227 238 254
227 238 254
227 238 254
227 238 254
227 238 254
227 238 254
227 238 254
227 238 254
227 238 254
227 238 254
227 238 254
227 238 254
227 238 254
227 238 254
227 238 254
227 238 254
227 238 254
227 238 254
227 238 254
227 238 254
227 238 254
221 232 247
187 200 208
148 164 165
135 152 153
134 151 151
108 127 117
82 104 81
73 100 60
82 106 74
105 122 116
91 111 92
69 93 58
65 89 52
64 88 51
67 90 56
98 117 106
113 131 124
126 141 142
138 153 159
132 148 151
141 155 163
138 153 158
127 142 142
124 141 140
88 105 92
72 93 67
107 124 118
134 149 152
119 135 134
102 120 111
61 83 49
62 85 50
58 81 46
56 77 44
64 85 55
88 106 90
111 126 121
131 146 150
122 136 136
137 152 155
126 140 138
131 144 146
116 130 131
110 125 120
56 78 44
60 81 47
59 81 48
53 73 42
60 78 53
87 103 92
96 111 102
104 119 116
120 135 135
107 122 117
115 130 130
111 125 124
122 136 137
124 137 140
114 128 126
123 136 141
122 136 137
101 116 109
56 78 45
61 82 49
58 79 46
51 71 41
49 68 39
59 78 53
59 76 56
92 109 98
99 112 111
102 116 114
100 114 112
117 130 130
95 110 101
109 123 122
118 133 136
110 124 122
124 139 139
102 118 112
49 68 38
50 70 39
43 61 33
54 75 43
53 73 43
50 70 39
62 84 50
50 69 39
54 73 42
52 71 41
50 69 39
55 75 44
47 64 37
50 68 39
56 72 52
58 76 52
89 103 97
84 98 93
75 90 79
60 79 54
53 73 42
55 76 44
51 71 40
45 63 35
49 67 38
48 66 37
46 63 36
49 68 40
52 71 41
45 62 35
51 70 40
52 72 41
50 68 39
48 65 37
42 59 32
42 59 33
81 93 86
106 119 117
104 115 118
104 117 118
87 100 96
114 126 128
102 117 112
96 109 109
89 102 97
109 121 124
96 108 107
79 92 86
91 103 99
108 119 120
94 108 101
94 106 102
101 113 114
97 110 110
69 84 72
50 68 39
54 70 50
49 66 43
57 75 52
64 79 62
82 95 88
78 91 82
85 99 92
103 117 113
94 108 103
96 110 107
95 108 105
97 110 108
100 113 111
95 108 107
101 114 112
108 121 120
63 80 61
46 65 36
37 54 28
35 50 26
43 60 33
45 63 35
43 59 33
40 56 30
49 68 39
45 63 34
52 71 41
48 67 37
50 69 39
44 63 34
43 60 32
44 62 34
47 66 38
76 91 80
90 104 98
101 114 113
96 109 108
88 100 95
84 96 92
93 105 103
89 102 98
93 105 104
86 99 96
94 108 104
107 120 118
116 128 132
80 94 85
109 122 122
91 103 99
100 112 113
79 93 84
41 58 32
44 62 34
49 68 38
46 64 37
46 63 36
42 58 32
49 68 39
43 60 34
53 73 43
50 68 39
54 74 44
48 67 37
49 67 39
55 75 44
50 69 39
57 76 47
106 120 119
107 121 121
104 117 116
94 108 102
107 120 119
110 122 122
109 122 121
108 118 122
109 122 123
113 126 127
94 109 103
108 122 120
114 125 127
112 125 124
106 121 116
66 84 63
56 77 45
56 76 44
45 64 35
47 66 36
50 70 40
51 70 40
53 73 42
57 78 46
53 73 42
55 75 44
51 71 40
53 73 43
71 91 67
78 94 78
102 116 110
91 107 100
74 90 73
79 94 84
81 98 84
73 89 76
68 85 67
55 76 44
58 79 46
55 76 44
55 76 43
54 74 43
56 76 45
90 104 92
117 131 131
130 144 146
119 133 135
113 129 126
121 136 135
121 135 135
116 130 130
131 147 149
130 144 149
120 135 135
121 136 136
134 149 151
76 94 73
57 78 44
59 81 47
55 76 43
63 83 55
86 104 88
95 112 101
108 124 121
124 140 140
112 126 125
57 79 45
100 119 107
132 146 149
133 149 153
121 137 136
140 155 160
146 161 168
140 153 160
135 150 152
126 141 142
140 154 160
119 136 134
120 136 134
127 144 142
132 148 149
135 151 151
144 159 164
134 149 152
147 163 172
128 144 144
98 118 96
146 162 168
139 156 162
144 161 166
128 144 145
146 163 168
181 196 207
203 216 228
223 234 249
227 238 254
227 238 254
227 238 254
227 238 254
227 238 254
227 238 254
227 238 254
227 238 254
227 238 254
227 238 254
227 238 254
227 238 254
227 238 254
227 238 254
227 238 254
227 238 254
227 238 254
227 238 254
227 238 254
227 238 254
227 238 254
227 238 254
227 238 254
227 238 254
227 238 254
227 238 254
227 238 254
227 238 254
227 238 254
227 238 254
227 238 254
227 238 254
227 238 254
227 238 254
227 238 254
227 238 254
227 238 254
227 238 254
227 238 254
227 238 254
227 238 254
227 238 254
227 238 254
227 238 254
227 238 254
227 238 254
227 238 254
227 238 254
227 238 254
227 238 254
227 238 254
227 238 254
227 238 254
227 238 254
227 238 254
227 238 254
227 238 254
227 238 254
227 238 254
227 238 254
227 238 254
227 238 254
227 238 254
227 238 254
227 238 254
227 238 254
227 238 254
227 238 254
227 238 254
227 238 254
227 238 254
227 238 254
227 238 254
227 238 254
227 238 254
227 238 254
227 238 254
227 238 254
227 238 254
227 238 254
227 238 254
227 238 254
227 238 254
227 238 254
227 238 254
227 238 254
227 238 254
227 238 254
227 238 254
227 238 254
227 238 254
227 238 254
227 238 254
227 238 254
227 238 254
227 238 254
227 238 254
227 238 254
227 238 254
226 237 253
200 213 224
163 178 183
128 145 143
142 158 163
117 131 128
83 103 80
73 98 59
75 98 70
119 136 129
130 146 144
147 162 169
137 152 158
77 100 69
76 98 74
116 132 124
113 130 126
140 155 160
134 150 153
135 150 152
136 152 153
123 137 138
137 152 158
122 138 136
98 116 104
67 89 59
60 82 48
59 80 46
66 89 54
94 111 99
129 144 145
129 145 145
127 142 144
87 104 87
91 108 93
103 119 110
127 143 143
146 161 167
135 151 153
139 154 160
117 133 133
131 146 149
126 140 140
123 138 137
120 136 135
125 140 141
115 130 127
60 81 51
76 92 79
99 114 107
102 117 114
117 132 130
107 122 119
127 141 145
120 134 133
123 136 139
121 135 134
117 131 133
116 130 131
112 126 123
112 127 126
108 121 123
114 127 131
113 127 128
120 133 135
66 84 60
64 82 59
78 95 79
85 100 91
105 122 116
112 126 126
112 126 125
103 116 114
110 123 122
118 132 134
113 128 128
110 124 122
101 115 110
112 127 125
106 120 118
115 128 128
102 115 112
116 130 130
71 87 70
59 80 47
56 77 45
48 66 37
51 71 40
56 76 45
56 76 45
51 71 40
51 70 39
57 74 51
90 106 94
84 98 92
89 102 98
107 121 118
111 123 126
106 118 118
110 123 122
116 129 131
92 106 102
52 70 41
49 67 38
47 66 37
50 68 40
51 70 40
50 69 40
45 63 35
48 67 38
43 60 34
52 71 41
50 69 39
48 66 38
48 66 38
50 69 40
48 66 37
52 71 41
40 57 30
56 73 49
97 110 106
103 116 114
100 112 110
101 113 112
100 114 109
84 97 92
85 97 93
105 118 119
101 113 112
113 125 124
86 99 93
90 101 100
90 101 100
75 88 82
83 98 89
67 82 66
57 73 54
60 77 56
87 100 96
100 112 112
98 110 110
96 109 107
105 118 119
108 120 122
99 112 111
98 109 110
93 106 102
97 110 109
106 119 120
90 103 100
98 110 110
103 116 116
117 128 131
89 102 95
113 125 126
97 110 107
43 61 33
46 64 35
50 68 39
43 60 34
48 66 37
50 68 40
53 73 42
43 60 32
47 65 37
41 57 31
43 60 33
54 74 43
43 60 34
51 70 41
43 61 33
49 67 38
46 63 35
99 112 111
96 109 106
93 106 103
88 101 93
101 114 112
108 122 121
96 108 107
106 119 120
105 117 115
95 108 104
98 111 104
95 108 105
99 111 112
90 104 95
98 111 106
97 109 108
119 132 137
80 95 82
45 63 35
44 62 35
50 69 40
50 69 40
50 68 38
56 77 45
47 65 36
50 70 39
48 66 38
50 69 40
52 71 41
46 65 34
51 70 40
45 63 35
49 67 39
80 94 86
116 128 131
110 124 125
119 133 133
108 122 121
123 136 137
112 127 126
108 121 119
118 132 133
113 128 127
99 111 111
111 124 122
108 122 120
117 129 129
109 124 123
118 131 134
66 83 64
49 69 39
56 77 44
55 75 43
56 77 44
58 79 46
53 74 41
56 76 44
55 75 43
57 79 46
54 74 43
48 66 37
54 75 44
57 78 45
68 85 68
113 128 127
123 137 137
112 126 128
125 138 141
118 131 130
134 149 153
119 133 134
118 133 130
104 119 112
116 131 129
103 118 111
91 108 96
79 99 79
85 103 87
104 118 114
118 132 132
116 129 129
136 151 156
127 141 145
123 138 139
131 146 150
119 134 133
134 148 152
129 145 147
125 139 140
132 147 151
92 110 95
63 86 51
65 88 52
54 75 43
62 85 49
66 90 54
57 78 45
74 92 73
118 133 132
120 136 135
101 116 113
117 132 132
133 148 150
140 154 161
137 152 154
140 155 157
132 147 148
146 161 168
134 149 150
136 152 158
132 148 150
126 142 140
76 96 74
77 96 75
107 125 114
125 142 135
122 138 137
125 141 143
143 158 165
126 143 141
94 114 98
79 102 73
109 128 116
130 147 148
143 160 166
146 162 166
124 144 139
133 151 152
171 185 192
208 221 235
224 235 251
227 238 254
227 238 254
227 238 254
227 238 254
227 238 254
227 238 254
227 238 254
227 238 254
227 238 254
227 238 254
227 238 254
227 238 254
227 238 254
227 238 254
227 238 254
227 238 254
227 238 254
227 238 254
227 238 254
227 238 254
227 238 254
227 238 254
227 238 254
227 238 254
227 238 254
227 238 254
227 238 254
227 238 254
227 238 254
227 238 254
227 238 254
227 238 254
227 238 254
227 238 254
227 238 254
227 238 254
227 238 254
227 238 254
227 238 254
227 238 254
227 238 254
227 238 254
227 238 254
227 238 254
227 238 254
227 238 254
227 238 254
227 238 254
227 238 254
227 238 254
227 238 254
227 238 254
227 238 254
227 238 254
227 238 254
227 238 254
227 238 254
227 238 254
227 238 254
227 238 254
227 238 254
227 238 254
227 238 254
227 238 254
227 238 254
227 238 254
227 238 254
227 238 254
227 238 254
227 238 254
227 238 254
227 238 254
227 238 254
227 238 254
227 238 254
227 238 254
227 238 254
227 238 254
227 238 254
227 238 254
227 238 254
227 238 254
227 238 254
227 238 254
227 238 254
227 238 254
227 238 254
227 238 254
227 238 254
227 238 254
227 238 254
227 238 254
227 238 254
227 238 254
204 217 229
168 182 188
151 168 169
147 163 169
123 141 139
98 118 100
62 86 49
78 103 70
116 134 127
130 147 147
146 162 167
135 150 152
143 158 163
144 161 165
115 133 126
131 147 151
146 161 169
138 154 157
138 153 157
135 151 153
131 147 148
135 151 153
115 133 128
91 110 95
67 89 56
69 93 56
67 91 55
57 79 45
60 83 48
65 88 52
59 82 46
67 88 62
128 143 148
122 137 134
81 101 82
77 99 70
124 140 141
132 147 152
126 140 141
123 137 136
130 145 146
128 143 144
131 145 146
119 132 130
127 142 144
133 148 148
111 127 122
96 111 101
82 100 86
100 117 111
117 132 131
117 132 132
135 148 155
134 148 152
130 145 148
115 129 128
126 141 143
123 138 138
109 123 122
125 140 142
125 139 139
121 137 137
113 127 127
116 130 132
113 128 122
107 122 116
72 89 69
97 112 107
119 133 135
106 121 117
115 128 129
115 129 127
111 124 125
117 131 130
109 123 121
113 127 126
115 129 130
118 132 131
123 137 140
105 118 117
112 126 127
117 130 133
118 130 135
122 135 137
130 144 150
101 113 111
57 77 45
51 70 41
55 75 43
65 82 64
84 100 89
91 104 98
106 119 118
103 117 115
96 110 104
109 123 122
119 131 135
110 123 121
98 112 109
104 117 115
106 119 117
99 111 108
97 110 107
114 128 129
53 73 42
51 70 40
55 75 43
47 67 37
48 67 38
52 71 40
45 63 35
50 68 39
51 71 41
49 67 39
47 64 36
50 67 40
54 73 43
52 71 41
47 65 36
44 62 34
50 69 39
48 67 39
91 106 96
96 108 104
90 103 100
82 96 86
90 104 97
86 101 90
83 96 87
62 78 61
59 75 55
58 75 51
49 68 38
55 75 43
44 62 34
51 70 40
48 65 37
48 67 37
44 62 34
52 71 41
81 96 87
107 120 122
102 114 115
89 102 95
93 107 102
108 120 119
107 120 119
86 99 94
104 118 115
98 112 106
105 118 117
87 100 96
110 122 123
105 117 120
95 108 106
85 97 95
106 118 118
102 115 110
82 95 87
52 71 41
47 65 36
48 67 37
53 72 42
48 66 38
47 65 37
44 60 34
48 67 37
46 64 37
48 66 38
51 70 41
48 66 38
54 75 43
39 56 30
53 72 42
42 58 33
49 68 40
93 106 103
100 112 113
98 113 107
102 116 113
110 123 122
115 127 130
96 108 104
102 114 113
97 110 108
86 101 91
89 104 98
110 123 123
106 119 117
94 107 102
116 128 128
111 124 121
96 109 107
56 73 50
52 72 40
50 69 40
51 70 41
50 69 40
44 62 35
47 65 37
48 67 37
50 70 39
47 65 37
50 69 39
50 68 39
52 71 40
48 66 38
52 72 40
52 72 42
86 103 91
109 122 124
118 130 132
110 123 123
119 132 135
108 122 121
117 130 132
104 117 116
109 124 124
120 133 135
113 127 129
125 139 143
119 132 135
126 141 144
109 123 123
110 123 122
77 96 75
51 70 40
57 79 45
45 64 36
54 74 43
57 77 45
53 74 42
57 79 46
62 84 49
56 77 44
52 71 41
53 72 41
52 72 41
54 74 42
67 86 61
119 133 133
127 141 144
124 140 140
123 136 139
125 139 141
119 134 135
132 146 151
117 130 129
115 129 130
123 137 141
128 144 145
135 150 154
115 130 128
101 116 113
74 94 66
65 83 61
89 105 94
102 118 111
105 121 115
112 128 125
126 140 142
113 129 127
130 145 147
118 133 135
128 143 143
124 139 142
114 129 126
58 80 47
60 82 47
51 71 39
59 81 47
85 104 90
124 139 139
141 156 162
132 147 148
132 147 150
135 151 156
123 138 141
80 98 80
81 99 80
95 114 98
106 122 117
133 148 148
147 162 167
137 152 158
140 156 162
134 149 151
132 147 150
100 117 105
62 85 50
60 83 48
63 87 51
84 105 85
101 119 108
121 139 136
136 152 152
129 145 144
73 96 64
68 92 54
80 104 72
89 110 89
131 148 147
137 154 155
112 131 120
100 119 107
148 165 167
181 195 204
213 226 240
227 238 254
227 238 254
227 238 254
227 238 254
227 238 254
227 238 254
227 238 254
227 238 254
227 238 254
227 238 254
227 238 254
227 238 254
227 238 254
227 238 254
227 238 254
227 238 254
227 238 254
227 238 254
227 238 254
227 238 254
227 238 254
227 238 254
227 238 254
227 238 254
227 238 254
227 238 254
227 238 254
227 238 254
227 238 254
227 238 254
227 238 254
227 238 254
227 238 254
227 238 254
227 238 254
227 238 254
227 238 254
227 238 254
227 238 254
227 238 254
227 238 254
227 238 254
227 238 254
227 238 254
227 238 254
227 238 254
227 238 254
227 238 254
227 238 254
227 238 254
227 238 254
227 238 254
227 238 254
227 238 254
227 238 254
227 238 254
227 238 254
227 238 254
227 238 254
227 238 254
227 238 254
227 238 254
227 238 254
227 238 254
227 238 254
227 238 254
227 238 254
227 238 254
227 238 254
227 238 254
227 238 254
227 238 254
227 238 254
227 238 254
227 238 254
227 238 254
227 238 254
227 238 254
227 238 254
227 238 254
227 238 254
227 238 254
227 238 254
227 238 254
227 238 254
227 238 254
227 238 254
227 238 254
227 238 254
213 225 238
187 200 208
127 144 138
138 154 156
134 151 152
109 129 115
67 92 55
74 99 60
104 123 113
113 129 123
155 170 177
145 161 164
149 165 171
143 159 165
125 142 141
87 107 86
72 97 58
63 87 50
140 157 159
146 161 167
138 154 155
128 144 144
125 141 141
100 118 106
64 88 51
59 82 48
71 95 57
66 90 54
58 80 46
62 86 49
64 87 51
63 84 56
95 114 96
98 115 107
128 143 145
65 87 57
63 85 49
62 84 50
66 90 54
63 82 55
105 120 114
128 145 147
125 139 143
144 159 165
123 138 139
116 131 130
106 121 117
94 112 96
68 88 61
61 83 49
57 79 45
57 78 45
91 107 97
128 144 145
123 138 140
121 136 136
121 134 138
129 143 145
119 135 133
132 147 150
118 133 131
118 133 134
113 127 124
114 129 128
90 107 95
82 98 88
71 92 63
59 81 47
59 81 47
57 78 45
72 89 72
122 136 139
139 154 159
114 128 129
129 144 146
109 123 121
115 129 131
119 132 133
104 117 115
115 130 128
116 129 129
124 138 142
123 137 138
120 133 137
120 133 137
128 142 146
122 136 138
96 111 106
87 104 89
91 107 97
103 117 114
121 136 134
110 124 124
106 119 116
111 124 123
99 112 107
106 119 118
101 114 111
120 135 134
101 116 114
101 115 112
115 129 131
106 119 122
103 116 116
119 132 134
128 141 145
96 110 105
80 95 83
41 59 31
52 71 41
50 69 39
56 77 44
56 77 45
53 72 42
52 70 41
51 70 41
51 71 41
54 74 43
48 68 38
47 65 37
59 77 56
58 75 54
80 94 86
83 99 87
98 111 108
104 118 115
61 79 56
49 69 39
49 68 38
46 64 36
49 68 39
53 73 41
54 74 43
47 66 37
54 73 42
47 64 37
50 68 39
51 71 40
55 75 44
53 72 41
56 76 44
56 76 45
52 71 41
48 67 38
98 111 109
115 127 129
103 117 115
90 103 99
97 109 108
106 118 121
113 127 128
115 129 129
103 116 114
103 116 114
112 125 128
111 124 124
100 111 110
79 93 85
96 109 106
93 106 101
109 123 123
108 121 123
65 83 61
49 67 38
47 64 36
49 67 39
49 68 38
35 52 26
47 64 36
54 73 43
46 64 36
56 76 44
54 74 43
54 73 43
56 76 45
45 63 36
46 63 36
53 73 42
55 75 43
68 84 67
99 111 110
100 115 111
96 110 103
107 121 120
106 119 120
109 122 121
115 128 129
113 127 128
96 108 105
99 112 107
122 135 138
111 126 125
95 108 104
105 117 119
93 107 102
124 136 141
103 117 114
56 76 48
51 69 40
52 72 41
44 61 34
49 66 37
51 70 40
51 70 40
55 76 44
53 73 42
50 70 40
51 71 41
51 71 41
51 71 40
50 69 39
51 70 40
56 75 48
101 114 110
114 129 128
105 118 118
107 121 118
111 124 124
108 121 120
125 138 142
95 109 105
110 124 123
107 121 118
103 116 114
117 131 133
109 124 125
104 117 116
104 117 117
112 126 127
64 83 59
47 67 37
60 82 48
53 72 42
54 75 42
51 70 40
51 70 39
51 71 40
56 76 44
57 78 45
54 74 43
50 69 39
56 77 45
52 72 40
68 86 66
112 128 126
106 120 118
114 128 128
111 126 123
113 127 126
124 138 139
120 134 136
134 149 152
123 138 138
127 142 142
129 143 147
108 122 120
135 150 156
119 134 134
59 81 47
62 84 50
58 79 46
56 78 45
55 75 43
58 79 45
61 83 52
94 111 102
93 109 99
100 115 108
106 122 117
126 141 144
107 124 119
63 85 54
71 94 62
102 117 110
131 146 148
138 153 160
141 156 161
128 144 145
130 145 148
121 135 136
125 142 139
143 158 165
109 126 118
63 86 50
58 80 46
64 89 52
70 92 63
85 105 87
112 128 122
123 140 137
137 151 157
135 152 155
119 137 133
85 108 81
66 91 54
61 84 49
63 86 51
72 98 59
71 95 59
102 123 109
109 126 115
94 116 96
68 93 54
66 89 53
69 93 56
74 100 63
101 121 105
103 121 108
92 113 93
75 100 66
107 128 115
152 168 171
194 208 221
221 233 248
227 238 254
227 238 254
227 238 254
227 238 254
227 238 254
227 238 254
227 238 254
227 238 254
227 238 254
227 238 254
227 238 254
227 238 254
227 238 254
227 238 254
227 238 254
227 238 254
227 238 254
227 238 254
227 238 254
227 238 254
227 238 254
227 238 254
227 238 254
227 238 254
227 238 254
227 238 254
227 238 254
227 238 254
227 238 254
227 238 254
227 238 254
227 238 254
227 238 254
227 238 254
227 238 254
227 238 254
227 238 254
227 238 254
227 238 254
227 238 254
227 238 254
227 238 254
227 238 254
227 238 254
227 238 254
227 238 254
227 238 254
227 238 254
227 238 254
227 238 254
227 238 254
227 238 254
227 238 254
227 238 254
227 238 254
227 238 254
227 238 254
227 238 254
227 238 254
227 238 254
227 238 254
227 238 254
227 238 254
227 238 254
227 238 254
227 238 254
227 238 254
227 238 254
227 238 254
227 238 254
227 238 254
227 238 254
227 238 254
227 238 254
227 238 254
227 238 254
227 238 254
227 238 254
227 238 254
227 238 254
227 238 254
227 238 254
227 238 254
224 236 252
190 203 211
139 155 150
94 117 91
91 113 94
122 141 134
86 108 81
73 99 59
91 113 90
125 142 138
141 159 163
142 158 161
149 166 173
139 156 159
124 140 139
99 118 105
68 93 56
66 90 53
63 87 50
66 90 53
65 88 52
115 132 127
106 123 115
92 112 92
67 91 54
64 88 51
65 88 52
68 91 55
55 77 43
63 86 51
68 92 55
73 94 64
106 125 114
120 135 132
128 145 146
128 143 143
132 147 150
126 141 142
80 100 78
62 84 50
58 80 46
60 82 47
60 82 47
58 80 45
77 97 74
115 131 127
114 131 126
85 103 89
60 83 49
54 75 42
57 78 45
57 78 46
61 83 49
64 88 52
55 76 43
74 92 71
132 146 150
140 155 162
138 153 157
116 132 128
105 119 117
137 153 156
117 133 131
93 108 101
85 104 85
62 84 49
57 78 44
59 81 47
58 80 46
59 82 47
57 78 46
62 83 49
55 75 44
59 79 49
115 129 127
109 123 122
127 140 143
111 126 124
115 130 129
124 139 141
114 128 128
119 132 133
102 117 112
117 132 132
111 125 122
117 131 129
98 113 104
81 96 86
69 85 68
55 75 46
52 73 41
50 70 39
83 100 86
110 125 124
121 136 139
127 141 144
112 124 124
120 135 136
104 118 118
102 117 110
115 129 128
121 134 137
97 111 106
110 124 125
122 136 139
118 131 134
112 125 126
117 131 134
118 132 132
110 123 122
111 125 126
59 80 49
51 71 40
53 72 42
48 67 38
51 70 40
58 79 46
73 93 70
74 91 76
81 95 85
92 106 101
98 112 110
104 119 118
116 129 129
114 127 127
103 115 114
103 117 116
129 142 143
116 130 131
78 91 81
43 62 33
57 78 46
52 71 41
50 68 39
45 63 35
51 69 40
48 67 38
56 76 44
53 74 41
49 68 38
52 71 41
57 77 45
49 68 38
52 71 41
48 67 38
45 63 34
49 67 38
59 76 55
115 127 129
116 128 129
99 113 108
103 116 111
99 112 112
111 125 122
112 126 126
103 116 116
102 115 113
114 127 127
108 122 121
106 120 119
100 114 112
114 126 130
103 116 113
96 109 106
100 114 111
106 120 118
55 73 45
49 69 38
51 69 39
57 77 45
53 72 42
49 67 39
49 68 38
57 78 46
51 69 40
49 68 38
44 63 33
49 68 40
55 73 49
49 66 43
65 84 57
56 72 54
69 83 70
97 111 106
79 95 82
105 120 116
85 98 91
87 101 94
83 99 86
92 107 99
87 101 92
79 92 81
93 108 100
73 88 75
62 78 64
88 103 94
80 96 79
77 91 81
88 105 94
77 94 79
84 99 92
101 115 113
84 100 89
92 108 98
107 121 119
90 104 96
112 126 125
96 110 102
96 110 105
108 122 116
95 107 104
96 110 104
88 101 95
85 101 90
90 107 98
95 108 101
94 108 103
103 119 114
79 96 84
88 104 97
84 100 89
84 99 88
82 97 88
91 106 99
106 121 113
98 113 108
94 108 100
111 124 124
92 107 101
108 123 122
114 128 129
116 130 130
104 117 114
57 78 48
54 74 43
54 74 42
56 77 44
55 75 44
57 78 45
55 75 45
55 75 43
57 78 45
56 77 44
52 72 41
57 78 45
58 79 47
59 81 48
63 81 59
134 148 151
121 135 135
110 125 119
116 130 131
121 137 136
119 134 133
128 143 146
121 134 137
122 137 139
122 136 136
130 144 145
129 144 143
128 143 146
107 122 117
55 75 44
59 81 46
62 85 49
55 76 44
62 85 50
63 85 50
58 79 46
61 84 49
59 82 47
59 81 48
58 80 45
58 79 46
84 102 84
78 95 76
102 119 112
107 125 113
124 140 139
130 146 150
132 148 152
142 157 162
128 143 144
135 151 152
131 146 149
136 152 155
111 128 121
66 89 56
61 85 49
63 85 50
61 83 49
63 86 50
72 98 59
67 91 54
85 106 82
99 119 102
114 132 125
78 101 74
58 81 46
67 91 54
66 91 53
68 92 55
67 92 55
69 93 55
67 91 55
80 103 76
106 124 111
106 125 112
74 97 67
70 95 56
67 91 55
65 88 52
70 94 59
101 120 106
90 113 86
76 100 66
112 132 120
166 180 185
208 220 234
226 238 254
227 238 254
227 238 254
227 238 254
227 238 254
227 238 254
227 238 254
227 238 254
227 238 254
227 238 254
227 238 254
227 238 254
227 238 254
227 238 254
227 238 254
227 238 254
227 238 254
227 238 254
227 238 254
227 238 254
227 238 254
227 238 254
227 238 254
227 238 254
227 238 254
227 238 254
227 238 254
227 238 254
227 238 254
227 238 254
227 238 254
227 238 254
227 238 254
227 238 254
227 238 254
227 238 254
227 238 254
227 238 254
227 238 254
227 238 254
227 238 254
227 238 254
227 238 254
227 238 254
227 238 254
227 238 254
227 238 254
227 238 254
227 238 254
227 238 254
227 238 254
227 238 254
227 238 254
227 238 254
227 238 254
227 238 254
227 238 254
227 238 254
227 238 254
227 238 254
227 238 254
227 238 254
227 238 254
227 238 254
227 238 254
227 238 254
227 238 254
227 238 254
227 238 254
227 238 254
227 238 254
227 238 254
227 238 254
227 238 254
227 238 254
227 238 254
227 238 254
227 238 254
227 238 254
213 224 238
171 185 189
124 142 132
92 115 89
124 142 137
141 158 162
154 169 178
139 156 158
108 128 115
142 159 162
152 168 175
144 160 163
153 169 177
122 139 139
103 122 107
68 92 57
67 92 55
64 88 50
66 91 55
71 96 58
82 105 79
112 130 119
123 141 138
98 115 102
65 89 52
64 87 51
59 83 47
62 85 49
62 85 51
67 91 54
72 94 65
92 111 93
124 140 141
124 139 138
122 138 139
133 146 151
139 154 157
128 145 146
131 146 150
128 142 144
94 113 99
67 90 54
67 91 54
65 85 58
92 110 96
119 134 131
133 150 150
126 140 141
122 138 134
75 93 71
59 81 50
58 81 46
62 85 51
56 77 44
63 86 51
59 81 48
64 86 51
64 86 51
113 128 124
108 124 118
111 126 122
109 125 120
90 105 97
65 86 57
58 80 46
57 78 46
59 81 48
54 75 43
60 83 47
57 77 45
54 75 42
60 82 47
58 79 46
60 82 48
57 77 45
52 73 41
103 119 112
118 132 130
131 145 147
127 140 143
121 134 137
132 145 151
120 135 135
100 114 109
103 117 112
87 104 92
63 83 52
58 80 47
60 82 48
56 77 44
61 83 49
54 74 42
52 72 41
56 77 45
66 83 61
111 126 123
130 142 148
105 119 118
103 119 115
119 132 134
109 123 122
118 133 134
108 123 121
114 130 129
121 135 137
112 125 125
119 134 136
115 129 130
117 132 132
126 138 142
106 120 119
116 129 129
108 123 121
72 89 72
67 84 65
82 97 86
106 120 115
100 113 110
117 133 128
96 111 103
122 137 139
116 129 130
104 118 118
126 140 144
110 125 124
115 131 127
114 129 129
114 128 129
117 130 132
99 113 108
104 118 115
118 131 133
51 69 40
51 72 40
48 67 36
51 71 39
57 78 45
60 81 49
40 57 30
53 74 42
58 78 47
51 71 40
54 73 42
46 65 36
48 67 37
56 75 44
50 70 40
55 74 44
50 69 40
53 73 43
85 98 91
112 125 125
125 138 140
110 122 122
107 122 119
120 134 134
109 122 123
121 134 138
94 107 104
113 126 128
112 127 125
115 128 131
107 120 121
120 133 134
97 110 106
87 102 95
99 114 109
96 112 103
84 97 87
80 95 83
77 95 77
84 98 87
96 110 107
93 108 103
101 114 112
93 108 101
100 114 111
98 112 106
100 113 111
103 116 114
118 131 133
117 132 132
113 126 127
100 114 110
110 124 123
109 122 121
73 90 73
49 67 39
50 69 40
51 70 40
53 72 41
44 62 35
53 73 41
49 68 38
51 70 39
50 69 39
52 71 41
53 73 42
49 68 39
51 69 40
54 74 43
53 72 42
53 72 42
81 97 84
114 127 127
110 123 123
102 115 112
118 132 133
118 131 130
111 125 123
111 124 125
120 134 137
121 134 136
111 125 125
110 125 121
116 131 131
112 125 123
117 129 134
113 126 127
106 121 115
60 78 53
49 69 38
53 74 41
54 75 43
53 73 42
56 78 45
54 75 43
59 80 47
52 73 41
58 79 46
48 67 37
54 76 42
53 74 42
58 78 46
50 69 38
63 81 58
108 122 120
89 105 93
107 121 119
102 117 114
90 106 95
112 127 122
90 106 97
86 102 90
82 99 84
95 112 99
91 108 96
66 85 60
67 88 58
58 79 45
78 95 76
128 142 142
116 131 131
126 139 141
108 123 121
131 146 149
118 132 130
129 143 146
121 137 140
121 136 137
111 125 123
131 146 148
127 142 142
136 150 153
128 142 145
63 83 56
57 78 44
60 82 47
60 82 48
62 85 50
64 87 51
61 83 48
60 83 49
61 84 49
87 104 89
120 136 136
120 135 132
129 145 145
84 103 85
68 92 55
63 86 50
72 94 65
94 113 95
100 119 105
111 128 121
113 128 121
130 145 149
147 161 168
140 156 160
131 146 149
74 94 70
68 92 54
64 87 52
65 89 52
65 89 53
66 90 54
64 88 51
58 80 45
68 93 56
70 95 57
107 124 115
119 137 130
111 128 119
72 95 66
67 92 54
70 96 57
63 87 52
65 88 51
74 97 64
99 118 107
148 163 171
137 154 154
125 143 139
87 108 83
73 98 62
75 101 61
115 134 126
144 162 165
121 138 132
83 105 80
91 113 90
127 145 138
198 211 223
218 230 246
227 238 254
227 238 254
227 238 254
227 238 254
227 238 254
227 238 254
227 238 254
227 238 254
227 238 254
227 238 254
227 238 254
227 238 254
227 238 254
227 238 254
227 238 254
227 238 254
227 238 254
227 238 254
227 238 254
227 238 254
227 238 254
227 238 254
227 238 254
227 238 254
227 238 254
227 238 254
227 238 254
227 238 254
227 238 254
227 238 254
227 238 254
227 238 254
227 238 254
227 238 254
227 238 254
227 238 254
227 238 254
227 238 254
227 238 254
227 238 254
227 238 254
227 238 254
227 238 254
227 238 254
227 238 254
227 238 254
227 238 254
227 238 254
227 238 254
227 238 254
227 238 254
227 238 254
227 238 254
227 238 254
227 238 254
227 238 254
227 238 254
227 238 254
227 238 254
227 238 254
227 238 254
227 238 254
227 238 254
227 238 254
227 238 254
227 238 254
227 238 254
227 238 254
227 238 254
227 238 254
227 238 254
227 238 254
227 238 254
223 235 250
187 200 207
147 164 164
122 141 134
106 126 116
129 146 145
147 165 171
153 169 174
126 146 142
94 117 97
113 132 129
145 162 166
153 169 178
130 147 148
109 128 118
70 95 57
72 97 58
72 98 60
69 94 56
70 96 57
73 95 65
113 131 122
138 155 158
143 157 163
133 149 151
159 174 186
101 120 105
67 92 55
66 90 54
62 85 49
75 97 69
98 116 103
121 137 137
140 154 161
139 154 159
133 149 150
128 145 150
141 156 163
139 155 163
128 145 142
124 139 140
134 149 151
132 147 146
117 133 128
102 118 110
108 123 122
134 150 154
127 142 142
125 141 142
130 145 149
126 142 144
134 149 154
137 153 158
134 150 155
101 118 111
69 91 62
58 80 47
57 79 45
65 88 52
63 84 52
93 109 94
97 112 108
68 90 60
63 87 51
58 80 47
61 82 49
60 82 48
61 83 48
61 84 49
62 84 50
53 73 42
60 82 48
62 83 49
60 82 48
63 84 50
67 90 53
58 79 45
63 86 51
49 69 38
74 92 73
126 140 143
119 133 132
112 128 123
81 96 85
78 97 81
59 81 47
64 87 52
52 72 40
58 79 46
57 78 44
60 82 49
49 69 38
64 86 51
53 74 41
52 71 41
52 71 41
56 78 45
50 70 39
101 115 113
114 129 126
122 137 138
117 130 131
116 130 132
117 132 132
117 131 129
135 150 151
113 125 128
118 131 132
117 131 132
122 136 138
111 125 124
121 136 134
101 116 111
90 105 95
65 82 61
57 76 47
74 91 75
111 125 124
111 125 126
101 114 112
123 137 138
122 135 139
115 129 129
118 132 131
116 129 131
118 133 131
113 126 127
110 124 123
120 133 136
108 123 119
117 132 132
112 126 125
107 121 121
105 119 116
126 139 144
86 102 92
56 77 45
50 69 39
58 79 46
51 70 39
52 72 41
52 72 41
49 68 38
48 67 37
50 70 39
51 70 40
54 75 43
48 66 38
55 75 43
51 70 40
56 77 44
53 73 41
58 79 46
58 78 48
112 125 125
109 123 122
106 119 118
113 127 127
107 121 122
113 126 125
90 104 97
100 114 109
90 103 96
75 92 77
73 90 74
73 89 73
60 79 53
59 76 54
51 70 39
48 66 37
55 75 43
56 75 50
98 110 109
112 124 122
113 125 128
91 106 102
114 126 126
104 119 114
130 142 149
117 130 133
112 126 125
112 127 125
90 105 98
109 123 123
110 125 122
102 116 113
107 121 121
112 125 127
108 121 122
98 113 109
57 77 45
55 74 43
51 70 40
57 78 45
50 69 40
55 75 43
49 68 38
52 71 42
55 75 44
51 71 41
49 68 38
57 78 45
58 80 46
58 79 47
49 68 39
53 72 42
62 81 58
99 112 109
127 139 141
118 131 134
128 142 147
120 135 135
111 126 122
111 125 124
107 121 121
112 127 129
111 126 124
118 133 135
95 109 100
127 141 145
117 129 132
125 139 140
124 138 140
91 107 98
61 81 51
56 77 44
55 76 44
54 75 42
56 78 45
54 74 42
56 77 44
53 73 42
56 77 44
54 75 43
58 79 46
53 74 41
55 76 44
53 73 42
59 80 46
80 96 81
110 125 119
128 143 144
129 143 147
124 139 138
127 141 143
126 140 142
126 140 142
115 129 126
105 119 117
134 148 153
119 134 135
114 128 126
123 138 138
123 137 137
101 117 111
83 100 85
95 111 102
100 114 110
109 124 121
96 111 105
120 135 132
110 125 123
121 135 136
134 148 153
132 146 149
117 132 129
131 147 145
127 140 144
106 123 115
75 93 73
62 84 49
60 82 48
59 81 46
59 81 47
72 95 65
92 110 97
128 143 144
137 151 155
139 153 157
142 157 164
137 152 156
129 144 144
75 96 75
61 83 49
64 87 51
62 85 48
61 84 49
59 81 47
60 82 48
62 85 49
91 110 92
86 106 86
94 111 100
124 140 138
86 104 88
64 87 51
60 83 49
68 92 55
65 89 52
67 92 55
66 90 54
65 89 53
65 88 52
66 90 54
86 105 85
141 157 163
142 159 160
152 168 177
123 139 137
103 121 111
81 102 83
67 91 54
65 88 51
85 107 81
136 153 153
151 166 171
148 165 171
143 158 160
123 141 136
110 129 119
78 102 70
114 134 124
149 164 170
138 156 159
129 147 145
97 117 102
114 135 124
163 178 182
202 215 227
226 237 253
227 238 254
227 238 254
227 238 254
227 238 254
227 238 254
227 238 254
227 238 254
227 238 254
227 238 254
227 238 254
227 238 254
227 238 254
227 238 254
227 238 254
227 238 254
227 238 254
227 238 254
227 238 254
227 238 254
227 238 254
227 238 254
227 238 254
227 238 254
227 238 254
227 238 254
227 238 254
227 238 254
227 238 254
227 238 254
227 238 254
227 238 254
227 238 254
227 238 254
227 238 254
227 238 254
227 238 254
227 238 254
227 238 254
227 238 254
227 238 254
227 238 254
227 238 254
227 238 254
227 238 254
227 238 254
227 238 254
227 238 254
227 238 254
227 238 254
227 238 254
227 238 254
227 238 254
227 238 254
227 238 254
227 238 254
227 238 254
227 238 254
227 238 254
227 238 254
227 238 254
227 238 254
227 238 254
227 238 254
227 238 254
227 238 254
227 238 254
227 238 254
227 238 254
218 230 244
174 188 193
146 163 166
149 165 171
151 166 171
146 163 168
152 169 176
132 149 150
103 122 109
73 99 60
69 93 56
67 92 54
117 135 130
116 135 130
81 103 77
71 96 58
69 94 57
66 90 53
68 93 55
75 99 63
105 123 108
127 144 144
138 152 157
143 159 164
139 156 161
150 165 171
151 166 172
139 155 160
118 136 127
81 101 74
117 133 126
133 149 149
147 161 168
145 160 165
125 141 140
140 156 161
136 151 152
143 158 162
150 164 171
148 163 170
141 156 160
139 153 160
137 154 155
106 124 115
78 101 72
87 107 84
144 159 166
127 143 145
133 148 151
134 150 150
139 154 157
125 139 139
134 148 153
128 144 145
136 151 154
136 151 152
128 142 141
128 143 146
98 115 107
69 88 64
118 133 132
135 150 153
127 140 142
106 122 113
59 82 47
60 82 48
61 84 49
66 91 54
64 87 51
57 79 45
56 78 45
57 80 45
54 76 42
59 81 46
63 86 51
58 80 46
60 83 48
57 78 45
58 80 47
66 85 63
104 120 112
107 124 118
69 89 63
58 80 47
60 82 47
53 73 41
60 82 48
56 78 44
57 78 46
60 82 48
52 72 40
56 76 45
55 75 42
61 84 49
58 79 46
57 77 45
50 70 40
57 79 45
57 78 45
54 75 43
82 98 86
126 139 140
124 139 140
119 133 135
118 131 130
107 120 119
119 134 133
113 127 126
108 123 119
98 113 106
86 102 92
66 85 60
57 78 45
51 71 40
52 73 41
58 79 46
57 78 45
51 71 40
52 71 41
102 116 109
118 133 133
122 136 136
111 126 125
111 123 123
110 124 123
120 134 134
126 139 143
107 120 118
105 118 118
118 133 131
120 134 136
105 119 116
124 137 140
108 124 122
113 127 126
126 140 145
110 124 123
121 136 138
54 74 43
57 78 45
48 68 37
50 69 40
52 72 42
46 64 36
51 71 39
51 70 39
54 74 43
50 70 41
55 74 44
55 76 44
56 77 44
52 68 47
68 86 66
70 88 68
80 96 82
80 93 85
112 125 124
74 91 74
67 85 64
53 71 45
51 71 39
53 73 42
55 76 44
52 72 42
56 76 44
52 71 41
53 74 42
57 79 45
45 64 35
52 70 41
56 77 45
56 78 44
55 75 44
58 79 46
66 84 63
111 124 123
110 124 124
104 118 114
119 134 136
108 122 120
106 119 117
113 126 127
121 134 134
107 120 120
110 125 122
109 121 122
108 122 119
113 126 123
119 133 132
112 126 122
108 121 119
119 132 133
82 99 82
52 72 41
53 72 42
57 79 46
54 74 43
54 75 44
53 73 42
58 78 46
61 83 48
53 73 42
57 78 46
56 76 44
52 71 41
49 68 38
51 71 40
54 75 41
55 76 44
73 91 71
114 129 127
117 131 132
124 138 139
99 113 109
110 124 125
98 114 108
104 117 117
113 128 126
122 136 138
123 137 137
110 124 123
115 129 130
112 128 123
111 124 125
106 121 114
111 125 124
80 95 82
52 71 41
50 70 39
54 75 42
57 78 46
52 72 41
58 79 46
53 74 42
56 77 44
57 78 46
48 67 37
51 70 39
59 80 46
55 75 44
56 77 44
55 77 44
95 112 102
127 142 140
129 143 148
132 145 149
117 132 130
131 145 150
119 134 135
120 133 137
116 130 133
134 148 150
122 137 137
124 138 138
135 151 155
129 143 144
119 132 133
105 121 114
62 85 50
63 87 51
57 79 46
57 79 45
59 81 48
58 79 46
63 85 54
73 93 66
82 102 83
92 109 96
93 109 98
111 129 122
114 131 126
117 132 134
64 85 56
77 98 73
99 117 107
118 134 128
131 148 150
142 157 161
130 145 148
121 136 137
129 144 145
136 151 157
124 139 141
131 147 151
138 155 160
88 107 88
65 88 52
62 85 49
59 81 47
67 91 53
64 88 52
68 92 55
62 84 50
65 88 52
66 89 52
68 92 55
73 95 65
107 124 112
122 137 136
108 126 120
91 110 92
71 95 60
68 92 55
68 93 55
60 83 47
71 96 58
66 90 53
78 102 70
126 142 140
134 151 154
148 165 170
136 153 156
141 157 160
131 148 147
116 132 128
86 107 87
87 109 85
116 134 127
147 162 167
148 165 170
146 163 168
150 165 168
144 161 164
132 149 145
115 132 127
141 157 159
153 169 176
157 174 182
143 160 165
145 163 166
115 133 125
127 145 138
175 190 199
215 227 242
227 238 254
227 238 254
227 238 254
227 238 254
227 238 254
227 238 254
227 238 254
227 238 254
227 238 254
227 238 254
227 238 254
227 238 254
227 238 254
227 238 254
227 238 254
227 238 254
227 238 254
227 238 254
227 238 254
227 238 254
227 238 254
227 238 254
227 238 254
227 238 254
227 238 254
227 238 254
227 238 254
227 238 254
227 238 254
227 238 254
227 238 254
227 238 254
227 238 254
227 238 254
227 238 254
227 238 254
227 238 254
227 238 254
227 238 254
227 238 254
227 238 254
227 238 254
227 238 254
227 238 254
227 238 254
227 238 254
227 238 254
227 238 254
227 238 254
227 238 254
227 238 254
227 238 254
227 238 254
227 238 254
227 238 254
227 238 254
227 238 254
227 238 254
227 238 254
227 238 254
227 238 254
227 238 254
227 238 254
226 238 253
203 215 227
149 165 168
136 153 153
134 152 153
128 147 144
154 171 177
158 175 183
119 138 130
86 108 82
73 99 60
73 98 59
85 109 77
111 130 121
129 146 144
107 125 115
69 94 56
69 95 56
70 96 57
69 95 56
93 115 95
124 141 138
151 167 172
149 165 171
152 168 175
143 159 163
138 154 158
126 143 145
137 155 159
143 159 164
131 147 148
117 134 127
139 155 160
137 153 157
142 159 164
145 160 165
133 150 149
145 160 166
134 149 153
138 153 159
143 157 162
138 153 154
128 145 143
101 120 104
77 100 70
67 91 54
64 88 52
61 83 48
68 91 57
152 167 173
132 147 150
132 149 152
133 148 148
127 142 143
144 159 167
141 155 157
129 144 145
134 149 155
113 129 124
102 120 109
66 89 53
60 81 47
66 89 53
64 88 52
83 101 84
116 131 125
109 125 118
61 83 48
60 82 48
62 84 50
59 80 47
64 87 51
61 83 48
61 83 49
58 80 45
58 79 46
56 77 44
60 82 48
93 110 98
103 117 114
111 127 123
128 143 146
117 132 132
118 134 132
125 139 141
84 102 86
66 89 54
63 85 50
57 79 44
59 82 47
58 80 47
59 81 48
59 81 47
56 77 45
59 80 46
52 72 41
55 76 43
64 87 51
56 77 44
60 81 48
57 78 46
61 83 49
53 74 42
63 83 55
119 133 135
123 137 138
116 133 126
92 108 99
78 93 80
67 85 63
59 81 48
57 78 46
57 77 45
49 69 38
55 76 43
56 77 44
52 72 41
58 80 47
60 81 47
51 70 40
55 75 44
56 77 45
77 94 78
126 140 139
118 131 135
112 126 123
123 138 137
119 133 134
126 140 143
111 125 122
117 131 130
115 130 129
122 134 138
127 141 145
113 127 125
121 134 135
109 123 121
119 133 134
121 136 136
120 133 136
117 131 129
78 95 80
51 71 40
54 74 42
59 80 47
61 83 48
67 88 59
69 85 68
78 94 80
95 111 101
99 115 105
97 113 103
112 127 122
124 138 140
119 134 133
114 128 128
123 135 137
107 121 121
119 132 135
122 137 138
60 79 53
50 68 38
52 72 42
57 78 46
52 72 41
53 74 42
55 75 44
51 71 40
55 76 44
55 75 44
57 78 46
50 69 40
55 76 44
57 78 45
54 73 43
49 69 39
54 75 44
58 79 46
107 123 118
120 133 134
115 127 130
111 125 126
122 137 139
123 136 139
116 129 130
113 127 129
121 135 137
104 119 117
116 130 131
132 148 151
117 131 132
109 123 121
119 132 134
122 135 137
114 128 128
111 125 124
76 94 75
54 75 42
55 75 43
52 70 41
59 81 48
51 71 39
59 79 47
53 72 41
51 70 40
56 77 44
51 70 39
50 70 39
54 75 43
50 70 39
55 76 44
58 79 46
51 70 39
89 105 95
126 140 142
119 134 134
124 138 141
131 145 150
114 127 129
114 129 130
114 128 126
124 139 137
102 117 112
115 130 128
130 144 147
117 132 132
123 138 139
118 132 135
131 145 149
113 128 128
78 95 80
60 82 48
55 75 44
54 74 42
55 76 44
55 75 42
54 75 42
58 79 47
57 79 46
57 79 46
47 66 36
59 80 47
62 85 49
54 74 42
59 80 47
59 81 48
98 114 107
146 160 167
122 137 136
122 138 138
112 127 125
128 143 146
121 136 137
131 145 148
125 138 141
129 145 147
129 144 145
122 136 136
132 147 151
118 132 132
113 128 124
121 138 134
56 76 44
64 87 51
61 83 49
61 83 47
60 82 48
63 86 50
62 84 49
61 84 49
61 84 48
58 80 47
59 81 47
64 85 59
96 112 101
114 130 127
71 90 68
84 104 83
88 107 92
108 124 117
113 129 122
118 133 134
127 141 140
130 144 145
113 128 129
136 150 152
132 147 147
147 164 171
134 148 153
94 113 94
63 87 50
60 83 49
64 88 52
67 92 54
62 85 50
61 84 49
66 90 52
59 82 48
64 87 52
65 87 51
67 91 54
113 129 122
136 152 156
129 146 147
137 153 159
136 152 156
119 134 130
99 118 105
77 100 72
62 86 50
66 89 53
61 84 47
106 123 116
139 156 160
144 159 161
129 145 146
144 161 168
135 151 151
152 167 176
152 168 174
136 153 151
133 151 151
143 159 165
146 162 169
149 165 169
154 171 178
146 162 168
149 165 173
154 170 177
144 161 167
116 134 127
147 163 166
153 170 174
145 163 169
117 136 129
83 109 75
94 116 94
161 176 178
210 222 235
227 238 254
227 238 254
227 238 254
227 238 254
227 238 254
227 238 254
227 238 254
227 238 254
227 238 254
227 238 254
227 238 254
227 238 254
227 238 254
227 238 254
227 238 254
227 238 254
227 238 254
227 238 254
227 238 254
227 238 254
227 238 254
227 238 254
227 238 254
227 238 254
227 238 254
227 238 254
227 238 254
227 238 254
227 238 254
227 238 254
227 238 254
227 238 254
227 238 254
227 238 254
227 238 254
227 238 254
227 238 254
227 238 254
227 238 254
227 238 254
227 238 254
227 238 254
227 238 254
227 238 254
227 238 254
227 238 254
227 238 254
227 238 254
227 238 254
227 238 254
227 238 254
227 238 254
227 238 254
227 238 254
227 238 254
227 238 254
227 238 254
227 238 254
227 238 254
223 234 250
186 199 209
115 133 122
139 157 159
114 134 124
87 110 85
127 146 140
132 150 145
99 120 105
66 91 54
72 98 58
74 98 62
100 121 102
117 135 131
150 167 175
142 158 165
148 164 168
112 132 123
70 95 58
100 122 102
108 127 117
143 160 164
135 151 154
142 157 162
150 165 171
151 167 172
145 160 167
138 154 158
142 160 161
120 138 133
103 122 110
64 88 51
70 95 58
100 118 106
144 159 165
139 154 157
143 158 164
138 154 158
135 151 153
134 150 155
120 136 136
110 126 119
84 104 87
71 94 60
66 89 53
63 87 52
65 89 53
62 86 51
68 92 55
59 81 47
63 86 50
126 141 140
144 160 165
138 152 155
132 148 152
135 149 153
104 120 112
96 113 106
79 98 74
63 86 50
65 89 53
64 87 51
62 86 50
64 88 52
60 82 47
62 85 50
59 81 47
58 80 47
66 88 56
113 130 127
102 118 110
85 105 90
52 73 41
64 87 51
60 82 48
66 89 53
85 102 85
111 127 122
121 135 135
120 134 133
122 138 138
141 157 160
115 129 128
121 137 135
130 144 147
131 145 148
126 141 141
96 110 107
62 85 51
60 82 48
59 81 47
59 80 47
61 83 48
61 84 49
53 73 42
59 81 47
61 83 47
60 82 47
58 80 47
59 81 47
60 83 48
58 80 46
65 84 60
72 90 71
106 122 116
105 120 115
89 106 91
56 78 44
65 87 51
59 81 47
59 81 47
62 84 50
56 77 44
57 78 46
58 80 47
60 82 49
60 82 48
56 78 44
65 87 51
57 78 45
61 83 49
58 80 47
57 78 46
56 77 43
55 76 44
117 130 132
119 133 136
126 140 141
120 135 138
127 142 143
120 134 136
112 125 123
113 127 125
122 134 137
117 132 133
110 124 123
122 134 139
129 144 147
116 130 129
105 119 117
118 133 133
127 140 143
107 120 118
99 112 109
104 119 116
104 120 113
99 115 110
119 132 135
124 139 140
125 138 141
125 139 141
115 129 130
110 125 125
127 141 144
114 128 128
114 128 125
102 117 114
117 131 132
115 130 124
124 138 142
113 128 127
110 123 123
100 114 110
52 71 40
54 74 42
53 73 42
50 70 39
53 73 42
59 81 47
56 77 45
53 73 41
55 75 44
57 78 45
55 75 43
51 70 39
49 68 37
60 81 48
52 72 41
56 78 46
55 76 44
67 86 63
110 122 123
121 135 138
118 133 132
118 132 133
116 130 134
103 117 114
101 116 114
125 139 139
112 125 126
120 133 133
112 126 125
114 128 125
113 126 126
113 127 125
118 132 131
105 120 114
116 131 131
114 130 126
49 67 38
57 77 45
64 87 51
51 71 40
57 78 45
50 70 39
54 75 43
58 81 46
59 80 46
55 76 44
61 83 49
54 76 43
56 77 44
60 82 48
56 77 45
56 77 45
57 78 45
110 124 121
125 139 141
120 134 135
118 132 132
116 131 129
123 136 140
137 151 157
121 137 137
129 143 144
124 138 141
117 132 132
124 139 141
120 134 134
116 131 129
119 133 131
110 124 120
110 126 124
74 92 72
57 78 45
54 75 42
56 77 44
55 77 45
54 74 42
55 75 42
57 78 45
63 86 50
59 81 47
54 75 43
54 75 42
66 89 54
59 80 47
60 82 49
55 77 43
106 122 116
124 139 142
126 141 141
125 139 141
121 137 136
130 145 147
123 137 138
119 133 135
134 148 150
110 126 124
121 137 138
124 140 140
124 139 142
128 143 146
138 154 158
91 108 95
57 79 45
62 85 50
55 76 43
59 82 47
59 81 47
62 84 49
63 87 51
67 86 63
127 142 143
114 131 128
140 155 159
122 136 137
147 163 168
132 148 150
73 94 69
60 82 48
62 85 48
64 87 51
62 85 50
58 80 45
65 89 52
87 107 87
102 119 108
106 123 117
111 127 122
125 141 141
133 148 151
99 117 104
68 91 55
64 87 51
68 93 55
60 82 48
66 89 54
61 83 48
70 95 56
63 86 50
71 95 57
64 87 51
64 87 51
91 110 91
137 154 159
138 152 155
135 151 152
129 145 142
142 158 159
140 156 160
130 147 146
125 141 139
107 126 114
95 115 98
94 111 96
142 157 164
141 157 160
145 161 167
152 168 179
147 163 170
143 160 165
134 150 153
153 169 177
141 157 159
102 121 109
100 120 108
128 146 143
142 160 164
152 168 175
150 166 170
143 158 163
151 167 177
111 131 119
98 119 101
139 157 156
150 167 171
131 149 145
92 114 91
101 121 105
100 122 105
117 137 122
166 181 183
222 234 249
227 238 254
227 238 254
227 238 254
227 238 254
227 238 254
227 238 254
227 238 254
227 238 254
227 238 254
227 238 254
227 238 254
227 238 254
227 238 254
227 238 254
227 238 254
227 238 254
227 238 254
227 238 254
227 238 254
227 238 254
227 238 254
227 238 254
227 238 254
227 238 254
227 238 254
227 238 254
227 238 254
227 238 254
227 238 254
227 238 254
227 238 254
227 238 254
227 238 254
227 238 254
227 238 254
227 238 254
227 238 254
227 238 254
227 238 254
227 238 254
227 238 254
227 238 254
227 238 254
227 238 254
227 238 254
227 238 254
227 238 254
227 238 254
227 238 254
227 238 254
227 238 254
227 238 254
227 238 254
227 238 254
220 232 247
164 179 182
109 129 114
112 131 120
99 121 102
70 95 57
82 105 76
104 126 111
76 102 64
69 95 57
74 99 60
87 107 88
123 140 138
140 155 157
139 156 158
149 167 174
144 160 164
156 172 178
127 144 146
119 136 133
142 158 163
150 166 172
142 158 159
132 148 151
148 163 168
143 159 166
147 162 167
129 146 145
117 135 128
95 116 94
69 93 58
68 92 55
66 90 53
65 89 52
65 88 51
86 105 86
146 163 168
141 156 159
139 155 162
123 140 139
121 139 132
85 105 83
72 96 64
68 91 54
65 89 52
66 90 54
66 90 53
57 78 45
69 93 55
66 89 53
57 80 45
63 85 50
67 91 55
118 136 132
135 151 153
134 150 152
96 114 101
75 95 70
65 88 53
67 91 54
62 85 50
61 83 49
59 81 46
63 85 49
66 89 53
61 83 48
64 87 51
61 83 48
66 89 52
62 85 49
65 89 53
107 122 115
118 132 132
126 141 140
126 143 141
89 106 94
83 102 84
108 123 120
122 138 137
134 149 150
127 142 145
128 142 143
124 139 142
121 136 137
120 135 133
132 148 151
130 144 149
128 143 143
124 139 140
122 136 136
55 76 44
63 86 51
56 77 45
62 84 49
58 79 46
59 81 47
57 79 46
63 87 52
61 84 49
62 85 51
69 89 62
94 110 98
103 119 114
115 130 129
136 151 155
106 121 118
124 138 139
123 137 137
101 117 113
59 81 46
58 80 47
55 76 44
58 79 46
58 80 47
60 82 48
56 78 44
53 73 41
58 80 47
55 76 43
62 85 50
55 76 43
55 75 43
53 73 42
55 76 43
60 81 48
56 76 44
57 79 45
83 100 87
126 139 140
111 127 123
117 131 132
127 142 144
113 127 126
124 138 140
116 130 133
114 128 129
119 134 135
109 123 122
108 123 120
82 98 85
80 96 82
81 96 83
54 74 42
55 75 43
59 80 46
53 73 42
91 106 100
110 125 122
121 134 136
112 126 125
131 144 148
125 139 143
131 144 149
105 120 118
114 127 128
120 135 137
120 134 133
114 129 128
118 132 134
114 129 127
106 122 115
110 124 124
124 137 138
112 124 128
112 125 126
56 76 48
57 79 45
57 78 45
62 84 50
53 74 42
52 72 41
53 73 42
60 81 47
57 78 46
57 78 46
52 73 41
52 72 41
58 80 46
59 80 46
55 76 44
59 79 48
58 79 47
57 77 46
96 110 103
123 137 140
113 127 127
115 131 129
123 138 139
125 138 142
116 128 126
118 132 131
125 139 140
100 115 108
112 125 124
116 131 129
119 133 134
120 134 136
117 131 133
111 126 121
112 126 125
118 131 132
95 111 100
54 75 43
58 79 46
61 83 48
63 86 51
55 76 44
59 80 46
61 83 50
60 82 48
58 79 46
54 74 43
56 77 44
63 85 50
58 79 45
55 76 43
63 86 51
52 71 40
61 82 52
111 127 122
126 140 142
120 136 134
121 136 136
119 134 134
128 143 143
130 144 150
117 130 131
116 129 128
128 142 144
130 143 147
125 139 141
121 135 138
118 133 133
126 142 142
121 136 139
121 135 139
55 76 44
58 80 47
62 84 49
55 76 42
49 69 38
57 79 46
62 84 49
59 81 46
56 77 45
64 87 52
54 75 42
61 83 48
57 79 45
59 81 47
62 85 49
70 88 65
128 143 149
125 141 141
125 140 138
133 149 152
125 139 140
133 147 152
137 152 155
133 147 148
116 131 131
131 146 152
128 143 144
133 148 153
133 148 151
137 152 156
129 144 144
105 123 115
59 82 47
54 75 43
80 100 77
107 122 117
113 128 126
139 154 157
143 158 164
131 147 149
132 146 149
118 132 131
137 152 155
138 154 157
138 154 156
136 150 153
71 92 67
63 85 50
65 88 52
61 83 49
56 78 44
59 81 47
69 92 55
68 92 55
65 89 52
63 86 51
64 88 52
66 91 54
66 86 60
84 103 84
92 111 95
103 122 113
83 102 81
67 91 54
65 89 52
60 83 49
62 85 50
66 89 53
64 87 52
61 85 50
66 90 54
89 111 89
130 147 147
138 154 157
127 142 141
138 154 159
136 152 155
141 157 162
146 162 167
141 156 162
145 161 168
138 155 159
143 159 164
117 135 128
125 141 141
142 158 160
138 154 155
141 157 158
142 159 160
149 165 171
144 159 164
139 156 160
124 141 138
77 99 71
72 96 58
90 111 89
107 126 116
138 155 156
133 150 151
151 168 178
127 144 145
73 96 65
80 106 67
107 129 113
113 133 123
76 100 67
97 117 101
128 147 143
131 150 146
104 125 108
164 179 179
211 223 235
227 238 254
227 238 254
227 238 254
227 238 254
227 238 254
227 238 254
227 238 254
227 238 254
227 238 254
227 238 254
227 238 254
227 238 254
227 238 254
227 238 254
227 238 254
227 238 254
227 238 254
227 238 254
227 238 254
227 238 254
227 238 254
227 238 254
227 238 254
227 238 254
227 238 254
227 238 254
227 238 254
227 238 254
227 238 254
227 238 254
227 238 254
227 238 254
227 238 254
227 238 254
227 238 254
227 238 254
227 238 254
227 238 254
227 239 254
227 239 254
227 239 254
227 239 254
227 239 254
227 239 254
227 239 254
227 239 254
227 239 254
227 239 254
227 239 254
225 237 252
202 215 226
137 154 151
101 123 105
123 143 137
153 169 173
157 173 180
127 146 142
125 142 137
83 106 80
75 100 60
74 98 62
100 120 107
140 157 159
140 156 158
160 177 188
150 166 171
150 166 172
150 166 172
134 151 151
104 123 109
68 93 55
142 159 163
157 173 183
152 167 174
149 165 170
144 160 166
128 144 145
136 153 153
112 130 118
69 93 58
68 92 55
67 92 54
65 88 52
70 95 57
66 90 53
68 92 55
70 95 56
77 98 72
131 146 147
112 131 122
80 103 72
61 84 49
70 94 56
62 85 50
69 93 55
64 88 51
70 95 57
67 91 54
65 89 52
63 87 51
69 93 55
68 92 54
68 92 55
72 94 65
102 119 114
105 123 114
73 95 66
66 90 53
64 88 50
61 84 48
64 88 52
62 86 50
66 90 54
68 92 54
59 82 47
61 83 47
58 80 47
63 87 50
52 73 41
64 87 51
62 85 49
63 86 50
70 92 60
100 116 106
99 117 105
67 86 59
65 88 52
68 92 55
66 89 53
61 83 49
67 88 63
74 94 70
99 113 104
113 127 126
128 144 144
123 138 137
122 137 137
130 144 149
144 159 167
129 143 145
138 152 158
132 146 150
80 98 80
59 81 48
64 87 52
59 80 46
63 86 50
75 94 68
91 108 92
97 113 102
112 128 126
123 138 140
120 135 135
114 130 129
133 148 149
120 134 135
136 151 154
123 139 137
125 140 140
128 143 146
121 135 135
62 83 53
58 79 46
54 74 42
63 86 51
56 77 45
52 72 41
63 85 50
63 85 50
59 81 48
58 79 45
54 75 42
60 82 49
57 79 45
58 80 46
59 81 47
57 78 46
53 73 42
50 70 38
65 85 56
111 125 124
136 150 155
114 128 128
112 126 125
97 116 101
98 115 105
78 97 77
84 101 86
62 83 52
56 77 44
50 70 39
59 80 47
56 77 45
61 83 49
59 80 47
50 70 40
57 77 44
60 83 48
60 80 53
120 133 138
130 144 149
118 132 133
123 137 140
117 131 132
114 128 128
127 142 145
124 139 139
113 129 127
129 144 147
121 135 137
108 123 119
122 136 136
130 143 147
111 125 124
125 138 141
132 146 151
120 134 134
101 115 111
55 75 45
54 75 43
50 70 39
53 73 42
51 73 40
53 73 42
55 76 44
51 72 40
63 85 49
49 68 38
58 79 46
57 78 45
57 78 44
48 68 37
48 67 37
63 86 51
61 84 48
71 91 66
116 132 131
109 123 120
122 136 136
132 147 149
130 143 146
125 139 143
135 149 155
122 135 139
110 124 123
127 141 146
118 131 133
119 134 135
117 131 130
121 135 134
120 133 135
104 118 116
108 122 122
101 116 110
68 88 64
79 97 80
84 100 88
91 107 97
88 105 93
80 99 81
92 108 97
110 127 118
107 124 117
98 114 106
104 120 113
100 116 111
94 111 101
106 121 115
101 118 110
105 120 115
109 125 121
102 118 112
80 98 80
70 88 71
81 98 84
76 94 77
73 91 72
83 101 83
67 87 61
80 98 81
72 91 69
81 99 81
79 97 79
76 94 73
81 97 81
89 106 90
82 100 86
72 92 67
83 101 86
122 137 135
109 124 124
119 134 132
102 116 112
99 115 108
86 101 91
102 119 110
115 130 129
92 108 95
95 111 104
83 102 82
94 111 99
73 93 68
79 98 79
76 97 70
73 92 72
118 134 133
122 137 138
123 137 141
122 138 137
120 135 135
128 142 146
138 153 155
131 145 153
130 145 146
131 146 150
133 148 150
122 136 136
117 132 130
110 127 122
105 123 115
101 117 109
132 147 151
118 135 128
126 141 141
134 149 149
138 153 156
126 140 141
139 155 155
126 141 142
144 159 164
126 142 144
125 140 143
136 151 155
138 152 159
127 142 141
66 89 56
69 94 56
63 87 52
64 88 52
59 81 47
64 88 52
63 87 50
62 84 50
68 92 56
59 81 47
61 85 49
59 81 47
63 87 50
104 121 112
135 151 156
141 156 162
131 147 149
133 149 152
115 132 131
103 121 111
98 116 104
86 106 87
61 85 48
67 91 55
66 90 52
84 107 81
141 157 161
135 151 152
133 149 152
139 156 159
150 166 172
136 152 155
141 157 160
147 161 171
150 166 174
144 159 164
142 158 162
74 96 69
68 92 58
93 113 95
113 131 123
129 145 145
152 169 177
148 165 171
141 158 160
143 159 163
146 161 166
87 109 89
74 100 61
69 94 55
74 100 60
82 107 74
110 128 119
121 140 137
134 151 154
107 127 114
73 99 60
72 99 60
88 110 86
134 151 149
108 129 118
119 139 130
152 169 177
151 168 175
126 145 140
145 162 158
193 206 216
226 237 253
227 239 254
227 239 254
227 239 254
227 239 254
227 239 254
227 239 254
227 239 254
227 239 254
227 239 254
227 239 254
227 238 254
227 238 254
227 238 254
227 238 254
227 238 254
227 238 254
227 238 254
227 238 254
227 238 254
227 238 254
227 238 254
227 238 254
227 238 254
227 239 254
227 239 254
227 239 254
227 239 254
227 239 254
227 239 254
227 239 254
227 239 254
227 239 254
227 239 254
227 239 254
227 239 254
227 239 254
227 239 254
227 239 254
227 239 254
227 239 254
227 239 254
227 239 254
227 239 254
227 239 254
221 233 248
184 198 207
122 142 131
114 137 119
138 156 158
152 168 173
148 165 172
121 142 133
85 108 83
140 157 158
100 121 103
87 110 87
120 139 131
145 161 166
153 169 173
156 172 180
146 162 169
154 171 177
136 153 157
118 137 127
76 100 66
75 101 61
70 96 57
67 92 54
131 150 151
157 173 182
153 169 176
121 139 135
104 123 110
72 95 62
69 93 55
66 91 54
68 93 55
67 91 54
69 94 56
65 88 52
67 92 54
67 90 53
77 100 71
103 121 114
115 132 124
68 92 54
69 94 56
63 85 50
69 93 55
69 94 56
67 91 53
63 87 51
64 87 51
66 89 53
69 93 55
71 96 57
64 88 52
86 107 87
108 127 119
134 150 151
133 148 153
145 160 165
117 134 131
61 84 49
61 82 48
67 91 55
65 89 52
66 90 53
64 87 52
56 78 44
64 87 52
58 80 46
59 82 47
56 79 43
66 89 52
78 101 69
90 110 91
100 119 108
117 134 131
123 138 138
121 137 133
62 85 50
63 86 50
61 84 49
65 88 52
59 81 48
59 81 48
65 88 52
63 85 49
61 84 49
66 89 53
61 83 49
72 92 67
80 99 82
92 108 95
112 128 124
118 134 129
133 149 154
126 140 140
96 114 100
66 87 57
91 110 93
113 129 121
123 138 137
131 145 148
130 145 146
116 132 130
128 144 143
120 135 136
116 130 129
127 143 144
123 138 136
134 148 152
127 141 143
131 146 147
130 145 150
138 151 154
113 128 128
86 100 91
60 83 48
59 81 48
59 81 46
59 81 47
61 83 49
55 76 44
59 81 47
57 78 45
60 82 48
59 80 47
58 80 47
59 81 47
55 75 43
65 88 52
61 82 51
65 83 59
77 94 78
77 93 78
94 110 101
78 96 76
59 81 48
58 79 46
55 77 44
59 81 48
59 80 46
59 80 48
63 86 52
58 79 47
63 85 50
58 80 46
55 76 43
66 89 54
58 79 46
57 78 45
55 76 44
57 78 46
60 82 49
99 115 104
136 150 153
115 130 130
124 138 139
117 131 133
115 130 127
131 146 152
126 140 143
127 141 143
121 135 137
110 126 124
123 138 142
106 118 115
123 137 140
117 130 128
119 133 135
123 137 139
135 149 154
117 130 131
82 99 85
59 80 46
60 82 48
55 76 44
61 83 49
58 79 45
62 84 50
57 80 46
49 70 38
51 71 41
56 78 45
59 80 47
54 73 43
53 73 42
64 86 52
56 77 45
55 75 42
67 87 62
95 111 102
123 139 139
114 129 128
106 123 115
95 109 104
99 113 108
91 109 95
98 115 103
88 103 94
77 96 79
68 85 63
65 84 59
67 85 63
63 87 51
52 73 41
55 76 43
59 80 47
62 86 50
80 99 78
113 127 126
107 122 121
123 136 138
117 132 128
127 141 143
124 139 139
123 137 137
135 150 154
135 149 152
122 137 137
123 138 136
128 143 147
122 137 137
121 135 137
119 134 132
120 135 134
126 140 144
81 97 83
49 68 39
60 82 48
61 83 48
57 78 44
52 72 40
65 87 52
59 81 47
63 85 50
57 79 46
52 73 41
57 78 46
59 80 46
61 84 49
61 83 48
59 81 46
68 90 57
94 110 100
131 145 150
129 144 144
122 135 136
121 137 137
130 145 148
129 144 145
133 148 152
134 148 152
126 141 144
139 152 155
129 142 143
126 142 143
131 146 147
140 155 161
137 151 157
115 130 129
60 82 47
66 87 58
88 107 88
83 100 85
93 109 98
85 103 87
107 123 117
109 124 119
127 143 144
109 126 120
100 116 107
87 105 90
73 94 68
60 82 48
70 91 63
116 132 131
141 156 160
143 158 164
129 144 146
141 155 161
126 141 141
141 156 160
133 148 150
134 149 153
128 143 149
129 144 146
134 149 149
147 163 172
138 154 158
129 145 146
65 86 57
64 87 52
64 87 52
64 87 51
72 97 57
69 94 56
65 88 52
60 83 47
63 86 50
63 87 51
63 85 50
66 91 54
63 86 51
118 135 127
142 157 161
139 156 162
134 150 151
150 165 172
131 146 147
137 152 156
137 154 154
141 157 163
144 161 165
107 127 114
88 106 92
102 119 110
133 150 150
145 160 169
145 160 164
150 165 173
149 164 171
143 159 166
141 157 165
145 161 167
153 169 175
152 168 176
144 161 166
88 107 88
72 97 58
67 92 54
67 91 54
69 95 57
97 119 102
115 131 129
148 164 169
139 155 156
147 165 170
108 129 113
69 94 56
70 96 57
70 95 57
75 101 62
68 93 55
71 95 60
96 116 102
113 133 119
67 92 54
75 102 61
103 123 106
155 171 181
150 168 175
142 159 162
158 176 184
149 165 171
150 166 174
141 159 158
152 169 173
184 199 207
222 233 248
227 239 254
227 239 254
227 239 254
227 239 254
227 239 254
227 239 254
227 239 254
227 239 254
227 239 254
227 239 254
227 239 254
227 239 254
227 239 254
227 239 254
227 239 254
227 239 254
227 239 254
227 239 254
227 239 254
227 239 254
227 239 254
227 239 254
227 239 254
227 239 254
227 239 254
227 239 254
227 239 254
227 239 254
227 239 254
227 239 254
227 239 254
227 239 254
227 239 254
227 239 254
227 239 254
227 239 254
227 239 254
227 239 254
227 239 254
227 239 254
218 230 245
186 200 210
112 132 118
115 135 123
149 166 173
164 181 192
132 150 149
112 133 117
74 101 61
78 105 64
98 120 97
138 155 156
145 162 167
156 172 180
152 168 174
154 171 179
140 157 161
153 169 173
116 135 128
92 111 92
70 95 56
74 99 60
69 94 57
71 96 57
72 98 58
66 91 54
125 142 141
117 134 130
78 101 72
68 94 56
69 94 56
68 92 55
70 95 56
74 99 60
70 95 57
71 96 58
67 92 55
65 88 52
111 131 122
124 140 138
141 159 166
143 158 164
133 148 149
74 99 63
65 88 53
69 93 55
66 90 52
64 87 50
65 89 52
65 89 52
65 89 52
68 93 55
96 114 103
118 135 131
114 131 128
137 153 156
133 149 153
142 158 166
138 154 159
135 150 151
121 138 137
64 87 52
67 91 53
60 82 48
64 88 51
67 90 53
63 87 51
69 94 57
65 89 52
72 97 59
67 88 59
104 122 110
126 141 140
137 154 157
143 158 164
121 136 135
133 148 152
121 138 138
133 148 149
66 88 56
64 87 51
67 91 54
58 79 45
60 82 47
65 89 52
63 86 50
57 79 46
68 92 56
62 85 49
66 90 54
61 84 49
67 91 53
60 83 47
61 84 49
76 97 73
103 120 110
120 136 133
113 129 127
105 120 116
124 142 139
111 127 125
137 151 157
137 152 157
123 138 136
126 141 142
129 143 145
123 140 137
136 152 156
120 134 136
135 150 153
126 141 144
125 140 142
139 152 156
140 154 162
127 142 145
127 143 146
108 123 120
58 80 46
58 80 45
58 80 46
62 84 50
54 75 43
53 75 42
63 85 50
57 80 46
57 78 44
61 83 49
76 93 79
86 103 88
110 125 122
117 133 132
130 145 150
115 130 129
104 118 116
127 143 146
122 137 138
61 83 48
58 80 46
59 80 48
54 74 41
61 83 48
51 72 40
61 83 49
63 85 50
61 84 48
61 83 48
62 85 49
56 77 44
56 76 45
61 83 49
63 86 50
55 77 43
60 82 47
63 85 51
77 93 78
121 135 137
116 130 129
115 130 132
117 131 129
133 147 153
123 138 136
127 142 143
113 128 126
128 143 145
126 140 142
122 138 137
126 140 142
119 134 134
130 143 148
123 138 139
121 136 137
115 129 128
126 141 144
111 126 123
59 80 47
57 79 45
59 80 47
60 83 49
51 71 40
59 80 46
72 90 71
74 93 73
86 104 90
96 112 103
107 122 120
103 116 112
114 129 126
125 139 140
117 132 130
118 132 132
128 142 147
132 147 151
73 94 68
56 78 43
52 73 40
64 87 52
58 79 45
56 77 44
57 77 45
56 78 44
58 80 45
60 81 48
59 81 47
55 76 43
58 78 46
57 78 45
62 84 50
57 78 45
58 79 46
56 76 44
106 121 117
114 128 125
131 146 150
132 148 150
114 127 129
113 127 126
117 131 131
127 142 143
122 137 139
120 135 134
129 143 147
133 147 150
130 144 146
121 136 134
124 139 139
123 138 139
127 141 142
114 129 125
70 91 64
54 75 43
64 87 52
58 80 46
63 86 51
53 74 42
62 84 51
60 81 48
59 81 47
60 82 48
52 73 41
58 80 46
58 79 46
65 88 53
60 83 49
59 81 48
65 86 58
120 134 133
124 139 139
129 145 146
126 140 144
130 144 145
122 137 137
125 140 141
131 147 151
128 143 145
130 144 145
132 147 149
123 138 138
132 147 150
139 153 154
128 144 145
130 146 150
88 107 92
85 103 86
111 126 121
110 126 121
110 126 118
137 151 154
132 147 149
129 145 145
136 152 157
130 147 145
131 146 151
122 137 139
142 157 162
143 158 164
139 154 157
119 136 134
88 106 92
81 98 84
89 107 92
104 121 114
107 124 116
109 125 122
126 141 141
130 145 148
146 163 170
130 144 143
138 153 158
136 152 156
137 152 155
141 156 161
110 128 120
73 94 67
64 87 52
66 89 52
64 87 51
69 93 56
63 87 51
63 85 50
64 87 52
67 92 55
61 85 49
68 92 55
64 87 52
65 89 51
118 135 129
130 145 143
140 156 161
147 163 169
143 159 165
136 151 154
131 147 148
140 155 160
147 163 168
150 166 171
134 152 153
134 150 152
126 142 142
112 129 126
120 138 129
117 134 131
152 167 171
139 155 157
138 155 156
137 153 155
151 169 177
135 151 155
153 170 178
140 156 160
107 125 115
66 90 53
71 97 58
65 89 54
71 96 58
72 97 59
67 91 54
79 104 68
113 132 122
125 142 140
114 133 121
68 93 55
74 100 61
71 97 58
69 95 56
67 92 54
67 93 55
74 100 61
85 109 81
108 128 115
99 120 101
127 145 141
159 175 185
158 175 184
152 169 174
151 168 176
129 148 145
139 156 157
170 188 203
151 169 177
164 180 189
189 203 216
217 229 244
227 239 254
227 239 254
227 239 254
227 239 254
227 239 254
227 239 254
227 239 254
227 239 254
227 239 254
227 239 254
227 239 254
227 239 254
227 239 254
227 239 254
227 239 254
227 239 254
227 239 254
227 239 254
227 239 254
227 239 254
227 239 254
227 239 254
227 239 254
227 239 254
227 239 254
227 239 254
227 239 254
227 239 254
227 239 254
227 239 254
227 239 254
227 239 254
227 239 254
227 239 254
227 239 254
225 237 252
210 222 236
148 164 164
92 115 90
132 151 149
165 180 189
158 175 183
132 150 149
88 111 84
77 104 64
74 99 59
88 111 80
124 143 139
111 131 119
151 168 175
156 172 179
159 175 186
146 163 167
136 153 154
100 120 105
70 96 58
76 102 63
71 96 57
76 103 63
68 93 55
70 95 56
79 101 74
109 128 116
126 143 140
90 113 88
74 99 59
71 96 57
75 101 60
68 92 55
64 88 52
66 90 53
71 96 56
80 103 78
92 112 96
129 145 144
156 170 177
142 158 163
145 162 168
143 159 167
147 161 166
141 157 163
75 100 66
64 87 52
68 93 55
69 93 56
65 88 51
66 89 53
88 107 89
115 132 126
141 157 159
150 164 170
141 157 163
149 165 170
135 151 152
141 156 161
141 156 160
136 150 153
129 145 147
143 160 166
62 85 50
61 85 49
56 79 44
60 83 49
66 90 54
64 88 52
93 113 94
118 134 131
137 152 152
129 145 144
145 160 166
152 166 174
140 156 162
130 146 148
148 162 172
135 149 151
130 146 149
126 140 142
80 98 79
61 83 49
61 83 48
62 85 50
70 94 56
63 87 51
65 88 52
64 86 51
62 84 49
65 88 53
66 90 54
79 100 76
96 112 100
113 129 124
122 136 136
131 146 147
132 148 149
128 142 144
134 150 154
61 80 54
67 92 55
60 82 47
59 80 47
65 85 57
90 107 95
95 111 105
103 119 112
114 129 125
130 146 146
129 145 143
134 148 153
131 146 148
127 143 142
134 149 154
130 145 149
139 155 158
132 148 151
127 141 142
71 90 68
62 84 50
65 89 52
58 80 46
66 87 58
77 97 71
96 112 101
126 143 139
121 137 132
130 145 147
122 137 138
141 153 159
122 137 140
132 146 149
121 135 133
123 137 137
130 144 149
140 155 159
132 148 150
78 98 75
62 84 50
60 81 46
56 77 44
60 83 47
64 87 52
58 80 46
60 82 47
61 83 49
60 82 48
62 84 49
55 76 44
59 80 47
60 82 48
60 82 49
61 84 49
64 87 52
62 85 49
63 86 50
127 141 140
135 149 152
124 139 140
130 144 147
129 143 145
125 139 141
119 133 132
129 142 145
113 127 128
121 135 137
120 135 137
125 140 144
122 136 136
130 142 147
114 129 129
125 139 137
119 134 133
111 125 121
107 123 119
94 111 97
108 124 116
108 123 121
134 148 149
128 142 145
129 144 146
126 141 142
129 143 148
125 141 142
131 146 149
126 141 144
126 140 142
126 140 142
130 144 147
123 138 135
132 147 151
127 141 140
128 142 146
114 130 125
62 84 50
61 84 49
59 81 47
55 76 43
58 79 45
59 80 48
54 74 43
58 80 46
56 76 43
51 71 40
56 77 44
58 80 46
62 84 49
61 84 49
55 76 43
56 77 44
57 79 46
66 88 59
127 141 142
128 142 144
127 142 142
118 133 132
116 131 131
125 139 137
138 152 157
117 133 126
123 139 142
134 149 152
114 129 128
132 147 151
130 144 148
135 150 155
131 146 149
131 145 147
129 144 148
109 126 120
53 73 41
63 85 51
57 78 45
65 88 52
60 82 48
53 74 41
54 76 44
57 78 45
62 85 49
62 85 50
61 83 49
55 76 44
55 77 44
53 74 42
58 79 46
60 82 48
81 100 80
127 141 143
129 144 147
129 143 143
123 137 135
126 142 142
121 136 136
138 153 160
133 149 153
131 146 150
106 122 116
111 125 121
93 111 96
85 103 89
79 98 76
60 82 47
55 77 43
110 125 122
128 142 145
140 155 158
133 149 154
134 148 154
136 151 154
135 150 154
127 143 148
138 153 159
130 145 145
127 142 145
133 148 152
126 143 143
137 153 157
130 145 145
117 133 129
67 90 55
61 84 49
64 88 52
66 90 53
67 91 53
62 85 50
62 86 50
76 97 70
85 105 83
99 116 106
90 108 94
119 136 131
116 133 130
128 143 145
118 135 130
69 92 58
67 91 55
61 83 48
64 88 52
70 95 57
65 88 53
65 89 53
65 88 51
61 84 49
65 90 53
70 95 56
66 90 53
64 87 50
103 121 112
147 163 170
145 161 169
143 159 166
142 157 163
144 160 168
151 167 174
140 155 157
143 159 165
135 150 150
151 167 174
152 167 176
139 154 157
91 112 90
69 93 55
72 98 59
79 102 72
97 117 103
113 133 125
124 140 140
152 166 172
149 164 171
156 172 181
151 168 176
137 154 154
75 100 64
60 82 47
68 91 54
69 94 55
70 96 57
72 97 58
68 92 55
69 94 55
73 99 61
82 104 78
126 145 140
103 124 110
86 110 79
70 96 58
72 97 59
75 101 61
70 96 57
72 98 60
108 128 114
168 185 197
107 127 116
127 146 141
155 171 179
147 164 167
161 178 189
129 147 142
86 109 85
125 143 143
151 168 176
159 176 184
138 155 157
167 182 192
206 218 230
227 239 254
227 239 254
227 239 254
227 239 254
227 239 254
227 239 254
227 239 254
227 239 254
227 239 254
227 239 254
227 239 254
227 239 254
227 239 254
227 239 254
227 239 254
227 239 254
227 239 254
227 239 254
227 239 254
227 239 254
227 239 254
227 239 254
227 239 254
227 239 254
227 239 254
227 239 254
227 239 254
227 239 254
227 239 254
227 239 254
227 239 254
225 237 252
188 202 210
135 153 146
105 125 109
145 162 166
162 178 186
142 160 164
121 141 132
81 107 71
77 104 64
75 101 62
103 123 108
138 156 157
152 168 173
161 177 186
150 166 174
152 168 175
159 176 184
127 148 143
84 107 80
72 98 59
68 93 55
72 98 59
70 95 57
69 94 57
71 97 59
104 122 107
124 142 140
150 167 173
161 175 184
151 167 169
78 104 68
71 96 58
72 97 58
69 94 55
72 97 58
74 98 65
90 110 92
119 137 130
151 166 175
152 167 175
156 171 178
143 159 163
134 150 153
145 159 165
136 151 154
151 167 176
138 155 158
76 99 69
70 94 56
67 90 53
100 118 106
119 137 132
135 151 154
153 167 173
139 155 160
141 157 163
140 154 158
138 152 156
140 155 158
134 150 152
140 155 161
151 167 174
139 155 158
133 148 151
152 167 175
66 90 53
66 90 54
71 94 64
89 109 89
106 124 113
123 140 137
139 155 160
136 153 155
132 147 152
141 157 162
137 152 157
137 151 155
137 153 157
118 133 133
148 163 168
141 156 161
145 160 166
143 158 164
101 118 110
60 82 48
65 88 52
62 84 50
68 91 55
63 86 50
68 92 55
86 104 88
95 113 99
114 130 127
141 156 163
144 159 165
139 154 157
129 145 147
128 143 144
118 134 134
129 142 145
128 144 146
134 149 153
96 114 97
64 87 51
59 81 47
64 87 51
59 81 47
63 86 52
66 89 53
62 84 49
64 86 50
63 87 51
65 87 54
70 89 64
83 101 84
76 96 74
94 111 101
101 119 110
121 137 136
126 141 140
126 140 143
95 111 103
102 118 111
114 130 125
115 130 127
121 136 136
133 148 148
121 136 138
138 153 157
129 145 149
130 144 147
131 145 152
135 149 152
122 137 136
131 145 149
127 142 143
140 154 159
135 150 155
113 128 125
125 140 144
102 118 111
58 80 46
57 79 46
55 76 43
63 87 50
62 85 49
57 79 45
60 82 49
61 82 48
61 83 48
54 75 43
61 82 48
60 81 47
57 78 45
58 79 46
61 82 49
58 79 46
61 83 49
56 77 45
80 98 79
113 127 127
135 150 153
128 143 146
135 150 155
137 152 155
127 140 142
114 128 129
120 135 135
104 120 112
104 121 116
106 124 114
92 108 97
90 105 94
67 87 63
62 82 55
58 80 46
59 81 47
62 84 50
91 109 95
114 128 128
131 145 148
113 129 127
130 145 148
127 141 144
122 138 139
128 143 141
131 146 147
133 148 152
135 151 153
123 137 137
131 145 146
130 143 147
132 147 150
120 134 136
126 141 143
124 139 141
122 137 139
83 101 84
58 80 46
59 80 46
61 83 49
57 77 45
62 86 50
56 77 44
63 86 51
65 88 53
60 82 48
61 83 49
71 95 57
61 83 48
60 81 48
57 78 45
57 80 46
55 76 44
60 82 48
84 103 84
132 148 148
110 125 122
137 152 157
143 158 164
125 139 143
133 149 153
129 144 147
140 155 161
137 151 155
119 135 135
126 141 144
126 141 142
123 137 136
133 148 150
125 140 139
130 144 148
139 154 158
89 107 92
62 84 49
57 79 45
65 88 52
57 79 46
59 81 46
60 82 48
58 80 46
64 86 51
61 83 49
63 86 52
61 84 49
56 78 44
63 85 51
58 81 47
62 85 50
66 89 56
108 125 117
111 127 122
111 128 123
95 113 101
91 111 92
78 97 78
67 88 59
62 85 50
60 82 48
65 88 52
65 88 52
61 85 49
59 81 47
58 79 45
58 79 46
58 79 46
76 96 74
116 132 131
142 158 160
124 140 140
136 152 156
137 151 155
140 155 159
138 153 158
127 141 143
139 154 159
149 165 170
130 145 147
127 142 143
141 155 160
131 145 147
127 142 144
124 139 141
68 91 54
66 90 54
62 84 49
64 88 53
61 84 48
67 90 53
68 92 55
60 83 49
66 90 53
66 90 54
67 91 55
68 93 55
67 90 54
68 92 54
91 109 96
120 136 133
112 128 122
120 137 135
113 129 126
92 112 94
96 117 96
74 97 64
62 85 50
68 92 55
65 88 53
68 93 55
68 93 56
64 88 51
113 131 127
141 156 159
151 167 175
135 151 153
128 145 146
143 160 166
141 156 158
135 150 154
143 158 165
135 151 156
138 155 157
134 151 154
136 152 156
95 114 99
69 93 55
68 93 55
67 91 54
68 93 56
65 89 52
66 89 56
98 116 102
119 137 132
128 146 144
140 156 161
121 139 135
74 98 70
62 85 50
71 96 58
71 96 57
70 95 56
70 96 57
69 94 56
71 96 57
73 98 58
82 105 76
128 145 146
159 176 186
136 152 155
108 127 117
84 109 82
76 103 63
71 97 59
74 100 60
82 105 80
108 129 117
75 102 61
72 98 58
96 117 96
137 156 156
149 166 172
152 169 175
105 126 112
79 107 69
112 133 120
144 161 165
153 170 176
130 147 143
159 176 179
200 213 225
227 238 254
227 239 254
227 239 254
227 239 254
227 239 254
227 239 254
227 239 254
227 239 254
227 239 254
227 239 254
227 239 254
227 239 254
227 239 254
227 239 254
227 239 254
227 239 254
227 239 254
227 239 254
227 239 254
227 239 254
227 239 254
227 239 254
227 239 254
227 239 254
227 239 254
227 239 254
227 239 254
223 234 249
183 197 204
156 173 175
151 170 178
150 168 173
154 172 183
140 157 158
100 122 105
78 105 64
75 102 62
83 108 74
118 137 128
156 173 183
150 167 171
153 169 177
160 176 184
150 167 174
138 157 156
119 138 128
80 105 70
73 98 59
74 100 60
74 100 60
75 102 61
70 96 57
88 112 85
113 132 124
140 158 162
159 176 184
155 171 179
146 163 169
156 173 181
143 159 164
75 100 62
69 93 55
72 97 58
93 114 93
127 144 138
149 165 171
156 171 179
153 170 179
154 170 178
158 174 186
143 159 165
144 159 164
145 160 167
145 161 166
144 160 166
153 169 177
142 158 161
116 135 128
118 137 131
140 156 158
147 163 166
137 153 161
131 147 150
146 162 169
147 161 169
134 150 154
154 170 178
143 158 164
136 152 154
125 142 138
139 155 160
147 164 172
147 164 173
136 151 154
131 147 149
99 119 106
131 147 147
144 159 162
143 159 164
142 158 166
143 159 163
136 151 156
140 154 159
148 162 169
142 157 162
142 157 162
121 137 137
134 149 152
127 144 143
140 154 158
137 154 158
138 153 157
149 165 171
122 137 138
61 83 48
67 91 54
75 98 68
88 106 89
105 121 116
125 141 141
132 146 152
127 142 142
130 146 147
142 157 160
132 147 150
130 146 147
134 149 153
125 139 142
135 149 156
135 150 153
142 157 160
142 157 160
107 125 117
68 93 56
62 85 50
55 77 43
62 85 50
62 84 49
59 81 46
69 93 56
65 88 52
59 81 47
63 86 51
62 84 49
65 89 52
67 90 53
79 99 76
103 120 110
85 103 87
121 135 137
140 155 161
123 137 136
79 98 77
89 108 91
80 99 79
101 118 108
114 131 127
121 136 136
117 132 128
116 132 130
134 149 151
126 142 144
115 130 132
135 149 153
134 149 151
139 154 160
124 140 141
133 148 151
131 146 149
125 140 142
119 132 132
65 85 56
66 89 53
61 84 49
56 77 45
57 79 46
63 86 51
65 88 52
59 81 48
62 83 48
60 83 48
61 83 49
61 83 49
59 81 46
61 83 48
61 84 49
58 80 46
62 85 50
54 74 43
62 83 51
132 148 151
99 115 108
94 110 99
96 113 97
79 96 79
77 96 78
61 82 48
52 73 41
61 84 49
59 81 46
62 85 50
59 82 47
61 84 49
61 82 48
60 83 49
59 80 46
61 83 49
63 86 51
52 71 41
126 141 142
129 145 145
113 128 122
130 145 147
114 130 126
129 143 146
128 144 146
122 137 138
99 115 109
121 136 135
123 136 136
129 143 146
126 140 141
119 133 136
126 141 141
126 142 141
123 137 140
130 144 149
115 130 129
60 80 51
57 79 45
61 84 50
55 75 43
57 79 44
63 86 50
59 81 47
64 87 52
59 81 47
61 85 50
58 79 46
54 76 43
63 86 50
65 88 52
60 82 47
63 86 51
63 86 51
61 83 49
101 117 111
131 145 152
126 139 142
141 155 161
127 142 145
133 147 152
133 147 149
128 142 148
123 138 137
116 132 127
129 145 148
134 148 151
125 140 142
120 134 134
126 142 143
128 142 143
127 142 141
112 127 126
74 94 71
59 82 48
66 89 53
63 86 51
59 81 47
68 91 57
78 98 76
88 106 90
92 110 94
106 122 114
108 125 117
106 124 115
120 135 136
109 126 118
121 136 134
134 149 154
130 144 147
78 100 73
64 87 51
61 84 50
62 84 50
67 90 53
64 88 52
65 88 52
59 80 47
63 87 50
62 85 50
61 84 48
61 84 49
63 85 50
64 87 50
65 89 53
65 88 52
87 105 87
125 140 139
117 132 132
145 161 166
136 152 154
128 142 142
132 148 152
131 145 150
140 155 160
140 153 160
144 159 166
137 152 156
141 157 158
125 141 141
137 153 160
127 143 140
115 133 126
66 89 53
62 85 50
67 91 54
66 89 53
62 85 50
63 86 50
67 90 55
61 83 48
64 88 51
69 94 55
60 82 47
65 87 51
64 88 52
66 89 52
113 130 123
131 146 146
144 160 167
134 149 155
136 152 155
144 159 166
146 163 169
141 158 162
133 149 150
113 130 127
107 125 117
92 110 92
91 111 95
71 95 60
108 125 115
141 158 163
125 142 142
146 162 168
143 158 163
144 160 163
144 159 161
147 163 169
140 157 162
149 166 174
139 154 159
148 163 169
153 169 176
95 117 97
62 85 50
72 97 57
72 97 58
68 93 55
65 88 52
70 96 57
64 88 51
68 93 56
70 96 57
75 97 72
84 107 81
90 111 93
83 107 75
70 95 58
72 98 59
74 100 60
75 102 61
75 101 61
68 93 56
75 101 61
79 104 69
133 151 149
156 171 179
150 166 172
146 163 168
141 157 158
110 129 120
93 116 93
75 100 63
84 107 79
110 130 118
73 99 60
75 102 61
76 103 63
78 104 69
107 128 113
142 160 164
125 144 140
76 100 66
78 105 64
93 115 93
121 140 130
145 162 165
106 127 114
146 164 163
194 207 219
222 233 248
227 239 254
227 239 254
227 239 254
227 239 254
227 239 254
227 239 254
227 239 254
227 239 254
227 239 254
227 239 254
227 239 254
227 239 254
227 239 254
227 239 254
227 239 254
227 239 254
228 239 254
228 239 254
228 239 254
228 239 254
228 239 254
228 239 254
215 227 240
179 193 199
152 169 172
131 151 149
90 113 91
162 178 186
132 151 150
82 106 81
73 99 59
79 107 66
95 118 93
134 151 152
146 163 166
161 177 188
150 166 173
153 170 179
152 169 175
121 140 137
101 123 104
71 97 58
73 99 59
68 93 55
72 99 59
75 100 60
79 102 69
115 135 121
146 162 167
150 166 171
148 164 169
148 164 169
148 164 170
153 169 176
144 159 164
136 153 156
137 152 154
92 115 95
116 135 130
135 153 154
148 163 167
146 162 166
143 160 167
139 155 157
145 161 167
155 171 180
151 167 172
136 153 156
138 154 156
147 164 168
144 160 166
126 143 141
101 121 106
75 98 68
140 157 157
155 169 178
145 161 164
157 172 181
147 162 166
139 154 159
138 154 157
160 175 186
142 158 162
144 160 163
146 161 166
148 164 170
145 159 165
148 164 173
131 147 148
100 118 105
79 99 79
63 86 51
123 140 139
142 158 160
137 153 155
144 159 164
139 154 157
134 150 152
146 162 167
139 154 156
137 153 157
144 159 167
143 158 164
141 157 160
149 164 170
145 160 166
119 134 134
150 165 171
135 152 155
141 157 162
116 132 128
106 124 113
128 143 146
142 158 164
143 156 162
146 162 166
129 145 147
140 155 159
138 153 155
130 144 146
138 153 156
138 152 158
138 152 155
130 145 147
132 145 146
134 148 153
127 143 144
128 143 146
132 147 151
118 133 132
65 88 52
64 87 52
64 86 51
59 82 48
64 88 51
72 97 59
67 91 54
63 86 49
64 86 54
86 106 86
98 115 105
120 135 136
137 153 157
119 136 135
140 156 162
144 158 161
134 148 152
140 153 157
122 138 138
61 83 51
63 86 51
58 80 46
62 85 49
61 83 48
57 78 45
57 78 45
56 78 45
62 85 50
62 82 55
84 105 79
84 104 82
85 106 88
88 108 87
91 109 95
110 126 123
106 122 116
110 126 119
109 124 120
92 108 97
77 98 73
65 86 57
61 84 49
65 88 53
62 84 49
68 91 54
59 80 46
62 84 49
59 82 47
63 85 51
62 85 50
77 96 74
82 103 83
99 115 104
95 112 100
122 137 138
125 139 139
130 144 148
94 110 101
59 82 46
63 86 51
58 80 47
61 84 49
59 81 47
59 81 46
65 88 53
55 76 43
66 89 53
55 76 45
63 86 50
59 82 48
65 88 51
61 84 49
59 81 47
63 86 50
67 90 53
60 83 48
94 111 99
132 146 151
123 137 138
135 150 152
130 145 147
128 142 144
128 142 144
128 144 145
133 148 150
128 144 143
129 144 147
117 133 131
118 133 132
128 143 147
129 144 147
124 140 142
123 137 139
137 151 158
129 144 148
91 109 96
60 83 48
61 84 50
59 80 47
63 86 51
59 81 46
59 81 47
68 92 54
67 90 53
54 75 43
55 76 44
60 82 47
61 84 49
55 77 43
62 84 49
62 85 50
60 82 48
60 82 47
72 91 69
124 139 143
128 143 144
130 144 145
134 150 155
124 139 141
131 145 145
120 135 135
121 136 139
134 147 150
128 143 144
122 138 136
111 127 122
115 131 127
113 129 126
105 121 116
100 118 107
99 117 103
91 109 94
106 123 114
113 129 127
123 138 138
125 141 141
124 140 141
135 149 153
131 147 148
133 149 150
130 145 149
130 146 145
124 139 141
126 140 140
141 156 162
129 144 146
134 150 151
139 154 157
126 142 143
70 90 62
58 79 46
61 84 49
61 83 49
64 86 51
67 91 53
64 87 52
63 86 50
59 81 47
60 82 48
61 83 48
63 86 51
70 94 56
60 83 48
65 89 52
65 88 51
92 110 96
143 159 164
138 152 155
121 137 137
137 151 153
132 147 147
137 153 157
128 144 146
136 152 154
129 143 148
136 152 153
134 148 152
125 141 142
137 152 159
133 148 149
138 152 156
103 120 109
64 87 51
63 86 50
68 93 55
65 89 53
66 90 54
62 85 49
63 87 52
62 84 49
56 78 45
63 87 52
66 89 53
67 91 54
68 92 55
67 91 54
121 138 136
132 147 147
138 154 158
137 152 154
144 160 165
136 152 157
132 148 150
145 160 167
139 153 159
145 159 165
145 161 165
147 163 166
142 157 162
135 151 155
124 142 138
125 141 139
112 128 121
139 155 159
136 152 156
146 162 166
147 163 169
144 161 165
145 162 169
138 155 156
143 159 163
143 159 161
150 167 172
95 116 98
72 98 59
72 97 59
70 96 57
67 92 54
67 92 54
66 90 52
66 91 53
71 97 58
71 96 58
70 95 57
75 99 66
136 153 156
137 155 155
129 147 145
107 127 115
85 107 81
67 92 54
74 100 60
74 100 60
71 97 58
74 101 61
108 128 115
155 172 181
156 172 183
160 176 184
152 168 176
151 167 171
154 171 179
140 158 161
128 147 143
127 144 141
79 107 65
77 104 63
69 94 56
76 103 62
76 102 62
82 106 78
100 122 102
91 115 90
79 105 66
73 99 60
79 106 68
104 124 109
104 127 107
82 109 69
125 144 135
183 198 205
224 236 251
228 239 254
228 239 254
228 239 254
228 239 254
228 239 254
228 239 254
227 239 254
227 239 254
227 239 254
227 239 254
228 239 254
228 239 254
228 239 254
228 239 254
228 239 254
228 239 254
228 239 254
228 239 254
217 229 242
190 204 214
155 172 180
125 144 139
75 101 64
88 114 83
101 123 108
89 115 87
78 106 65
83 108 71
113 133 120
127 145 143
152 170 177
162 178 189
166 181 192
146 163 170
136 154 155
98 120 101
76 102 64
78 104 63
89 113 86
72 98 59
76 102 62
72 98 58
94 116 95
122 140 130
146 164 171
146 163 167
155 172 182
155 172 179
151 168 174
149 165 171
149 165 172
145 161 168
159 175 183
117 136 130
92 113 94
154 170 177
148 164 168
157 172 181
147 164 171
149 165 172
151 169 177
150 166 173
150 167 174
152 167 174
159 176 184
148 165 169
146 161 166
115 134 122
87 111 81
69 94 55
68 93 56
68 93 56
135 152 155
151 168 175
141 157 159
148 164 167
136 152 156
143 160 165
145 160 165
135 151 155
153 169 178
144 159 164
135 152 151
135 153 154
122 138 134
78 101 72
64 87 51
66 90 53
72 98 59
67 91 54
105 122 112
140 155 157
149 164 170
149 164 170
144 160 166
148 163 170
149 164 169
136 152 155
128 142 143
157 171 180
135 151 152
136 151 157
137 152 155
142 157 164
131 148 149
103 120 109
98 116 104
70 92 61
64 87 51
126 141 141
138 154 157
131 146 149
138 153 158
129 143 145
139 154 156
140 155 161
133 148 153
137 154 157
131 145 151
139 152 158
123 138 140
131 147 147
127 143 141
144 160 166
129 144 143
138 154 158
139 155 157
140 155 161
75 97 69
59 81 47
63 87 51
69 93 55
80 101 77
93 112 96
111 128 121
126 143 143
138 153 158
137 152 156
123 139 140
144 158 163
128 143 145
141 155 159
135 152 155
130 144 148
143 158 162
127 142 147
145 160 164
113 130 124
61 84 49
62 85 50
62 84 49
61 84 49
60 82 47
61 83 48
66 89 52
61 84 49
67 91 55
59 81 46
62 85 49
61 84 49
52 73 40
68 92 55
62 84 49
61 84 49
61 83 48
63 86 50
88 107 89
143 158 165
146 160 167
130 145 147
128 143 143
121 137 137
127 142 144
111 127 120
82 100 80
68 92 54
73 93 71
93 109 97
90 108 95
95 112 103
97 114 105
102 118 110
128 144 146
111 127 122
112 126 124
115 132 130
88 108 87
76 97 70
62 83 56
72 93 65
67 89 59
68 92 55
55 76 43
60 83 48
57 80 47
58 80 47
65 88 52
62 85 49
63 85 51
58 80 46
59 81 47
54 75 43
63 87 51
65 88 52
63 84 54
118 134 130
124 139 138
129 144 148
117 131 132
127 140 143
134 150 153
131 145 148
122 137 139
128 142 144
115 132 126
136 149 154
138 152 159
127 143 143
120 135 133
128 142 145
136 149 155
119 134 135
125 140 142
115 131 128
71 92 64
60 82 48
63 85 51
63 86 50
65 88 51
64 85 57
69 90 63
64 84 57
68 89 61
77 96 75
82 101 84
95 113 100
82 100 85
93 111 96
102 119 109
96 114 103
104 121 113
108 123 119
93 108 99
91 107 96
84 102 86
98 115 107
98 115 105
71 93 65
67 87 63
66 87 55
60 81 54
60 83 48
59 81 46
62 84 50
62 86 50
61 83 49
55 77 43
66 90 52
61 83 49
61 84 49
108 126 117
141 156 162
130 144 145
124 139 142
130 146 147
129 146 146
123 138 137
136 152 154
122 137 140
134 149 152
135 150 154
135 150 154
126 140 143
129 145 148
126 141 141
134 150 151
128 143 145
123 138 139
64 88 53
61 84 50
59 81 47
61 83 49
62 85 49
65 88 52
61 84 48
65 88 52
61 83 49
59 81 46
62 85 49
57 79 45
60 83 48
64 88 52
63 86 50
63 86 49
117 134 128
133 149 148
135 150 152
141 156 162
134 150 153
148 164 171
132 148 151
147 163 170
133 147 151
146 162 169
140 156 160
135 151 151
132 149 150
144 158 165
137 151 154
130 147 149
90 109 91
68 92 54
61 84 49
68 92 54
65 89 52
63 86 50
70 95 57
66 90 54
60 82 48
66 90 53
71 95 56
64 87 51
69 93 55
64 88 52
60 83 48
123 139 138
138 154 159
143 160 166
135 151 156
149 166 175
142 158 161
138 153 158
135 150 151
144 160 165
131 149 151
137 154 158
130 147 146
149 165 172
137 152 159
95 115 98
73 98 59
65 89 52
72 97 61
90 111 91
96 115 102
114 132 126
128 146 146
129 145 146
144 162 168
149 166 172
139 156 161
151 168 175
105 124 114
74 100 61
69 94 56
70 95 57
69 94 56
68 92 55
69 94 55
71 97 58
70 96 58
64 87 51
68 92 55
76 101 66
138 154 156
154 170 177
146 162 168
146 162 169
147 165 172
123 141 137
109 130 115
83 107 78
70 95 56
75 101 60
92 113 92
159 175 183
164 179 191
153 170 178
160 176 186
158 174 183
160 176 185
71 95 60
81 104 72
89 113 85
105 127 112
79 103 70
74 101 60
73 100 61
77 104 63
78 105 64
75 101 61
106 127 112
133 151 151
88 113 86
76 103 63
75 101 61
83 110 73
96 118 97
96 120 96
107 131 113
161 176 174
213 225 238
228 239 254
228 239 254
228 239 254
228 239 254
228 239 254
228 239 254
228 239 254
228 239 254
228 239 254
228 239 254
228 239 254
228 239 254
228 239 254
228 239 254
221 232 247
190 203 214
154 172 179
125 145 137
80 107 68
99 122 99
127 146 140
154 172 178
92 115 89
77 102 65
122 143 136
150 166 173
165 182 195
159 176 187
137 154 157
157 174 184
138 156 155
100 121 108
77 104 64
71 97 58
69 94 56
69 94 56
115 134 122
97 119 95
110 129 120
150 166 173
153 169 173
162 177 186
151 166 172
154 170 179
157 174 181
148 165 172
144 161 166
145 162 167
138 154 157
112 132 117
80 105 74
72 98 59
75 102 62
148 165 174
147 164 169
157 173 183
146 161 165
141 156 160
144 160 166
160 176 184
147 164 168
137 153 152
110 127 122
76 98 73
69 94 56
75 101 61
70 94 56
68 91 54
65 89 52
67 92 54
109 127 120
150 166 172
148 164 171
142 158 164
148 163 170
146 162 168
149 166 171
146 161 167
113 129 125
110 128 116
73 98 61
65 89 53
66 91 52
70 95 57
69 94 56
67 92 54
69 94 55
68 92 54
109 128 118
147 163 169
145 160 167
157 172 181
124 141 138
145 163 166
139 154 157
138 154 158
136 151 153
142 157 161
157 171 182
124 141 139
110 129 118
73 94 68
68 92 55
64 87 51
58 80 46
68 93 55
67 91 54
124 140 140
134 151 152
131 146 148
131 147 149
129 144 147
145 160 165
142 157 164
128 143 144
139 155 155
145 160 168
149 164 172
137 152 153
149 164 173
132 149 149
138 154 160
139 153 159
133 149 151
123 138 136
145 160 166
106 125 115
94 113 101
106 123 115
131 147 149
128 146 147
139 154 159
131 147 150
131 145 147
135 150 155
128 144 147
143 158 162
128 143 146
141 155 161
122 136 135
139 153 160
134 149 151
144 158 164
137 154 156
131 147 148
102 118 110
62 85 49
66 89 53
62 84 49
66 90 53
64 88 52
66 90 53
64 87 50
56 78 44
57 79 45
62 86 50
61 83 49
65 88 52
60 82 48
66 90 54
63 86 50
62 85 51
62 84 49
60 82 47
70 92 61
126 139 141
111 127 121
98 114 104
78 96 81
72 90 68
62 84 50
59 82 49
67 91 54
67 91 55
62 85 50
65 88 53
61 84 49
55 77 42
67 91 54
60 82 48
66 89 52
58 80 45
64 87 52
59 82 48
111 128 120
146 160 166
124 139 140
131 146 148
126 141 146
126 142 141
130 146 148
130 145 147
116 131 129
132 146 151
113 129 125
133 149 151
127 142 142
124 139 137
117 132 130
130 147 145
126 141 144
127 142 144
120 136 134
125 140 139
82 100 81
83 101 83
83 104 85
88 106 89
82 100 83
87 105 85
79 96 81
89 107 92
94 111 97
89 106 92
63 82 56
91 110 92
72 92 67
76 94 76
74 94 71
69 89 61
76 94 78
67 89 56
102 119 110
131 147 148
123 138 139
132 147 150
135 151 152
129 144 146
127 141 142
128 143 143
122 136 135
126 141 142
129 143 145
136 151 152
129 145 148
127 143 143
138 154 157
127 143 142
129 145 146
127 143 144
122 138 138
81 101 79
85 104 86
97 115 101
99 116 105
87 105 90
109 125 121
101 117 110
106 123 115
121 137 134
120 136 134
100 117 107
113 130 128
117 133 130
117 133 133
119 133 132
130 147 149
120 137 136
124 140 140
95 114 100
80 100 79
78 99 76
76 96 72
73 94 70
80 98 80
80 99 80
93 113 94
80 100 79
92 112 94
93 111 100
83 105 79
80 99 80
82 103 81
65 85 60
88 108 87
85 104 86
95 112 102
130 146 145
118 135 133
121 137 133
118 134 130
120 137 132
107 125 116
103 121 112
102 121 107
99 116 107
93 109 97
95 113 100
81 100 79
101 119 108
96 115 99
83 101 86
93 111 98
133 148 150
130 145 148
136 150 155
138 153 158
137 152 153
138 154 158
147 163 169
138 153 156
135 152 152
140 156 159
132 147 150
132 148 149
130 146 145
140 156 161
133 148 153
137 152 155
65 88 58
65 88 50
75 101 61
62 84 50
65 89 52
66 90 54
67 91 53
63 86 51
65 89 53
65 88 52
67 91 53
66 90 54
60 83 48
61 84 48
70 92 64
140 157 159
141 157 159
140 156 161
132 147 148
135 151 155
149 165 173
144 159 163
141 157 162
139 155 158
147 163 169
130 145 147
140 157 162
132 149 151
132 149 148
90 110 88
61 84 48
67 92 55
70 95 57
62 85 49
67 92 54
62 86 50
72 97 59
71 95 59
89 110 92
115 133 124
128 145 142
133 150 149
99 119 107
68 93 55
68 93 54
62 86 50
65 90 53
68 92 55
67 91 54
71 96 58
76 103 63
68 93 55
70 96 58
69 93 59
130 147 145
154 168 176
157 173 183
151 168 174
155 171 177
154 170 176
148 164 171
144 161 162
124 143 140
97 116 99
98 119 104
143 159 164
154 171 178
150 168 175
148 165 171
141 157 163
73 99 60
70 96 57
69 94 56
81 105 77
141 159 160
129 146 144
120 139 131
84 110 75
74 100 59
77 104 63
76 103 63
92 112 96
148 165 170
133 153 154
111 133 121
85 109 77
80 107 64
117 139 129
133 152 151
97 119 99
89 113 86
158 174 173
215 227 241
228 239 254
228 239 254
228 239 254
228 239 254
228 239 254
228 239 254
228 239 254
228 239 254
228 239 254
228 239 254
214 226 241
187 202 217
141 159 164
126 147 141
77 105 64
108 130 115
134 152 148
162 180 190
168 186 198
152 169 174
120 140 134
152 170 174
151 169 178
164 180 190
161 177 186
154 171 177
118 137 131
86 110 83
72 99 59
72 97 59
77 104 63
72 97 59
74 101 61
93 115 92
115 135 126
120 138 135
160 177 187
157 173 180
144 160 168
156 172 180
151 167 175
157 172 178
155 172 181
136 154 155
112 131 121
91 112 90
69 94 56
70 95 57
76 103 63
72 98 58
77 102 61
144 161 167
151 167 174
149 165 173
155 172 181
155 171 178
146 162 166
111 129 120
106 126 113
71 96 58
68 93 56
67 91 54
71 97 59
72 97 58
70 95 57
69 94 56
63 86 49
69 95 57
118 136 130
148 163 169
151 167 174
143 159 163
156 171 180
131 147 144
97 116 102
80 103 73
73 98 59
66 89 53
67 91 54
69 93 55
67 92 56
70 95 57
70 94 57
68 93 54
63 86 50
67 92 56
101 121 103
149 164 171
150 166 172
140 157 161
140 157 157
140 155 158
150 165 172
131 147 147
121 139 136
93 112 100
66 88 55
67 91 54
69 93 55
67 91 53
65 90 53
68 92 54
66 90 53
67 91 54
70 94 56
109 126 120
127 142 141
142 157 164
139 155 162
131 148 147
129 145 146
142 157 160
146 161 165
141 156 159
137 153 154
131 147 150
138 153 158
139 154 157
134 149 152
142 157 163
127 142 144
116 131 129
93 113 96
71 93 64
79 98 81
141 156 160
145 160 165
137 152 156
135 150 152
138 154 159
134 150 153
137 153 156
127 143 141
133 148 152
133 148 152
145 161 168
138 152 154
136 152 153
145 158 164
134 150 152
131 145 146
139 154 158
133 148 151
136 151 158
68 90 60
62 84 50
62 84 50
63 86 51
60 83 48
64 88 51
61 84 49
56 77 44
60 82 47
66 89 53
63 86 50
69 93 56
65 89 53
71 92 65
93 111 95
96 114 99
112 129 124
126 142 146
131 146 148
103 120 112
63 87 51
69 93 55
58 80 45
62 85 49
62 85 49
61 83 49
62 85 50
57 79 44
67 90 54
59 81 47
62 85 49
65 89 52
63 86 50
65 88 53
66 89 53
65 87 51
61 84 49
62 84 49
68 88 62
134 149 155
133 148 151
137 151 156
131 144 148
124 139 141
127 142 145
124 139 141
133 148 151
136 152 155
138 153 155
122 137 136
122 137 138
136 151 156
138 153 156
146 160 168
123 139 138
132 148 152
125 140 138
125 140 140
72 91 71
64 88 52
59 81 47
61 84 49
59 81 47
60 82 49
58 80 45
63 86 50
64 86 52
61 85 49
62 84 49
64 88 52
63 86 50
64 88 52
65 89 52
63 86 50
63 86 50
64 87 51
71 91 63
132 147 151
124 140 139
118 132 132
113 129 123
116 133 127
110 125 119
101 120 110
99 116 105
102 119 111
100 118 106
83 103 82
69 90 64
56 77 44
68 90 59
59 81 47
61 83 49
65 88 52
63 86 50
101 119 105
131 146 150
148 162 171
124 139 139
131 147 148
141 156 162
131 146 146
130 146 151
134 149 154
143 158 165
127 142 142
143 159 164
134 149 153
141 155 162
136 153 158
145 161 168
128 143 144
146 160 168
103 119 114
61 84 49
66 89 53
63 86 50
61 84 49
62 85 50
62 85 51
67 91 54
66 89 53
65 89 52
65 90 53
65 88 51
55 77 43
66 90 53
64 87 51
64 87 52
68 92 55
65 88 52
126 142 142
140 155 159
135 151 155
131 146 146
144 159 165
136 151 157
135 150 156
137 153 159
136 153 154
135 150 155
137 153 154
136 151 152
140 155 160
137 152 156
118 134 133
132 147 150
128 144 143
63 86 50
65 89 52
75 98 68
76 97 73
82 103 78
80 99 77
86 106 86
89 110 90
94 113 102
103 121 111
121 137 134
130 147 147
126 142 143
129 145 144
123 140 140
126 143 141
65 88 55
61 83 48
69 94 56
68 93 55
67 91 54
68 93 55
66 91 54
60 83 47
67 91 55
62 84 49
66 90 53
68 93 55
62 84 49
66 90 53
78 101 75
146 161 167
144 160 167
144 160 164
142 158 161
137 151 154
142 158 161
143 159 164
143 160 166
128 145 146
141 156 158
146 162 168
140 157 160
139 156 159
141 157 161
87 109 88
65 89 53
69 92 54
66 91 53
74 100 61
72 97 58
63 86 50
68 92 55
61 84 49
67 92 55
65 89 52
68 92 55
75 100 67
107 126 111
127 144 137
112 130 123
89 111 89
71 97 58
72 98 59
71 96 58
69 95 57
71 96 58
72 99 60
71 97 59
76 100 69
120 138 131
157 173 183
154 171 177
151 168 175
147 164 171
152 169 177
142 158 162
156 174 183
147 163 166
157 173 182
148 164 169
136 153 152
149 166 172
161 178 186
137 154 154
71 97 58
73 99 61
76 103 64
65 91 53
73 99 60
121 140 135
147 164 168
162 178 188
133 152 152
105 127 113
80 104 77
75 102 61
76 101 67
138 155 159
162 179 187
151 168 176
129 148 145
111 131 116
83 108 76
125 145 138
151 169 171
126 145 136
99 122 99
178 193 199
214 226 239
228 239 254
228 239 254
228 239 254
228 239 254
228 239 254
228 239 254
208 220 233
175 191 197
151 169 174
107 127 114
73 99 60
103 125 111
154 171 180
156 175 185
164 181 192
148 166 171
117 140 130
128 147 145
159 176 185
162 178 188
156 174 184
149 166 169
106 127 117
83 108 76
75 102 62
76 104 64
69 94 56
75 101 61
74 100 64
119 139 127
133 150 149
149 165 174
108 128 116
93 115 89
158 175 183
161 177 186
161 177 188
148 164 170
148 164 170
130 149 144
104 125 111
68 93 54
73 98 58
71 97 58
74 100 60
73 99 60
73 99 60
69 95 57
77 103 65
148 165 173
157 174 183
142 157 162
131 148 149
93 113 91
73 98 62
66 90 53
75 101 61
67 91 54
72 97 58
66 90 53
68 92 55
70 95 58
74 100 60
65 89 52
70 95 57
72 98 60
124 140 140
130 146 146
136 153 154
114 134 123
77 102 68
67 91 54
74 99 60
66 90 54
68 93 55
68 93 54
70 94 56
65 88 52
64 88 51
74 98 59
74 99 60
71 95 57
69 94 56
69 94 56
78 98 71
139 154 158
142 157 162
148 164 171
133 149 150
115 134 125
84 106 81
67 91 54
69 94 56
70 94 57
67 90 53
66 89 53
66 90 52
65 89 53
67 91 54
70 94 56
67 91 55
67 91 53
70 95 56
94 114 102
151 166 173
140 155 157
137 153 158
140 156 160
134 149 153
139 154 158
139 155 159
144 159 165
148 162 169
136 152 156
122 138 139
124 140 139
95 114 101
72 94 65
66 90 53
71 95 58
65 87 51
69 93 55
74 98 64
139 153 158
136 151 156
136 150 151
138 153 157
136 153 157
142 158 164
133 150 153
136 150 155
135 149 153
145 160 166
136 151 157
128 143 144
141 156 162
141 155 160
126 141 144
133 149 152
129 144 144
130 144 146
130 144 144
97 114 100
60 83 49
58 80 47
61 84 49
64 87 50
61 83 49
61 84 48
67 90 55
79 100 77
103 121 111
105 123 114
120 138 133
122 139 135
144 159 167
130 146 149
138 154 160
135 149 152
120 136 135
147 162 169
125 140 141
67 91 57
61 83 48
59 81 47
64 88 51
61 84 48
61 84 49
55 77 43
67 91 54
60 82 47
67 90 52
62 85 50
61 83 48
58 81 47
55 76 43
61 84 49
62 86 50
59 81 47
58 81 46
62 84 49
117 133 130
140 155 159
135 151 155
130 146 147
142 158 163
141 155 162
138 154 157
141 155 162
135 150 151
129 144 147
134 149 152
131 147 145
135 151 154
130 145 146
137 153 157
128 143 146
139 154 160
126 141 142
137 152 156
126 142 143
56 78 44
53 75 40
62 85 49
58 81 46
65 88 52
66 89 54
68 93 56
65 89 53
76 94 73
87 106 88
94 112 101
102 119 109
97 115 102
88 107 94
120 137 132
126 141 141
129 144 147
133 149 154
103 121 114
66 89 53
60 82 48
62 84 49
63 86 51
62 85 49
65 88 52
57 79 45
58 80 46
64 88 52
65 89 52
63 85 50
63 86 50
62 85 50
65 88 52
67 91 54
64 87 51
58 81 46
60 83 48
124 139 140
135 151 154
120 136 135
141 156 163
141 155 160
137 153 155
139 154 158
121 136 135
134 149 153
147 162 169
131 146 151
139 152 156
135 150 152
130 146 146
143 156 161
134 149 152
137 153 155
142 156 162
78 98 76
67 90 54
65 89 52
57 79 46
57 79 45
68 92 54
65 89 54
60 83 47
67 91 55
58 80 46
62 85 49
66 89 53
68 91 54
63 86 50
64 88 51
63 86 50
61 84 49
89 108 89
136 152 155
135 150 152
137 152 157
143 158 166
140 155 159
146 160 166
128 143 143
138 153 156
135 149 152
138 153 158
119 134 131
142 158 162
141 156 160
125 142 142
132 149 151
133 148 148
105 122 113
72 96 58
68 92 55
66 90 53
69 94 55
69 94 56
61 84 49
63 87 52
63 86 51
66 90 54
68 92 55
68 93 55
63 87 50
61 83 48
66 89 54
63 85 52
104 123 114
118 136 132
119 136 135
123 140 139
111 129 118
113 130 122
93 112 98
82 104 79
72 94 63
68 92 56
63 86 50
64 88 52
70 94 56
73 98 60
70 95 57
84 105 81
139 155 158
156 171 180
150 164 174
152 169 177
145 160 163
141 157 159
136 153 155
142 158 162
142 158 162
155 171 179
150 166 173
154 169 177
139 155 157
145 160 166
83 106 77
69 94 56
66 91 54
64 87 51
68 93 56
65 89 52
71 97 59
70 95 57
67 92 55
72 98 59
66 90 53
70 96 57
68 90 57
136 153 154
147 165 171
155 171 181
138 155 153
132 148 146
131 149 145
108 128 114
72 95 66
64 88 51
71 96 57
68 93 55
74 100 60
128 148 143
147 165 171
146 162 166
145 163 166
151 167 171
160 176 187
151 166 175
154 170 177
155 171 180
153 170 179
158 173 182
105 124 113
86 110 85
118 137 132
115 137 123
80 105 72
69 94 55
71 97 57
77 105 64
78 104 63
102 124 105
156 173 181
158 175 184
164 182 194
153 170 177
131 148 149
109 129 116
81 108 68
107 127 115
155 172 182
159 175 185
157 173 183
154 172 177
129 150 149
111 132 118
146 164 167
159 176 187
129 148 144
119 143 133
181 196 203
206 218 231
228 239 254
228 239 254
213 225 238
156 172 173
127 147 142
104 128 107
81 109 70
130 151 146
155 172 183
160 176 186
161 178 189
139 157 158
99 121 101
77 105 64
77 104 64
147 164 168
152 170 178
134 153 150
105 126 108
74 100 60
76 103 62
73 99 59
78 105 63
74 100 60
83 107 81
122 143 138
142 159 162
165 181 191
164 181 195
156 172 180
105 126 109
77 104 64
126 146 141
160 176 185
139 156 157
111 130 120
88 111 83
72 97 58
75 100 61
70 95 56
71 97 58
76 102 62
73 99 58
71 96 57
71 98 59
67 91 55
81 104 76
125 143 139
110 129 121
83 108 73
68 93 55
77 103 62
70 95 57
71 96 58
69 95 57
70 95 57
68 92 55
67 91 54
72 98 58
63 87 50
66 90 53
74 101 61
76 99 69
95 115 98
104 122 112
74 98 64
66 90 54
70 95 57
69 93 56
75 101 61
71 96 58
65 90 53
70 95 56
75 100 61
61 85 48
67 92 54
66 90 54
69 94 56
71 96 57
66 91 53
73 98 60
67 92 54
74 97 67
125 142 139
111 129 120
83 105 79
64 88 51
70 94 56
68 93 56
69 94 56
71 96 58
65 88 52
68 92 55
68 94 56
68 92 55
64 87 51
62 86 50
67 92 56
60 83 47
73 98 59
68 92 54
74 94 71
137 153 157
140 155 160
145 161 169
143 158 164
130 147 146
146 161 168
141 158 165
117 134 133
92 111 92
70 93 58
65 89 52
67 92 54
65 89 53
66 89 54
61 84 49
65 88 52
65 89 52
63 86 50
72 97 58
117 133 133
146 162 168
139 156 158
140 156 163
134 150 150
134 148 154
131 146 150
144 160 163
134 148 152
142 156 161
136 151 155
129 143 145
145 160 165
143 158 164
143 159 167
126 143 142
136 153 154
136 151 155
135 151 153
116 133 129
67 91 54
66 90 53
76 94 73
98 115 104
110 128 119
127 144 144
130 145 148
137 152 153
131 146 149
141 157 163
141 155 161
134 149 152
139 155 160
113 129 129
147 163 171
138 154 158
134 150 152
137 151 152
142 157 160
92 111 96
62 85 49
64 87 51
62 85 50
61 84 49
65 88 53
62 84 49
58 80 47
64 87 51
66 89 54
59 81 48
60 82 47
61 83 48
66 90 54
61 83 48
61 84 49
70 94 56
66 89 52
63 87 50
87 107 87
137 152 154
135 150 151
130 145 147
141 156 162
128 142 144
142 156 159
131 146 147
145 161 164
144 158 165
135 150 154
141 157 165
132 147 151
137 153 156
123 138 139
131 147 150
133 147 152
125 142 142
120 135 133
128 143 146
75 94 70
93 111 98
90 107 92
121 138 134
122 138 135
135 151 153
136 151 156
135 151 154
131 147 148
138 152 157
146 161 167
134 148 152
132 147 151
142 157 161
134 150 154
115 131 130
143 158 163
135 150 152
130 145 147
79 99 74
70 95 57
58 80 45
62 85 50
60 82 47
63 87 51
64 87 51
59 81 46
63 87 50
61 83 49
62 85 50
67 91 54
62 84 49
62 84 50
68 92 54
64 87 52
60 83 48
64 88 51
88 107 91
142 158 163
138 154 155
118 133 130
138 154 158
136 152 153
127 143 142
135 151 154
140 156 160
135 151 155
123 139 140
135 150 155
138 154 157
133 149 150
124 137 139
140 154 156
141 156 158
143 157 163
126 141 140
73 95 66
59 82 48
60 83 48
61 84 48
57 78 45
64 88 52
66 90 53
62 85 50
67 91 54
65 88 52
66 90 53
63 87 51
63 87 51
64 88 52
63 87 51
65 88 52
66 90 54
107 124 117
140 156 160
140 157 162
140 155 161
130 145 145
146 161 168
133 148 152
136 150 156
134 150 152
137 153 156
146 162 167
142 159 163
143 158 167
139 155 159
142 157 162
134 150 154
136 151 155
92 110 95
67 91 54
67 91 54
67 92 55
64 88 51
70 95 57
64 88 51
60 83 48
64 87 52
69 94 56
68 93 54
63 87 51
70 95 57
63 86 51
60 82 47
67 90 53
105 123 113
139 156 159
133 148 148
135 151 157
130 146 143
137 153 156
143 157 160
150 166 172
141 158 163
151 166 172
135 151 151
120 137 133
108 127 119
105 123 113
109 127 119
114 132 125
146 162 166
146 162 169
145 160 167
130 145 143
137 152 154
140 158 163
143 159 162
152 168 175
146 163 164
140 156 159
136 153 154
140 157 161
145 162 166
134 150 150
79 102 75
64 87 52
64 87 51
68 93 55
68 93 56
73 99 60
67 92 54
69 94 56
72 98 59
64 88 51
68 94 56
69 94 55
73 97 64
130 145 143
149 164 171
153 168 173
144 160 165
137 155 154
155 171 177
148 164 172
142 158 162
124 143 140
107 129 117
77 100 66
71 97 58
114 132 127
149 165 170
161 178 192
149 165 172
155 171 177
152 167 173
160 178 186
152 169 175
154 171 179
152 168 176
159 175 187
122 140 137
153 169 175
153 171 177
157 172 183
142 160 163
113 134 123
82 104 80
72 99 60
71 97 59
92 113 92
143 160 163
157 174 182
154 171 177
155 171 180
159 176 189
149 168 172
139 157 158
108 128 113
147 166 172
155 173 182
166 183 194
164 182 194
156 173 180
147 164 168
154 171 181
168 185 198
162 179 188
139 158 159
128 149 142
149 166 164
214 226 239
118 139 131
105 127 112
83 109 77
129 148 144
155 173 182
164 182 196
163 179 191
124 144 142
104 127 106
77 104 63
72 98 59
76 102 61
84 107 82
127 147 142
87 111 83
77 104 64
69 94 56
77 104 63
78 105 65
74 101 61
88 110 88
127 145 146
157 175 183
162 178 187
169 186 200
147 166 168
149 166 170
165 182 194
78 102 72
73 97 60
106 125 110
109 130 123
78 102 72
75 102 63
72 98 59
74 101 62
75 102 61
74 100 60
69 94 56
76 103 63
71 97 57
73 99 59
75 99 68
113 133 126
140 157 158
72 97 60
66 90 53
72 98 59
73 100 61
74 100 61
66 91 55
72 98 60
73 99 60
72 98 59
70 95 58
67 92 54
71 95 56
72 97 60
99 121 103
124 143 139
157 173 183
152 169 177
126 145 142
73 99 60
72 97 58
70 95 56
67 91 54
73 99 59
67 91 54
74 100 60
71 96 58
75 100 61
78 105 64
69 94 56
68 93 55
64 88 52
73 99 59
68 92 58
100 120 107
132 148 146
151 167 173
79 100 77
75 100 60
69 93 56
61 84 49
74 100 61
67 92 55
66 91 54
72 96 57
68 92 55
69 93 56
69 94 56
64 88 51
67 91 54
69 94 56
71 97 58
66 90 53
67 92 55
71 96 57
67 91 54
137 152 158
144 160 167
143 158 165
128 144 147
117 136 129
90 110 91
67 92 54
66 90 53
63 86 50
64 88 51
64 88 51
64 88 52
65 89 53
63 86 50
67 90 53
65 89 53
65 88 52
61 83 49
67 91 54
120 136 132
138 154 159
136 152 156
137 151 156
140 156 159
135 150 156
144 160 167
139 154 158
135 151 153
128 143 145
136 153 154
133 148 152
150 164 171
138 152 155
123 139 137
144 160 166
133 149 150
131 147 148
122 138 133
102 118 111
120 136 133
116 132 129
118 134 130
126 142 141
136 152 156
125 140 141
136 152 157
135 150 152
138 153 158
130 146 147
134 149 151
117 133 127
125 141 139
131 147 150
146 161 168
154 168 176
144 159 165
138 153 158
135 150 153
118 134 131
66 90 54
66 90 53
66 90 54
67 91 54
65 89 52
64 87 51
66 89 52
67 91 54
66 89 52
68 92 55
64 88 51
64 88 51
66 89 52
60 82 48
63 86 51
68 92 56
65 88 52
70 94 57
63 86 50
130 146 148
139 154 159
142 157 161
135 151 153
131 145 145
142 156 163
143 158 161
134 149 152
138 152 157
130 147 149
138 153 154
127 143 142
107 124 117
113 130 121
104 122 113
86 106 86
75 97 70
61 84 48
62 84 48
105 123 113
121 137 135
134 149 152
129 144 146
129 144 144
133 148 150
137 153 156
126 140 143
136 153 155
130 145 146
149 163 171
133 149 151
129 145 146
139 154 156
136 152 157
139 154 156
142 158 161
130 145 146
136 151 156
115 131 128
67 91 54
65 89 51
63 86 50
65 88 53
61 84 48
64 87 52
64 87 52
62 84 50
68 92 55
64 87 51
63 85 50
55 76 44
57 78 46
70 94 56
63 86 51
68 92 55
60 82 48
65 90 53
130 145 146
136 152 155
141 156 158
140 155 160
145 159 164
134 148 152
141 156 162
132 148 148
129 144 146
134 150 153
141 156 161
144 159 165
141 157 162
131 147 150
143 159 164
142 156 161
135 150 152
139 154 159
105 122 115
66 89 52
62 84 48
62 84 49
64 87 51
65 87 51
65 89 53
67 91 54
60 83 48
64 87 50
63 86 50
69 94 56
65 89 52
63 85 51
70 94 57
68 93 55
68 92 54
72 92 70
122 138 136
135 149 153
144 160 165
139 155 159
144 158 163
142 157 163
147 162 170
136 152 154
138 154 157
146 162 170
139 155 160
138 154 157
144 159 165
147 162 169
142 157 162
138 154 160
142 157 159
81 103 78
67 91 54
69 93 56
64 88 51
66 90 53
61 85 49
67 91 54
61 83 48
64 87 52
69 94 55
69 93 56
72 97 57
66 91 53
65 89 53
67 90 53
76 98 70
131 147 149
128 143 144
149 165 173
139 156 158
149 163 171
146 162 170
145 161 168
135 151 156
148 163 168
128 144 145
146 162 167
151 168 175
157 172 180
151 166 174
147 162 168
120 137 134
69 93 58
88 108 89
112 131 123
114 132 122
132 150 149
128 144 143
138 154 159
148 164 174
150 165 174
150 166 173
153 169 175
141 157 162
150 166 174
133 150 150
73 97 67
69 94 56
69 94 56
71 96 58
69 93 55
76 102 62
70 95 57
69 94 55
68 93 56
73 99 60
72 98 59
67 92 54
66 90 57
131 148 149
150 168 176
149 165 171
156 171 179
148 165 171
138 155 159
152 168 173
161 176 185
157 173 179
159 176 184
140 157 163
133 151 153
133 151 151
139 156 155
152 170 176
155 170 182
160 176 185
156 172 178
159 175 183
147 164 168
156 173 182
142 159 160
75 100 66
113 133 124
154 172 180
158 175 182
151 167 173
154 170 178
147 163 168
141 160 164
123 142 134
86 109 86
77 103 66
147 164 169
164 182 195
158 175 186
161 177 184
155 173 180
165 182 190
159 177 186
158 173 180
155 172 180
156 174 181
162 178 189
166 183 196
168 186 198
157 174 182
157 174 183
145 164 166
159 177 186
165 182 195
152 170 178
134 154 153
88 113 78
123 143 137
172 188 202
161 179 189
160 177 187
139 158 158
86 113 82
77 104 63
73 100 60
74 101 62
88 112 83
132 151 152
129 148 146
73 100 61
78 104 64
77 103 63
77 104 63
79 105 67
102 125 107
149 165 170
165 181 191
152 169 176
158 175 183
161 178 186
167 183 195
158 174 182
151 167 170
146 163 167
124 141 136
158 173 180
154 170 178
150 166 171
89 114 84
73 100 61
71 97 57
68 93 55
69 94 55
74 100 61
74 100 61
72 98 60
117 135 125
134 152 154
147 163 168
149 165 168
151 167 173
74 101 61
71 96 57
69 94 55
71 96 59
67 92 54
73 99 59
74 99 60
71 96 58
68 93 55
69 94 55
83 103 82
120 137 134
148 163 170
142 159 164
154 169 175
145 160 164
129 145 146
136 153 155
74 99 61
73 99 60
64 88 52
68 92 54
70 95 56
73 99 60
76 102 62
69 94 56
72 97 58
69 94 56
67 92 55
82 104 78
112 130 119
130 147 145
145 160 165
140 157 163
155 170 177
149 165 172
91 112 91
69 94 56
70 96 57
67 91 54
66 91 54
72 97 59
72 97 58
70 95 56
69 94 56
64 87 51
71 95 57
68 92 55
69 94 56
68 91 56
62 85 49
68 92 54
70 94 57
67 91 53
86 108 83
111 130 117
99 117 105
74 96 65
66 90 54
66 90 55
67 91 53
67 90 54
70 95 57
66 90 53
64 88 51
64 87 51
72 98 59
63 86 50
64 87 52
70 94 56
68 93 55
63 87 51
64 87 52
65 89 52
98 116 103
139 155 159
140 156 161
142 158 162
145 161 166
138 153 156
134 150 152
141 156 164
142 157 163
147 161 169
139 155 160
142 158 164
131 145 148
123 140 139
111 128 119
99 118 107
78 100 71
71 95 57
62 84 50
69 93 56
120 136 135
146 163 168
125 141 142
141 156 161
141 156 160
139 156 159
131 147 148
146 162 166
146 161 168
145 161 168
136 152 157
144 158 163
145 160 166
125 141 143
143 158 163
141 155 160
136 151 155
132 146 149
143 159 164
145 160 168
68 90 60
63 87 51
66 90 52
71 95 57
66 89 53
61 83 48
67 91 55
61 84 49
62 85 51
61 84 49
66 90 54
65 88 52
66 90 52
66 89 53
69 93 56
63 87 50
67 92 55
68 92 56
62 85 50
107 124 115
133 149 150
136 151 152
129 144 144
127 144 146
107 124 115
97 114 104
88 110 86
73 95 66
63 85 53
65 88 52
67 90 54
69 93 56
54 75 42
60 83 48
64 88 52
61 85 49
67 92 53
62 85 51
70 93 63
149 165 173
129 144 146
133 149 152
134 150 151
131 145 146
126 141 141
139 154 159
146 162 169
142 156 162
136 152 152
126 142 142
133 149 152
124 140 141
149 164 169
133 149 150
124 138 139
138 153 156
129 144 144
147 162 170
83 103 84
58 80 45
65 89 52
61 84 48
63 86 50
65 90 53
59 81 48
63 86 50
71 96 57
69 93 55
63 85 50
63 86 51
68 92 56
58 80 46
67 91 54
66 90 54
69 93 56
68 93 56
80 100 78
131 147 147
132 146 150
147 162 169
147 163 168
142 159 163
138 154 161
140 154 161
138 153 158
133 149 153
137 153 157
151 166 174
140 155 161
139 153 157
136 152 156
131 147 150
136 152 154
134 149 152
140 156 161
69 89 64
68 92 55
68 92 54
65 89 52
68 93 54
66 91 54
63 86 51
62 84 50
70 94 56
63 87 51
63 86 51
60 82 48
69 93 56
61 83 49
66 89 53
66 90 54
63 87 51
82 103 83
137 153 155
137 153 154
127 142 139
134 150 152
132 149 152
153 169 176
122 139 134
136 151 154
129 144 142
135 150 154
139 157 158
135 152 152
148 163 171
139 154 158
132 149 149
146 161 167
122 137 137
63 87 50
69 93 56
67 92 54
64 88 51
64 88 51
63 86 51
63 87 51
66 91 53
67 92 55
64 88 51
64 88 51
68 92 55
70 95 57
72 96 57
63 87 50
76 99 71
144 161 168
136 151 156
146 162 170
150 166 174
147 163 170
151 166 173
148 164 170
152 166 173
142 157 162
143 157 163
154 169 179
133 150 148
149 164 169
144 160 166
147 163 168
99 118 104
70 94 57
74 100 60
71 96 58
70 95 57
65 90 53
71 97 58
71 95 57
84 107 80
95 115 98
114 133 126
128 147 142
127 144 141
152 170 177
139 155 159
65 88 51
72 97 59
71 96 57
69 94 56
74 100 60
69 95 56
70 95 58
71 96 57
79 105 65
74 99 60
69 94 56
72 98 58
77 102 68
126 144 144
146 163 165
145 161 163
151 168 176
157 173 181
140 157 163
150 166 171
150 167 172
149 165 169
147 163 170
150 166 174
143 159 165
121 140 131
87 111 87
99 120 103
129 147 143
137 155 156
165 182 193
157 173 181
152 169 175
81 106 72
71 97 58
71 97 58
108 128 115
156 173 180
160 175 183
154 171 180
153 170 178
153 171 178
159 177 188
159 175 183
142 158 161
132 150 149
139 156 158
154 172 179
157 174 181
164 181 194
160 177 184
159 175 183
160 177 186
157 174 184
145 162 165
102 124 108
138 158 161
154 171 178
164 181 192
165 181 191
153 171 180
131 151 148
117 138 127
159 177 184
163 182 194
162 180 191
165 183 194
154 172 177
113 134 123
83 109 71
72 99 60
75 102 62
79 107 66
96 120 99
149 166 169
153 169 175
162 179 189
107 128 116
79 105 64
77 104 64
86 110 80
131 150 146
159 177 188
158 174 184
164 181 192
152 169 177
161 179 189
156 174 184
154 171 178
160 178 190
138 156 159
115 135 126
92 116 90
153 170 177
172 189 202
143 159 164
149 165 172
156 172 180
100 122 102
71 96 57
73 99 60
75 101 62
91 113 92
133 151 150
152 168 178
143 161 166
158 174 179
163 179 187
152 169 179
147 164 172
75 101 61
69 94 56
73 99 60
73 99 59
72 97 58
68 93 54
72 98 59
99 119 100
113 132 124
147 164 168
138 156 159
154 169 176
144 161 170
151 167 174
141 156 159
146 161 167
153 170 179
134 151 154
69 93 56
75 102 62
70 96 57
68 93 56
68 93 56
68 93 55
68 92 54
68 93 56
84 108 81
133 151 151
129 146 147
145 160 164
151 167 175
152 169 173
138 155 156
141 158 164
146 162 168
143 159 163
100 119 103
70 95 57
70 95 56
75 101 60
71 96 57
67 91 54
66 90 54
68 93 55
67 91 53
64 87 51
64 88 51
68 93 55
65 89 51
63 86 50
77 100 72
113 131 122
124 142 142
143 159 163
145 159 165
119 135 128
70 94 57
64 87 51
70 96 57
64 88 51
65 89 51
72 97 58
72 97 59
70 94 56
70 95 57
69 93 56
68 92 54
70 96 58
69 94 57
69 94 57
71 96 58
61 84 47
66 90 53
67 91 53
80 103 76
146 161 167
141 156 161
129 145 146
146 160 163
152 167 174
134 149 154
145 161 168
143 158 162
125 142 141
112 128 120
92 112 93
67 91 56
62 84 49
68 92 55
63 85 50
63 86 51
64 87 51
61 84 49
68 93 56
90 109 92
130 146 146
130 146 144
144 158 165
145 160 168
146 160 166
138 154 156
142 157 162
148 164 170
138 153 156
138 154 158
143 158 162
142 157 163
142 158 162
136 151 153
140 155 160
139 153 159
135 149 149
142 158 162
140 156 161
97 115 102
63 87 51
60 83 47
67 91 54
63 86 50
65 88 52
62 85 50
70 94 57
65 88 52
65 88 53
62 84 50
69 94 56
63 86 50
68 92 55
62 85 49
75 97 69
78 97 76
108 124 118
111 128 125
111 130 123
93 111 95
65 89 53
63 86 51
65 88 51
63 86 50
63 86 51
65 88 52
65 89 52
64 87 50
62 85 51
63 86 51
63 86 50
59 82 47
65 87 52
65 89 52
64 87 52
61 84 49
63 86 49
59 82 47
102 119 107
145 160 169
148 162 168
138 153 156
141 157 162
130 146 148
132 147 151
130 146 147
139 154 157
138 154 158
129 143 147
131 147 148
148 163 169
139 154 161
128 143 144
134 150 150
144 160 165
139 155 157
132 148 151
112 129 123
61 83 48
61 84 49
62 86 50
62 85 49
65 89 52
60 83 48
68 92 55
63 87 51
67 92 54
65 88 52
63 85 49
61 83 48
64 88 52
66 91 53
70 95 56
62 85 50
64 87 51
64 86 51
115 132 127
137 152 154
144 159 162
133 149 149
141 157 161
140 156 159
134 148 153
140 156 163
143 159 163
131 146 149
131 147 152
138 153 158
135 151 152
142 158 163
139 155 160
148 164 172
143 159 165
149 165 171
115 131 126
65 88 52
67 91 54
64 88 51
67 90 53
72 97 59
67 91 54
65 89 53
65 89 53
63 86 51
63 87 51
68 92 55
67 91 53
65 89 54
70 95 56
67 92 54
69 94 57
64 89 51
105 123 113
129 146 146
146 160 166
134 149 150
132 149 149
143 159 164
144 160 165
139 156 164
130 146 146
137 152 155
142 159 165
132 147 151
134 151 154
142 158 161
136 150 152
141 156 160
152 168 178
113 131 128
70 95 57
72 96 58
65 89 52
65 89 53
67 91 54
60 84 48
68 93 54
68 92 55
66 91 54
69 94 56
70 95 57
68 93 55
62 85 49
69 93 56
67 91 54
101 121 106
144 161 169
134 150 149
146 162 168
144 160 167
141 156 161
145 160 166
138 153 158
143 158 163
146 163 170
147 163 169
156 170 177
146 162 167
149 165 171
140 155 160
153 168 178
80 101 74
72 97 59
67 92 55
71 97 58
70 95 57
70 96 57
74 100 60
72 98 59
68 93 56
64 89 52
73 99 60
71 97 58
66 91 54
77 100 68
90 112 90
119 136 132
115 134 123
104 124 112
97 119 99
71 97 59
70 96 58
72 97 58
72 98 59
62 86 48
70 95 56
65 89 52
70 95 56
72 97 57
136 153 155
151 167 175
142 159 164
152 169 176
144 160 168
158 175 186
150 167 173
150 166 176
156 171 181
146 161 167
155 172 184
150 168 176
110 129 119
77 104 63
75 101 62
73 99 59
76 101 67
119 138 131
119 138 132
105 126 110
70 96 57
72 98 58
70 95 57
106 124 110
157 174 182
152 169 177
155 172 177
155 171 179
165 181 193
164 181 190
152 168 175
153 170 176
153 171 179
140 158 161
115 136 123
140 157 156
167 183 194
158 176 184
164 181 195
155 172 179
156 172 179
147 165 170
86 110 82
79 107 64
108 129 116
146 163 164
160 177 188
160 177 183
157 175 183
88 113 82
96 119 98
168 185 195
122 141 133
87 112 78
80 108 67
76 103 62
81 109 70
108 130 115
160 177 185
162 179 190
155 172 181
164 181 193
163 179 190
83 108 76
99 123 99
132 151 149
162 178 186
149 168 176
163 180 189
166 183 195
164 181 192
165 181 192
162 179 188
152 169 177
143 158 158
105 126 108
74 100 60
74 99 60
100 123 101
147 162 169
143 159 164
158 174 183
159 176 186
151 169 178
157 174 182
107 128 114
124 143 136
146 163 165
158 174 184
165 181 191
155 170 181
155 171 179
152 168 175
156 171 179
141 157 160
144 161 164
75 101 61
70 94 56
75 101 62
71 96 59
76 99 68
112 131 120
136 153 156
146 161 165
159 175 184
146 163 169
148 164 170
149 164 173
148 164 169
149 165 171
154 171 177
154 170 178
154 169 176
142 159 163
69 95 57
70 95 57
65 90 53
67 92 55
73 99 60
79 104 74
109 127 117
133 149 150
156 172 179
143 159 160
151 166 172
156 170 180
147 162 169
148 164 171
158 173 181
149 166 173
146 163 168
153 170 177
109 127 116
71 96 57
72 98 59
70 95 57
71 95 57
65 89 53
66 91 53
65 89 52
66 90 53
66 91 53
66 90 54
87 107 86
100 119 106
137 153 153
153 169 178
133 149 148
146 161 165
140 156 156
155 170 178
124 141 140
70 95 57
68 92 54
70 94 56
67 92 55
65 89 52
68 92 56
68 93 56
65 89 53
64 87 52
66 90 53
71 95 57
64 88 52
62 86 50
68 92 54
64 88 51
68 92 55
65 88 52
66 91 54
68 92 56
127 144 146
137 153 153
142 158 160
133 149 151
120 137 131
103 119 109
87 106 87
62 86 50
66 90 53
76 102 63
65 88 52
67 91 53
66 90 53
61 84 48
63 86 50
65 89 52
60 83 48
63 86 51
64 87 51
73 96 63
136 151 152
137 152 156
131 147 151
140 155 158
143 158 165
132 148 150
128 143 146
132 147 148
145 160 167
134 150 151
141 157 162
146 161 168
137 152 159
127 141 142
141 156 159
147 162 169
145 160 165
135 151 154
140 155 162
111 129 123
61 83 49
68 92 56
63 86 52
69 94 56
65 89 53
66 90 52
67 91 54
68 93 56
83 104 82
107 124 114
120 137 130
116 133 128
128 144 146
139 155 158
138 154 156
146 161 169
126 142 143
132 146 151
130 146 148
90 110 90
67 91 54
67 90 54
67 91 54
67 91 54
58 81 45
65 89 52
63 85 50
65 89 52
61 84 49
69 94 56
62 85 49
68 93 55
69 94 55
64 86 50
63 85 51
63 87 51
70 95 58
61 84 48
79 99 75
137 152 156
135 151 155
133 148 149
119 136 133
132 148 150
146 162 169
143 157 164
134 148 151
135 151 154
139 154 159
134 149 150
134 150 152
128 144 146
141 156 161
135 152 154
143 158 162
136 152 156
141 157 162
145 161 168
86 107 81
67 90 54
64 87 52
67 92 54
65 88 53
64 88 52
68 93 55
65 89 53
62 84 49
63 86 51
65 88 52
67 90 54
68 92 55
61 84 49
59 82 46
64 88 52
62 86 50
63 86 49
74 97 67
132 148 151
155 171 178
122 138 137
137 153 155
153 169 177
142 158 163
149 163 170
126 143 141
136 151 153
134 150 152
139 155 160
154 169 177
140 155 159
141 156 163
137 152 155
132 148 150
140 156 162
138 153 156
102 119 109
69 93 56
68 93 55
62 85 49
66 90 53
68 91 54
68 92 55
61 84 49
68 92 55
60 82 48
70 94 56
70 95 57
65 89 52
65 89 52
67 90 55
68 92 55
68 93 55
76 100 65
134 151 152
146 162 170
127 142 146
143 158 166
140 155 159
144 159 164
142 158 163
138 154 156
141 156 160
149 165 169
134 148 151
145 160 164
147 162 167
144 159 165
141 156 160
127 143 146
143 159 165
94 114 93
69 93 55
65 89 52
64 88 51
71 97 59
65 90 53
71 96 58
68 93 54
62 86 50
72 97 59
66 90 53
68 93 56
65 88 52
73 99 60
70 95 56
67 91 54
114 132 126
146 163 168
144 161 167
148 162 167
138 153 159
146 162 170
146 161 168
144 159 162
136 151 158
157 173 179
152 167 177
138 154 159
138 155 157
142 158 162
149 165 171
142 159 163
77 101 69
70 96 57
66 91 54
65 88 52
71 96 58
71 96 58
70 95 57
72 98 59
64 88 51
68 93 55
63 86 50
73 99 60
73 99 60
68 93 55
119 138 132
146 162 165
147 163 169
159 176 186
146 162 167
128 145 141
110 128 119
109 129 118
84 107 83
70 94 60
69 95 56
72 99 60
67 92 54
74 96 65
143 159 162
154 171 178
154 171 181
143 159 163
141 157 161
148 165 171
153 169 176
144 160 165
149 166 173
161 177 189
155 171 179
144 160 163
119 138 128
69 94 57
77 103 62
106 127 112
152 169 176
154 169 176
150 167 175
140 157 161
135 154 150
109 130 114
94 116 93
100 122 100
149 165 168
164 181 190
154 171 178
150 168 173
161 177 185
149 167 174
159 174 184
161 177 185
160 177 188
140 159 160
83 108 79
83 108 79
107 128 114
143 161 163
163 182 195
166 184 194
162 179 190
170 186 198
107 128 113
79 107 65
77 104 64
84 109 80
133 153 150
159 177 188
162 179 190
109 131 117
84 111 77
76 103 63
79 107 65
84 110 76
127 147 141
151 168 175
164 181 190
164 181 192
164 181 191
160 177 186
167 182 192
153 171 175
137 156 156
154 172 180
157 174 182
161 177 187
155 172 181
156 173 181
163 179 189
159 175 185
150 168 173
122 143 133
90 114 84
75 102 62
70 95 56
73 100 60
73 99 61
111 131 118
162 178 190
161 179 192
159 175 184
156 172 178
134 152 152
107 128 115
81 105 72
121 138 132
148 165 172
157 173 183
166 182 195
151 167 173
143 159 164
162 179 191
153 168 173
149 165 171
142 159 163
71 97 58
75 100 63
105 124 115
125 144 141
150 166 168
156 173 183
139 157 161
155 169 178
149 165 170
157 173 181
155 170 177
157 172 180
141 157 161
147 163 169
139 155 160
156 171 179
140 157 161
133 152 152
71 96 58
72 98 59
76 99 68
127 145 140
142 159 159
152 167 174
154 170 179
149 163 171
145 161 166
151 167 174
160 176 185
149 165 173
149 165 172
152 166 172
150 165 169
145 161 167
158 173 184
148 164 170
135 152 152
70 95 57
68 92 55
71 96 57
68 91 55
69 95 56
72 97 58
72 95 63
95 113 99
122 139 138
141 157 160
148 162 167
143 158 159
146 161 166
146 161 166
140 156 157
145 161 165
153 168 176
149 165 169
148 163 168
76 102 62
69 94 56
71 96 58
66 90 53
69 94 56
69 94 56
73 100 60
62 86 50
67 92 54
68 93 56
66 90 53
66 90 53
62 86 51
69 94 56
64 87 51
70 95 56
69 93 56
68 92 54
76 98 67
122 139 135
107 124 115
83 102 83
65 89 52
67 91 54
63 88 51
62 85 49
67 91 53
65 89 51
72 98 59
68 92 55
72 97 58
70 95 56
59 81 46
69 93 56
70 96 57
77 102 63
69 94 56
63 86 51
63 86 51
128 143 144
138 153 157
129 143 143
128 143 145
150 167 173
138 153 155
136 153 156
131 147 150
144 159 167
147 163 167
128 143 142
138 154 160
140 156 158
146 161 165
146 162 168
145 161 167
141 156 159
144 160 165
140 156 160
139 155 160
67 90 58
65 90 53
74 97 67
99 115 104
108 126 117
122 138 136
137 152 156
137 151 156
137 153 157
128 143 143
134 149 151
145 161 166
132 147 150
136 151 154
132 148 150
148 162 169
147 162 167
145 160 162
137 153 153
122 140 136
68 91 55
70 95 57
68 93 55
64 87 51
62 86 51
66 91 54
64 88 51
70 95 57
62 85 49
65 90 52
66 90 54
62 85 49
66 89 53
61 83 49
65 89 53
65 89 52
71 96 58
64 88 51
66 91 54
116 133 129
147 163 167
137 152 152
141 157 163
133 150 152
142 157 163
140 153 159
135 150 155
146 161 165
139 155 160
136 151 153
145 160 167
133 148 152
144 159 163
146 160 165
141 156 161
132 147 148
137 153 154
136 150 151
119 135 130
66 89 53
66 89 52
70 94 57
73 98 59
66 90 52
64 87 51
64 87 51
59 82 47
59 82 47
64 87 51
66 90 53
64 86 51
67 91 53
68 93 56
67 90 54
69 93 55
66 91 54
64 88 51
100 118 108
128 143 141
144 159 163
148 164 171
145 161 164
152 167 176
149 164 173
140 156 161
133 149 148
142 158 166
132 149 152
145 161 166
152 168 177
134 148 150
135 150 154
139 155 159
145 162 165
128 144 147
122 140 138
81 103 75
65 89 52
67 92 55
66 90 54
66 90 53
67 92 55
68 92 54
71 96 57
61 85 48
66 90 53
67 91 54
66 90 54
65 89 52
72 97 58
66 90 53
68 93 56
65 88 52
97 117 99
148 164 168
142 157 160
149 165 172
146 163 167
137 152 155
143 157 163
134 150 152
137 153 155
152 167 174
147 162 167
142 158 163
131 146 149
146 162 168
145 160 165
153 167 172
127 143 141
136 153 154
68 91 58
65 88 52
71 96 58
70 95 56
67 91 54
72 97 58
67 91 54
70 95 56
70 94 57
69 95 57
70 95 57
68 92 55
70 94 56
68 92 55
64 86 50
73 96 63
122 139 136
143 160 166
140 156 157
149 165 171
139 155 158
144 161 164
145 161 167
150 166 172
149 164 168
145 161 166
148 165 170
148 164 171
149 165 172
156 172 179
151 167 174
140 156 160
73 95 66
67 93 54
72 97 57
74 100 61
70 96 57
65 90 53
67 91 54
67 91 54
76 103 62
74 100 61
74 100 60
71 97 58
72 98 59
71 96 58
129 146 149
157 173 182
149 166 169
149 165 170
142 158 162
153 170 178
156 172 181
142 157 159
151 167 175
143 158 163
131 150 148
120 141 131
99 120 104
106 126 114
141 159 162
151 169 177
155 171 182
161 176 186
142 159 160
148 165 171
157 173 182
148 164 167
150 166 172
149 166 174
150 167 175
152 168 176
116 134 126
129 147 145
151 168 173
151 167 175
154 170 176
160 177 186
152 169 174
155 172 179
152 168 173
158 175 182
140 158 164
144 162 165
141 158 160
159 176 185
164 180 195
164 181 192
153 170 176
153 169 175
158 175 186
156 174 184
165 182 196
153 170 175
80 105 73
76 103 62
75 102 62
82 109 75
125 144 139
142 159 161
166 183 193
154 172 181
124 143 138
78 105 67
74 101 62
75 102 62
76 103 62
109 131 114
145 164 168
77 105 65
80 106 71
133 151 148
158 174 183
159 176 184
147 164 168
154 171 179
165 183 196
153 171 177
144 162 167
98 121 103
119 141 131
155 173 183
165 182 193
159 176 186
168 185 196
156 174 185
162 178 189
144 161 166
109 131 114
75 102 62
77 104 63
75 103 64
76 102 62
77 105 64
67 92 54
77 104 63
110 129 117
156 173 181
149 166 174
139 157 158
92 115 89
75 100 61
70 96 57
69 94 55
73 99 60
92 116 87
146 163 165
155 171 178
153 170 177
157 173 180
162 178 189
156 171 179
154 169 176
137 155 155
113 133 123
156 172 179
157 172 180
166 182 193
150 166 175
153 169 178
153 170 180
155 172 181
143 159 165
145 161 166
149 166 174
153 170 177
151 168 173
149 166 172
151 167 171
153 169 176
159 175 185
143 160 164
104 122 110
136 152 154
157 172 180
147 164 171
155 171 179
150 166 174
145 161 168
153 170 176
149 164 171
145 162 165
152 166 175
144 161 165
147 162 168
152 169 177
146 162 167
146 161 168
155 171 178
144 160 165
131 149 146
73 98 59
70 94 56
71 96 57
77 100 69
106 125 115
123 140 135
146 163 165
144 160 168
146 163 168
154 169 179
139 155 159
153 169 180
143 160 167
145 162 169
146 161 169
139 155 159
145 161 168
144 160 166
149 166 173
85 106 82
66 91 54
73 99 60
68 93 55
67 92 54
66 90 53
70 95 57
69 94 56
72 97 58
66 89 54
65 89 52
70 95 56
67 92 54
66 91 54
71 94 63
108 129 113
132 149 147
141 158 159
140 155 159
125 143 143
66 90 53
60 83 48
68 93 55
70 96 58
68 92 54
71 96 58
65 88 52
70 95 57
69 93 56
74 100 60
60 83 48
72 97 58
65 88 52
62 86 50
64 87 51
60 83 48
61 84 49
68 92 55
71 96 58
114 133 120
149 165 173
141 157 165
139 155 158
133 149 151
145 159 165
138 154 158
134 149 154
133 150 152
141 155 159
147 161 169
138 153 155
147 162 169
142 157 162
144 158 164
136 152 153
142 158 164
130 144 147
124 142 137
104 122 109
119 137 130
136 153 156
145 161 169
149 165 171
130 146 148
141 157 162
146 162 168
141 157 161
135 151 152
139 154 162
146 161 166
146 162 170
146 162 168
130 147 147
138 153 156
140 155 162
140 156 162
141 156 159
126 141 139
136 151 156
77 98 73
64 88 52
63 86 49
74 100 61
66 90 53
67 92 54
64 88 51
62 85 49
68 92 54
63 86 51
63 87 51
67 91 55
71 96 57
68 93 55
66 91 54
67 91 54
64 87 50
68 92 55
67 92 55
99 120 105
135 151 153
150 166 174
133 150 150
129 144 144
144 159 164
134 150 152
138 154 159
147 162 168
140 154 160
156 170 176
138 154 157
140 155 162
135 151 153
148 164 172
150 165 173
141 157 164
135 150 154
127 143 141
145 161 167
92 111 97
65 88 52
63 86 51
63 87 50
66 91 54
69 94 55
65 88 52
66 89 52
65 89 52
64 87 50
69 93 55
67 92 54
74 99 60
65 88 51
63 86 50
69 93 55
68 91 54
68 93 55
77 99 70
127 143 143
144 160 165
123 138 137
120 136 135
130 144 146
127 144 138
120 136 134
119 136 135
111 129 119
104 122 111
109 127 118
107 125 117
101 120 109
108 127 115
103 122 108
94 114 97
89 111 87
98 119 102
85 105 86
124 140 140
122 140 134
141 157 163
129 147 146
132 150 150
130 146 148
136 152 156
124 141 139
124 139 138
136 152 155
139 156 161
129 146 149
138 154 156
140 156 159
134 151 153
130 146 142
132 148 147
115 133 127
89 110 89
94 114 93
94 111 95
101 119 108
99 117 106
109 128 118
100 120 104
104 123 111
122 140 137
122 138 134
107 126 116
119 136 133
127 143 139
116 133 128
123 140 139
130 147 149
108 127 118
83 105 83
73 94 65
72 97 59
69 94 56
73 98 59
63 88 52
71 95 56
65 89 53
69 94 57
69 94 56
70 95 57
68 93 55
67 91 55
65 88 52
73 99 60
72 94 67
139 157 159
154 171 177
151 166 173
150 166 174
145 161 168
149 164 169
158 174 182
153 169 177
154 169 176
147 163 168
155 170 174
152 168 173
141 157 159
147 164 171
153 169 177
117 135 128
72 97 58
70 95 56
69 94 55
70 94 56
69 94 56
66 90 52
68 93 55
69 93 55
72 98 58
68 92 55
67 92 55
66 91 54
72 98 60
74 99 63
143 160 165
150 165 171
149 166 172
142 159 162
157 173 182
150 166 172
160 177 189
146 163 167
154 171 182
161 176 185
151 166 174
160 176 185
149 166 171
145 163 169
102 122 109
112 132 118
143 160 163
144 162 166
159 175 185
159 175 184
161 177 186
157 174 182
157 174 184
155 172 182
134 152 153
88 112 83
114 133 122
150 167 175
159 176 181
155 172 180
155 171 181
157 174 181
149 166 172
154 171 179
162 178 188
157 174 184
155 173 182
141 158 162
97 120 96
109 129 122
134 151 149
153 171 176
155 173 184
156 173 180
170 186 197
161 179 191
164 181 193
143 161 167
97 121 97
80 108 67
70 96 57
78 106 66
79 107 65
86 111 81
112 134 119
153 171 176
140 159 158
91 116 84
77 105 64
76 103 63
79 107 66
75 103 64
131 151 144
163 179 188
170 188 202
171 187 198
160 177 185
159 177 188
163 180 191
117 137 127
93 116 87
80 108 66
78 106 65
138 157 157
161 178 189
161 177 186
161 179 189
152 169 174
132 152 151
96 119 96
75 101 62
75 102 62
68 93 55
72 98 59
76 103 64
76 102 63
71 97 58
74 101 61
74 100 60
105 123 112
117 136 127
81 107 70
77 104 63
75 101 61
74 100 60
74 101 61
78 105 63
71 97 58
71 96 58
71 95 61
105 125 111
147 164 168
155 171 181
143 160 165
132 149 145
88 110 86
86 109 84
163 179 190
157 174 181
160 177 187
153 169 178
143 160 163
157 173 181
156 172 181
160 177 186
154 170 179
159 175 183
155 171 177
155 173 182
140 157 162
137 153 159
146 163 169
118 136 126
107 126 115
68 93 55
152 168 175
155 171 176
148 164 169
137 154 156
146 163 170
149 164 172
142 158 162
155 171 178
160 175 183
151 167 172
147 163 170
145 161 163
150 165 171
148 165 169
141 158 160
154 170 178
141 158 163
149 166 173
139 156 160
91 114 91
106 125 112
126 143 142
151 167 173
149 164 170
147 161 167
145 160 166
154 171 179
145 160 165
150 167 175
157 172 183
146 163 170
156 172 181
156 172 182
142 159 163
152 167 175
149 166 171
149 166 173
138 153 156
93 113 95
65 88 53
71 96 58
66 89 53
73 99 60
70 95 57
67 93 55
72 98 59
68 92 55
67 92 55
66 89 56
97 118 101
126 143 143
135 150 153
149 165 172
146 162 168
142 158 163
152 168 174
145 160 167
133 149 152
72 97 58
64 88 50
71 96 58
66 91 54
59 82 47
69 93 55
67 92 54
70 95 57
67 91 53
67 91 53
74 101 61
68 93 56
62 86 50
68 92 54
68 93 54
66 90 54
68 93 55
69 93 56
75 100 61
95 114 96
148 163 171
127 145 146
144 159 162
158 173 181
142 157 163
141 158 159
138 153 159
161 176 185
142 158 163
136 151 155
133 148 153
135 152 154
116 132 126
107 125 114
94 111 101
74 98 65
64 87 50
69 94 56
66 91 53
89 109 86
138 153 155
150 164 171
146 161 166
135 151 152
149 164 170
135 152 154
153 168 177
131 147 150
148 163 171
144 161 167
141 157 163
151 166 172
148 164 173
148 163 172
152 168 177
137 151 156
136 150 153
134 150 151
141 157 159
109 127 121
62 85 49
70 94 57
67 91 54
64 87 52
69 93 56
64 88 52
67 91 53
63 87 51
60 83 48
68 92 54
61 83 49
68 93 55
73 98 59
67 92 54
66 89 54
62 86 50
70 94 56
70 96 57
66 91 53
123 140 136
144 160 167
141 155 158
132 148 151
145 161 166
146 162 170
126 142 142
150 165 172
142 158 161
138 153 158
144 160 163
138 155 159
141 156 160
139 154 157
145 161 167
140 155 160
135 151 152
143 158 163
138 154 159
122 137 138
61 84 49
65 89 52
71 94 58
72 95 65
79 101 73
99 117 104
92 110 94
96 117 100
94 113 96
116 133 129
125 142 141
119 138 132
125 142 140
131 148 147
136 152 155
127 143 144
147 163 168
150 164 169
124 140 138
68 92 54
63 87 50
62 85 50
67 92 55
60 83 48
69 94 57
66 90 54
64 88 52
71 96 59
69 94 56
72 97 58
67 91 53
62 85 50
72 97 58
68 92 55
64 88 51
64 87 52
73 95 65
139 155 159
150 165 167
140 154 160
131 147 152
144 160 166
137 151 153
143 159 166
138 153 155
141 156 161
143 159 165
148 163 168
143 159 165
146 162 166
139 154 161
147 163 168
145 161 166
136 152 156
131 149 150
80 101 77
66 90 53
64 88 51
66 90 53
67 91 54
70 95 56
69 95 56
66 90 54
69 93 55
66 90 53
69 94 57
70 95 56
71 96 58
69 93 55
65 90 53
70 94 57
71 95 60
129 146 142
159 175 184
148 163 171
148 165 171
141 158 161
143 159 163
129 145 146
119 136 131
116 134 128
113 132 123
112 130 124
104 121 110
122 139 135
104 124 110
86 109 85
75 97 69
99 119 106
139 156 157
151 166 171
147 162 169
137 152 156
142 158 161
148 163 169
140 155 159
137 153 156
157 172 181
150 166 173
141 158 162
144 161 169
156 172 180
143 159 166
154 169 178
90 110 91
66 90 53
69 94 56
74 99 59
66 91 54
75 100 61
69 94 56
73 99 60
67 92 54
72 97 59
68 94 55
71 97 56
74 99 59
70 95 57
86 108 82
148 164 167
151 169 176
156 173 184
146 163 168
162 178 186
146 163 168
138 155 158
149 165 172
152 168 177
159 175 185
158 174 184
151 168 171
157 174 184
149 165 172
82 105 74
73 98 59
76 102 62
89 112 87
98 117 101
131 150 148
141 159 163
148 164 168
109 130 116
73 99 60
74 100 61
72 97 59
124 142 131
152 169 178
160 177 189
149 166 173
154 170 176
158 175 185
162 178 188
157 175 184
154 171 179
158 175 184
154 171 180
142 159 161
86 110 80
75 101 62
76 104 64
93 117 93
123 143 135
137 155 156
166 182 195
152 169 177
148 166 172
163 179 188
99 122 100
77 104 63
74 101 61
80 107 66
75 102 62
80 108 66
79 107 66
99 123 103
126 145 137
90 115 83
78 105 64
78 105 65
84 112 70
160 177 186
159 176 185
166 183 193
163 180 188
156 173 180
131 149 147
78 104 69
81 108 66
76 102 62
74 101 62
75 101 62
150 166 172
163 180 194
161 177 187
115 135 125
93 116 91
74 100 60
76 102 61
78 104 64
75 102 62
72 98 60
76 103 62
71 97 58
73 99 60
78 102 70
126 145 140
140 157 159
123 141 136
73 100 60
69 94 55
72 98 59
79 106 65
67 92 55
75 102 62
71 96 57
73 100 60
71 97 59
76 102 62
72 99 60
97 119 98
141 159 159
91 114 89
69 95 56
74 100 60
94 115 94
164 181 194
151 167 172
156 173 181
154 171 179
153 169 177
149 166 172
147 164 170
155 173 183
161 176 186
152 170 176
164 179 189
157 173 179
129 146 145
116 136 126
78 103 68
72 98 59
76 103 63
71 96 58
137 154 154
151 167 172
155 171 177
160 175 186
152 167 175
153 169 176
149 165 173
143 159 163
150 166 173
160 176 185
151 167 174
151 167 171
150 165 169
157 172 183
138 155 158
141 158 165
129 145 144
113 132 124
88 109 88
155 171 177
141 159 162
137 154 155
157 173 183
138 154 156
140 155 157
143 159 165
140 157 160
149 166 171
138 155 159
155 171 180
155 170 177
153 169 173
145 161 164
138 154 157
139 155 156
141 157 162
152 168 176
149 165 173
105 124 111
64 88 52
70 96 57
66 90 54
65 89 52
67 92 55
79 104 70
82 103 82
116 134 127
133 150 151
140 156 159
142 157 162
144 160 166
145 162 165
142 157 165
143 160 165
142 158 162
145 161 169
146 161 169
154 169 175
97 116 103
71 96 57
71 96 59
61 84 48
73 99 60
71 97 58
76 102 62
68 92 54
66 91 54
62 86 50
71 96 57
69 94 57
70 95 56
67 91 53
65 90 53
65 89 52
67 91 54
67 91 55
66 90 54
66 90 53
134 150 154
135 151 150
128 144 146
145 161 168
143 159 164
154 169 175
139 155 158
123 142 135
101 121 108
85 106 84
75 100 63
70 95 57
72 97 58
68 91 54
66 89 53
63 86 50
71 95 58
66 91 53
66 90 54
65 87 54
134 150 150
147 163 169
138 153 156
149 163 169
131 147 148
147 164 169
150 166 173
139 155 160
144 160 166
132 148 148
142 159 163
146 159 165
136 153 155
137 153 155
131 146 148
142 156 159
153 167 174
154 169 176
143 160 163
142 158 162
72 95 61
70 95 56
64 88 52
59 82 47
66 89 53
64 88 52
61 86 49
67 92 55
67 91 54
62 85 50
59 81 47
61 84 48
66 90 53
71 96 57
66 89 54
70 94 57
66 90 54
66 89 53
66 90 54
107 124 113
143 158 165
142 157 163
144 159 164
146 161 166
147 164 170
138 153 156
148 164 169
145 160 165
138 154 158
136 152 154
143 158 161
143 160 162
127 143 143
128 144 144
113 130 124
98 117 105
102 118 109
90 111 94
92 111 95
130 146 144
134 149 151
138 154 156
143 158 162
143 159 165
156 171 179
138 152 157
145 161 167
152 167 173
140 157 162
146 161 169
147 162 169
133 149 154
144 160 168
145 159 163
146 162 166
137 153 156
145 161 168
143 160 164
84 104 86
67 90 53
67 92 54
66 90 53
71 96 57
64 88 51
68 92 55
68 93 55
65 90 53
68 92 55
66 91 53
70 96 58
67 92 54
67 91 54
63 87 51
64 87 51
67 92 55
65 89 52
93 112 98
144 159 162
143 159 165
143 158 162
147 162 168
138 154 157
146 162 168
148 165 173
144 159 166
152 168 176
149 165 171
152 168 175
145 161 163
147 162 170
145 162 166
157 173 183
142 158 164
130 145 145
132 148 149
72 97 57
69 94 56
69 95 56
73 99 60
66 90 53
67 91 54
67 92 56
69 94 55
67 92 55
71 96 57
66 89 52
63 86 50
72 97 58
65 89 52
70 94 57
73 98 58
73 94 65
138 154 157
159 175 186
150 166 173
146 162 170
145 162 170
152 168 175
153 168 175
138 155 156
128 144 140
141 157 162
148 164 169
142 158 163
139 156 159
150 167 173
143 159 164
154 171 181
122 141 134
87 108 86
91 111 96
107 126 117
110 128 117
128 147 144
128 145 143
133 151 151
140 157 162
141 157 161
147 163 171
151 167 174
156 172 179
156 171 178
134 150 153
156 171 176
95 116 98
70 94 56
65 90 51
66 90 54
73 99 60
73 97 58
69 94 57
65 89 52
70 95 57
67 91 54
70 95 57
72 97 58
72 98 59
70 96 58
89 112 87
141 158 164
154 169 177
157 174 185
161 177 188
151 167 172
153 170 176
142 159 163
150 166 167
143 159 160
159 176 186
155 172 180
147 164 171
159 177 185
135 153 153
76 102 65
73 99 59
73 99 60
74 100 60
93 117 91
127 146 140
151 168 174
132 150 148
122 141 137
99 123 99
86 110 82
76 103 63
120 138 131
157 173 182
161 178 188
152 168 172
162 179 188
159 176 186
153 171 177
164 181 194
163 179 190
157 175 183
155 170 177
141 158 159
93 117 90
75 102 62
70 95 55
72 97 58
70 96 57
84 110 78
99 123 104
133 152 152
152 169 178
155 173 183
97 119 96
78 105 65
75 101 62
75 102 62
77 103 63
77 104 63
73 100 61
75 102 63
84 109 80
133 151 149
117 136 124
83 109 72
157 173 181
162 180 190
149 167 171
126 146 138
85 111 78
77 104 65
75 102 63
79 106 65
80 107 65
79 106 66
78 104 69
151 168 172
113 133 121
77 103 66
75 102 63
74 100 61
77 104 64
79 106 65
74 101 60
77 105 64
74 101 61
75 101 61
81 108 72
131 150 146
163 180 191
156 172 181
163 179 190
105 127 111
72 98 60
72 98 59
76 103 63
76 103 63
75 102 62
77 104 63
70 95 56
78 105 64
81 105 74
110 130 122
146 164 170
150 168 175
150 167 174
156 173 182
130 149 148
85 110 80
96 117 99
161 177 187
160 176 186
149 166 173
161 177 185
145 162 168
163 180 188
161 178 188
149 165 170
152 169 175
125 143 139
108 129 115
76 100 68
67 91 54
71 97 59
76 103 63
69 94 57
73 100 60
75 101 61
138 156 155
158 174 182
142 159 164
149 165 169
152 167 173
151 167 170
140 157 162
142 157 164
148 164 168
163 179 190
151 169 177
146 162 168
142 159 164
127 144 141
107 126 115
88 108 87
73 99 60
74 100 60
71 96 57
137 154 155
156 172 180
156 172 181
151 167 174
147 163 169
154 170 176
161 176 183
152 168 178
134 150 155
150 165 170
132 148 144
155 170 178
144 160 165
136 153 155
154 170 178
149 165 171
143 159 161
141 156 160
144 160 164
109 128 119
66 91 53
69 93 55
104 125 109
111 130 122
121 138 138
153 169 177
144 160 166
149 165 171
146 161 168
142 158 163
150 167 174
144 159 166
147 163 167
158 173 181
140 155 160
150 166 173
142 158 164
148 162 165
142 157 161
116 133 128
70 96 57
70 95 57
66 90 54
64 87 50
75 100 61
68 93 55
65 88 52
68 92 55
69 94 56
68 93 55
66 91 54
72 97 59
75 101 61
71 96 57
67 91 54
68 92 54
66 90 53
71 96 58
65 89 53
126 144 139
135 151 149
128 144 142
110 128 121
80 101 77
63 87 51
69 93 56
61 84 48
71 96 57
64 88 52
66 90 53
62 86 50
63 86 50
67 91 54
69 93 56
62 85 50
70 96 56
69 93 57
71 96 58
66 90 54
112 128 119
141 156 162
138 153 159
142 159 164
154 169 178
147 163 170
152 167 175
147 163 170
144 160 165
155 170 180
152 168 177
133 149 153
146 161 166
145 162 170
144 160 164
146 161 166
141 156 162
151 166 174
137 152 157
134 150 151
104 122 113
70 95 57
66 90 53
68 92 54
68 92 54
68 92 55
69 94 55
65 89 53
67 91 54
68 93 56
65 89 52
73 99 60
70 94 55
70 95 57
64 88 52
66 91 53
71 95 57
63 86 51
68 92 54
68 93 54
133 149 150
145 160 165
141 159 164
129 145 147
120 136 132
118 136 129
118 136 129
99 117 105
86 105 89
82 104 78
73 96 64
67 91 55
72 96 59
67 91 54
69 94 56
65 89 53
67 91 53
65 90 53
69 93 56
92 111 90
151 166 175
144 160 164
141 157 159
145 160 169
148 164 169
138 154 155
149 165 171
151 165 172
152 168 176
146 162 168
155 171 176
131 147 149
136 153 154
150 166 173
146 162 169
140 155 159
136 151 157
148 165 172
132 149 152
70 95 57
66 89 51
66 91 54
64 88 52
70 95 57
64 87 51
69 94 56
72 97 59
70 95 57
67 91 54
66 89 53
71 96 57
66 90 52
66 90 53
65 89 52
61 85 48
68 92 55
68 92 55
126 143 143
148 163 169
146 162 164
156 173 182
150 165 172
136 153 157
142 158 162
133 150 151
143 159 165
133 148 148
134 151 150
146 162 165
142 158 159
134 151 151
145 162 167
150 165 171
149 165 173
134 150 151
100 119 104
65 90 54
63 87 50
69 93 56
66 90 54
70 95 57
67 92 54
66 90 54
68 93 55
68 92 55
67 92 55
67 91 55
69 94 56
74 100 61
71 95 57
69 94 56
68 93 55
104 122 109
147 162 168
157 172 181
158 174 181
153 168 178
148 162 168
145 161 166
153 168 174
134 150 152
154 170 177
145 162 166
149 165 174
150 167 174
153 169 174
146 162 169
149 166 173
147 164 170
91 113 91
69 94 55
71 96 58
71 96 58
71 96 57
71 96 57
67 91 54
67 92 55
68 93 55
79 104 67
90 114 87
99 118 106
112 131 119
120 138 130
125 142 144
131 149 149
78 102 75
79 106 67
69 94 56
71 97 58
69 94 56
68 93 55
64 87 50
67 92 54
70 95 57
71 96 57
68 93 55
71 97 59
74 100 60
72 97 59
99 119 104
146 163 168
155 172 178
152 167 175
150 166 173
148 165 170
144 161 166
154 172 182
152 169 178
152 168 175
144 160 166
155 171 179
157 174 182
155 172 177
121 141 135
75 101 61
91 112 92
128 147 144
147 163 171
158 175 185
149 165 172
156 171 180
159 174 183
162 178 188
159 176 186
146 163 167
125 144 142
147 163 168
146 163 168
139 157 159
156 173 181
155 172 180
163 179 189
152 169 176
160 176 187
155 172 181
152 170 178
154 171 178
153 170 177
91 114 88
72 98 59
71 97 58
77 103 62
75 103 63
73 99 60
79 107 65
76 102 64
94 118 91
130 147 144
112 133 122
73 100 60
76 103 63
79 106 65
77 104 63
78 105 64
74 100 61
76 103 62
88 113 80
133 152 153
167 184 194
150 168 175
116 138 123
79 104 66
77 104 63
74 101 61
72 98 59
77 105 64
74 100 61
77 104 63
112 132 121
122 143 132
76 103 63
77 103 63
76 102 62
77 104 64
82 111 68
75 102 62
72 97 58
76 103 63
74 99 62
115 137 126
131 149 145
164 179 187
158 175 184
163 179 189
156 174 180
143 160 163
104 125 107
74 100 60
75 101 61
72 97 58
69 95 57
77 105 64
77 104 67
112 132 120
134 151 150
159 176 186
150 166 175
156 172 181
156 173 184
152 169 176
155 171 177
155 170 179
158 175 184
132 149 147
151 169 174
160 176 186
154 171 181
153 170 176
151 168 172
155 171 179
150 166 170
122 141 135
88 112 81
73 99 60
71 97 58
72 97 57
80 107 65
71 95 56
72 97 58
72 98 59
71 96 57
71 97 58
140 158 161
147 164 170
151 168 177
141 157 160
146 162 168
147 162 167
149 165 169
139 156 157
156 172 179
151 166 171
132 149 146
116 136 128
84 109 80
71 96 57
73 99 59
72 98 59
70 94 56
70 96 58
70 95 57
133 151 151
157 173 184
144 161 168
139 155 158
156 171 180
151 167 173
145 160 165
155 170 176
153 169 175
146 162 167
156 172 181
142 158 164
143 158 161
150 167 174
158 175 183
149 164 169
143 160 163
144 159 163
128 145 145
116 135 126
129 145 145
150 166 171
140 156 161
152 167 174
156 171 180
123 138 138
143 159 162
142 158 162
154 170 180
146 162 168
150 165 172
148 163 169
143 160 165
152 167 174
154 169 176
154 169 177
144 159 161
154 169 177
136 153 157
122 139 135
66 91 55
66 91 54
69 93 55
72 97 58
67 92 55
70 96 57
73 99 60
67 91 54
65 89 52
67 91 55
70 94 56
70 95 57
67 92 54
61 84 49
70 94 56
79 102 73
96 117 95
109 128 117
131 148 145
113 131 125
69 94 57
64 88 51
73 98 59
67 91 55
71 96 57
68 92 55
70 94 56
65 89 52
63 87 50
67 90 55
67 91 54
66 90 54
71 97 57
72 97 58
66 89 52
63 86 50
68 93 54
71 96 58
73 98 58
92 111 93
148 163 170
144 160 167
144 159 163
141 156 160
142 158 162
146 161 165
145 160 166
151 167 175
138 154 158
135 150 151
134 149 152
139 154 159
151 166 175
149 165 172
143 159 164
140 156 159
137 153 158
140 155 158
141 157 162
127 143 140
64 89 52
68 92 55
70 95 57
70 95 56
69 94 56
71 97 57
70 94 56
70 95 57
65 88 53
68 93 55
70 94 57
73 99 60
70 96 58
89 110 86
94 114 99
91 111 95
113 130 126
123 140 136
121 138 136
102 119 111
70 94 57
68 92 55
72 97 59
66 90 53
67 92 54
74 100 61
65 89 52
64 88 53
67 91 54
67 92 53
71 95 57
65 88 51
63 88 50
67 91 54
73 98 60
72 97 58
66 90 54
68 93 55
69 91 60
129 146 146
135 151 153
138 154 157
146 163 169
138 154 157
144 160 165
135 151 154
145 161 168
154 168 175
136 152 154
147 163 170
136 152 156
135 150 153
147 162 170
142 157 157
137 153 155
141 158 162
150 166 174
147 163 168
81 101 78
68 93 55
68 92 55
65 88 52
66 90 53
70 95 57
68 92 54
69 93 57
65 89 52
70 96 58
71 96 58
67 92 54
69 93 56
70 94 56
63 87 50
66 91 53
68 94 56
67 91 54
85 106 82
153 167 174
140 156 159
157 172 180
132 148 151
144 160 165
141 158 160
149 164 169
146 162 168
152 169 178
145 161 167
149 165 171
147 164 171
136 153 155
133 149 152
152 167 172
151 165 173
147 163 169
146 162 167
75 96 68
69 95 56
66 91 53
66 89 53
67 91 54
69 94 56
70 94 57
70 94 57
71 96 57
69 94 56
71 96 58
67 92 55
67 92 54
68 93 55
73 99 59
68 92 54
67 92 54
130 147 146
144 161 165
152 168 176
148 164 168
150 166 173
149 164 168
148 162 165
152 167 175
162 177 186
144 160 162
149 166 173
146 162 170
155 170 179
147 162 168
152 169 177
154 171 177
131 147 150
83 105 80
69 95 57
71 96 58
70 95 57
69 93 56
72 98 58
71 97 58
75 101 62
68 93 56
73 99 60
73 98 59
68 92 55
72 99 59
69 94 55
72 97 58
104 125 112
143 159 162
145 160 166
124 142 141
132 149 149
125 143 139
101 122 106
109 128 119
85 107 81
75 101 61
71 97 58
67 92 53
73 99 60
74 100 60
69 94 56
117 135 128
160 175 184
152 169 177
162 178 187
154 171 180
158 174 184
168 184 197
153 169 178
147 164 170
153 170 177
156 173 183
149 166 173
156 174 183
143 162 167
104 123 109
147 165 170
166 182 191
158 174 182
157 173 182
148 164 171
159 175 183
154 172 178
158 176 184
161 178 187
157 174 182
151 168 175
153 170 176
104 125 110
85 110 81
112 131 122
122 142 132
145 162 167
167 182 194
166 181 192
164 181 191
161 177 187
172 190 204
156 172 182
164 181 191
84 109 80
74 100 61
75 102 62
75 102 62
72 99 59
79 107 65
72 97 58
72 98 59
78 105 65
77 103 65
96 118 96
105 127 111
79 103 72
73 100 61
80 107 66
73 98 59
79 106 64
74 101 60
76 103 64
118 139 130
77 105 64
77 104 64
77 104 63
75 102 62
77 105 65
80 108 67
79 106 65
113 134 122
159 176 186
171 189 202
121 142 134
78 105 63
71 96 58
76 103 63
76 103 63
77 103 63
76 103 62
80 105 70
115 136 126
151 169 173
171 186 197
153 170 177
165 181 190
154 170 179
163 180 191
164 180 192
151 168 174
92 118 89
79 107 65
71 98 58
75 101 62
87 109 86
125 144 138
149 166 172
159 176 187
151 168 176
159 175 184
164 180 192
148 165 170
160 176 185
154 171 180
163 181 193
152 168 175
154 172 179
144 162 163
74 100 60
100 122 102
131 149 148
149 166 170
133 150 151
96 119 95
73 99 59
78 105 64
69 95 56
73 99 60
74 100 61
76 102 62
74 100 61
66 90 54
77 103 62
65 89 53
76 103 63
73 99 59
143 161 167
144 160 164
160 177 189
153 168 175
152 168 176
163 179 188
149 166 169
139 156 157
105 126 112
80 102 72
75 102 61
70 95 56
78 105 64
72 98 59
70 94 56
70 95 57
68 94 55
72 97 58
71 97 58
119 137 132
154 171 179
157 173 180
151 168 178
153 171 180
146 161 164
161 177 186
155 171 180
153 169 178
160 177 186
147 163 168
144 161 166
149 165 172
151 167 174
149 164 170
132 150 149
109 126 119
78 100 74
67 90 57
79 101 71
150 166 171
154 171 179
156 171 179
146 162 169
153 170 179
147 164 170
162 179 188
157 173 182
159 174 183
147 163 165
149 165 173
146 162 166
140 156 162
158 173 181
153 169 177
153 170 180
150 166 172
147 163 170
149 165 171
144 160 165
71 97 57
70 94 57
69 93 55
66 89 53
65 89 53
69 94 57
72 98 60
67 92 54
73 99 59
65 90 52
71 96 58
84 106 82
103 121 110
119 137 133
124 142 140
144 159 166
155 171 179
144 160 165
139 155 159
136 152 153
64 88 53
71 96 58
69 94 56
69 94 56
68 92 54
72 98 59
68 93 56
64 87 50
70 94 56
64 88 52
64 88 53
68 92 55
67 91 54
68 92 55
63 86 50
69 94 55
59 83 47
75 101 61
67 92 55
68 92 55
143 158 161
141 155 159
155 172 179
133 150 151
139 156 160
133 149 150
152 167 175
150 165 172
151 166 172
133 150 152
143 159 167
152 168 174
140 156 159
142 157 162
147 163 170
147 163 169
140 156 160
154 169 176
146 162 169
144 159 163
82 104 78
71 97 58
68 92 55
64 88 51
64 89 52
72 97 61
79 102 71
96 112 101
114 130 120
113 130 125
114 130 127
143 158 163
146 162 168
142 158 161
140 156 162
149 164 168
147 163 170
147 161 167
149 165 174
148 163 170
79 103 74
66 90 53
71 96 58
66 90 53
64 88 51
73 98 59
64 88 51
69 94 56
66 89 53
66 90 53
69 94 57
70 95 56
70 95 57
66 90 53
72 97 58
67 91 54
68 92 55
70 95 57
65 87 52
96 114 101
141 157 161
144 159 166
140 155 160
143 158 163
160 176 186
148 164 172
141 157 162
153 168 175
144 160 166
140 156 161
149 165 169
153 168 176
139 154 159
147 163 170
143 160 166
155 171 181
146 160 168
146 162 167
135 152 155
69 93 56
64 88 52
64 88 52
65 90 52
69 94 57
69 93 56
72 98 59
67 92 55
67 91 53
70 95 57
67 90 54
71 96 57
72 98 59
69 94 56
71 96 58
65 90 53
70 94 57
66 91 55
119 136 133
143 158 165
144 161 166
157 172 182
137 154 159
152 167 176
142 158 165
157 173 180
159 174 182
135 151 153
162 177 188
148 163 169
152 169 178
147 164 172
144 159 162
158 173 183
145 160 165
153 169 178
121 138 137
69 93 55
66 90 54
71 96 58
69 94 56
71 97 58
67 91 53
66 90 53
65 89 52
67 93 55
71 97 58
65 89 52
73 99 60
71 97 58
65 88 51
71 96 57
68 92 55
82 107 72
144 160 162
143 159 163
148 163 170
147 162 165
152 169 177
145 161 166
158 175 184
146 162 165
155 171 179
141 157 162
155 170 178
146 163 168
151 168 172
153 168 175
151 167 175
151 166 173
133 149 147
77 104 63
72 97 58
72 98 59
73 100 61
71 96 57
71 96 58
66 91 54
71 96 58
70 94 57
74 100 61
69 94 56
72 98 58
69 94 56
69 94 56
76 102 61
116 134 127
134 151 150
152 168 174
153 170 181
146 163 168
147 163 168
162 177 187
147 163 168
144 161 166
142 158 160
127 146 143
112 131 120
112 131 119
81 102 77
71 96 61
124 141 136
151 168 174
156 173 181
139 156 160
154 170 177
152 167 172
153 169 175
154 172 180
151 168 173
149 165 171
127 145 141
90 112 90
73 100 60
78 106 65
135 154 154
154 170 178
155 171 175
153 170 177
153 170 175
158 174 182
151 169 176
153 171 180
150 167 173
154 171 182
153 169 175
152 169 178
151 169 176
109 129 118
77 105 64
70 96 58
75 102 62
99 123 100
103 123 108
126 145 142
154 171 179
158 175 183
155 172 181
177 194 209
150 168 173
85 110 78
73 98 59
76 103 63
77 105 64
75 102 63
77 103 63
75 101 61
76 103 63
75 101 61
75 101 61
118 138 126
156 172 180
141 159 162
130 150 147
90 116 86
76 102 62
72 99 59
81 109 67
76 103 63
80 107 66
80 107 66
77 104 64
79 107 65
90 115 88
132 150 147
158 176 184
167 183 193
165 181 192
165 183 196
128 148 144
77 105 64
80 107 66
78 105 65
76 104 64
96 118 96
119 139 128
159 177 186
153 171 181
156 174 182
167 183 192
163 178 189
150 167 176
164 180 191
163 180 192
149 167 173
162 178 190
80 106 70
74 101 62
107 129 114
141 159 162
152 169 178
163 180 192
166 182 193
148 165 170
160 176 187
153 169 175
150 167 174
155 171 180
160 177 185
153 170 177
153 170 178
153 171 178
166 182 193
132 150 150
75 100 63
104 123 112
144 162 163
155 172 179
139 158 159
101 123 108
78 104 66
72 98 60
74 99 60
77 103 63
75 101 61
69 94 56
71 98 59
75 101 61
73 99 60
76 102 62
72 97 59
74 100 60
123 142 139
148 164 169
145 162 168
153 169 174
129 147 149
112 133 122
80 104 72
69 93 55
70 95 56
75 101 61
72 98 60
72 98 59
68 92 54
72 96 58
71 97 57
67 92 55
70 95 57
75 101 61
75 101 62
122 140 135
150 166 173
140 156 158
152 168 178
161 177 185
140 156 162
154 170 179
158 173 183
161 176 186
148 165 172
153 169 177
147 163 169
140 157 157
121 139 131
87 110 83
69 94 57
69 94 56
66 90 53
70 95 57
66 91 53
143 159 164
150 167 172
156 173 181
147 163 169
156 172 182
151 167 175
143 160 163
146 164 170
135 151 153
148 162 168
143 159 162
144 159 162
157 173 184
158 174 183
149 165 173
147 163 171
154 170 177
150 166 173
152 168 174
142 160 161
95 118 95
69 94 56
69 94 56
71 97 58
68 94 55
66 91 54
71 95 59
87 110 84
103 123 106
132 150 152
133 151 149
142 158 163
145 161 165
138 154 156
147 163 170
149 164 170
147 163 168
150 166 171
138 154 160
138 154 156
95 115 99
69 93 56
68 93 54
71 96 57
71 97 60
67 92 54
67 92 56
61 85 49
71 97 58
69 94 56
70 95 56
62 85 48
67 92 54
64 89 51
70 95 57
69 94 56
71 96 57
70 94 56
75 101 61
73 99 60
116 133 130
158 174 181
141 157 161
141 156 161
156 172 180
154 169 178
140 156 159
154 169 178
142 158 163
139 156 160
142 157 162
138 154 159
147 163 169
131 147 148
151 167 173
140 155 161
152 167 174
147 163 171
146 162 166
140 157 159
99 119 105
110 127 121
127 144 143
132 149 149
136 151 151
148 165 170
142 158 160
131 147 145
141 157 161
145 161 162
128 143 143
146 162 166
148 164 168
147 161 166
144 159 166
139 154 158
149 165 170
157 174 184
150 166 174
142 157 161
113 132 122
71 96 58
67 92 54
70 95 57
66 91 54
64 87 51
66 90 54
71 97 59
68 93 55
69 93 55
68 92 55
73 99 59
66 90 53
67 92 54
68 93 55
67 91 55
63 87 51
68 92 55
65 89 52
68 92 55
138 153 159
149 165 172
146 162 167
140 157 162
145 161 165
154 169 178
143 160 164
141 156 162
141 157 160
149 164 171
153 169 176
150 166 172
151 167 174
149 165 168
139 155 161
151 168 176
155 171 178
151 166 174
141 158 160
110 129 119
69 94 56
67 92 54
71 96 58
72 97 59
69 93 56
74 99 60
71 96 56
73 98 59
69 93 55
76 101 61
70 94 57
71 96 57
69 95 56
67 92 55
70 95 57
65 90 53
65 89 52
74 98 61
147 163 168
151 167 172
155 170 177
146 162 167
146 162 168
148 164 169
137 154 156
135 150 156
149 165 172
137 154 156
136 152 155
141 158 162
152 168 176
150 166 173
156 173 184
157 172 182
154 170 179
149 165 171
81 101 81
73 99 59
71 97 59
69 94 56
72 97 58
69 94 56
71 96 58
65 89 52
69 93 55
72 97 59
67 92 54
72 97 58
67 91 55
69 93 55
72 97 58
71 96 58
68 93 55
95 115 95
144 160 165
151 167 175
140 157 165
154 171 181
151 167 176
155 170 178
153 169 175
150 168 176
145 162 168
156 173 181
154 170 176
148 165 171
150 165 171
150 166 171
153 169 175
152 169 177
116 135 124
69 94 56
73 99 59
73 99 60
70 96 57
73 99 60
73 99 60
72 98 59
72 97 59
74 100 61
70 96 58
68 92 56
73 99 60
74 100 61
74 100 60
74 99 62
137 154 156
153 169 176
161 178 186
153 168 174
150 166 171
145 162 168
140 156 160
149 166 170
159 175 185
148 163 168
155 171 177
152 169 177
152 168 175
155 172 181
144 162 167
122 141 138
121 140 135
114 133 128
144 161 164
155 171 179
167 183 195
146 163 166
105 124 109
79 104 71
71 97 58
78 105 64
76 103 63
77 104 63
74 99 63
134 152 149
167 183 195
138 155 155
156 173 182
153 169 178
158 174 184
159 176 185
159 176 186
155 173 180
155 172 179
159 175 184
163 180 191
140 158 163
103 126 105
74 101 61
72 98 59
73 99 60
75 102 62
72 98 59
76 103 63
92 116 90
126 145 136
134 151 150
149 167 172
154 172 181
96 120 96
75 101 62
75 102 62
73 98 58
73 98 60
71 98 58
67 91 54
70 95 57
73 100 60
76 103 62
113 134 124
159 176 183
160 177 186
162 179 190
141 159 159
122 143 133
94 116 96
75 103 63
80 107 66
81 109 66
87 112 80
120 141 132
167 183 193
153 171 180
158 176 188
162 178 187
172 188 203
163 180 193
102 124 105
75 102 62
76 102 62
104 127 107
147 165 170
165 181 194
163 179 190
158 175 181
162 178 188
165 181 193
157 173 180
164 181 193
158 174 182
152 169 175
152 169 175
154 171 177
156 173 182
129 147 144
146 164 169
161 178 187
164 181 194
162 178 190
150 169 178
161 178 189
156 173 180
162 179 190
154 171 180
157 173 181
154 171 178
150 167 173
161 177 187
165 180 190
163 179 188
147 164 168
127 144 143
159 175 182
161 177 188
158 174 181
156 172 182
158 175 185
155 171 180
150 168 172
127 144 138
103 124 106
76 102 64
77 104 64
73 99 59
73 100 60
72 98 60
68 92 54
75 101 61
75 101 61
74 101 61
123 141 138
150 167 170
114 134 126
84 108 81
75 101 61
69 95 57
74 100 60
74 100 61
75 102 62
68 93 55
66 90 53
71 97 58
74 101 61
72 98 59
74 101 62
70 95 57
69 94 56
72 97 59
67 92 55
102 122 105
145 161 164
146 163 167
150 166 172
147 164 171
143 159 165
149 164 171
146 161 166
146 162 168
118 136 129
102 121 106
72 98 59
73 99 59
66 91 53
73 98 59
65 89 53
74 99 60
74 100 60
72 98 59
72 97 58
132 148 146
155 172 181
144 160 164
156 172 179
158 173 182
153 169 176
158 173 181
149 164 171
151 166 173
136 153 154
141 157 160
157 171 178
152 169 176
157 173 180
152 167 175
147 161 166
147 161 168
129 146 146
147 164 170
139 154 159
103 123 108
66 90 53
71 97 58
94 114 96
111 128 121
140 157 159
159 175 186
148 164 172
147 163 167
154 170 177
142 158 162
137 153 157
153 168 175
146 162 170
140 157 160
140 157 162
145 163 169
142 159 161
152 169 175
140 155 162
117 136 128
68 92 55
66 90 53
69 95 57
70 95 57
66 90 53
71 96 58
70 94 57
69 93 56
69 94 55
70 95 57
68 93 54
70 95 57
68 93 55
68 91 54
61 85 48
68 93 55
69 95 57
60 83 47
69 94 57
96 116 100
141 157 163
145 161 165
152 168 173
149 164 170
138 153 157
156 173 184
146 162 167
145 161 164
152 168 177
142 157 161
142 158 163
143 160 163
125 141 138
125 141 139
116 136 127
95 116 97
87 109 83
69 93 59
68 93 55
90 113 86
146 160 164
154 170 179
152 167 174
150 166 173
140 156 161
143 158 164
144 159 164
149 165 170
149 165 172
152 168 175
157 173 182
153 169 178
136 152 155
156 171 178
145 161 165
147 163 171
148 163 169
154 170 179
148 164 169
137 154 158
70 94 57
71 96 57
63 88 52
69 93 56
65 88 51
67 92 55
68 93 56
62 85 49
71 97 58
69 93 55
63 87 50
75 100 61
66 90 53
72 97 59
66 90 52
72 97 57
67 92 54
64 87 51
65 90 53
110 130 118
137 152 157
141 157 159
146 160 163
151 167 174
146 163 169
149 164 172
148 163 169
139 154 159
152 168 178
145 162 171
155 170 178
149 165 173
143 157 163
156 172 182
134 150 152
143 159 166
145 161 164
144 162 165
134 150 150
70 94 56
66 91 53
64 88 52
69 93 55
67 91 54
68 93 55
70 95 57
72 97 58
72 97 58
65 89 52
72 98 58
71 96 57
68 92 55
70 95 56
71 96 57
72 96 57
65 89 52
65 91 53
99 119 99
128 145 144
152 169 179
151 166 170
141 157 160
153 169 177
149 165 171
157 173 180
144 160 169
150 164 169
151 167 172
155 172 180
157 172 182
145 162 169
140 156 160
146 163 171
156 171 178
150 165 171
136 154 157
75 101 61
73 98 60
69 94 57
66 90 52
67 91 54
68 93 55
66 90 53
67 92 54
72 97 58
69 94 57
73 99 60
69 95 57
72 98 59
68 93 56
73 100 60
74 100 60
71 97 57
136 153 155
148 166 172
149 165 170
155 170 178
139 154 159
154 171 179
147 164 171
155 171 176
150 166 173
145 162 166
157 173 181
143 160 166
152 169 176
149 165 172
143 159 165
146 163 169
149 165 170
85 109 81
69 94 57
73 100 60
74 100 61
70 96 57
76 102 62
66 91 54
67 92 54
69 94 55
69 94 56
71 97 59
74 99 60
73 99 60
68 93 56
66 91 54
77 100 69
142 158 160
149 164 171
145 162 168
148 164 169
153 170 177
156 173 181
157 174 181
150 165 170
159 176 186
150 166 171
159 174 183
145 162 167
148 165 174
149 165 168
150 167 176
95 118 94
73 100 60
108 129 114
134 152 151
146 162 170
139 157 157
118 138 128
110 130 117
90 111 89
77 103 65
73 99 60
74 101 60
75 101 61
81 106 70
149 167 172
156 173 182
160 177 186
169 183 195
157 175 183
162 178 187
157 174 182
165 181 192
155 172 182
157 174 185
166 183 194
147 163 172
165 181 189
96 119 95
76 103 62
78 105 64
76 104 63
73 100 61
75 102 61
77 105 65
77 104 64
74 100 60
75 100 66
91 115 91
115 137 125
91 116 88
75 101 64
74 101 61
76 103 62
79 106 65
75 101 61
72 98 59
76 103 62
79 107 66
78 106 65
101 124 104
159 176 185
165 182 195
163 180 191
165 182 193
155 172 181
142 161 163
99 124 98
131 151 149
166 183 197
169 187 202
164 180 188
168 185 198
159 175 184
166 183 197
164 181 193
168 185 199
87 112 84
113 135 122
151 168 173
159 175 184
160 178 189
158 176 185
160 177 188
161 178 190
169 185 197
170 187 200
161 177 184
156 172 181
166 183 195
159 176 188
141 158 159
121 140 132
102 125 107
151 168 175
162 178 187
158 174 183
166 182 192
153 170 178
162 178 188
158 175 183
156 174 180
148 165 169
152 168 174
159 174 185
154 171 180
158 175 186
155 171 176
120 139 134
102 123 104
73 99 60
104 126 108
167 183 196
168 185 196
154 171 178
162 179 188
168 183 194
168 184 195
156 173 179
147 163 171
154 171 180
153 169 175
122 140 136
103 124 107
75 101 64
73 99 60
75 101 61
75 102 62
93 115 92
127 145 141
115 136 121
74 100 61
71 97 58
75 101 61
67 91 53
78 105 64
70 96 57
78 104 63
72 98 59
72 97 59
73 99 59
73 98 58
77 105 64
73 99 61
72 98 59
75 101 62
74 99 59
70 95 57
75 101 61
91 114 89
164 180 190
157 173 183
160 176 188
155 171 180
144 161 165
118 136 132
104 125 107
69 94 56
72 98 59
69 94 56
74 100 61
74 100 61
70 96 56
73 99 59
71 96 58
72 98 59
70 95 56
69 93 55
69 94 55
121 138 131
146 163 167
148 164 168
157 174 183
146 162 165
148 165 173
148 164 170
145 162 169
149 165 171
149 165 173
150 165 168
148 164 170
157 174 184
155 171 178
132 149 152
153 168 175
139 155 157
144 160 164
152 168 175
141 157 162
123 141 135
126 142 140
151 166 172
163 178 189
143 158 164
145 162 166
147 163 170
155 171 179
143 160 163
142 158 165
147 164 171
148 165 169
148 163 168
149 165 171
150 165 170
157 172 181
147 163 168
146 163 166
144 161 165
151 168 174
122 139 141
74 99 59
65 89 53
73 99 59
64 88 51
72 98 59
70 96 57
68 93 54
75 101 61
69 94 56
75 101 61
70 96 57
65 88 52
67 91 54
66 90 53
69 94 56
70 95 56
71 95 57
68 92 55
70 95 57
80 105 70
141 158 162
146 162 168
144 160 168
139 155 161
148 165 171
141 158 162
145 160 167
135 150 152
114 132 123
98 117 106
79 101 73
73 97 62
66 90 54
66 90 54
72 97 59
70 96 58
70 95 57
72 98 58
71 96 58
74 99 61
136 153 153
138 154 159
140 154 159
139 156 161
144 161 164
142 158 162
151 167 175
140 156 163
151 167 172
152 168 178
142 158 161
154 171 177
141 156 160
147 163 169
139 154 160
133 149 149
141 156 160
137 153 154
144 159 161
153 170 176
103 122 108
66 89 52
69 94 55
67 92 55
64 88 52
72 98 59
72 98 59
65 90 53
69 94 56
65 88 52
68 94 56
74 99 61
67 91 54
69 94 55
68 93 55
66 90 53
68 93 55
71 96 58
68 92 54
79 102 70
133 150 149
140 156 160
145 162 168
151 168 173
139 156 160
133 148 150
155 170 175
146 161 167
140 156 160
146 161 166
146 162 170
151 166 171
147 163 168
145 161 166
152 169 175
147 163 169
142 157 160
155 169 177
155 170 179
101 120 107
68 93 54
71 96 57
69 94 56
70 96 57
69 94 57
74 100 60
66 90 53
67 91 55
70 94 57
69 94 56
70 95 57
71 96 57
67 91 53
64 88 52
73 98 59
65 89 52
74 99 61
67 91 57
142 158 161
144 159 162
146 162 165
154 170 179
146 162 167
153 168 177
160 176 188
141 157 162
140 156 161
144 160 165
145 163 168
151 167 176
157 173 180
135 151 152
157 172 179
155 171 179
158 174 182
149 166 172
112 133 121
74 99 60
75 101 62
68 93 55
76 102 62
71 96 58
69 94 56
71 96 57
65 89 52
67 92 54
70 95 56
67 92 54
74 100 60
67 92 54
67 91 53
69 95 56
70 95 56
82 105 77
145 162 165
155 171 184
151 168 177
148 164 169
146 163 169
142 159 164
156 173 183
144 160 164
137 155 157
153 169 176
147 163 168
155 171 179
153 169 177
149 166 169
152 169 178
153 168 175
140 157 162
75 100 64
72 97 58
70 95 57
73 98 58
72 98 59
74 99 59
74 100 60
70 94 56
69 95 56
69 94 56
68 93 55
69 95 57
75 101 62
77 104 63
70 95 56
90 112 91
142 159 164
151 167 173
144 162 168
154 170 177
153 171 178
162 179 189
149 166 172
150 167 174
147 164 172
153 170 178
144 161 164
154 170 177
160 175 184
134 153 154
116 137 127
150 166 169
145 161 164
146 164 172
158 174 182
169 184 196
150 168 173
158 176 187
154 169 171
152 169 175
132 148 152
137 155 157
119 139 130
88 112 86
86 108 82
138 154 160
160 176 186
145 161 166
150 168 175
154 172 181
151 168 176
153 170 178
161 177 187
151 168 172
157 174 182
152 169 176
157 174 182
153 170 177
83 107 76
72 98 58
73 100 60
79 106 65
67 93 55
74 100 60
76 103 64
75 102 63
78 106 65
76 103 62
72 98 58
91 116 90
154 171 180
143 162 168
117 136 125
93 118 89
77 104 64
72 98 58
77 104 62
78 105 64
79 107 66
79 107 65
110 131 119
165 182 192
166 184 194
176 192 207
166 184 197
162 179 188
169 185 197
168 184 196
165 182 193
162 179 189
165 181 194
163 180 190
163 179 188
171 187 201
151 169 176
125 144 140
159 176 186
163 179 188
155 173 178
167 183 195
161 178 188
158 174 182
165 181 194
162 178 187
153 171 177
161 177 187
156 172 177
161 179 190
128 146 142
99 120 102
75 102 62
75 101 62
88 111 84
168 184 197
156 173 181
168 184 195
160 178 189
162 179 189
157 175 185
162 178 190
162 180 193
167 183 195
153 171 177
167 183 196
129 147 146
111 132 119
79 103 73
76 103 63
76 103 63
73 98 59
106 127 112
152 168 175
160 176 186
156 173 181
164 180 190
154 170 178
164 179 189
157 173 184
166 182 194
153 170 177
159 176 186
162 179 189
163 178 186
150 167 174
126 145 144
89 112 89
138 155 159
165 181 194
154 171 179
117 137 127
73 100 61
72 99 59
76 103 62
71 97 56
72 98 59
74 99 61
68 94 56
71 96 58
77 103 63
73 99 60
70 96 58
67 92 54
68 93 55
68 93 55
72 98 59
74 100 60
70 96 57
72 98 60
80 103 78
144 162 169
139 156 158
112 131 118
89 113 85
71 96 58
77 103 62
70 95 57
72 97 59
72 97 59
69 94 55
71 96 58
73 99 58
70 96 57
77 103 62
68 92 54
72 98 59
73 99 60
75 101 62
70 95 57
108 130 115
145 160 167
152 167 176
154 170 175
156 172 182
162 178 189
146 162 163
156 171 180
145 161 170
145 160 166
144 160 164
150 166 171
155 170 179
155 169 177
145 161 167
133 148 149
122 141 138
107 127 117
68 92 57
72 98 59
84 105 85
146 162 171
152 168 176
161 175 184
141 157 160
144 160 165
140 156 160
146 162 167
135 152 154
159 176 187
150 166 172
158 174 183
143 160 164
150 167 174
154 169 177
142 159 164
140 156 159
154 169 177
150 164 170
142 158 162
153 169 177
73 95 66
67 91 54
67 92 55
68 92 55
73 98 60
67 92 54
71 96 57
71 97 58
74 99 60
73 99 60
66 91 54
67 92 56
65 89 52
70 95 56
73 99 60
73 99 60
67 92 54
63 87 51
72 97 59
67 91 54
119 138 128
133 150 151
117 135 128
108 127 113
94 115 95
73 95 65
70 95 56
64 88 52
70 95 57
69 93 55
72 97 58
71 97 58
69 94 55
68 92 55
71 96 57
62 86 50
68 93 55
65 88 52
77 104 63
74 99 59
96 115 100
140 155 159
135 153 153
143 160 165
144 159 164
153 169 177
139 154 159
146 163 170
146 163 170
155 170 179
153 169 178
153 169 176
149 166 174
149 165 173
152 167 173
146 163 168
152 168 174
146 162 167
154 171 179
137 153 155
130 145 146
66 91 53
69 94 55
69 94 55
66 90 53
72 98 58
69 94 55
69 94 56
67 91 54
68 93 56
70 95 57
65 89 52
71 96 57
71 95 57
69 94 56
69 93 55
65 89 52
65 89 52
70 94 55
65 90 52
121 140 135
150 166 172
146 162 168
146 161 167
147 163 170
147 163 170
142 159 164
148 163 168
149 166 172
155 171 179
144 159 166
150 165 169
154 170 175
153 168 177
141 157 157
152 167 174
155 171 174
150 165 172
146 162 167
133 149 150
68 93 55
70 95 57
69 94 57
73 99 60
69 94 56
66 91 54
71 97 59
71 97 58
72 98 58
71 96 58
68 94 56
63 87 51
69 94 57
70 95 57
69 94 56
63 87 50
72 97 58
72 97 58
92 113 90
140 156 163
144 160 165
156 171 179
145 161 166
137 154 158
149 164 172
141 156 162
150 166 171
162 176 185
139 156 161
146 162 166
143 159 165
153 170 180
147 164 168
143 159 163
150 166 173
145 161 164
154 169 175
86 109 81
64 88 52
72 97 58
71 96 57
73 99 60
73 99 60
73 99 59
70 95 57
72 98 59
73 98 58
72 97 57
72 98 59
69 94 56
68 93 55
64 89 52
74 100 61
73 99 60
101 121 104
145 161 166
151 168 177
143 161 168
145 161 169
164 180 191
155 172 179
154 171 179
160 176 186
148 164 169
147 163 167
151 167 174
162 178 189
159 174 183
145 161 166
144 160 163
151 166 172
120 138 132
70 95 56
64 89 52
73 100 60
72 97 57
70 96 58
75 101 61
70 95 56
75 102 61
71 96 57
68 93 55
72 97 59
70 96 56
73 99 60
70 95 57
75 102 62
113 132 121
160 177 188
158 174 180
144 160 165
165 180 193
152 168 175
142 160 166
161 177 186
161 178 189
150 167 174
134 151 153
117 135 126
83 108 74
74 100 59
68 93 55
110 131 118
156 172 180
164 180 190
157 173 181
153 170 177
149 165 170
150 167 173
166 182 192
149 166 170
162 176 184
164 182 193
159 176 184
157 174 181
156 172 180
155 172 181
113 134 122
122 142 136
138 154 154
158 175 182
148 165 170
156 173 183
158 175 184
161 177 186
164 181 192
170 187 199
158 174 183
159 176 184
153 170 177
87 111 86
70 96 57
75 101 61
80 107 65
73 99 60
74 100 61
75 101 62
78 105 63
74 101 61
74 100 59
74 101 61
88 113 84
152 169 174
168 185 197
162 178 185
151 169 174
126 146 138
83 108 77
77 103 63
72 98 60
76 103 63
75 102 62
110 132 122
164 181 193
162 180 191
171 188 200
162 178 189
172 188 201
169 186 199
173 189 203
160 177 185
164 181 193
169 184 193
167 185 196
135 154 151
92 116 88
106 128 114
161 178 187
161 178 188
155 172 180
160 177 186
160 176 187
159 176 186
168 186 200
156 173 181
166 185 196
157 175 183
120 139 129
92 116 90
78 105 64
79 106 66
73 99 61
75 101 61
105 127 113
159 176 184
154 172 181
163 180 191
151 168 176
158 175 182
166 181 191
161 177 186
149 166 173
154 172 182
138 157 155
95 120 94
78 105 65
75 101 61
74 100 60
74 100 61
78 105 65
72 97 57
105 125 111
157 174 183
160 176 185
158 175 186
154 170 179
155 172 179
160 177 185
157 174 182
157 174 181
157 174 183
154 172 183
160 176 185
141 158 163
102 122 106
72 97 59
73 99 59
76 102 62
97 117 102
110 129 120
119 139 133
81 108 72
68 92 55
70 96 56
73 98 59
74 101 62
71 97 58
77 103 62
66 91 53
77 104 63
72 98 59
76 103 62
70 96 57
72 98 59
74 100 60
75 102 62
77 103 62
83 108 74
103 124 106
138 155 156
80 104 74
71 96 57
74 101 60
73 99 59
76 103 63
75 101 61
70 94 56
76 102 62
72 98 59
71 97 58
74 100 60
75 101 61
71 97 58
76 102 62
74 101 61
73 99 60
70 96 57
69 94 56
74 100 60
84 106 81
151 167 173
157 174 181
157 174 182
158 175 188
158 174 183
143 159 164
161 177 184
158 174 181
154 169 181
145 160 165
138 155 159
117 136 129
112 132 118
87 111 82
73 98 59
75 100 61
68 92 55
73 99 60
68 92 55
75 100 64
150 166 172
149 166 173
153 169 174
148 164 169
139 156 158
156 172 180
154 170 178
149 165 175
148 163 168
155 170 179
154 169 174
141 157 162
142 159 165
154 169 175
147 161 167
154 169 177
150 166 173
147 164 171
151 166 172
145 162 166
122 139 133
74 100 60
72 97 58
67 92 55
70 95 56
74 100 60
71 97 59
75 101 62
72 98 59
69 94 56
64 88 51
69 93 56
71 96 58
71 97 58
71 96 57
80 103 73
110 130 117
114 134 121
111 128 121
141 157 162
134 151 153
67 92 55
70 95 57
67 91 54
73 98 59
70 95 57
69 95 57
69 94 56
69 94 57
71 96 58
70 96 57
73 99 59
67 92 55
68 92 55
69 94 56
68 93 55
69 94 56
65 89 52
75 101 61
69 94 57
73 98 62
152 167 173
157 173 184
146 162 171
146 162 168
146 163 170
149 164 171
140 156 158
134 150 152
148 164 172
148 163 171
152 167 173
153 168 175
144 161 167
150 166 174
155 171 179
149 165 171
156 172 181
151 168 175
152 169 174
149 165 169
90 112 88
70 95 57
71 97 58
71 96 59
68 92 55
66 90 53
71 97 58
70 96 57
73 99 59
68 92 55
72 97 58
70 95 57
72 97 58
74 99 60
71 97 58
71 96 57
69 94 56
72 97 58
68 92 55
87 110 83
144 159 166
152 168 176
130 146 149
138 155 163
144 160 167
154 170 175
145 159 165
144 161 167
147 163 169
146 163 168
135 151 156
151 167 174
150 166 175
148 164 170
149 164 171
145 161 168
146 162 171
149 165 170
132 149 149
101 120 109
71 96 58
67 92 54
67 92 55
67 92 56
72 98 58
74 97 65
77 100 69
85 108 78
88 110 86
86 106 88
85 108 86
99 120 105
95 115 94
107 126 119
100 118 105
108 127 117
118 139 131
109 126 116
120 138 133
125 143 140
120 139 133
105 124 112
106 124 117
113 131 125
109 129 119
109 129 119
96 117 98
103 123 110
117 136 129
111 130 119
117 134 124
109 129 118
114 134 123
107 126 117
114 134 125
119 138 130
101 122 106
128 146 144
122 140 134
114 134 123
119 138 133
112 131 120
117 134 127
98 119 102
111 131 123
111 130 119
105 124 113
104 124 107
98 119 102
99 120 105
96 117 98
82 105 75
82 105 77
68 92 55
130 147 147
156 172 182
148 163 169
149 166 172
160 177 188
151 167 173
152 168 174
157 174 182
163 180 191
144 161 168
160 176 187
156 172 178
146 163 170
146 163 166
152 169 177
151 167 175
146 163 167
87 111 78
72 99 60
74 101 61
76 103 62
72 98 58
72 98 60
70 96 58
70 95 56
76 103 63
74 100 60
69 94 56
75 102 61
73 99 60
74 100 60
72 99 59
72 99 61
130 149 147
142 158 165
163 179 192
155 171 178
153 170 176
132 151 150
114 133 122
93 115 93
76 100 66
72 97 58
68 93 56
71 96 57
75 102 62
75 101 61
75 102 62
117 137 129
154 170 178
151 168 174
162 178 186
154 171 181
156 171 179
147 164 171
149 165 174
152 169 176
156 173 182
154 169 174
159 176 184
158 174 182
156 173 180
139 157 159
77 103 65
75 102 63
75 101 61
91 115 92
114 133 122
140 158 160
152 169 174
158 175 183
169 187 201
165 182 194
155 172 183
164 181 192
144 162 167
90 114 86
73 99 60
76 103 63
73 99 59
75 101 61
74 101 61
75 102 61
79 106 65
74 100 61
78 105 64
76 103 63
91 115 93
153 171 178
160 177 186
158 175 185
164 180 191
163 181 191
148 165 169
132 150 148
92 115 92
80 107 72
80 108 67
108 129 117
161 177 185
162 179 188
164 181 191
165 182 193
173 191 206
160 177 187
166 183 194
156 174 184
120 140 133
84 108 81
77 104 63
81 109 67
135 153 152
165 182 192
164 182 193
155 172 177
164 180 190
162 179 188
165 182 195
157 174 183
162 179 190
113 135 122
83 109 74
79 107 66
81 109 68
66 92 53
74 101 61
75 101 61
76 103 64
107 128 116
153 169 174
155 170 176
160 175 186
167 183 195
150 166 172
159 176 186
151 168 172
111 131 120
80 106 70
80 107 65
79 107 66
74 101 62
74 100 60
74 101 61
73 99 59
77 104 63
75 102 62
102 123 109
155 172 180
149 166 174
156 172 181
156 174 183
163 180 190
159 175 185
158 176 187
152 169 178
132 150 149
104 124 112
68 94 56
75 101 61
74 100 60
71 97 58
71 97 58
73 98 59
76 102 61
73 99 60
116 135 123
152 169 177
150 167 172
120 140 133
99 121 100
74 100 63
71 96 58
77 103 61
78 104 63
73 99 60
72 98 59
77 104 63
72 98 58
70 96 58
79 104 71
114 134 123
134 152 150
152 169 177
167 184 198
160 177 188
88 110 83
75 101 60
76 102 62
75 102 62
72 98 59
73 100 60
73 99 59
73 100 60
76 102 61
69 95 56
74 100 60
70 95 57
65 89 52
71 97 58
74 100 61
68 93 56
67 92 54
67 91 53
69 95 57
73 99 59
139 156 156
167 183 196
155 170 177
162 177 186
142 160 163
161 178 190
156 173 181
142 158 161
129 146 145
89 113 86
67 92 54
71 97 57
72 96 58
68 93 55
72 98 59
74 100 61
70 95 57
74 100 60
73 99 60
67 91 54
139 157 159
150 164 171
155 171 182
158 174 181
159 175 184
145 161 165
148 166 172
154 171 181
155 170 176
153 169 176
150 167 173
149 164 172
146 162 167
145 162 169
152 167 170
153 168 175
142 159 161
148 164 167
154 169 177
155 170 178
134 149 153
66 90 52
70 95 56
68 93 55
72 98 59
70 95 57
69 94 57
70 95 57
74 100 61
70 96 57
85 108 79
98 119 101
105 123 113
129 147 145
147 164 170
147 163 169
142 158 165
148 165 169
141 157 158
152 168 176
143 160 164
83 105 81
71 96 56
71 98 58
72 97 59
71 96 57
70 96 58
71 96 57
69 94 56
71 97 58
66 90 53
69 94 56
74 100 60
69 94 56
69 94 56
68 93 55
69 94 56
66 90 54
70 95 58
73 98 60
69 94 55
129 147 145
151 167 174
148 164 170
146 162 168
156 172 181
145 161 167
155 171 176
152 168 175
144 160 164
137 154 157
157 172 178
155 170 178
142 159 163
152 167 175
152 168 176
147 161 170
147 163 168
153 169 176
148 165 173
154 170 176
125 142 140
65 89 51
73 99 60
66 90 53
71 96 57
65 90 54
70 95 57
71 96 57
71 97 58
75 100 60
71 97 58
67 92 55
72 98 60
69 93 55
67 92 54
72 98 59
70 95 56
71 96 58
66 90 53
67 92 55
104 121 112
146 163 172
155 172 181
148 164 169
150 167 174
147 162 168
148 165 170
140 157 163
145 162 162
149 166 171
145 160 166
143 159 163
131 149 147
130 148 147
118 137 132
117 135 125
114 133 128
112 130 120
102 120 106
98 118 102
120 137 134
138 155 157
149 164 172
142 159 163
148 164 168
149 164 171
148 163 168
156 173 181
147 164 170
143 159 162
154 170 178
157 171 179
148 164 169
140 156 157
153 169 176
146 163 169
143 159 162
154 169 177
138 155 159
69 93 58
77 103 62
69 94 56
69 93 55
70 95 57
73 99 59
66 90 53
76 102 62
69 95 57
71 97 59
74 101 61
68 94 55
72 97 58
73 99 60
67 91 54
73 98 59
72 97 59
70 95 57
139 156 159
140 155 157
151 167 175
154 171 177
148 164 170
154 170 177
149 166 172
144 161 166
151 167 175
151 168 176
145 161 170
145 163 170
147 163 169
138 154 158
143 160 165
149 165 175
146 162 165
133 150 151
88 112 83
81 104 74
92 115 90
93 115 93
107 127 113
92 113 94
106 127 114
97 119 100
115 135 124
120 139 134
117 134 130
131 150 147
144 161 162
158 174 181
158 174 182
149 166 173
144 161 164
76 100 64
75 100 60
72 97 59
74 101 61
71 96 58
70 95 57
70 96 57
73 99 60
73 99 59
69 95 56
73 98 59
77 103 63
68 94 55
74 100 60
75 102 61
96 119 95
139 157 156
125 143 140
90 112 89
73 100 60
66 90 53
71 97 57
75 101 61
70 95 56
68 94 56
73 99 60
74 100 61
77 103 62
76 102 63
74 101 62
75 102 65
139 158 157
154 169 176
160 177 188
161 177 188
163 179 191
155 172 182
159 175 184
151 168 174
158 174 182
159 176 184
159 176 186
159 177 185
158 175 186
163 180 190
120 140 134
71 97 59
74 100 60
73 100 60
71 97 57
74 101 61
73 99 59
79 105 69
90 113 90
133 151 147
140 158 158
159 175 185
161 176 187
138 155 158
74 100 61
74 101 61
79 106 64
78 104 63
74 100 60
79 106 64
81 109 67
73 99 60
72 98 59
72 99 60
76 103 62
102 125 107
159 175 185
163 179 188
163 179 189
166 183 195
160 177 187
158 175 186
174 191 205
166 184 197
132 151 149
127 147 143
112 134 120
169 187 199
165 182 193
161 178 189
172 189 201
155 172 175
116 137 125
79 105 68
83 111 69
78 106 66
81 109 67
82 110 68
145 163 167
166 183 195
166 183 194
162 179 190
171 187 200
164 181 191
137 156 154
103 125 105
74 99 60
74 100 61
75 102 62
77 104 65
79 107 66
79 107 66
72 99 60
77 104 63
68 94 55
122 142 134
162 180 188
164 182 191
160 176 185
151 167 173
125 145 141
90 114 86
81 108 67
74 100 60
77 104 63
74 101 61
77 105 64
76 103 63
73 99 60
76 103 62
75 102 62
77 104 63
70 96 58
113 134 119
163 179 189
165 181 190
155 171 181
155 171 177
167 182 195
142 160 163
124 142 138
81 106 72
70 96 57
74 99 60
73 99 60
74 101 61
72 98 59
72 99 60
72 98 58
73 98 59
72 99 60
77 104 64
109 129 119
171 187 201
154 170 177
146 161 165
150 166 171
151 168 175
140 158 159
129 147 145
101 122 105
90 113 87
70 95 57
77 101 73
114 134 124
132 150 148
152 168 175
156 173 180
158 174 181
153 170 179
163 179 187
154 170 178
100 122 102
73 99 60
70 95 57
71 97 59
76 102 62
75 101 61
72 99 59
74 100 60
67 92 55
69 94 56
72 98 58
70 96 57
73 98 60
72 98 58
69 93 56
71 97 58
72 98 58
75 101 60
71 96 58
77 104 63
138 156 158
148 164 172
147 164 171
133 150 149
123 141 139
87 110 82
70 94 58
70 96 58
72 98 59
68 93 55
73 99 60
72 97 58
73 98 59
76 102 62
74 100 60
70 95 57
68 93 55
68 93 55
74 100 60
76 102 62
131 148 147
155 172 180
153 169 175
139 156 161
157 173 181
147 163 169
156 171 178
154 171 181
153 168 175
148 164 169
153 170 176
132 148 147
145 161 168
146 162 165
157 172 184
151 166 171
154 169 175
153 169 174
144 160 166
149 165 171
143 158 165
70 96 58
75 102 62
75 101 61
66 91 53
78 101 72
103 121 107
106 125 116
137 154 153
135 153 156
153 168 177
158 174 183
157 172 180
169 184 194
145 161 164
145 162 170
149 165 171
155 171 180
141 158 163
152 168 178
160 177 185
102 123 104
71 97 58
70 95 57
71 96 57
69 93 55
72 97 59
69 94 56
70 94 55
71 96 59
72 96 57
61 84 48
66 90 53
69 94 56
73 99 60
70 95 56
72 98 58
70 95 56
67 92 54
66 90 53
63 87 49
83 105 81
146 161 167
150 166 173
145 161 165
147 163 167
154 170 178
152 168 173
150 166 174
151 165 172
152 169 178
146 162 169
139 157 160
153 167 173
146 162 168
153 168 176
151 168 173
154 170 177
146 162 170
146 163 172
139 155 162
151 168 175
78 101 70
70 95 57
76 102 63
71 97 59
70 95 56
71 96 57
71 96 58
69 94 56
73 98 60
67 91 55
71 96 57
71 96 57
67 92 55
75 101 62
72 97 58
74 100 61
74 100 60
76 98 74
92 114 93
108 127 119
127 145 144
116 134 124
113 132 124
118 137 129
101 122 104
92 112 93
86 109 80
73 99 59
68 92 56
72 97 58
68 93 55
73 98 59
65 89 52
69 93 56
70 95 57
71 96 57
70 96 56
65 89 52
69 94 56
123 141 136
157 172 181
143 160 163
148 163 168
157 174 182
157 173 184
150 166 174
154 169 178
159 175 185
148 164 174
144 160 167
157 173 184
159 175 185
152 167 173
157 173 182
155 172 181
144 160 163
150 167 173
141 156 160
107 127 114
72 98 59
66 91 53
68 93 55
68 93 56
70 95 56
74 100 60
69 94 57
71 97 58
72 98 58
68 94 55
73 99 60
67 92 55
75 101 61
70 95 57
73 99 61
72 97 58
71 97 58
80 102 76
162 178 189
144 162 168
154 172 179
141 158 161
154 170 176
141 158 163
146 163 167
153 170 175
153 169 175
155 171 180
156 173 183
154 171 179
153 168 175
158 173 181
149 166 172
160 177 186
155 171 181
124 143 136
72 97 58
77 104 63
68 94 56
76 102 62
68 93 55
74 100 60
71 97 58
72 98 59
75 101 60
73 99 60
75 102 62
72 98 59
72 97 59
76 102 61
73 97 62
84 108 78
106 126 113
132 150 151
127 146 143
120 138 130
113 133 123
112 132 120
111 131 118
86 108 83
79 104 69
67 92 55
74 100 60
78 103 71
100 123 104
116 135 132
142 160 161
154 171 178
139 158 158
76 102 62
76 102 62
74 101 62
74 101 61
80 107 65
71 97 58
72 98 59
71 97 58
72 98 59
74 99 61
74 100 60
73 99 60
74 100 60
76 103 63
84 108 76
146 164 165
163 180 193
156 173 179
153 171 179
151 169 176
151 167 173
154 170 176
164 179 190
160 177 189
162 178 187
150 166 170
168 185 197
162 177 187
155 171 179
110 131 114
74 101 61
75 101 62
76 102 61
77 104 63
75 102 61
77 104 64
71 96 58
74 101 61
73 100 60
76 103 63
95 118 97
115 136 122
103 125 110
85 111 77
73 99 59
78 105 64
75 102 60
78 105 65
73 100 60
78 105 65
73 99 60
77 104 64
79 106 65
80 108 67
109 132 112
163 181 191
160 178 187
169 186 196
161 179 189
168 185 195
158 175 184
164 182 194
170 187 198
168 185 197
172 189 202
157 175 183
144 163 168
147 164 165
100 123 103
75 103 63
79 106 65
79 106 65
75 101 61
79 106 66
78 105 64
76 103 63
153 171 178
159 176 187
166 182 194
161 178 192
138 157 157
86 112 79
74 100 60
76 103 62
79 107 66
78 104 63
76 102 62
74 101 61
76 102 63
75 103 63
73 100 60
78 106 66
74 101 61
122 140 134
165 180 189
152 169 175
132 151 148
85 110 80
72 98 60
76 103 62
76 102 63
76 102 62
72 98 59
72 98 58
76 103 63
75 102 62
77 104 64
80 107 66
78 105 64
72 99 59
74 99 59
112 133 120
160 177 185
161 178 188
149 167 171
134 152 149
88 110 86
78 105 64
72 99 60
73 98 60
72 98 59
71 97 58
74 100 60
75 101 62
76 103 63
74 100 60
76 103 63
69 94 55
72 96 58
71 98 59
107 128 113
164 179 187
162 178 188
159 175 186
158 174 185
156 171 178
161 177 184
152 168 175
154 171 177
129 145 142
87 109 83
112 133 120
128 146 142
142 159 162
152 168 176
155 172 179
154 171 180
163 179 189
160 177 188
159 175 185
105 126 111
72 98 59
73 99 60
74 100 60
76 103 62
72 98 58
75 101 61
70 95 57
74 100 61
75 102 61
72 98 59
74 100 60
72 97 59
69 94 56
72 98 59
70 96 57
76 103 62
71 97 57
73 99 59
87 111 86
116 134 126
111 130 120
84 108 79
72 98 59
74 100 61
73 100 60
72 98 59
73 98 59
74 101 61
70 96 57
75 101 62
73 99 60
73 99 59
71 97 58
74 100 60
69 95 56
71 96 57
71 96 57
71 96 57
69 93 56
100 119 105
150 166 171
159 174 183
146 162 169
151 167 177
151 168 172
152 169 176
146 163 171
156 172 177
150 166 172
156 171 180
150 166 172
155 170 176
155 173 179
145 160 164
147 163 170
152 168 178
148 164 171
163 179 191
146 162 166
141 158 162
95 115 96
115 132 126
121 139 135
136 153 157
149 166 173
146 162 165
151 168 174
162 179 188
141 157 160
151 167 173
157 173 180
146 163 167
157 173 184
139 154 157
149 167 173
151 167 173
145 160 165
153 169 178
144 161 165
149 165 170
135 152 152
71 97 58
64 88 51
74 100 60
69 93 56
74 99 60
73 99 60
68 94 56
69 94 57
71 96 58
63 87 50
72 98 59
67 92 56
67 91 54
73 98 59
66 90 53
72 97 59
68 93 55
71 96 58
67 91 54
75 101 61
137 153 156
143 159 165
152 169 176
156 171 179
154 172 180
158 175 183
149 166 172
151 167 175
145 162 163
152 169 176
135 152 155
151 168 173
148 164 170
142 158 165
145 160 166
147 164 170
153 168 176
149 165 173
148 165 170
152 168 177
112 131 121
70 95 58
69 93 56
72 98 59
67 91 53
73 99 59
70 95 57
75 98 66
99 119 101
89 108 93
92 113 90
114 132 128
125 144 137
129 146 146
143 158 162
152 169 174
148 165 170
148 165 173
144 160 167
152 169 176
101 120 107
65 90 52
72 97 58
71 96 58
70 95 56
71 96 57
74 100 60
72 98 59
70 95 57
69 94 57
73 98 60
72 98 59
72 97 58
71 97 58
67 92 54
70 95 57
68 93 56
76 102 63
67 92 54
82 106 78
137 153 156
160 176 186
145 162 165
156 173 183
155 170 177
154 170 179
153 170 178
148 164 170
138 154 158
146 161 166
153 169 177
145 161 166
146 162 167
147 164 172
143 158 162
154 170 179
154 169 174
151 167 175
157 174 182
76 100 69
74 101 61
72 97 58
75 101 61
73 100 61
71 97 59
69 94 55
70 96 57
73 99 60
74 100 61
67 92 55
68 92 54
75 101 62
73 99 60
74 100 60
65 90 53
66 90 53
70 95 57
126 146 141
156 172 182
148 165 171
152 167 174
157 173 181
154 171 181
158 175 182
146 164 170
155 172 179
149 165 173
164 180 191
141 159 163
163 178 189
156 172 181
157 175 184
139 155 155
147 164 169
152 168 174
98 119 103
72 97 58
71 96 58
76 102 62
70 95 57
77 104 63
71 96 58
72 98 60
73 100 59
74 100 61
76 103 61
70 94 57
70 96 57
74 101 60
75 101 62
72 99 60
73 100 60
128 147 144
153 171 181
161 177 187
144 161 165
149 166 173
149 165 172
145 162 164
130 148 147
118 137 127
80 104 75
99 120 102
109 128 118
125 144 142
120 140 135
141 159 163
133 152 152
107 127 112
74 100 61
76 102 62
76 102 62
71 96 59
71 97 57
71 97 59
73 99 59
79 106 65
72 99 60
75 102 62
77 104 64
74 101 61
74 100 60
73 99 60
92 115 92
153 169 177
152 167 173
158 175 184
163 180 191
157 172 177
156 173 179
161 178 190
158 175 185
164 179 189
163 179 189
162 179 190
158 176 185
159 176 185
166 182 194
101 122 105
79 106 65
77 104 63
75 102 62
73 100 61
70 96 58
80 107 66
75 100 60
72 98 58
78 105 64
79 107 65
80 108 66
77 104 63
126 146 140
155 171 178
139 158 158
99 121 104
93 117 93
75 101 61
73 100 61
75 102 61
76 103 63
78 105 64
73 100 59
80 108 67
113 135 124
168 184 195
158 174 182
162 178 185
162 180 188
158 176 186
159 176 188
174 190 202
166 184 196
162 179 188
164 181 193
152 170 178
70 96 57
81 109 67
79 107 66
74 102 61
75 101 61
77 104 64
79 107 66
79 107 65
77 105 64
161 177 186
159 177 186
117 136 127
85 112 79
76 103 63
79 107 66
77 103 62
73 100 60
75 102 63
77 104 63
79 107 65
74 101 62
76 104 64
71 97 57
71 96 57
72 99 60
81 108 69
116 136 126
101 124 106
71 97 58
76 103 62
77 104 64
74 100 61
73 99 59
75 102 62
77 104 64
76 102 62
75 101 61
71 96 57
77 104 64
76 103 62
77 104 64
74 100 61
80 107 65
75 103 62
113 135 122
141 159 164
99 121 102
76 102 65
78 105 64
76 102 62
76 103 63
73 99 60
75 102 61
73 100 61
70 95 57
74 101 61
76 103 63
76 103 62
76 104 63
68 93 54
74 100 61
67 93 55
77 105 64
88 111 88
163 179 191
147 163 168
160 176 184
154 170 174
153 169 174
141 158 158
100 120 103
80 105 72
76 103 63
73 99 59
75 100 60
78 105 63
74 101 62
84 107 78
100 123 104
108 129 115
130 147 147
141 158 162
158 174 182
113 132 126
74 100 61
72 97 58
71 98 59
76 102 62
68 93 54
74 100 61
68 92 55
72 98 59
70 95 57
66 91 53
67 92 54
73 99 60
74 100 60
75 102 61
78 104 68
86 108 85
119 138 131
149 166 170
152 169 177
121 139 136
72 98 59
72 98 60
70 96 57
72 97 58
77 103 62
72 97 59
72 98 59
68 92 55
72 98 58
70 95 57
75 101 61
73 99 59
78 104 63
73 98 59
77 104 64
69 94 55
74 100 61
69 94 56
76 101 61
83 107 77
153 168 176
157 172 178
147 162 168
147 164 171
146 162 165
166 182 192
150 166 171
152 167 173
146 161 166
150 165 169
147 164 172
148 165 171
152 168 176
149 165 173
159 176 185
152 168 176
138 155 157
121 139 134
94 114 100
87 107 84
126 144 138
149 166 175
156 172 178
156 171 179
155 172 182
155 170 178
155 171 176
152 168 176
147 162 167
141 157 162
158 173 181
153 168 173
153 171 179
154 168 174
142 159 163
152 169 177
148 164 169
151 167 175
156 173 182
140 156 161
159 174 183
73 98 62
69 93 56
73 99 59
69 95 57
71 96 58
75 102 63
69 94 57
75 101 62
73 99 60
70 96 58
74 100 60
72 98 60
71 96 57
72 97 59
74 100 61
75 101 62
69 94 56
70 95 58
70 95 56
75 102 62
116 135 128
150 166 171
152 166 173
146 162 169
149 167 173
161 177 187
147 162 168
155 170 176
141 156 160
143 159 167
154 171 178
145 162 165
158 174 182
140 157 163
144 160 164
156 172 183
153 169 177
155 172 181
150 167 171
150 166 170
121 140 131
107 124 112
107 126 115
128 144 142
132 148 147
140 156 161
132 149 149
152 169 177
151 166 173
152 167 174
145 161 167
132 150 152
142 158 161
154 170 178
145 161 168
142 158 161
143 159 166
147 163 165
152 169 174
146 163 166
147 164 170
72 97 59
77 103 62
72 97 58
69 94 56
72 98 58
72 98 58
72 98 59
68 93 55
74 99 59
74 100 60
73 99 59
68 94 55
73 99 60
70 95 57
70 95 57
75 100 61
69 94 56
74 100 60
75 102 62
121 138 133
152 168 175
162 178 188
143 158 161
161 177 187
157 174 183
156 171 180
144 160 167
137 154 158
143 159 162
150 166 171
148 164 167
148 164 169
142 159 161
146 162 166
145 162 168
155 170 175
152 169 176
155 171 178
117 137 129
74 101 62
69 94 56
71 97 58
67 92 54
70 96 57
67 90 53
67 92 54
71 97 58
70 95 57
69 95 56
72 97 57
70 95 56
66 90 53
75 102 63
73 100 60
73 100 61
70 95 57
77 102 70
151 168 175
155 172 181
160 176 186
155 171 180
145 161 166
156 172 182
148 164 171
150 167 172
153 170 178
162 179 190
158 175 184
158 175 183
141 158 158
148 165 170
161 177 186
162 179 191
148 165 172
138 154 154
70 96 58
72 98 58
72 98 59
73 99 60
73 99 59
71 96 58
69 95 56
73 100 60
72 98 59
71 97 58
75 101 61
73 100 60
69 94 56
73 99 60
76 103 64
73 99 59
90 113 88
140 159 160
128 146 142
103 123 108
109 130 119
74 99 63
75 101 61
74 101 61
77 103 63
69 94 56
72 98 60
79 106 65
65 90 53
74 100 61
75 102 62
72 98 59
71 96 60
129 147 145
146 164 168
142 158 162
132 150 146
127 146 142
109 129 120
94 116 99
81 106 73
71 97 57
77 104 63
74 100 60
71 97 58
72 98 59
75 102 62
67 92 54
111 132 122
163 180 190
153 171 178
164 180 191
153 168 175
155 171 178
165 182 194
166 182 192
153 171 179
167 183 195
161 178 189
164 181 192
160 176 186
145 163 170
158 176 183
97 121 97
72 98 58
73 99 60
77 104 64
79 106 64
77 103 62
72 99 59
76 103 64
73 100 59
76 103 63
77 103 63
77 104 63
78 106 65
133 151 153
155 173 185
150 168 171
163 181 192
142 161 165
128 147 144
114 134 126
78 102 70
76 103 63
73 100 60
81 109 67
74 101 61
115 136 127
159 177 186
160 177 186
156 173 183
169 186 200
170 186 199
164 181 193
165 182 193
152 169 176
165 183 194
167 184 193
76 104 64
78 106 65
77 105 64
79 108 66
79 107 66
81 109 67
77 105 64
78 106 66
89 111 87
112 132 121
75 102 61
82 109 67
80 108 66
76 103 64
80 108 66
76 103 64
77 105 65
77 104 63
76 102 62
82 110 68
78 105 64
79 106 65
81 109 68
90 114 88
128 149 143
149 166 172
108 128 115
78 106 65
76 103 63
76 103 62
76 104 62
79 106 65
78 104 63
74 101 61
65 91 52
75 101 62
72 98 59
75 101 61
77 105 64
79 106 65
79 107 66
77 104 64
93 115 94
129 148 147
129 147 140
78 106 65
76 102 62
77 103 63
76 104 63
77 104 63
73 99 60
75 102 62
76 103 63
73 100 61
79 106 65
74 100 61
78 104 63
78 105 63
73 99 60
74 100 61
74 100 60
69 95 56
75 102 62
87 112 79
161 178 188
148 166 171
143 162 163
112 133 120
81 107 68
74 101 60
73 98 58
74 101 60
72 97 59
77 104 64
79 105 64
72 97 58
74 100 60
72 98 59
74 99 60
73 100 60
76 103 62
72 98 59
82 107 70
112 132 119
127 146 144
118 135 129
99 119 100
90 114 85
73 98 60
75 101 61
73 98 60
76 102 62
72 99 60
71 96 57
74 100 60
79 104 72
106 126 115
130 147 147
157 173 181
146 162 168
150 167 173
157 173 182
142 159 160
133 152 153
68 93 56
72 97 58
74 100 60
75 101 62
76 102 61
72 97 58
73 98 60
75 102 62
74 100 60
71 97 58
73 99 61
70 95 56
73 99 60
73 99 59
78 105 64
73 99 60
73 100 61
74 101 61
73 99 59
72 97 60
140 157 162
149 165 171
150 165 171
135 151 152
145 161 165
152 169 176
159 176 183
139 156 161
163 178 189
151 168 176
145 162 168
156 173 181
134 151 151
119 138 131
95 115 95
76 102 65
70 95 57
70 95 56
69 93 55
74 100 61
106 125 115
148 165 169
154 170 177
142 158 162
152 169 178
163 179 188
150 167 173
151 167 172
143 159 162
150 166 175
151 166 173
146 161 168
154 170 178
159 175 183
148 164 170
158 173 180
156 172 179
153 169 175
151 168 175
152 169 175
144 160 166
115 133 124
68 93 55
71 96 58
68 93 56
78 105 64
67 91 54
67 91 54
70 95 56
69 94 56
64 88 51
73 99 59
71 96 56
71 97 58
69 94 56
67 92 54
66 90 54
73 99 60
71 96 58
68 93 56
73 99 60
88 110 89
153 169 178
151 166 172
148 164 167
148 164 171
158 174 186
147 164 169
149 164 170
160 175 183
153 168 175
143 159 162
146 161 167
139 157 159
133 148 149
121 140 135
110 128 120
93 112 92
81 104 74
70 94 57
68 92 54
67 92 54
133 151 148
158 174 181
150 165 170
151 167 171
137 152 155
150 167 173
152 168 175
152 168 175
142 159 161
144 160 162
150 166 172
139 156 158
149 166 173
151 168 176
145 161 168
139 156 160
153 169 179
140 157 161
146 161 166
152 168 177
92 114 94
76 102 62
73 99 59
71 97 58
70 95 57
70 95 57
70 95 57
68 93 56
71 96 57
74 99 60
71 96 58
69 94 56
73 100 60
72 97 58
75 101 62
66 90 53
75 102 62
71 97 58
73 99 60
81 102 77
149 165 173
146 163 168
143 160 161
154 170 176
158 173 183
145 160 167
156 172 181
150 164 172
150 167 174
152 167 173
152 168 175
148 164 171
146 161 169
140 158 159
147 163 168
158 174 184
147 163 166
150 167 174
145 162 165
83 107 78
72 97 59
71 96 58
71 96 57
71 97 58
71 96 58
71 97 58
71 96 58
73 100 60
71 97 57
75 100 60
71 97 59
75 101 61
73 99 60
71 96 57
72 98 58
68 92 55
66 91 54
123 143 135
155 171 181
147 164 170
155 170 179
145 161 167
162 177 187
150 166 176
152 169 176
146 164 170
151 168 175
143 159 164
149 165 173
153 169 177
171 188 201
151 168 174
152 168 175
152 169 179
155 171 180
104 126 110
73 98 59
69 94 55
72 98 59
78 104 64
70 95 57
75 101 61
74 101 61
71 98 58
77 103 63
73 99 59
81 106 75
97 118 101
125 145 139
130 148 146
143 160 161
163 180 189
141 158 157
72 97 58
74 100 61
76 103 63
75 101 61
76 102 62
72 98 60
72 98 59
72 98 59
72 97 58
73 99 60
72 99 59
75 102 62
70 95 58
77 104 63
75 102 62
85 107 84
149 166 171
156 173 182
156 173 182
156 173 181
155 172 179
154 170 180
164 180 191
150 168 172
146 164 166
140 157 157
128 147 144
109 129 116
91 114 88
78 104 66
77 104 63
144 162 164
165 181 190
166 182 196
154 171 179
164 180 191
164 182 194
165 182 194
159 176 185
166 184 195
157 175 185
158 174 181
161 177 188
169 186 198
161 176 185
148 165 172
85 111 79
73 100 60
74 101 61
76 102 61
70 96 57
75 101 62
71 97 58
78 105 64
73 99 60
77 105 64
74 100 61
80 107 66
69 95 57
143 161 163
166 182 194
162 178 186
162 179 190
164 182 194
166 182 193
168 184 195
146 164 170
130 150 144
96 118 97
85 111 75
75 102 62
113 131 122
165 181 194
163 181 190
164 182 193
162 178 185
157 174 183
170 188 201
171 189 203
164 182 193
167 184 196
80 108 66
79 108 66
78 106 65
78 106 65
79 106 64
79 106 65
94 118 93
148 166 171
151 169 176
79 107 66
72 99 61
79 106 65
74 102 62
76 103 62
73 100 59
77 103 62
77 105 64
76 103 62
72 98 58
78 106 65
75 102 61
97 119 102
134 151 150
164 181 191
161 177 187
151 167 173
103 126 108
74 101 61
79 106 65
76 103 62
78 105 64
75 101 61
74 101 62
78 105 64
75 101 62
80 108 67
76 103 63
75 102 61
78 105 64
81 106 74
117 137 127
146 164 168
158 175 184
162 178 188
138 155 156
74 101 61
74 100 61
78 105 65
79 107 66
82 110 68
79 106 64
76 103 63
74 100 61
76 103 62
78 104 64
81 108 67
72 98 60
78 106 65
76 103 63
70 95 57
74 101 61
73 100 61
78 105 64
106 125 112
125 144 141
84 107 78
76 102 62
72 98 59
73 99 60
74 100 62
72 98 59
77 104 64
71 97 59
73 99 60
77 105 63
78 104 64
75 100 60
73 100 61
75 102 62
72 97 58
71 97 59
77 104 63
72 98 59
110 132 117
143 160 162
149 166 174
153 169 178
156 173 179
150 166 171
137 154 156
126 145 142
108 129 112
77 102 67
113 132 122
137 154 154
157 173 180
158 173 182
149 165 167
160 175 184
161 178 188
156 173 181
150 166 170
153 168 174
147 164 168
69 95 56
75 101 61
69 95 57
78 105 64
68 94 57
69 94 56
71 96 58
73 99 59
74 101 61
73 99 59
71 97 58
69 95 57
73 99 60
75 101 61
71 96 58
72 97 59
61 85 50
78 104 64
75 101 61
71 97 58
122 139 136
152 168 175
143 159 163
155 172 179
157 172 179
165 182 191
146 161 171
156 173 182
140 157 157
112 132 119
86 107 84
72 97 58
71 96 58
71 97 57
71 96 57
70 95 58
69 94 57
74 100 60
70 95 57
76 102 62
72 97 61
148 163 168
162 178 186
152 167 174
158 174 185
151 167 176
156 171 179
152 168 175
153 169 176
167 182 192
152 167 175
148 164 171
148 165 170
148 164 168
153 169 178
141 158 162
160 175 183
158 174 185
156 172 181
145 161 164
150 165 172
132 150 149
74 99 60
73 98 59
67 92 55
69 94 56
72 97 58
69 94 55
69 94 56
72 97 58
70 94 57
75 101 61
68 94 56
69 93 55
68 92 55
75 102 62
67 93 54
71 96 57
74 100 60
73 98 59
71 96 58
70 95 56
149 166 171
150 165 171
163 177 185
156 172 181
144 160 163
120 140 136
124 142 138
125 142 142
87 111 86
82 105 76
70 95 57
73 99 59
72 97 58
70 95 57
73 99 60
72 97 59
73 98 58
75 101 61
67 92 54
74 100 60
103 123 113
149 165 171
148 164 169
140 155 157
151 168 173
145 161 163
151 167 173
145 162 166
147 164 170
161 178 187
160 176 185
150 167 172
162 178 189
154 171 179
143 159 163
153 168 175
159 174 185
152 169 175
141 156 162
142 159 165
142 159 160
76 102 62
69 94 56
66 92 54
75 101 61
68 92 55
70 96 56
66 91 53
66 90 53
68 93 55
74 100 60
72 98 59
70 96 58
68 93 55
62 86 49
69 94 57
71 97 58
74 100 59
68 92 56
66 91 54
125 144 138
148 163 168
142 160 164
155 171 176
150 167 174
157 175 183
149 166 172
150 166 173
157 173 182
140 157 157
143 158 162
149 166 171
156 172 180
150 166 172
151 166 176
157 172 178
144 160 167
146 162 167
155 172 177
135 153 152
73 99 60
72 98 59
74 99 60
70 96 57
69 94 55
70 95 57
74 100 60
72 98 58
67 91 54
73 98 59
67 93 54
72 98 59
77 104 64
71 96 58
75 101 62
71 96 57
76 103 63
70 94 58
143 159 161
141 158 161
151 167 171
151 167 175
156 173 181
152 168 176
155 171 178
153 169 175
149 165 172
160 178 189
152 170 177
159 175 185
156 171 180
162 179 190
161 176 187
158 175 185
157 173 180
148 165 169
82 105 79
73 98 59
73 99 60
75 102 62
82 107 76
94 116 95
114 133 125
133 152 148
138 156 155
153 170 177
168 185 195
156 171 177
164 181 193
150 167 173
151 168 173
157 173 183
156 173 181
112 133 121
76 102 62
74 100 61
71 96 57
69 94 55
74 100 61
71 97 58
73 99 60
72 99 60
73 99 59
70 95 57
74 101 61
74 101 61
72 99 60
74 100 61
74 100 60
106 127 113
152 170 180
163 179 189
147 163 172
156 173 183
164 181 193
161 177 188
149 166 173
164 180 191
163 181 192
159 174 184
153 170 178
158 174 179
156 172 183
155 171 176
144 162 165
135 155 152
126 144 139
156 173 180
157 175 186
162 179 191
160 177 188
162 179 188
162 178 187
160 177 185
159 176 186
167 184 194
165 182 194
162 179 187
159 176 187
120 139 134
75 102 62
75 101 62
75 102 62
76 103 63
76 103 63
74 101 61
78 105 64
75 102 62
80 107 66
73 99 60
72 99 59
75 102 62
80 107 68
160 177 187
161 178 189
163 180 192
145 163 168
160 177 188
160 178 189
163 181 189
157 174 182
165 182 194
164 180 190
142 160 165
127 147 139
141 160 162
153 171 178
158 176 186
160 178 186
170 187 200
162 179 190
169 185 197
166 183 197
158 176 184
72 99 59
79 106 65
78 105 65
81 109 70
107 130 115
146 164 170
165 182 193
166 182 193
131 150 148
80 108 66
76 103 63
81 109 67
75 102 62
78 106 66
80 108 66
78 106 65
73 99 59
80 108 66
79 106 68
114 136 126
151 169 173
161 179 191
161 178 188
167 184 195
163 180 191
167 183 193
91 116 90
76 103 63
80 107 67
77 104 63
77 104 63
79 107 66
74 101 62
73 99 59
76 103 61
77 104 64
75 101 61
99 123 97
131 152 148
153 171 180
155 172 180
163 180 189
169 185 196
170 187 200
131 148 145
74 100 61
75 101 61
78 105 65
75 102 61
75 101 61
76 103 64
77 104 63
75 101 62
79 106 65
75 101 61
76 104 63
75 102 62
72 99 59
75 102 61
78 105 64
97 121 99
125 143 139
152 169 173
159 175 181
73 98 58
72 97 58
75 101 61
74 100 61
77 104 63
74 101 62
73 99 60
71 97 57
80 108 66
75 101 62
78 105 64
72 98 58
74 100 61
75 101 61
72 97 59
71 97 58
74 101 60
75 102 62
75 101 61
95 117 95
145 161 169
161 178 188
155 172 180
148 165 171
153 170 177
150 168 172
130 148 146
99 122 98
81 106 73
69 94 56
81 105 72
104 123 108
114 134 122
126 145 143
139 155 155
149 166 173
151 168 177
148 165 170
161 178 188
156 173 183
85 110 77
70 96 57
73 98 59
72 98 58
69 94 55
72 98 59
73 98 59
74 100 61
76 102 62
75 101 61
72 98 59
76 103 62
65 89 52
75 101 62
75 101 61
74 100 60
74 101 62
71 96 58
68 92 55
76 102 62
116 136 126
161 177 187
146 163 168
149 165 169
126 143 137
119 137 132
87 110 84
76 103 63
73 99 60
76 103 63
75 102 62
76 102 62
75 101 61
69 95 57
68 93 56
71 96 57
74 100 60
71 96 59
70 95 56
72 97 58
74 100 61
147 164 169
151 166 173
142 159 165
156 171 181
155 171 178
157 173 179
155 172 179
149 166 174
167 184 194
146 163 170
155 172 179
157 173 184
157 173 180
158 173 183
143 161 165
150 166 175
158 174 184
162 177 189
147 164 169
147 164 173
153 170 177
75 101 65
74 100 61
74 100 61
74 100 61
77 103 63
72 98 59
69 94 56
72 98 59
70 95 55
72 97 58
70 96 57
71 97 59
74 100 62
70 96 58
69 94 55
73 99 59
66 91 53
81 104 76
89 112 88
98 118 104
130 150 145
113 132 120
88 111 87
79 105 70
71 97 57
70 96 58
70 96 58
74 99 60
68 92 55
71 97 57
72 98 58
70 95 57
70 95 57
73 99 60
70 95 57
74 100 61
79 106 64
67 92 54
72 98 59
70 95 58
71 96 61
147 164 169
154 171 178
150 167 176
152 168 173
153 170 176
139 156 159
144 160 165
149 165 173
165 181 192
153 171 181
159 175 183
154 170 176
158 174 185
155 171 180
150 165 172
142 158 162
150 166 170
154 171 174
145 161 166
148 164 171
91 113 90
71 96 58
73 99 60
70 95 58
72 98 58
76 102 62
72 98 59
72 98 59
73 99 59
72 98 59
66 90 52
70 95 56
72 97 59
68 93 56
71 97 58
73 100 59
69 94 56
73 99 59
73 99 59
85 109 80
155 171 181
147 164 170
156 172 178
146 162 168
164 180 191
157 174 182
158 173 181
146 162 166
152 169 175
161 177 185
156 173 182
158 174 184
153 169 178
152 168 174
146 162 168
151 166 171
159 174 185
151 168 175
146 163 168
89 112 88
71 96 57
75 101 61
70 96 57
76 103 62
77 103 63
73 99 59
73 98 59
71 97 58
74 100 60
75 101 62
74 100 60
73 99 60
76 102 62
72 98 59
71 97 58
73 100 61
69 94 55
89 111 90
150 166 173
149 166 172
145 160 165
157 174 182
151 167 174
143 160 162
161 178 189
168 183 195
141 158 161
158 175 184
149 166 174
154 170 179
150 167 172
158 174 183
146 164 171
137 155 158
143 161 164
113 134 123
117 137 124
128 146 149
154 171 179
156 172 178
156 172 179
150 167 173
149 167 174
149 165 170
153 170 178
145 162 167
153 169 175
157 173 183
159 176 186
156 173 182
153 169 179
157 174 182
148 166 171
85 109 81
74 100 59
73 99 60
70 95 57
77 103 62
68 94 55
74 101 61
76 103 63
74 100 60
76 104 63
68 93 54
69 94 56
79 107 65
78 105 64
73 100 60
74 100 59
136 154 154
148 165 173
157 175 184
160 175 183
156 173 180
163 180 189
157 173 179
154 172 182
159 175 185
166 183 195
154 170 172
161 178 188
158 174 182
159 177 186
161 178 189
155 172 179
82 107 73
76 103 63
80 106 68
88 114 85
109 130 115
125 143 138
140 159 161
139 156 159
165 181 191
166 182 196
158 176 185
169 187 199
156 174 183
170 186 195
118 136 128
77 104 64
75 102 62
79 106 64
79 106 65
71 97 58
78 106 65
75 102 61
78 106 65
76 103 63
80 108 66
73 100 60
74 102 62
85 110 81
162 179 189
166 184 195
169 184 194
156 174 186
162 178 190
155 173 184
159 178 187
167 185 197
163 179 189
168 185 196
159 177 187
166 181 192
128 148 144
109 131 116
146 165 168
161 177 185
162 181 192
162 179 188
171 188 201
172 189 201
78 106 65
79 107 66
127 148 140
159 177 185
168 185 197
164 182 197
162 181 192
173 189 204
119 139 128
77 104 64
77 105 65
78 106 64
75 102 62
78 105 64
79 106 65
78 106 64
102 126 103
118 138 130
163 181 191
162 180 191
161 179 188
167 184 194
164 181 192
160 176 186
155 172 181
160 178 188
86 110 80
79 107 66
79 106 65
75 103 63
75 101 61
75 102 62
78 106 65
74 101 61
78 103 71
123 144 137
156 173 182
158 174 183
161 177 186
159 177 187
157 174 182
170 188 201
159 176 183
154 172 178
130 150 146
77 104 63
75 102 61
77 103 63
75 102 62
72 98 59
77 104 63
74 100 61
73 100 61
72 99 60
71 97 58
72 97 58
78 105 64
94 116 95
115 136 126
150 168 176
160 177 186
164 180 189
154 170 176
156 173 182
77 102 67
77 104 63
72 98 60
75 101 61
70 95 56
73 99 59
79 106 65
71 96 57
75 101 62
75 101 62
70 96 57
78 104 63
75 101 61
73 99 60
71 96 57
75 102 61
75 102 61
75 102 61
75 101 62
84 107 81
161 179 186
153 169 175
143 160 164
120 140 132
85 109 80
69 94 56
72 98 60
72 97 58
77 105 64
72 98 58
77 104 64
75 102 62
74 100 61
75 101 61
75 101 61
69 95 57
76 103 62
87 108 83
109 131 121
124 143 137
104 125 112
108 128 113
98 120 101
74 98 61
73 100 61
73 99 60
74 101 60
74 101 61
69 94 56
72 98 59
77 103 62
76 102 61
75 101 62
73 99 59
72 97 58
75 101 61
75 102 62
78 105 65
69 94 55
80 104 75
117 137 130
108 128 113
96 120 99
72 98 59
77 104 63
73 99 59
75 101 60
74 101 61
69 93 54
74 101 61
73 99 60
72 98 59
72 97 59
70 96 57
77 103 63
73 98 59
75 102 62
72 97 59
67 91 55
72 98 59
77 103 63
124 143 137
147 163 172
149 165 171
146 163 169
160 176 184
151 166 171
149 165 173
162 179 188
161 177 187
162 178 188
153 170 177
162 179 189
156 173 180
149 165 169
141 156 163
158 174 183
148 164 171
155 170 177
161 178 189
143 160 164
155 171 180
101 122 108
76 102 61
73 99 59
77 104 63
72 99 60
65 90 52
71 97 58
70 96 57
72 98 59
74 100 61
78 105 64
74 99 66
96 118 97
118 137 128
123 142 137
143 160 161
150 166 168
158 174 184
158 174 185
158 174 181
147 165 171
75 100 64
77 103 63
70 97 58
68 93 55
64 88 52
71 96 57
66 90 54
71 97 58
76 103 62
72 98 58
68 92 54
76 102 62
72 98 59
70 95 58
69 93 55
75 102 62
73 99 60
72 98 59
72 98 59
71 97 59
123 141 137
152 168 175
160 177 185
153 169 174
149 167 173
149 164 172
140 157 160
145 162 167
161 177 183
159 175 183
145 161 166
151 167 173
144 161 164
159 175 183
156 173 182
151 167 176
147 165 170
151 167 174
154 172 181
153 169 179
123 141 138
77 103 63
72 98 58
69 95 56
70 95 58
73 99 59
72 98 58
73 98 59
75 101 61
74 100 60
73 100 60
75 101 61
72 97 58
76 103 62
66 90 53
69 95 56
72 98 59
72 97 58
74 100 60
71 96 58
126 143 139
158 174 182
138 155 158
156 172 184
153 169 177
155 170 177
159 175 186
145 161 166
157 174 182
141 158 161
147 164 170
150 167 173
156 172 179
158 175 181
163 179 189
149 166 172
161 177 190
156 173 182
147 163 164
139 156 156
70 95 57
75 101 62
72 98 59
77 104 63
74 100 60
70 95 56
71 97 58
76 101 61
74 100 60
73 99 59
73 98 59
70 95 57
69 94 56
71 97 59
73 99 60
70 95 57
73 100 61
75 102 62
130 148 145
160 175 185
161 177 188
162 178 187
154 172 179
150 166 173
163 180 191
147 166 173
141 158 160
128 146 146
139 157 161
123 142 135
87 108 86
90 112 92
75 100 64
78 106 65
70 96 58
76 102 62
139 157 156
164 180 189
151 168 175
144 161 167
156 172 181
158 176 183
152 168 176
157 173 184
154 170 177
150 167 171
165 180 190
160 177 188
155 171 179
157 172 179
156 171 177
160 177 187
162 178 188
116 138 128
74 100 61
75 102 61
71 97 58
71 97 58
75 102 62
75 102 62
77 104 63
72 98 58
79 106 64
80 107 66
79 105 65
73 99 60
76 103 63
71 97 58
68 94 56
78 103 67
146 164 167
154 172 181
166 182 192
151 168 175
162 179 190
157 174 184
162 179 191
157 173 182
155 172 180
163 180 191
161 178 189
163 180 193
165 183 196
169 186 199
156 174 184
123 143 137
75 102 61
71 96 58
73 99 60
71 97 58
76 102 62
75 102 61
76 103 63
77 103 69
96 119 100
111 131 119
137 156 155
150 169 174
157 174 181
163 180 191
100 124 104
75 102 61
76 103 62
75 102 62
77 104 63
79 106 65
75 102 63
79 106 65
74 99 60
81 110 68
78 106 66
73 99 59
80 108 66
101 124 104
158 177 189
162 180 190
158 174 182
160 178 188
169 186 199
162 179 192
166 183 195
166 183 193
166 183 194
160 178 188
172 189 202
167 184 195
115 138 128
77 105 64
77 105 65
100 123 101
141 161 159
153 171 177
156 173 180
129 149 144
155 173 180
167 184 196
165 181 192
169 186 198
165 182 195
164 181 191
162 179 190
116 137 124
75 101 61
76 103 63
79 107 65
73 99 59
76 105 64
103 124 107
141 160 160
162 179 188
156 174 182
167 183 193
153 170 177
167 183 194
165 182 193
169 185 194
166 183 195
171 188 201
160 178 189
75 102 62
78 106 66
76 103 62
78 106 65
79 107 66
76 103 63
94 116 93
122 142 136
157 174 178
171 188 200
157 175 186
163 180 192
163 179 187
159 176 189
156 173 180
152 169 176
159 177 187
152 169 177
120 140 130
76 103 63
79 106 65
76 103 63
74 101 62
77 105 64
77 103 63
77 104 63
74 101 61
77 103 63
82 107 73
107 128 114
141 158 161
155 172 180
157 174 184
164 181 193
159 176 184
156 173 180
158 174 185
168 184 194
83 110 73
75 101 62
71 97 58
74 100 60
74 100 60
73 98 59
75 102 62
74 100 60
72 98 60
72 98 59
71 97 57
77 104 63
73 100 60
73 98 59
76 102 62
80 108 65
76 102 61
71 96 56
82 106 75
112 132 122
120 138 132
91 114 93
78 104 63
74 100 60
72 98 59
79 106 65
73 99 59
75 102 62
77 103 63
72 98 58
80 107 66
75 102 62
76 103 62
75 101 61
75 101 61
70 96 57
73 98 59
68 93 55
71 97 58
71 96 57
139 156 157
155 171 178
165 181 191
162 179 191
151 167 173
138 156 156
124 143 139
125 145 136
102 123 111
117 136 125
89 111 85
85 109 80
71 97 58
72 98 60
71 97 58
80 105 72
109 130 118
115 135 126
142 159 164
166 181 191
159 175 182
77 102 64
72 98 58
74 100 59
73 98 59
74 100 61
72 99 59
73 100 60
74 100 61
70 96 56
73 100 60
79 105 64
73 99 60
64 88 51
78 104 64
76 102 62
74 101 61
73 99 59
74 100 60
74 100 60
76 102 63
106 128 111
159 176 185
151 168 170
152 169 180
154 171 179
156 172 181
153 170 177
155 171 181
160 178 189
162 178 188
157 174 185
164 180 191
161 177 190
155 170 175
153 170 179
166 183 194
149 165 174
153 170 177
150 167 177
151 167 173
162 178 185
128 147 145
77 103 63
73 99 60
70 96 58
73 100 60
72 98 59
81 105 77
104 124 109
119 138 130
122 140 135
149 165 171
155 169 178
161 178 189
155 170 179
151 167 175
149 165 169
154 171 179
156 172 181
157 173 183
165 180 191
147 163 172
108 128 118
75 101 61
69 93 56
71 97 58
72 98 58
72 98 58
73 99 59
72 97 59
71 97 59
68 94 55
70 96 57
74 99 59
66 90 53
66 91 53
68 92 54
71 96 57
74 99 60
73 99 60
73 99 59
72 97 58
95 118 93
150 167 175
155 171 178
154 171 179
157 173 181
146 162 167
146 163 168
153 169 175
154 171 179
147 164 168
145 160 166
146 163 168
149 165 170
156 173 184
156 173 183
147 164 171
143 159 163
145 160 162
153 170 178
154 172 179
158 176 186
79 104 70
74 99 61
70 95 58
67 91 55
74 100 61
68 93 56
69 95 56
75 101 61
70 95 57
67 92 54
76 103 62
76 102 61
70 96 58
74 100 60
74 100 61
73 99 59
77 104 64
73 99 59
71 97 59
87 110 83
150 167 175
164 179 189
157 173 182
157 173 181
159 174 182
157 174 184
159 177 188
153 169 174
155 172 179
159 176 186
157 173 183
154 170 177
155 172 181
143 159 167
163 179 191
159 174 183
156 172 181
155 171 179
160 175 183
91 112 93
73 99 60
71 96 58
70 95 57
74 99 60
73 99 60
71 96 58
75 100 60
76 103 63
75 102 62
77 103 62
70 96 57
76 102 62
69 95 58
73 99 60
76 103 63
73 99 60
81 105 74
102 123 107
145 162 162
118 137 129
119 137 129
100 123 102
88 111 87
78 102 71
74 100 62
72 98 60
74 99 60
75 101 61
73 99 59
71 96 58
70 95 57
77 104 63
68 93 55
74 100 61
77 104 63
92 115 90
156 173 182
149 166 173
161 178 187
148 165 170
161 177 186
158 174 185
151 168 175
158 174 181
162 178 189
165 182 193
152 169 177
160 177 187
158 175 184
157 172 180
167 182 195
162 177 187
160 176 185
101 122 103
77 104 64
72 98 59
72 98 58
75 102 62
73 98 59
71 97 58
69 95 55
75 101 60
76 104 63
72 97 58
72 98 59
75 101 62
76 102 63
73 99 59
78 104 64
96 118 98
167 184 199
155 172 180
165 181 193
169 186 199
155 173 181
160 178 190
163 178 188
161 178 189
149 166 174
163 180 188
160 176 188
159 175 184
164 180 189
165 181 191
165 183 196
109 129 116
79 107 65
77 104 63
74 100 60
74 101 61
76 103 62
79 106 65
75 103 63
74 100 61
71 97 57
66 92 54
80 108 66
76 103 63
90 114 86
106 127 107
111 132 116
105 128 111
82 107 75
78 105 64
74 101 61
73 100 60
76 103 63
78 105 64
81 109 68
74 101 61
77 104 64
74 101 61
78 104 64
114 136 121
158 175 184
154 172 180
165 182 188
162 180 190
161 180 191
164 181 193
170 188 203
154 171 180
161 177 185
165 182 193
163 180 190
167 184 196
107 130 112
76 104 64
73 101 61
81 109 67
79 106 65
90 115 86
171 188 200
170 187 198
163 182 195
159 177 189
163 180 190
173 191 207
171 189 204
159 177 187
99 124 101
77 104 64
81 109 67
73 100 61
105 126 112
145 164 166
174 190 203
159 177 190
167 182 192
164 181 191
158 175 184
162 180 191
154 172 180
161 180 190
164 182 194
168 185 197
156 173 182
159 177 185
79 106 65
78 105 64
71 98 58
77 104 64
111 134 121
149 167 172
164 181 194
162 179 188
162 178 186
165 182 194
163 179 190
167 185 197
167 183 193
161 178 190
165 183 195
174 190 203
157 175 184
167 184 197
150 169 175
79 106 65
74 101 61
79 107 66
76 103 62
72 98 59
76 103 63
75 102 62
92 114 89
139 157 158
162 179 188
161 179 190
165 182 195
156 172 182
165 182 192
166 183 196
165 181 192
156 173 181
158 175 185
153 171 177
100 122 102
77 104 64
71 97 57
73 99 59
80 107 66
75 102 62
80 107 66
73 99 59
77 104 64
76 102 62
75 101 61
76 103 62
78 105 64
79 106 65
75 102 62
80 106 67
116 136 123
138 157 156
151 168 176
154 171 182
91 112 88
68 94 56
70 95 57
71 97 58
76 103 62
72 98 59
75 101 61
76 102 62
73 99 59
70 95 57
77 104 64
75 102 62
71 96 57
75 101 61
72 98 58
75 101 61
73 99 61
77 104 64
81 109 67
71 97 58
114 134 122
161 179 186
162 178 185
154 172 181
156 172 180
150 167 174
153 170 180
158 174 180
152 169 178
147 164 172
158 174 184
163 179 187
142 159 162
117 135 129
77 101 66
110 130 121
111 131 119
119 138 132
124 142 138
137 155 157
149 166 170
95 117 97
69 95 56
76 103 63
74 101 60
72 98 58
68 94 56
78 105 64
73 99 60
69 93 55
73 98 59
73 98 59
69 94 56
69 95 56
71 97 58
76 102 62
77 104 64
67 92 54
73 98 59
75 101 61
74 101 62
75 100 63
154 170 177
152 169 178
163 180 190
157 173 181
145 161 165
142 158 160
155 171 179
151 167 174
156 172 182
164 180 192
156 171 178
149 165 171
164 179 191
151 169 178
152 169 177
151 167 171
157 174 182
148 164 172
152 169 179
148 165 174
148 165 170
96 116 97
122 141 136
118 137 130
138 154 155
156 173 181
148 165 171
146 163 171
159 175 184
157 173 180
158 175 186
146 163 167
157 173 184
157 172 178
151 167 174
157 172 180
159 175 183
158 174 183
151 169 179
159 175 181
149 166 173
137 154 153
69 93 55
76 102 63
72 98 59
71 96 58
76 103 63
68 94 56
71 97 59
73 100 61
70 95 57
74 100 60
69 94 56
69 95 56
74 101 60
71 97 58
70 96 57
72 99 60
72 97 59
73 99 60
71 96 58
70 96 57
132 150 148
153 170 178
161 178 187
141 157 162
154 171 177
160 176 185
159 175 184
141 158 161
162 178 188
152 169 175
168 184 199
155 171 177
158 175 186
138 155 157
159 175 185
159 175 185
157 174 182
160 176 184
158 173 183
161 177 186
126 145 138
70 95 57
72 98 58
77 103 63
71 98 59
70 95 57
73 98 59
71 97 58
74 100 61
73 98 60
70 95 57
70 95 56
76 102 62
71 96 57
68 93 56
70 95 57
72 98 60
70 96 58
74 101 61
73 98 58
123 142 136
159 175 184
157 173 183
154 171 179
146 163 169
161 177 187
151 168 177
154 169 176
156 173 184
152 168 177
146 162 169
157 174 184
150 166 171
158 174 183
149 167 173
159 176 185
148 164 173
155 171 177
146 162 166
138 157 159
73 99 60
76 101 62
76 102 63
70 95 57
71 97 58
75 101 61
73 99 59
91 114 90
95 116 98
100 121 107
118 137 130
141 159 161
131 149 148
138 155 154
151 167 173
162 179 189
157 172 179
155 171 179
120 139 133
79 107 66
69 94 56
77 103 62
72 98 59
73 100 60
72 98 59
70 95 58
71 96 57
78 105 64
75 101 61
74 99 61
72 98 60
75 102 62
76 103 63
72 98 59
73 99 60
77 104 63
114 134 125
162 177 186
153 170 179
164 181 194
147 164 168
163 179 188
149 166 171
170 186 200
162 178 187
161 179 190
149 166 172
151 168 175
150 168 173
162 179 188
150 167 175
161 178 187
139 156 159
150 167 175
87 111 82
78 104 63
76 103 63
77 104 64
75 102 62
73 100 60
74 100 62
77 104 63
77 104 64
78 105 64
71 97 59
73 100 60
76 103 62
72 98 60
71 98 59
76 103 63
123 143 138
162 179 189
158 174 183
153 169 176
151 169 177
166 183 194
166 184 198
165 182 195
160 177 184
155 172 179
157 174 182
163 181 191
168 184 196
161 177 186
160 178 188
161 179 192
98 122 98
76 104 63
75 102 62
78 105 64
72 99 60
80 107 66
73 100 60
75 101 60
80 107 66
75 102 63
74 101 62
77 105 64
74 101 61
78 105 64
98 121 99
161 178 188
167 185 196
152 169 174
139 158 157
131 151 145
101 124 104
85 110 78
69 95 56
79 107 65
75 102 63
78 106 65
74 101 61
77 104 63
131 151 150
160 178 188
159 177 187
171 187 199
159 177 189
162 180 193
167 186 199
161 178 189
169 187 200
162 180 192
174 191 205
162 179 187
155 173 183
92 116 91
78 106 65
76 103 63
78 105 64
75 103 62
178 194 210
178 195 209
170 187 200
170 188 202
161 178 186
162 180 191
164 182 193
166 184 195
90 116 84
81 106 70
122 142 136
141 160 164
161 177 186
165 182 194
168 184 195
155 173 182
158 175 184
176 192 209
163 181 192
158 176 186
167 184 194
163 181 191
167 185 199
159 176 185
167 184 196
153 170 176
79 106 65
94 120 93
131 151 147
155 172 180
160 177 189
173 189 202
159 176 185
168 186 200
161 179 191
162 178 188
169 186 196
158 175 186
164 181 191
154 171 179
162 178 186
166 183 193
172 188 199
162 179 191
144 162 165
81 108 66
75 102 61
76 103 63
75 101 60
98 121 100
134 152 152
149 166 171
168 184 198
156 172 179
157 174 184
163 179 188
172 189 203
155 171 178
161 178 188
165 181 191
164 181 191
150 166 174
162 179 191
157 174 182
90 113 87
76 103 63
76 103 63
71 97 57
75 101 60
73 99 60
77 104 64
76 103 62
79 106 65
76 103 63
73 98 59
77 104 64
79 104 72
106 127 112
130 148 145
160 176 185
162 179 190
154 172 180
164 180 189
163 179 188
99 122 104
74 101 61
79 106 66
73 99 60
74 100 60
73 99 59
79 105 64
79 106 65
77 103 62
76 102 62
81 108 66
73 98 59
79 106 66
74 100 60
74 100 61
75 102 62
76 102 62
74 101 62
72 98 59
76 103 63
102 124 104
158 175 183
151 168 175
163 179 191
154 172 179
160 177 187
148 165 171
147 163 167
141 159 163
127 145 142
105 126 108
79 104 68
74 99 59
74 99 60
70 95 56
75 101 62
69 95 57
75 102 63
75 102 62
69 94 56
71 97 58
130 148 147
143 161 165
139 156 159
130 149 150
136 154 156
122 141 136
112 131 122
118 138 129
101 121 107
96 120 94
84 106 79
78 102 71
74 100 61
73 99 59
71 96 58
76 101 61
70 95 57
75 100 60
72 99 60
70 95 57
72 97 58
129 148 147
159 175 184
156 173 183
145 161 166
162 177 185
158 176 186
150 167 174
152 169 176
152 167 173
160 177 189
161 177 186
156 172 179
147 164 172
162 178 190
161 177 187
155 172 181
154 170 178
127 144 140
104 126 108
104 124 107
77 103 68
139 157 158
159 175 185
153 169 178
160 176 185
154 170 176
145 160 166
147 161 166
155 171 177
163 179 189
149 167 174
150 167 174
150 167 174
144 161 167
149 166 173
155 171 178
164 181 195
153 169 176
151 168 173
158 173 180
155 172 179
160 176 185
84 108 72
72 98 59
75 102 62
72 97 58
70 94 56
70 95 56
67 91 55
71 96 58
70 96 57
69 94 56
74 100 60
78 104 63
73 99 60
68 93 55
75 102 62
75 101 61
76 103 62
74 101 61
68 93 55
74 101 61
114 134 123
144 159 163
147 164 169
154 172 181
150 167 177
156 171 178
162 177 188
142 158 162
143 160 163
145 160 167
153 169 177
161 177 185
156 172 179
147 163 168
153 170 177
153 170 176
145 162 166
151 168 178
155 170 175
152 168 177
148 164 167
73 97 67
75 101 61
72 98 59
73 100 60
73 99 59
76 102 62
74 100 60
72 98 58
70 94 58
73 99 60
68 93 56
73 99 60
71 97 58
75 101 62
71 96 57
74 99 61
72 98 58
66 90 52
77 103 62
96 119 94
158 173 181
167 184 194
149 165 173
150 168 174
147 163 169
153 169 176
149 166 176
158 174 182
156 173 180
166 182 193
159 176 185
165 181 194
153 170 179
162 177 186
155 172 179
148 165 168
149 165 171
137 154 157
133 150 147
108 128 119
129 147 142
130 149 149
155 171 177
138 156 160
144 161 166
160 176 185
146 163 166
154 170 177
154 171 180
158 175 184
151 167 173
148 164 171
146 163 170
166 181 191
150 165 173
154 171 179
150 166 173
142 159 163
85 109 79
79 104 66
70 96 57
78 103 69
73 99 60
77 104 62
74 100 60
71 96 57
77 103 63
77 103 63
71 97 58
77 104 64
72 98 59
76 103 63
76 103 62
74 100 61
71 98 58
69 94 55
135 154 154
161 178 188
159 175 186
161 177 187
153 170 179
174 189 201
156 173 181
166 182 194
153 170 178
156 173 183
154 172 180
154 171 179
164 181 191
153 170 178
163 179 187
160 178 189
164 181 192
143 161 162
71 97 59
71 97 59
73 100 61
75 101 62
78 105 64
80 108 67
73 99 60
75 102 62
75 102 62
76 103 63
71 98 59
77 103 63
73 99 60
73 100 60
78 105 64
79 106 68
156 173 181
166 183 195
156 173 180
164 181 193
160 178 189
157 173 182
166 183 196
157 172 179
159 177 186
168 184 196
163 181 195
154 170 176
160 178 188
164 181 191
167 182 190
145 165 169
87 114 81
78 106 65
77 105 65
76 103 63
76 103 62
76 104 63
75 102 61
69 95 56
75 102 62
72 97 59
79 106 65
77 104 64
72 99 60
77 105 64
123 144 134
161 177 185
155 172 177
170 188 201
161 178 189
165 182 194
157 174 184
150 168 172
129 149 146
113 134 124
95 120 92
73 100 60
78 105 64
82 109 70
133 152 152
157 173 180
160 178 186
164 182 195
168 184 197
163 180 191
160 178 188
171 188 204
167 184 196
162 180 192
162 179 190
167 184 197
154 172 180
93 117 90
75 101 61
77 104 64
79 107 66
164 182 195
166 184 193
160 178 189
171 188 202
165 182 191
170 186 199
166 183 195
161 178 185
126 147 140
163 180 192
167 184 194
171 188 200
161 178 188
156 175 185
163 181 191
159 177 188
167 183 195
164 181 193
170 186 199
168 185 196
163 180 192
168 185 199
165 181 190
157 174 182
172 189 202
144 164 169
123 143 140
163 180 190
165 182 192
151 169 173
166 184 196
164 181 193
163 180 190
164 180 190
165 181 193
163 180 191
161 178 187
170 187 197
163 180 190
160 178 189
155 172 178
161 179 189
161 179 189
163 181 190
137 156 158
79 107 66
84 110 74
112 133 118
144 162 165
165 182 192
166 181 190
166 184 195
165 182 191
159 176 186
160 178 188
164 181 190
162 180 189
163 179 191
150 167 171
160 177 187
161 177 186
162 179 189
165 182 192
174 190 204
105 127 110
71 97 59
75 102 62
74 101 61
76 103 63
76 103 62
77 104 64
75 101 61
79 106 65
79 105 70
111 131 119
128 147 143
148 164 170
159 176 185
160 178 189
169 186 199
149 166 172
169 185 195
154 170 177
164 180 188
111 132 115
77 104 63
74 100 60
76 103 63
69 95 56
72 97 58
71 98 58
74 100 61
70 96 58
77 103 62
75 102 62
71 97 58
71 96 57
73 99 60
73 99 59
80 107 65
75 101 61
74 100 60
74 100 61
75 102 62
82 105 77
163 179 190
161 178 190
153 170 178
165 181 191
142 159 163
120 139 132
79 103 71
74 100 61
70 96 57
69 93 54
77 104 64
73 99 60
83 111 69
71 96 57
77 103 62
74 100 61
73 98 59
70 95 57
73 100 60
70 96 58
112 131 120
160 177 187
171 187 199
158 174 182
158 176 188
151 167 174
158 176 183
162 179 191
154 170 178
161 177 186
156 172 182
159 177 187
154 171 180
137 154 158
139 157 162
143 161 165
142 160 161
124 141 135
117 136 129
117 138 127
101 122 103
117 137 128
147 165 171
136 153 155
139 156 158
150 166 173
150 168 174
146 163 166
154 170 177
159 176 185
152 168 175
150 168 174
149 166 172
126 144 140
107 128 116
80 104 73
84 109 74
70 95 55
68 93 56
69 95 56
71 96 57
75 101 61
118 137 131
158 174 182
156 173 181
163 180 191
153 170 178
148 165 169
155 170 179
162 178 186
153 169 179
156 173 183
146 161 166
152 169 176
154 171 177
149 166 171
157 173 183
154 171 179
154 170 178
154 170 178
158 175 185
155 172 178
153 170 178
113 132 124
67 92 54
72 97 58
76 102 62
74 100 60
71 97 58
71 97 59
71 97 59
78 105 65
71 96 57
75 101 62
72 98 58
77 104 63
72 98 59
73 99 59
69 94 56
72 98 60
70 95 57
73 100 60
69 95 56
73 99 60
153 170 176
160 176 186
153 170 177
150 166 171
157 174 182
143 160 164
154 172 181
145 163 172
148 164 168
154 171 180
152 169 176
153 169 176
157 173 182
162 178 189
160 177 189
151 167 171
147 163 167
148 164 172
149 165 172
162 178 188
123 142 135
71 96 57
73 100 61
74 100 61
69 96 57
70 96 57
69 95 58
74 100 62
72 99 60
74 100 61
70 95 57
76 103 62
76 103 62
69 94 55
74 100 60
69 94 55
70 95 57
74 101 61
73 100 61
74 99 59
134 152 154
153 170 176
150 167 175
152 168 174
161 178 191
149 165 169
151 167 175
157 174 181
151 169 175
153 170 177
144 161 165
135 151 153
145 163 168
139 156 159
146 164 169
148 165 168
143 160 164
146 163 166
138 154 156
137 153 155
89 112 87
81 106 70
72 98 59
72 98 59
75 102 61
75 102 62
73 99 60
75 101 62
68 93 54
76 103 63
72 99 59
75 102 61
77 103 62
71 97 57
76 102 62
74 100 60
71 97 59
74 100 61
118 137 125
149 167 173
158 174 182
158 174 182
163 180 190
158 175 182
147 163 169
155 171 178
153 170 177
150 167 171
154 171 176
142 160 163
142 159 164
133 151 152
146 164 169
139 158 157
130 147 147
130 148 147
138 156 156
126 146 142
130 149 145
123 144 137
135 152 153
143 160 164
140 159 159
141 159 160
152 168 176
139 157 159
159 175 183
160 177 186
156 174 182
156 173 182
155 172 180
160 178 188
163 178 189
152 170 176
101 122 108
77 104 63
75 101 61
75 102 62
76 104 63
76 103 63
74 101 61
74 100 61
78 105 65
72 98 59
72 99 59
78 106 65
69 95 56
76 104 63
71 97 57
76 103 63
95 118 95
150 168 173
162 179 188
156 172 183
159 177 186
164 179 190
149 166 173
163 181 193
162 178 188
166 183 194
156 172 180
156 173 181
169 184 194
158 176 186
158 176 187
164 181 194
135 153 154
80 109 68
80 108 67
72 98 59
79 106 65
76 103 62
77 104 64
77 104 63
81 109 67
74 101 62
75 102 62
75 101 61
74 101 62
74 100 61
76 102 62
136 156 153
168 184 194
162 179 189
159 175 187
163 181 194
159 176 184
163 180 190
154 171 178
169 187 200
161 178 186
153 171 178
133 151 150
132 150 149
104 127 109
135 153 151
160 178 187
155 173 179
165 182 194
161 177 186
158 176 186
163 180 189
172 189 202
162 180 189
169 186 200
155 173 181
160 177 187
168 185 197
78 105 66
79 108 67
74 101 61
169 186 198
178 195 210
163 180 189
164 182 193
167 185 197
160 178 184
122 143 136
111 133 118
166 184 196
166 184 197
169 186 199
171 189 203
169 187 200
171 187 199
175 192 205
163 180 189
166 184 197
169 186 200
169 187 200
170 188 202
162 179 189
168 185 197
160 176 186
144 163 165
97 122 96
117 138 127
165 181 193
165 183 194
161 178 187
160 176 185
162 179 189
161 179 189
165 183 194
164 181 191
164 181 192
162 179 190
163 179 188
164 181 193
155 171 179
163 179 187
157 174 184
161 178 188
166 183 195
165 182 195
148 166 172
141 160 164
158 174 181
165 181 192
165 182 194
159 176 183
164 181 191
161 178 189
163 180 192
162 179 189
165 181 193
160 175 185
173 190 203
172 188 202
165 182 191
153 171 180
163 177 187
157 174 182
154 172 181
150 167 176
106 128 109
74 101 62
76 102 61
75 102 63
71 97 58
77 104 63
76 102 62
104 125 110
129 148 147
156 173 182
168 185 198
154 172 180
158 175 181
159 176 185
157 174 183
151 167 173
161 178 187
156 174 183
155 173 182
158 175 183
122 140 131
72 98 59
75 101 61
69 95 56
74 100 60
79 106 65
80 108 67
76 103 63
76 103 62
73 99 59
74 101 62
77 103 63
73 100 61
76 103 63
76 102 62
79 106 65
74 100 61
75 100 61
72 98 59
74 100 60
79 105 64
144 162 166
130 148 145
109 131 115
81 108 69
79 107 65
81 108 66
75 101 61
73 99 60
79 107 66
73 100 61
76 103 63
74 100 61
75 101 61
72 98 59
75 102 63
70 95 57
72 97 58
70 96 58
78 104 63
72 97 58
94 116 92
163 180 190
150 166 171
169 185 196
154 170 176
158 174 182
158 175 187
159 175 185
152 169 175
169 185 198
148 166 172
152 168 176
163 179 188
161 177 188
154 171 180
159 177 187
161 179 191
149 166 175
164 180 189
158 174 183
152 168 175
143 160 161
73 99 60
71 98 59
75 101 61
65 89 52
76 101 62
90 113 88
118 138 133
152 168 173
144 161 164
139 155 154
134 152 151
123 141 137
130 149 146
131 149 147
110 130 120
104 124 108
113 133 122
115 135 124
101 123 101
96 119 97
114 133 125
151 168 176
141 158 163
163 178 189
146 164 170
149 166 171
154 171 180
155 171 180
153 170 180
151 169 173
159 175 185
156 173 182
160 176 185
164 181 191
148 164 169
153 169 175
147 164 171
157 173 180
155 171 177
161 177 186
157 173 179
138 155 158
73 99 60
68 92 55
77 103 62
75 101 61
72 97 57
67 92 54
72 98 59
72 98 59
72 98 60
70 95 56
72 98 58
74 100 61
78 105 64
71 98 58
74 101 61
76 103 63
72 98 59
72 98 59
74 100 61
71 97 58
133 150 150
168 184 196
157 172 181
152 168 174
162 178 191
152 168 174
158 174 182
164 180 189
158 174 184
148 165 170
157 173 182
149 165 171
151 167 171
161 177 187
155 170 176
155 171 178
164 180 190
152 168 177
151 167 178
158 175 184
143 160 164
82 104 81
90 113 91
101 123 104
99 121 106
110 129 115
102 122 111
108 128 116
101 122 101
99 121 105
91 114 88
90 114 88
81 107 73
83 108 74
77 103 68
75 99 66
78 104 69
78 103 65
71 97 58
74 102 61
97 118 99
156 173 181
161 178 187
155 172 183
160 176 185
161 177 187
169 184 197
159 176 186
164 181 194
164 179 192
153 170 177
158 173 180
147 164 168
162 178 189
160 176 186
160 175 186
150 167 172
160 176 188
154 171 177
157 175 185
117 136 127
72 98 58
74 100 60
74 101 60
71 97 59
73 100 61
72 98 58
79 107 65
72 99 60
70 95 56
73 99 61
72 97 58
76 103 63
72 98 58
70 96 57
70 96 57
72 97 58
70 96 57
77 104 62
133 151 150
154 171 179
152 169 176
158 174 186
157 174 182
162 180 192
150 166 174
149 165 171
150 167 174
151 167 172
152 170 176
157 173 178
158 174 178
156 172 180
157 174 183
169 185 196
157 176 186
154 170 178
116 136 124
73 99 59
77 103 64
74 101 60
74 100 61
75 102 61
76 104 63
75 101 60
76 102 61
70 97 58
83 107 79
90 114 89
104 126 108
95 119 93
117 136 132
112 132 117
117 136 128
111 130 122
96 119 98
100 122 105
97 120 96
91 114 87
70 97 58
76 102 62
73 99 60
76 102 62
75 101 61
80 108 66
78 105 64
74 100 60
75 102 61
77 104 63
77 104 63
74 100 61
112 133 121
166 182 194
161 178 188
165 182 194
165 181 191
166 183 193
163 180 191
161 178 187
173 189 204
164 180 191
159 175 189
167 184 195
158 176 186
164 181 190
172 189 205
168 184 195
116 135 122
76 102 62
78 105 64
78 106 65
76 103 63
69 94 56
79 107 66
84 112 69
77 104 63
76 103 63
76 103 63
78 106 65
74 101 61
72 98 58
80 106 70
151 170 174
160 177 188
160 178 189
162 180 192
154 169 175
161 179 190
162 179 188
161 179 191
155 172 181
160 178 190
167 183 194
165 182 194
163 179 191
159 177 188
112 134 121
131 150 146
143 162 164
166 184 196
160 177 186
167 184 195
165 183 197
179 196 211
163 180 190
170 186 199
174 192 209
166 182 194
151 170 177
81 109 68
81 108 66
157 175 184
165 183 194
157 175 183
162 180 189
119 141 132
83 108 79
74 101 61
115 136 125
167 183 193
160 178 188
173 190 206
164 182 195
160 177 184
168 186 199
164 180 190
161 177 186
167 185 197
164 183 195
163 180 191
169 186 198
158 175 183
121 142 132
88 112 88
79 107 65
75 102 63
118 137 126
166 182 192
160 178 185
164 182 194
168 185 195
157 173 183
166 183 195
168 185 197
161 179 190
164 181 193
176 193 209
160 176 189
175 191 205
154 172 181
158 174 182
159 175 185
155 172 178
126 146 139
108 130 112
110 132 119
165 181 192
164 181 191
161 178 191
169 185 198
153 171 180
169 186 199
164 181 193
158 174 181
161 178 188
163 181 192
161 178 189
162 178 188
164 180 191
169 185 197
152 170 178
168 184 196
168 185 196
155 172 181
171 188 201
111 131 119
77 103 63
75 102 62
78 106 64
105 128 111
121 141 133
165 182 191
147 164 168
157 174 181
154 171 180
159 176 188
167 184 196
167 183 196
158 174 182
159 175 183
159 175 186
162 179 189
162 178 191
161 177 186
161 178 188
135 153 150
73 99 60
75 102 62
74 101 61
75 101 62
77 103 62
77 104 63
73 100 60
78 105 65
72 98 58
75 102 61
71 98 59
76 104 64
72 98 60
73 99 60
72 98 59
74 101 62
81 108 67
107 127 111
123 141 137
153 170 177
93 115 90
75 101 61
73 99 60
74 101 61
74 100 60
76 102 62
74 101 61
79 106 64
74 100 60
77 104 64
74 100 61
73 99 59
69 95 56
80 107 65
75 102 62
74 101 61
71 97 58
70 95 57
76 102 62
76 103 63
75 101 62
165 182 194
148 166 170
164 180 190
157 174 186
161 177 188
157 174 182
159 175 184
155 171 178
158 174 184
157 173 181
149 165 174
152 168 174
148 165 169
158 174 184
155 172 180
157 174 184
160 176 185
149 165 171
165 180 190
159 174 182
158 176 183
91 113 92
86 109 79
114 133 124
137 155 158
153 169 176
156 171 180
160 177 187
164 179 188
152 170 179
154 170 178
158 174 184
149 165 170
158 174 182
151 167 171
160 177 187
160 175 184
159 175 184
158 176 186
159 176 187
159 175 184
146 162 168
92 116 92
73 99 60
71 97 58
72 98 58
70 96 57
74 101 61
82 106 72
83 108 76
75 100 63
80 105 71
97 119 99
93 116 94
100 122 106
102 125 106
95 117 97
93 115 93
92 115 93
104 125 107
106 127 113
107 128 115
101 123 107
125 145 141
126 144 140
126 145 142
131 149 151
119 138 129
121 140 133
130 147 142
136 155 157
121 140 136
125 143 136
122 141 135
126 144 140
132 152 152
142 159 162
135 153 155
122 140 135
126 145 141
133 151 151
136 155 154
118 139 133
132 150 147
119 139 132
102 124 105
106 126 112
111 133 118
117 137 128
113 134 119
101 121 101
86 109 84
90 113 88
93 113 98
93 115 91
85 107 83
100 124 102
91 115 90
82 106 75
95 116 97
95 117 97
114 132 124
117 138 132
110 130 118
130 147 146
111 132 118
97 120 101
85 107 83
87 111 80
74 99 60
76 103 62
77 103 63
76 103 63
72 98 59
69 95 58
69 94 56
72 98 59
75 102 63
73 98 59
72 98 59
72 98 59
73 99 61
76 103 62
67 92 54
138 156 156
158 176 186
153 169 176
162 179 190
153 171 176
155 172 178
153 169 180
160 176 186
149 165 174
155 172 181
151 168 173
160 178 188
147 165 168
156 173 180
151 168 177
161 177 187
155 173 182
156 172 181
153 170 176
148 166 172
78 104 66
80 107 65
76 103 63
73 99 60
73 100 60
75 101 61
75 102 62
72 98 59
74 100 60
74 100 60
77 104 63
72 97 58
71 97 58
73 98 59
75 101 61
77 104 63
73 98 59
76 104 64
96 118 96
164 180 192
155 170 177
159 175 188
158 174 183
152 169 176
152 169 177
157 173 180
163 180 190
155 173 183
155 172 183
163 180 192
158 175 184
153 169 177
156 173 181
160 176 187
168 184 197
161 177 185
159 175 186
84 106 80
76 103 63
74 101 62
75 101 61
77 104 63
75 102 62
74 101 61
77 104 64
73 99 59
77 105 65
72 98 59
75 102 61
74 100 60
79 106 64
75 102 62
77 104 63
74 100 60
118 139 129
166 182 194
156 173 181
164 181 192
167 183 192
151 169 173
148 166 171
140 157 159
136 155 154
131 151 149
105 125 108
113 134 125
93 116 94
90 115 87
75 102 65
73 99 60
78 104 66
142 163 163
165 182 190
160 176 184
158 175 183
160 177 187
162 179 188
167 185 198
164 181 193
158 175 183
156 173 181
156 173 184
167 183 195
163 180 190
170 187 199
167 184 196
155 172 182
87 114 79
78 105 64
74 101 61
75 102 63
77 105 64
75 101 61
74 101 60
77 104 63
80 108 65
79 107 67
74 101 61
79 106 64
76 102 62
76 103 63
94 119 90
165 182 192
165 183 195
165 183 196
165 181 192
167 183 194
165 183 193
157 174 182
160 178 187
169 186 199
164 182 193
162 180 194
166 183 195
163 182 195
155 173 179
83 110 75
78 106 65
81 106 74
99 121 104
124 146 139
150 169 177
163 180 190
168 185 197
161 177 185
166 184 196
168 187 201
170 188 201
148 167 172
80 108 67
156 174 182
153 172 178
117 139 127
82 110 68
78 106 65
79 106 66
80 108 67
126 147 141
173 191 207
164 183 196
159 176 187
171 187 200
165 182 192
162 180 192
166 183 193
175 191 206
173 190 203
164 181 193
150 167 172
119 139 133
82 109 70
78 106 65
78 106 64
82 110 68
78 105 65
127 147 140
167 182 193
165 181 191
164 182 191
169 186 200
176 194 209
165 183 195
164 181 190
162 179 189
164 181 191
160 177 187
167 185 197
164 181 192
173 190 204
149 168 174
121 142 131
81 107 72
77 104 64
75 101 61
114 134 119
157 174 182
164 180 193
153 170 178
168 184 196
160 177 187
165 181 192
158 174 183
165 182 193
164 180 190
169 185 197
171 189 202
156 172 181
177 193 206
166 182 191
160 176 185
166 182 194
161 179 189
165 182 193
164 181 194
119 139 130
103 125 104
133 150 149
151 168 174
164 180 193
157 174 184
158 175 184
155 173 182
159 176 185
154 171 180
154 171 182
157 173 181
164 182 192
164 180 192
156 172 180
156 172 180
157 174 184
165 181 193
158 175 184
156 174 182
150 168 174
75 102 62
75 102 62
75 102 63
75 102 62
73 99 60
74 100 61
76 103 63
76 102 62
72 98 59
77 103 62
74 100 60
72 98 59
72 98 58
83 108 76
112 132 120
141 158 160
153 170 177
170 186 197
156 173 181
155 172 180
118 137 131
68 93 55
75 102 63
75 101 61
67 92 54
76 103 62
74 101 62
76 102 62
76 103 63
77 104 63
74 100 62
77 104 63
78 105 64
73 99 59
72 97 59
66 90 52
73 99 60
74 101 61
73 99 60
73 98 59
71 97 57
132 150 150
166 181 192
162 178 187
148 165 172
159 175 185
164 181 195
164 181 191
162 178 191
155 171 178
151 168 175
151 169 177
150 168 177
159 174 184
156 173 180
152 168 175
161 178 188
156 174 183
144 161 164
144 162 165
122 142 134
108 127 110
138 156 157
157 173 181
154 170 178
164 180 191
167 182 191
161 178 189
154 170 178
162 179 190
160 175 182
152 168 174
150 167 175
151 168 178
154 170 178
147 164 170
145 163 165
155 173 183
157 173 181
156 172 180
152 169 176
158 173 180
149 166 170
116 136 130
72 98 59
77 104 62
72 98 60
74 100 61
73 100 60
73 100 60
70 96 57
75 101 61
74 101 61
76 102 62
75 102 61
71 97 58
70 96 57
77 103 62
68 93 55
72 98 60
73 98 60
73 100 60
70 94 55
69 95 55
125 144 140
163 181 191
152 169 176
166 182 194
166 183 194
154 171 178
153 170 176
152 169 175
153 170 177
157 174 184
157 174 186
165 181 193
161 178 191
164 180 189
156 173 182
172 188 201
157 173 184
162 178 189
149 165 172
158 174 184
161 177 186
89 114 85
72 98 59
74 100 61
72 97 58
71 97 58
70 95 57
78 100 71
98 120 99
107 128 115
119 139 135
116 134 127
129 149 146
143 160 163
151 168 174
158 175 185
151 167 173
162 178 188
166 183 194
152 169 180
160 176 185
133 150 151
75 101 61
69 95 57
70 95 56
71 97 58
77 103 63
71 97 58
75 102 61
74 101 61
72 98 60
72 98 59
72 97 58
78 105 64
72 97 59
70 95 56
74 100 60
74 100 61
69 95 57
72 98 59
73 100 61
105 127 111
169 185 197
164 180 192
162 178 189
158 175 184
157 174 184
153 169 178
167 182 193
160 176 187
149 167 172
149 164 169
153 170 175
163 179 191
166 183 196
162 178 190
160 177 188
159 175 184
149 164 169
149 167 173
150 168 176
98 121 103
73 99 60
73 99 60
76 103 63
76 103 62
77 104 63
73 101 62
71 97 59
76 103 63
71 96 57
76 102 62
81 108 66
76 103 63
75 102 61
74 101 62
75 102 62
75 102 61
78 105 64
76 103 64
141 159 159
159 176 185
165 183 193
166 183 196
173 188 199
170 187 199
156 172 180
154 170 177
158 175 183
160 177 187
159 176 186
161 179 190
154 172 180
153 170 177
155 173 180
147 165 171
158 176 185
159 175 185
133 151 149
72 98 59
76 103 63
74 100 60
75 102 61
72 98 59
75 102 62
74 101 61
72 98 59
71 97 58
75 102 62
75 101 62
74 101 61
72 98 59
79 106 64
74 101 61
76 102 62
75 100 63
146 163 165
158 175 185
163 181 191
163 179 190
151 169 175
160 176 186
160 176 187
163 181 195
165 181 190
159 176 186
171 188 199
160 178 189
160 177 187
169 186 199
148 166 169
149 167 171
147 165 168
127 144 140
145 164 166
143 161 161
151 168 174
160 176 182
173 190 204
167 184 194
172 189 200
164 182 196
166 182 193
163 181 191
165 182 194
162 179 189
160 176 186
164 181 194
162 180 188
74 100 60
73 100 60
77 104 63
75 103 63
74 100 61
72 98 59
77 105 64
74 100 61
72 98 59
77 103 62
78 105 64
82 110 68
75 102 62
76 103 63
106 129 114
162 180 188
169 185 197
157 174 179
162 180 192
170 187 200
160 178 187
157 174 183
164 182 193
161 179 188
167 184 197
166 183 192
152 170 177
163 180 190
137 157 158
77 104 64
80 108 66
78 107 66
79 107 66
75 103 61
83 108 74
121 141 128
134 153 150
158 176 184
172 189 203
176 193 210
167 185 199
143 161 164
151 169 176
96 121 97
79 106 65
79 106 65
82 111 68
78 106 65
80 107 66
136 155 156
153 171 180
172 189 203
172 189 201
163 181 193
172 189 202
156 175 186
160 177 184
174 190 205
139 158 158
103 126 106
78 106 64
78 106 65
78 105 64
80 108 66
80 108 67
81 109 67
75 102 62
115 134 120
159 177 187
162 179 190
166 182 192
165 182 193
162 180 190
159 176 186
169 185 197
169 186 198
153 172 182
174 190 201
159 177 185
136 155 152
98 122 101
75 102 62
79 106 64
76 104 63
78 106 65
78 106 65
110 132 117
164 182 191
159 175 183
158 175 184
159 176 186
165 182 194
172 188 204
160 177 188
159 177 185
163 180 190
164 180 193
161 178 188
155 172 179
168 185 198
169 186 200
163 179 189
154 171 179
155 171 179
144 160 166
136 154 152
153 171 178
164 181 193
156 172 182
166 183 196
160 177 188
168 186 200
165 182 194
167 184 195
156 173 182
170 186 199
158 174 181
162 179 188
156 173 179
157 174 183
161 179 188
163 179 191
174 190 205
157 176 187
159 177 189
168 186 201
146 163 166
75 101 61
76 103 63
76 103 62
76 102 63
80 108 67
75 101 61
78 106 65
74 100 61
72 99 60
71 97 58
94 117 92
119 139 132
152 169 173
152 170 176
159 175 183
161 177 187
149 165 169
156 172 179
156 172 181
163 179 187
120 139 130
74 100 60
74 100 61
67 92 54
76 103 63
74 101 61
81 108 66
77 104 64
77 104 64
74 100 60
74 101 61
76 103 63
73 100 60
75 102 62
77 104 63
72 98 60
79 106 65
74 100 60
74 101 61
74 100 61
73 99 60
125 143 140
161 177 186
154 172 181
163 179 190
149 166 171
156 174 182
169 185 200
157 173 182
166 181 191
162 178 190
166 183 196
159 176 185
156 172 178
145 162 166
136 154 154
113 133 126
92 114 93
73 99 60
71 97 58
72 98 59
76 102 62
132 150 147
160 175 185
159 176 187
155 172 180
150 167 171
165 181 195
163 181 192
152 167 173
155 172 178
159 176 187
157 173 182
160 177 186
153 171 179
157 174 183
147 163 169
155 172 181
160 177 189
157 173 180
148 165 170
154 170 179
151 169 176
139 156 156
78 105 65
76 102 62
73 100 60
68 94 55
72 97 58
75 102 62
70 95 56
79 106 64
76 103 63
77 103 63
73 99 59
73 99 59
76 103 63
76 103 64
72 98 59
72 98 59
74 100 60
68 93 55
75 101 61
75 102 62
107 128 111
154 170 175
152 170 180
159 175 184
161 177 188
156 173 180
154 170 177
158 174 183
149 167 173
142 159 163
147 164 168
169 185 194
158 176 187
157 174 184
161 177 188
158 175 182
159 177 188
149 165 167
153 168 176
153 169 176
141 158 160
122 142 136
118 136 129
123 142 137
133 151 148
147 164 170
149 164 171
159 176 184
154 172 180
161 178 188
148 164 170
151 167 172
156 174 180
140 158 163
156 173 181
155 171 179
149 163 169
164 180 190
157 175 184
164 180 191
144 162 167
165 180 191
86 111 81
76 101 61
76 103 63
76 103 63
68 93 55
75 102 61
75 102 62
71 97 59
77 104 63
74 101 61
68 94 56
75 101 60
75 102 62
71 97 59
74 101 61
70 96 58
77 103 64
76 103 63
72 97 58
75 102 63
144 164 166
153 170 177
152 170 177
161 177 186
152 169 175
156 172 181
154 171 178
157 174 181
156 172 181
160 177 186
152 168 175
152 169 176
162 177 185
158 175 183
157 174 182
167 183 195
150 167 175
155 172 179
155 171 178
158 174 181
72 97 59
76 104 63
75 101 61
73 99 59
71 97 58
80 107 65
71 96 58
76 103 63
74 101 61
79 106 64
74 100 61
73 99 59
76 103 63
78 105 63
77 105 64
73 99 61
74 101 60
71 97 59
89 112 86
155 171 179
160 175 182
154 171 176
165 182 194
164 181 193
158 174 185
165 182 194
151 168 173
148 167 172
162 180 190
160 178 189
157 173 183
158 174 185
159 176 186
157 173 181
167 183 196
156 174 182
151 168 175
99 121 100
77 104 64
73 99 61
72 98 59
77 104 63
77 104 63
77 104 64
76 102 62
72 98 58
74 100 60
70 96 57
72 98 59
78 104 63
81 109 67
75 102 62
72 99 59
77 103 62
95 116 96
154 172 180
169 186 200
163 180 191
164 181 195
168 185 198
161 179 190
164 180 187
167 183 194
164 180 191
159 177 183
162 179 190
160 178 189
160 177 191
162 180 190
164 181 192
173 189 199
131 151 149
77 104 64
71 97 57
77 104 63
81 108 69
87 111 86
99 123 102
127 147 144
133 151 149
128 147 146
138 157 162
159 178 185
166 183 197
151 170 178
162 179 188
159 176 187
133 153 153
80 107 66
76 103 62
74 101 61
80 108 66
79 106 65
75 102 62
74 101 61
76 103 63
76 104 64
74 101 62
76 103 63
80 107 66
77 104 64
78 106 65
134 151 151
164 181 191
159 177 189
165 183 193
170 188 201
164 182 193
172 191 206
172 190 207
166 183 194
171 188 202
174 190 203
166 185 197
168 185 197
162 179 186
125 145 137
79 107 66
75 102 62
70 97 57
79 107 66
77 104 64
81 108 66
79 107 66
75 101 62
86 113 78
109 131 117
148 166 169
104 127 107
164 182 194
164 182 191
138 157 157
84 111 73
83 112 70
78 105 64
77 103 63
146 166 170
164 180 192
167 184 196
165 182 194
156 174 183
167 185 197
165 182 193
140 160 159
96 120 95
77 105 64
78 107 66
78 106 65
78 106 66
80 108 66
75 102 61
80 108 66
74 101 60
76 103 63
117 139 128
158 176 186
158 173 180
160 176 186
163 180 191
168 185 197
169 186 197
168 185 197
161 178 187
157 175 179
132 151 150
84 109 77
83 111 68
75 101 61
79 105 63
76 102 62
77 105 65
78 105 64
80 108 66
103 124 105
160 177 186
166 184 196
168 184 195
167 184 196
161 178 190
157 175 184
161 178 189
161 177 188
165 181 190
162 179 189
161 178 187
162 179 192
155 171 180
158 175 181
167 184 197
137 156 156
108 128 116
75 100 63
78 106 65
118 137 126
163 179 191
167 183 194
168 185 197
163 180 191
164 181 191
164 181 191
161 178 188
159 176 184
159 176 182
167 183 193
157 174 183
163 181 191
156 174 185
166 183 194
155 172 180
167 184 196
164 180 190
167 184 197
154 171 180
154 172 179
77 104 64
72 97 58
71 98 59
75 102 62
77 104 63
77 104 63
80 107 66
104 127 106
128 147 141
147 165 172
155 172 181
157 174 182
164 181 192
154 171 180
157 173 181
158 175 184
155 172 178
161 178 188
160 177 187
154 170 178
142 159 162
78 105 64
75 101 61
68 93 55
74 101 60
73 100 59
75 101 62
74 100 60
77 103 63
74 101 61
74 101 61
74 101 62
74 100 61
70 96 58
76 103 62
73 98 58
75 102 62
74 101 61
72 98 59
74 100 59
74 100 61
108 128 115
159 175 184
157 174 185
158 174 183
167 183 192
164 180 191
159 175 184
156 172 180
166 182 191
147 165 169
130 148 144
105 127 111
88 112 86
74 100 61
74 100 61
78 105 64
69 94 56
75 101 62
75 102 61
78 105 64
75 102 62
88 111 86
151 167 173
154 172 179
162 178 190
154 171 176
161 178 187
156 173 182
154 170 178
148 164 170
159 176 185
152 169 175
159 177 188
157 174 185
162 178 187
156 174 183
161 177 189
160 176 185
157 175 184
154 171 179
166 182 192
153 170 177
154 170 179
79 104 69
70 95 58
73 99 60
73 99 59
73 99 59
74 100 60
79 106 64
76 102 62
74 101 60
75 102 62
72 98 59
68 93 56
72 98 60
74 101 61
77 103 62
71 97 58
76 103 63
74 99 60
75 101 61
71 97 58
75 101 61
145 162 165
157 173 181
165 181 193
143 159 163
158 175 187
155 171 178
149 166 170
163 179 189
158 174 182
151 167 174
159 175 183
156 173 182
145 163 169
139 156 159
107 127 116
101 124 107
99 120 103
92 115 92
76 103 62
74 101 61
81 104 76
145 162 166
160 176 185
154 169 175
153 169 175
155 171 174
153 171 180
156 172 179
149 167 173
158 175 188
161 177 190
150 167 172
143 160 164
169 186 199
161 177 186
147 163 169
159 176 186
145 163 170
150 168 176
159 175 183
165 181 192
130 148 148
78 105 63
73 100 60
71 97 58
75 102 61
66 91 52
73 99 60
70 96 58
77 103 63
74 101 61
75 101 61
76 104 63
74 100 61
77 104 63
74 102 62
77 103 62
77 103 63
75 101 62
75 102 62
75 102 62
105 127 110
154 171 181
165 181 188
141 159 161
168 184 195
157 173 184
162 179 190
164 181 191
157 174 185
158 175 184
157 174 182
165 182 193
162 179 192
163 179 190
160 178 185
167 183 194
158 175 182
167 183 197
162 181 192
160 176 185
106 127 110
73 99 60
76 102 62
79 107 66
73 100 60
74 101 61
75 102 62
76 103 63
77 104 63
74 101 61
74 101 61
71 97 57
72 97 58
77 104 62
78 106 65
78 105 64
77 104 64
76 103 62
78 105 64
127 147 142
162 179 187
153 169 177
153 168 173
157 174 181
162 179 189
162 179 190
162 179 190
166 182 192
161 176 186
167 183 196
150 166 173
172 188 201
156 174 184
162 180 192
161 177 186
161 177 187
160 178 186
151 169 176
79 106 68
74 101 61
79 106 65
71 97 58
74 100 60
75 101 61
80 107 66
74 101 60
73 99 60
74 101 60
75 101 61
77 103 63
74 101 61
72 98 59
72 99 59
78 105 65
74 100 61
125 144 141
167 184 196
164 181 191
158 175 185
160 177 188
160 177 186
166 183 195
167 184 198
160 177 185
157 175 184
154 170 176
169 185 195
163 179 192
162 178 189
141 159 161
156 173 178
159 177 188
117 138 125
77 104 62
78 105 65
77 103 62
78 106 65
73 100 61
75 102 61
76 103 63
79 107 65
76 103 62
78 106 66
86 110 83
104 127 103
118 136 125
135 154 153
146 164 165
96 120 96
75 102 65
75 102 63
79 107 66
74 101 61
76 104 64
73 99 60
74 100 60
77 105 64
79 107 66
76 103 63
77 104 64
80 108 67
76 103 63
79 107 66
147 165 168
161 180 189
163 180 189
172 188 203
165 181 192
156 173 183
169 186 200
154 173 182
169 186 197
156 174 182
161 179 187
163 179 190
175 191 205
158 176 186
97 119 99
81 109 67
79 107 66
75 101 61
81 109 67
80 109 68
74 101 60
78 106 64
88 116 78
138 157 156
163 180 191
179 196 213
174 192 207
170 187 200
163 180 190
160 179 188
119 140 132
84 112 72
80 107 65
162 179 188
174 191 205
170 186 197
169 186 198
156 175 184
117 139 127
87 113 83
78 106 65
79 106 65
73 99 59
79 108 67
80 108 66
80 107 65
77 104 63
73 99 60
80 108 67
77 104 63
77 104 65
135 154 151
171 188 201
158 175 186
164 182 191
172 188 200
155 172 183
162 178 189
133 151 147
104 127 109
80 108 67
78 106 66
77 104 64
77 105 64
83 111 68
73 100 61
80 107 67
78 105 64
77 104 63
72 98 60
109 130 114
163 180 189
162 178 189
161 179 190
153 171 181
150 167 175
154 171 181
163 179 190
162 178 187
167 183 194
163 179 189
165 183 192
173 190 203
147 165 170
111 132 122
80 105 72
79 107 66
76 103 63
77 104 64
82 110 68
119 139 132
158 176 187
163 179 188
162 178 187
163 181 195
163 181 193
164 181 193
161 178 188
155 172 179
158 175 184
160 175 183
169 185 197
157 173 180
167 182 193
168 186 200
171 187 200
163 179 189
162 179 189
164 181 192
169 186 197
163 180 189
75 102 62
78 105 64
72 99 60
77 104 63
97 119 99
130 150 148
154 170 173
163 179 191
163 180 190
158 174 182
158 175 187
159 176 187
160 176 185
156 172 181
163 180 191
162 178 188
169 184 195
161 178 188
161 177 187
160 176 186
144 163 165
71 97 59
78 106 65
78 105 65
74 101 61
72 98 59
73 99 60
71 96 57
76 103 62
76 104 64
76 102 63
71 96 57
77 104 64
73 99 60
70 96 57
70 96 57
74 100 60
74 100 61
76 103 62
77 105 65
75 102 62
93 119 90
165 184 197
160 176 187
163 179 188
159 177 186
145 162 165
124 144 136
107 129 113
91 113 90
72 98 59
73 98 59
69 94 56
75 101 61
69 94 56
77 103 63
75 102 61
75 102 62
75 101 61
77 104 63
72 98 59
77 104 63
75 102 62
151 167 170
157 174 186
159 175 185
154 169 176
143 160 164
155 172 181
161 177 185
155 171 176
152 169 178
163 179 190
158 175 185
157 172 180
162 178 186
158 175 181
158 175 187
158 175 185
150 166 172
167 184 196
161 177 185
153 170 178
162 179 190
112 133 119
71 96 58
76 103 63
70 95 58
72 98 59
73 100 60
69 94 56
72 98 58
73 99 61
73 100 59
74 101 62
70 95 57
68 93 56
74 101 61
71 98 59
70 96 58
73 100 59
73 99 59
72 98 59
73 98 60
75 102 62
132 151 150
149 166 173
157 174 183
163 180 190
165 180 189
149 164 172
137 155 157
116 135 132
116 137 127
85 108 81
85 109 79
77 104 63
74 101 61
76 104 63
77 103 63
74 100 61
77 104 64
71 96 58
75 102 62
75 102 62
73 99 60
138 157 160
156 173 183
163 180 190
146 162 168
156 173 182
155 172 180
163 180 194
149 165 171
156 172 179
154 171 179
158 175 183
168 185 198
151 167 173
158 174 182
153 169 178
159 176 184
160 177 188
157 173 182
159 176 187
160 176 187
158 174 182
81 106 73
73 100 60
72 98 58
71 96 58
75 102 61
76 103 63
69 95 57
78 105 63
76 103 62
74 100 61
75 102 62
79 105 64
75 101 61
73 99 60
73 99 59
75 101 61
73 100 60
73 99 60
75 102 63
75 101 61
146 164 168
159 174 182
155 172 181
155 172 180
160 177 189
164 181 193
155 172 178
163 180 190
161 178 185
163 178 189
155 171 180
159 176 185
155 173 180
156 173 181
161 178 188
155 172 178
161 178 188
157 173 181
157 175 185
146 165 170
73 100 61
74 101 61
73 99 59
74 101 62
72 98 59
74 101 61
73 99 59
76 102 61
72 97 58
72 98 59
72 97 59
74 100 60
72 98 58
74 101 61
76 103 63
71 97 58
74 101 61
72 98 60
87 110 84
156 173 183
157 174 184
158 174 183
159 175 183
158 175 184
157 174 183
153 170 179
161 178 188
150 167 174
151 168 174
152 167 173
158 174 183
148 166 172
158 174 184
173 190 203
168 185 197
157 175 185
159 175 185
117 138 129
75 102 61
75 101 62
74 101 61
77 104 64
74 101 61
78 105 64
77 104 63
77 105 63
79 107 66
76 103 63
76 102 62
71 97 58
81 109 68
76 103 62
77 104 63
76 104 63
83 108 75
156 174 182
159 176 184
163 181 193
162 180 193
167 185 198
157 174 182
157 175 182
160 177 188
156 174 184
160 178 190
156 172 180
164 181 192
158 175 186
160 177 189
173 190 202
163 179 189
147 164 170
82 107 76
73 100 61
76 103 63
81 109 67
72 99 60
79 107 65
83 111 69
77 104 63
76 103 63
77 104 64
77 105 65
76 103 63
73 99 59
73 100 61
75 102 62
93 118 91
157 173 178
149 166 166
128 147 145
124 143 135
116 137 127
97 121 97
80 107 68
75 102 61
79 107 66
77 105 64
71 97 59
77 105 63
77 104 64
74 101 62
86 111 81
160 177 188
166 184 197
166 184 196
176 192 208
171 187 197
173 190 206
167 186 199
171 188 201
161 177 187
164 182 193
159 177 186
160 177 186
163 179 190
154 173 181
90 115 88
75 102 62
79 107 66
80 108 67
81 109 68
82 110 71
118 139 130
155 173 181
168 185 200
159 177 187
170 187 199
170 187 201
172 190 204
173 191 208
175 192 208
180 196 212
157 174 183
118 141 131
172 190 204
168 185 199
156 173 178
116 138 124
79 106 65
77 106 65
76 104 64
78 106 65
78 106 65
77 104 63
79 106 65
80 108 68
77 105 63
74 101 61
78 106 65
77 104 63
74 101 61
77 104 63
138 157 158
168 185 197
164 182 193
166 183 196
158 175 185
127 149 144
88 113 79
75 102 62
81 109 67
76 103 61
84 113 70
73 99 60
75 102 62
78 105 64
75 102 62
72 99 60
77 104 64
75 103 63
79 106 65
113 133 120
162 179 189
161 179 191
173 190 203
161 178 188
162 178 187
171 188 201
165 182 196
161 177 187
163 180 190
168 185 197
138 156 155
86 111 82
78 105 65
73 99 59
79 107 66
76 102 62
76 102 62
76 103 62
72 98 60
120 142 133
164 182 193
150 167 173
164 180 188
161 179 189
157 174 183
166 183 193
170 186 198
157 174 185
163 180 192
159 176 189
154 171 179
160 177 188
159 176 188
164 182 192
165 182 194
153 170 178
160 177 187
161 177 184
163 179 190
157 174 183
93 116 92
107 129 113
130 148 142
155 172 176
166 181 190
163 179 189
163 180 192
165 183 196
163 180 190
162 180 191
159 175 183
154 172 183
161 177 190
152 168 175
166 183 195
169 186 197
144 162 168
161 177 187
157 173 181
165 181 190
152 169 176
75 102 62
73 99 60
76 102 61
74 101 62
73 99 59
76 103 61
74 100 60
76 103 63
75 102 62
76 103 63
69 95 57
74 100 61
75 101 61
75 101 61
76 103 62
72 98 59
77 104 63
78 105 64
74 100 61
79 106 65
76 102 62
146 164 165
134 152 152
124 144 135
84 106 80
79 107 65
77 105 64
72 98 59
75 101 61
78 104 63
79 106 65
78 106 66
74 100 60
77 103 63
76 103 63
72 97 58
74 101 61
76 102 62
79 106 66
75 102 61
75 102 62
73 100 61
143 161 165
159 176 181
159 176 183
165 182 191
153 169 177
148 164 171
162 180 192
161 178 190
164 181 191
162 179 191
163 180 191
164 180 190
156 174 185
163 180 191
159 177 188
160 177 189
165 182 194
152 169 178
162 178 190
159 175 184
154 170 177
135 153 154
75 101 60
76 102 61
75 102 63
78 104 64
77 105 64
73 99 59
75 102 62
77 104 64
74 100 60
75 102 62
71 96 58
69 95 57
74 101 62
73 100 61
76 103 62
76 102 62
75 101 61
75 103 62
81 108 74
102 123 109
124 142 139
113 132 124
106 129 114
89 113 89
71 96 61
70 96 57
72 98 59
73 99 59
76 103 62
70 95 56
74 100 61
76 103 63
79 106 65
78 104 62
73 100 60
72 98 59
74 101 60
75 102 62
77 103 63
73 99 60
79 105 64
100 122 104
149 167 176
159 176 185
162 178 188
154 170 176
168 184 196
153 169 175
162 177 188
147 165 172
148 166 173
160 177 187
152 170 174
153 170 179
160 176 187
147 165 173
158 174 183
157 174 180
159 174 183
167 184 195
153 170 180
160 178 188
116 137 127
75 101 61
74 100 59
77 104 64
75 101 62
73 99 60
75 101 62
75 102 62
75 101 62
74 101 60
75 101 62
74 101 61
69 95 57
75 101 62
70 95 57
74 100 60
78 105 64
74 101 61
76 103 62
74 101 61
117 136 125
157 174 186
153 171 180
161 177 186
157 174 183
163 178 188
156 173 183
162 179 190
156 172 181
150 166 172
163 179 189
163 179 190
163 179 190
168 185 197
149 165 172
156 174 181
161 179 189
151 168 174
153 171 179
167 184 197
106 127 115
71 96 57
72 98 58
76 103 62
76 103 62
75 102 63
72 97 58
75 102 63
75 101 61
78 104 64
76 103 63
77 103 63
72 98 59
73 99 60
75 102 62
74 101 61
77 104 63
75 101 60
74 101 61
144 161 163
151 168 173
162 178 187
163 179 192
164 183 194
150 167 174
162 179 188
167 183 194
157 175 184
151 168 178
153 169 176
165 182 194
163 179 191
168 185 197
164 180 190
160 177 186
169 186 197
162 179 191
161 177 187
88 114 80
75 101 60
78 106 64
80 107 65
76 103 63
74 100 60
76 103 62
75 101 61
74 101 62
80 108 66
80 107 65
72 99 59
76 103 62
79 107 66
71 97 59
78 106 64
76 103 62
99 121 103
152 169 174
166 183 193
155 171 178
162 179 189
163 180 190
169 185 197
164 181 193
156 173 181
163 180 194
158 175 183
161 177 186
163 180 191
160 178 189
179 196 213
158 174 183
160 176 186
131 151 150
75 102 62
76 102 61
75 102 61
75 103 62
77 104 64
76 103 63
77 104 63
75 102 62
77 104 63
77 105 65
75 102 62
79 107 65
75 102 62
82 110 69
80 107 65
115 136 125
164 181 193
156 172 179
167 184 198
168 184 196
163 180 190
162 179 188
146 164 169
146 165 166
134 153 146
111 134 120
95 119 97
80 107 68
77 104 64
81 109 67
112 134 118
159 177 189
172 188 200
160 178 192
155 171 177
167 184 194
166 183 195
169 188 201
161 179 190
156 174 183
166 183 195
164 180 186
167 184 195
167 185 197
159 177 187
84 111 73
78 105 64
74 101 61
93 117 93
142 162 165
162 179 188
162 180 190
167 186 199
164 182 191
173 190 202
171 187 198
160 177 188
169 186 197
170 187 200
162 179 191
166 184 198
159 177 188
132 152 147
127 147 145
79 106 65
79 107 66
77 104 63
78 106 66
76 104 63
78 106 65
82 111 69
78 106 65
84 112 70
75 102 62
80 108 67
80 109 67
80 108 66
78 106 65
76 104 63
79 108 66
144 162 165
169 186 200
149 167 171
106 127 111
81 108 72
77 104 64
84 112 69
79 106 64
77 104 64
78 106 65
82 110 68
74 100 60
76 103 63
82 110 68
79 106 64
78 106 65
79 106 64
77 104 64
79 106 64
111 131 117
175 191 204
164 181 192
168 186 201
161 177 185
156 175 185
163 181 192
155 171 180
144 163 163
108 128 113
77 104 63
78 106 65
74 101 62
77 104 63
79 107 66
78 105 64
83 111 69
76 102 62
78 105 64
73 99 60
109 129 115
168 184 195
167 184 199
158 175 185
169 184 196
167 183 195
167 183 195
171 188 203
161 178 187
168 184 196
154 171 179
159 177 188
168 184 196
168 184 193
169 186 196
163 181 194
163 180 192
159 176 184
164 182 196
146 164 165
119 139 131
147 164 167
174 191 205
156 172 179
168 185 198
163 181 192
164 181 194
168 184 194
151 169 178
170 188 202
160 177 186
155 171 179
161 177 189
164 180 190
157 173 181
158 175 184
160 176 186
160 178 185
157 175 183
164 181 191
171 188 202
159 176 185
91 114 89
71 97 57
76 102 62
74 100 59
73 99 60
74 101 62
71 97 58
70 96 58
77 105 64
75 101 61
70 95 56
73 99 61
74 100 60
76 103 62
76 103 64
78 104 65
76 103 62
82 108 72
103 124 104
128 148 143
151 169 176
104 125 110
77 103 62
78 104 63
75 101 62
76 103 62
77 103 63
78 105 64
75 102 63
75 102 62
76 103 63
78 105 64
76 104 63
73 100 60
75 101 60
73 99 59
72 99 59
73 100 60
73 99 59
73 99 59
75 103 62
72 98 60
106 127 113
157 172 181
152 169 173
160 178 191
164 181 192
161 178 188
155 171 179
166 183 193
156 173 180
165 182 192
154 170 178
165 181 194
164 181 191
162 177 187
146 164 169
150 167 175
156 172 179
166 182 194
156 171 179
156 174 184
165 181 192
139 156 161
75 101 61
70 95 57
73 100 61
73 98 60
72 99 59
75 102 62
73 99 59
78 104 63
72 98 59
70 95 57
75 102 62
76 103 63
73 99 61
90 111 89
107 130 111
117 137 127
131 149 149
138 155 158
153 168 175
156 173 181
158 175 184
82 106 76
75 102 61
78 105 65
72 97 59
73 99 60
75 102 62
75 102 62
78 105 64
71 97 58
78 105 65
73 100 60
74 100 60
74 100 60
75 102 62
76 103 62
75 102 61
76 102 61
74 100 61
75 102 62
74 101 61
75 101 61
148 165 169
163 180 191
158 175 184
160 177 185
160 176 185
152 169 176
163 180 190
161 177 186
155 172 182
165 180 191
161 178 188
158 175 185
150 168 175
162 180 189
160 178 189
158 174 181
147 165 171
152 168 178
158 175 185
153 169 173
149 165 171
70 96 56
77 103 63
73 99 60
74 100 60
73 99 60
75 101 61
74 101 60
76 103 63
76 102 62
75 102 61
72 98 59
76 103 63
73 100 61
73 99 60
79 107 66
76 103 63
74 100 60
73 99 59
76 102 63
76 102 65
153 169 175
159 175 183
152 168 174
157 173 180
155 172 181
165 182 195
160 177 188
164 181 192
161 178 190
163 180 192
149 167 172
165 181 190
158 176 186
156 173 182
159 175 185
157 175 184
157 173 180
167 183 193
152 168 175
140 157 160
73 99 59
77 105 64
76 102 62
68 94 55
74 100 60
74 101 61
74 100 60
76 103 62
74 100 61
75 102 62
75 102 62
76 103 63
71 97 58
69 95 56
78 106 65
78 104 64
73 100 61
74 100 60
81 107 71
150 167 170
162 179 191
161 178 187
158 175 180
159 176 185
156 173 180
155 173 183
166 182 194
160 177 186
159 175 183
159 176 186
161 180 192
162 178 190
160 177 187
152 169 175
161 176 184
160 177 187
160 175 181
123 141 132
73 99 60
74 101 61
79 107 65
71 98 59
74 101 61
79 107 66
76 102 62
80 108 66
73 99 59
73 100 61
79 107 66
74 100 61
78 106 64
79 106 65
77 104 63
75 102 62
78 106 65
145 163 166
162 179 189
160 178 188
165 182 192
163 180 190
159 175 183
164 181 192
171 188 200
165 182 192
162 179 189
163 179 190
160 177 184
157 176 189
159 177 188
162 179 189
162 178 188
160 176 185
107 129 114
73 100 60
76 103 63
78 105 64
77 104 64
77 104 63
81 110 67
77 105 65
76 103 62
76 103 62
76 104 64
77 104 63
76 102 62
77 104 64
76 104 64
78 105 64
137 156 157
164 182 193
166 184 196
158 176 186
164 182 193
161 178 189
170 187 199
161 178 188
158 175 182
148 166 172
153 172 180
157 174 183
150 168 173
135 154 149
112 134 120
143 162 163
161 179 191
168 186 198
168 186 199
165 183 192
165 181 192
159 175 184
167 184 196
170 188 202
166 182 192
159 178 189
169 186 198
161 179 192
165 183 196
142 161 159
99 123 98
153 171 173
162 179 190
167 185 195
169 186 198
158 176 186
168 186 202
173 192 209
171 189 204
168 184 194
167 185 200
175 193 208
168 184 195
166 183 193
151 169 175
125 146 137
177 193 206
165 182 195
142 161 163
120 140 129
80 108 67
80 107 66
78 105 64
79 107 67
80 109 67
79 106 65
77 104 64
78 105 63
75 102 62
77 104 64
80 108 66
78 105 64
77 106 65
78 103 69
133 153 149
103 127 108
78 105 65
79 108 66
76 103 63
78 106 65
75 102 63
79 106 65
79 107 66
80 108 67
80 109 68
83 111 69
78 105 64
79 107 66
75 102 62
79 105 64
81 109 67
76 103 63
78 104 63
110 131 114
166 183 194
158 174 183
154 171 178
161 178 190
143 162 164
121 141 135
87 113 77
74 102 62
82 109 67
77 104 63
77 104 64
76 103 63
76 103 63
78 105 64
75 103 63
78 105 64
76 103 62
73 99 60
77 104 65
116 137 125
163 180 190
159 177 186
165 181 192
168 185 194
168 185 194
158 175 185
165 182 194
166 182 195
162 178 187
166 183 193
169 186 200
167 184 195
160 177 184
169 186 199
152 169 174
143 162 168
119 138 129
81 108 72
77 105 64
76 103 63
153 170 172
166 183 195
160 177 188
161 177 185
162 179 189
161 177 188
172 189 202
154 171 180
158 176 185
159 175 186
157 174 182
171 186 197
158 174 183
153 170 176
152 170 179
161 179 187
162 179 190
156 173 180
153 170 178
170 186 199
155 172 178
104 128 108
73 99 60
78 106 65
77 104 63
75 103 62
75 101 62
72 98 59
76 103 63
71 96 58
79 106 65
76 103 63
77 103 63
74 101 60
79 107 65
104 125 107
126 143 135
153 171 177
155 171 181
164 180 192
160 176 188
152 169 175
127 147 142
72 98 59
77 103 63
79 107 66
77 104 64
75 103 63
76 102 62
74 101 61
76 102 62
75 102 62
72 98 59
71 98 60
75 102 61
72 98 59
72 98 59
73 100 60
76 103 62
75 101 61
78 106 65
77 104 63
76 102 62
94 116 94
161 177 185
162 179 189
163 180 191
158 175 184
161 178 189
164 180 192
168 185 197
154 172 179
152 169 173
157 173 181
155 172 180
158 174 183
154 170 178
162 178 190
156 173 179
155 173 180
155 172 181
164 180 191
164 180 189
156 174 182
156 173 182
101 124 107
72 98 59
77 104 62
76 102 63
76 102 62
69 95 56
75 102 61
85 109 80
112 133 120
118 137 129
146 164 168
145 163 165
157 173 183
161 177 189
155 172 180
152 169 174
144 161 163
163 180 191
160 176 183
160 177 187
159 177 188
118 137 130
72 98 60
79 106 65
68 94 56
77 104 62
72 98 59
74 100 62
75 102 63
78 105 65
73 99 60
77 104 64
76 102 63
73 99 60
69 94 56
77 104 63
73 99 60
78 104 64
75 101 61
73 100 59
71 97 58
75 102 61
117 137 131
156 172 177
163 181 191
169 186 196
163 181 190
155 172 180
164 181 191
161 178 187
159 176 185
156 172 179
159 175 188
154 170 177
158 174 181
145 164 168
158 174 181
164 181 192
157 175 183
161 177 187
167 183 196
164 181 194
170 186 199
95 117 97
76 103 63
75 102 62
78 106 64
74 100 61
69 94 55
76 103 62
72 99 59
77 104 63
73 99 60
76 104 64
74 100 60
74 101 61
72 98 59
75 102 62
74 100 60
78 105 64
77 104 64
75 102 62
78 106 65
115 134 125
158 174 184
160 177 187
152 170 178
166 183 195
157 174 182
159 176 186
157 174 184
152 169 177
152 169 176
159 175 184
159 175 183
159 176 185
161 178 189
155 172 178
170 186 199
166 181 193
161 178 187
165 182 193
162 177 186
123 142 134
76 103 63
75 102 63
74 100 60
74 101 62
74 100 60
78 105 64
75 102 62
76 103 63
76 102 63
72 98 59
75 102 63
74 101 62
72 98 59
74 101 61
71 97 58
73 98 60
74 101 61
76 102 62
121 142 136
163 180 194
157 173 181
160 178 188
158 175 185
166 183 195
159 177 185
155 172 182
162 180 191
157 175 184
164 182 195
163 179 189
153 169 178
161 178 188
161 176 184
173 191 206
160 176 186
165 182 193
160 176 184
103 126 105
80 108 66
74 101 61
73 99 59
82 110 68
77 104 63
78 105 64
72 97 59
80 108 66
76 103 62
80 108 67
78 106 64
76 104 64
74 100 60
80 107 67
75 103 63
70 95 56
89 114 83
154 173 181
174 190 203
161 178 186
165 181 191
167 184 197
160 177 186
159 175 184
163 180 191
165 181 190
163 180 191
172 188 199
163 180 189
157 175 183
164 181 191
161 179 190
165 183 195
154 172 177
86 109 83
77 104 64
75 102 62
80 108 65
79 106 66
77 104 64
77 104 64
78 105 64
76 103 63
73 100 60
78 106 65
75 102 61
76 103 62
81 109 67
75 102 61
84 110 75
158 175 185
164 180 191
165 182 192
162 177 186
162 180 193
168 186 199
163 180 192
161 178 189
170 186 197
166 184 197
165 182 192
162 180 193
160 177 188
167 185 196
166 183 195
123 145 136
116 137 123
117 138 128
144 163 165
155 173 179
166 183 194
165 183 194
167 185 198
166 182 192
169 186 197
163 181 192
161 180 192
153 171 178
118 139 129
149 168 170
172 188 200
162 178 185
168 186 200
158 176 186
171 189 204
168 185 198
167 184 195
163 181 194
178 195 211
174 192 208
172 189 202
143 161 161
98 122 98
82 110 68
102 123 104
168 186 195
166 183 195
166 184 196
171 188 202
151 169 174
116 138 125
85 112 74
80 108 66
82 111 68
75 102 62
75 102 62
80 108 66
75 102 62
78 106 65
79 108 67
94 119 95
128 149 141
164 182 194
108 131 114
78 106 65
81 109 67
79 107 66
78 105 64
83 111 68
81 109 66
74 100 60
75 101 61
76 103 63
77 104 63
80 107 66
79 107 65
75 102 62
78 105 65
80 107 66
81 109 67
78 105 65
77 104 64
105 127 111
164 180 189
166 182 193
136 154 155
95 118 97
77 104 62
79 107 66
83 111 69
76 103 62
82 110 68
76 103 62
76 103 63
77 104 63
76 103 63
73 100 60
80 108 67
78 105 64
76 103 63
78 105 64
79 107 67
101 123 102
161 178 186
165 182 197
176 192 207
165 182 192
162 178 187
155 172 180
157 175 183
162 178 191
157 174 182
170 187 201
159 176 188
167 184 198
148 165 169
120 142 131
88 111 85
78 105 65
74 101 60
76 103 62
73 98 59
76 103 63
133 151 147
154 170 176
160 176 187
158 174 181
169 186 198
163 180 190
156 174 184
163 180 191
162 179 193
164 180 192
165 181 190
166 183 195
159 176 185
169 184 197
172 186 197
161 178 188
160 176 181
167 183 194
155 173 178
167 184 197
173 189 201
116 136 125
75 101 61
77 104 64
79 105 64
74 100 60
75 101 62
76 103 63
82 110 68
76 102 62
72 98 59
97 120 98
128 148 144
141 160 164
155 171 177
160 177 188
157 173 182
161 177 187
158 175 183
163 178 187
160 178 187
160 177 186
133 152 153
77 104 64
74 100 61
73 99 60
73 99 59
73 99 60
76 103 63
79 107 66
75 102 63
79 107 66
76 104 63
75 101 61
78 105 64
77 104 64
76 102 62
77 103 63
82 109 67
77 104 63
74 100 60
74 101 61
76 103 63
75 101 61
156 173 181
159 175 186
167 183 195
161 179 192
155 171 180
158 176 187
155 173 180
166 183 195
168 185 196
156 173 181
163 181 194
151 168 177
163 179 189
144 162 167
156 172 179
159 177 188
151 169 177
167 183 193
145 162 167
161 177 187
158 176 185
132 149 145
77 103 62
91 114 89
86 108 80
121 142 133
143 161 166
143 160 162
160 175 185
156 173 179
156 173 185
156 172 180
159 174 182
155 172 178
150 167 173
160 176 185
158 175 180
157 174 182
163 179 187
156 173 182
154 171 180
157 174 185
151 168 173
71 97 58
73 99 60
76 103 61
68 93 55
76 103 63
72 99 61
76 102 61
73 99 59
72 97 59
75 102 62
76 103 62
79 106 65
81 109 67
75 101 62
76 103 62
73 100 61
69 95 57
74 101 61
73 98 60
75 102 61
79 105 70
157 172 178
166 182 193
156 172 180
157 174 182
158 175 183
167 184 195
158 175 185
159 176 186
170 186 200
154 171 179
165 180 191
164 181 192
162 179 189
160 179 189
153 170 177
165 181 190
163 179 191
147 164 169
161 177 187
154 171 178
147 164 168
76 102 61
77 104 63
73 99 59
74 100 60
73 100 61
74 100 60
79 106 65
78 104 63
72 99 60
76 102 62
73 100 61
79 106 65
79 106 66
73 99 59
72 98 59
76 102 62
75 102 63
72 97 59
74 100 61
79 105 67
155 171 176
168 184 195
165 183 195
164 181 192
168 184 196
168 184 196
161 179 187
164 180 191
157 175 184
151 167 171
162 179 187
152 169 176
153 168 174
147 163 169
168 184 196
160 177 186
172 189 203
162 179 188
155 172 182
159 176 186
78 104 67
76 104 63
74 101 60
72 98 59
74 100 61
75 102 61
76 103 62
76 104 63
73 100 60
77 104 64
74 101 61
77 103 63
77 104 64
78 105 64
75 102 63
81 108 67
79 105 64
75 101 62
73 100 61
147 166 171
159 175 183
157 174 183
163 181 192
161 177 186
160 176 185
157 174 182
154 172 179
155 172 180
161 177 186
162 179 186
157 176 186
168 184 194
170 186 196
158 176 185
164 181 193
168 184 195
153 170 179
150 168 172
75 101 60
79 106 65
78 105 64
77 104 63
74 101 61
76 104 62
75 102 62
78 105 65
80 108 67
79 107 65
79 106 64
77 104 64
74 100 61
79 106 65
74 101 62
79 107 67
77 104 63
125 145 141
164 181 190
170 186 199
167 184 196
161 177 186
170 185 198
159 175 183
172 189 202
171 187 201
158 176 183
165 182 193
165 182 194
165 182 194
166 183 194
158 175 184
169 186 201
162 178 190
139 158 159
81 110 68
75 103 63
79 107 65
79 107 66
80 108 68
77 103 62
78 105 64
75 101 61
77 104 64
81 109 68
77 104 64
73 100 61
78 105 64
80 108 67
77 105 65
105 127 109
160 178 190
163 180 190
167 185 197
167 184 196
164 181 192
172 188 199
160 178 189
162 180 190
159 176 185
167 185 198
159 176 184
160 177 184
169 187 200
163 182 194
169 186 196
87 114 77
79 107 66
78 106 65
79 107 66
85 111 75
100 122 101
125 145 140
143 162 165
164 181 192
139 157 156
107 129 112
77 104 64
76 104 63
82 109 70
160 179 188
173 191 204
173 190 206
171 188 200
168 186 198
166 184 196
164 182 194
167 186 199
171 187 198
136 156 151
92 117 87
76 102 62
82 111 69
81 109 68
145 164 164
170 188 202
166 183 195
177 194 209
162 180 193
169 186 198
164 182 192
151 169 176
140 158 158
94 119 91
82 109 68
76 104 63
80 108 66
76 104 64
116 138 125
149 166 173
156 173 181
169 185 198
160 177 184
94 118 91
75 102 62
80 108 66
77 104 64
77 104 63
80 108 66
83 111 68
77 104 63
77 104 64
79 107 66
74 101 61
74 100 61
79 107 65
78 107 66
77 105 65
77 104 64
81 109 67
77 104 64
79 105 67
129 148 143
114 136 118
77 104 64
80 108 66
80 107 66
76 103 63
80 108 67
78 107 66
76 104 64
75 102 62
81 109 67
78 105 64
77 104 63
73 99 61
78 106 65
77 104 63
78 105 65
75 102 62
75 101 61
77 104 63
93 117 89
165 181 192
161 179 191
164 181 190
169 186 199
163 181 192
168 185 197
163 180 192
162 180 190
157 175 185
137 155 155
118 138 127
87 113 84
77 104 63
78 105 64
76 103 62
75 102 62
77 104 63
76 102 61
77 104 63
76 103 62
137 156 155
159 176 184
163 180 192
163 178 187
164 181 193
155 173 179
170 187 199
163 179 187
157 174 182
162 178 189
167 184 196
162 179 191
159 175 184
158 174 184
169 186 199
164 180 191
159 175 182
163 180 190
167 183 195
171 188 200
174 189 202
136 153 152
75 101 61
81 109 67
75 102 62
80 108 66
75 102 62
82 107 77
101 124 103
126 144 141
156 173 180
157 175 181
157 174 184
159 176 188
165 180 190
162 179 187
166 183 195
162 178 185
155 173 178
165 181 193
169 185 198
160 177 185
154 172 177
75 102 62
78 105 65
76 102 62
74 100 60
73 100 60
74 100 60
79 106 66
77 103 62
78 105 64
72 97 58
75 102 62
74 99 59
73 99 60
71 96 57
70 96 58
75 102 61
79 107 66
73 98 59
76 102 62
76 103 62
77 105 64
132 150 150
156 173 182
154 171 179
162 178 189
160 177 189
169 186 198
161 179 190
166 181 190
147 165 169
160 177 187
153 171 180
161 178 186
161 177 189
161 178 186
159 176 186
157 173 183
158 174 181
162 179 189
148 165 172
141 159 160
119 139 131
112 132 119
155 172 181
169 185 196
161 178 188
167 183 194
157 174 180
155 172 179
162 177 188
162 177 186
163 180 190
162 180 190
163 179 189
155 173 182
153 171 178
152 169 173
164 181 193
160 178 188
152 169 176
156 173 179
161 177 187
160 177 187
160 177 187
84 108 79
75 102 61
73 99 59
75 102 62
70 96 57
72 98 60
75 102 62
74 101 61
74 100 60
74 101 61
78 106 64
79 105 64
72 98 59
73 99 60
73 99 60
77 104 64
75 102 63
72 98 58
72 98 60
74 101 60
76 102 62
147 165 171
159 176 186
164 180 191
164 181 190
157 174 183
150 168 173
157 174 180
163 180 191
161 178 188
158 175 187
160 178 189
153 171 177
153 170 178
170 187 202
156 172 183
156 172 176
157 173 177
165 181 193
151 168 176
160 176 187
161 177 186
85 110 82
77 103 63
73 99 60
73 99 61
76 103 63
74 100 60
76 103 63
76 102 62
72 98 59
73 99 61
77 104 62
73 99 60
70 95 56
75 101 61
75 102 62
77 104 63
77 105 64
75 101 62
77 104 64
76 103 63
131 150 146
152 169 177
165 181 192
159 176 187
148 164 170
169 187 202
161 177 185
152 169 173
157 175 184
159 176 187
160 177 189
161 178 186
152 170 177
156 174 183
162 178 187
163 180 192
158 174 182
149 166 174
149 166 172
158 175 184
112 133 121
75 102 63
76 102 61
77 104 62
78 104 63
78 105 65
76 104 64
75 101 61
80 107 66
77 104 63
73 99 60
76 103 62
77 104 63
77 104 64
80 108 67
79 106 64
72 97 58
73 100 61
78 106 65
110 132 114
171 187 200
155 171 179
153 170 177
152 168 173
169 185 198
166 184 198
154 172 179
153 170 176
161 177 188
159 175 183
169 184 196
155 172 178
158 175 184
155 172 181
162 179 187
164 182 194
159 175 180
164 180 192
115 136 123
76 102 61
77 104 64
76 103 63
76 103 63
73 99 60
74 101 60
78 106 65
72 99 60
79 107 66
76 103 63
74 101 61
77 104 63
80 108 66
75 100 60
75 101 61
76 104 64
77 103 66
160 177 184
171 187 200
166 183 194
160 177 186
178 194 210
167 184 196
164 181 191
164 183 193
174 190 202
155 172 178
170 186 199
160 178 188
167 184 196
161 178 188
158 175 185
167 185 195
154 170 178
111 133 122
77 104 63
74 101 61
76 102 62
80 108 66
82 111 69
76 104 63
80 107 66
81 108 66
76 103 63
77 104 62
77 105 64
75 102 62
78 106 66
77 104 64
79 107 65
132 152 148
169 185 198
171 187 199
167 184 194
171 189 203
163 180 191
166 183 196
172 189 203
163 181 190
163 181 193
167 185 196
169 188 202
167 183 194
167 185 197
164 182 192
144 162 165
79 107 65
74 101 61
81 109 67
73 100 60
79 106 65
96 120 92
138 158 160
154 173 181
156 174 182
136 156 155
121 143 133
104 127 109
76 103 63
106 130 109
159 177 190
167 184 193
166 183 193
170 187 199
174 192 207
168 185 196
165 184 196
80 107 68
79 108 66
78 106 65
83 111 68
78 106 65
81 109 68
149 168 172
157 175 185
164 182 193
165 182 193
169 186 200
171 188 199
170 189 204
173 191 205
170 186 197
167 183 195
125 145 136
98 122 97
114 134 123
162 179 188
162 180 192
169 185 198
180 196 213
166 183 196
173 192 207
88 114 83
80 108 67
82 110 69
77 104 64
76 103 62
80 107 66
79 107 66
78 105 65
77 104 64
82 110 68
77 105 63
77 105 65
78 106 65
74 101 62
77 105 64
78 106 64
88 112 84
132 152 145
155 173 182
147 167 169
75 102 62
75 101 61
79 107 65
78 106 65
79 106 65
81 109 68
81 109 67
76 103 63
79 106 65
82 111 69
75 103 63
76 103 63
77 105 64
79 106 65
78 105 64
79 107 66
77 103 62
80 107 66
73 99 60
94 118 94
166 182 191
166 183 195
158 175 182
165 181 189
170 185 198
159 175 185
147 164 166
124 144 141
88 115 84
77 103 63
78 105 65
76 103 63
80 108 67
76 103 63
75 102 63
76 103 63
78 104 63
77 105 64
77 105 64
82 110 69
124 145 134
162 179 189
169 185 198
169 185 198
150 167 172
162 178 187
164 180 187
164 182 193
166 183 195
170 187 200
164 180 192
164 180 192
164 180 190
167 183 193
162 179 191
162 179 188
162 178 187
158 175 184
162 179 190
165 182 194
170 186 197
146 165 168
77 104 63
75 102 63
93 117 95
119 139 129
144 163 164
157 173 181
158 175 185
168 186 199
157 174 181
167 185 199
153 171 180
151 168 173
174 190 204
165 182 196
166 184 196
160 176 186
166 183 194
175 191 205
160 176 187
164 181 190
154 171 177
86 111 80
80 108 65
74 101 62
74 100 60
73 99 60
74 101 61
78 105 64
76 103 62
80 107 66
74 101 61
77 104 63
73 98 59
73 99 60
69 95 57
76 102 62
77 103 62
76 103 64
77 104 64
74 101 61
75 102 62
76 103 63
120 141 132
157 174 182
150 167 174
159 176 184
161 178 187
167 183 192
161 177 183
163 180 192
158 176 186
165 182 194
152 170 177
169 185 197
158 175 185
155 172 181
137 154 158
126 145 141
112 134 121
95 117 91
78 105 64
76 103 62
79 105 64
75 101 61
154 171 177
159 176 184
164 181 192
154 170 179
164 180 190
162 179 188
164 180 191
155 172 180
154 172 182
165 182 193
162 180 189
154 171 178
158 173 181
167 183 193
165 182 195
153 171 176
152 169 175
166 182 195
159 174 183
166 182 194
152 170 179
117 136 129
71 97 58
77 104 63
79 106 65
73 99 59
74 100 61
70 95 57
75 101 61
73 100 61
80 107 65
76 103 62
73 100 60
73 99 60
75 101 62
77 103 63
76 103 63
73 99 60
77 104 63
75 102 62
74 100 60
73 99 60
112 133 120
161 178 189
163 178 188
163 180 189
166 183 195
162 179 191
170 187 198
165 183 195
165 181 191
155 173 181
166 182 193
170 186 201
160 178 190
161 178 187
160 177 191
152 170 179
152 169 178
161 178 188
164 182 193
165 180 190
167 184 194
135 153 150
77 105 64
71 98 59
76 103 62
81 109 67
74 100 61
74 100 61
75 102 61
72 97 59
73 100 61
76 103 62
77 103 62
75 102 63
72 97 58
74 101 61
72 99 58
76 102 62
74 101 61
78 106 65
73 99 59
96 119 100
150 166 172
166 182 194
160 176 186
156 172 180
150 166 175
153 170 178
163 180 193
157 174 183
158 173 180
164 181 191
159 176 187
165 181 191
164 180 191
156 173 179
163 182 195
170 187 200
164 180 190
157 174 185
152 169 176
155 174 181
77 102 67
75 102 62
75 102 62
76 103 63
80 109 67
80 107 68
81 107 70
82 109 71
88 111 82
77 103 65
85 112 74
88 114 83
89 114 82
95 119 92
92 115 92
80 105 73
84 109 79
88 114 85
98 120 99
159 176 185
156 173 181
155 172 179
162 177 185
163 181 191
158 175 182
158 177 187
158 175 184
157 175 185
161 179 189
157 175 184
159 177 188
172 188 201
163 180 191
169 185 195
168 185 196
156 172 179
172 188 201
160 178 187
78 105 64
72 98 59
75 101 61
71 97 59
75 102 61
77 104 64
78 106 65
78 105 64
73 100 60
79 106 65
71 98 58
83 112 70
76 104 63
75 102 62
75 101 61
80 108 68
77 104 64
101 125 104
164 180 189
166 183 195
163 179 188
157 173 180
168 185 198
164 180 190
170 185 196
169 187 200
157 175 184
162 179 189
165 183 194
165 181 194
168 185 197
172 189 202
163 180 193
160 177 189
152 168 176
71 97 61
79 106 65
79 107 66
78 105 65
81 110 68
78 106 65
82 110 69
78 106 65
76 103 62
77 104 64
84 113 71
78 105 64
76 104 62
76 103 63
80 108 67
82 110 71
151 170 176
168 183 194
167 186 198
163 179 189
173 190 203
165 182 194
171 190 206
164 181 191
169 187 200
174 190 203
175 191 205
166 184 197
163 181 192
177 193 209
170 186 199
128 149 139
77 105 63
80 108 67
107 129 111
141 160 162
169 185 197
165 183 196
162 179 188
174 191 206
160 178 188
174 191 207
168 187 198
163 181 190
145 164 167
143 161 163
154 172 178
166 183 196
164 183 195
167 184 195
172 190 205
166 183 195
77 106 65
79 107 66
79 107 65
81 109 67
78 107 66
82 110 68
150 168 172
171 188 203
162 178 187
173 190 203
164 181 191
174 191 205
167 185 197
162 179 190
170 187 200
163 180 192
134 154 152
86 112 80
109 131 113
140 159 158
164 180 191
162 179 189
167 185 197
168 186 199
174 191 206
89 114 85
79 107 65
78 105 64
77 105 65
81 109 68
79 108 67
77 105 64
79 107 66
78 106 65
76 104 62
81 109 67
81 108 66
82 110 68
74 101 61
102 127 103
141 160 162
158 176 185
167 184 196
164 181 192
137 155 154
78 106 65
76 104 63
78 105 64
79 107 66
74 102 62
79 106 66
77 105 64
78 105 64
73 100 61
75 102 62
80 108 66
76 103 63
78 105 64
78 106 66
77 104 63
77 104 64
79 106 65
76 102 62
81 110 69
84 109 77
168 184 196
170 187 201
153 172 179
159 176 185
137 156 158
95 119 98
80 107 65
80 107 65
77 103 62
81 109 67
75 102 62
83 111 69
75 102 62
79 106 64
78 105 65
76 103 63
78 105 64
79 106 64
74 101 61
76 104 63
99 121 102
158 175 185
166 183 196
169 187 201
156 173 184
167 183 195
153 170 179
159 176 185
160 176 185
168 184 197
156 172 181
170 186 198
167 184 196
163 181 192
159 176 185
166 183 196
167 183 192
161 177 185
160 176 186
170 186 197
160 177 185
138 156 156
129 148 143
147 165 168
166 183 195
159 176 183
170 187 201
166 183 195
155 172 182
166 183 197
172 189 202
167 183 196
165 182 193
151 169 176
161 177 188
163 180 192
166 182 193
158 175 184
161 178 190
159 175 183
152 170 178
167 182 191
160 178 186
110 131 117
75 102 62
72 98 59
76 103 63
74 100 61
73 99 59
74 100 61
73 100 60
73 99 59
77 103 63
77 104 63
72 98 60
75 101 61
70 95 57
75 102 62
77 104 64
74 101 61
73 99 60
75 102 62
79 106 66
77 105 65
96 119 98
158 174 183
162 179 191
151 168 176
157 174 184
164 180 190
160 176 186
164 181 193
161 177 186
140 158 159
138 157 157
113 132 124
99 121 98
82 109 67
78 106 65
77 104 63
75 101 61
74 100 59
72 98 60
77 104 63
79 106 65
77 104 63
143 161 161
158 174 186
152 169 176
165 182 194
158 175 183
154 171 177
163 179 188
152 170 180
160 176 182
156 172 179
166 182 193
166 182 194
153 170 179
154 171 177
160 177 185
157 174 181
154 171 180
156 172 182
163 180 192
163 180 189
158 174 183
155 171 177
73 99 59
74 101 62
72 98 59
73 99 59
76 104 63
74 99 60
76 103 63
74 101 62
79 106 65
75 102 62
78 106 65
75 102 61
77 104 63
78 105 64
79 106 65
72 98 59
74 101 63
73 100 60
75 101 61
78 105 65
80 104 72
150 168 176
158 174 183
153 170 174
164 180 190
167 184 194
151 168 176
159 174 181
162 180 192
162 178 189
149 167 172
159 175 181
162 178 188
157 175 181
159 176 183
161 178 187
160 177 187
162 178 187
155 172 181
160 177 188
154 170 179
150 167 173
80 106 68
77 104 64
76 102 62
75 102 62
74 101 61
76 102 62
75 102 61
76 103 62
80 107 65
74 101 61
77 103 63
74 101 61
76 103 63
74 101 61
72 98 59
76 103 63
76 103 62
76 103 63
76 102 63
80 106 64
138 156 157
164 180 191
148 165 170
165 181 190
150 168 174
147 165 170
139 157 160
134 152 152
127 145 142
137 156 154
124 142 135
126 145 141
121 142 130
115 135 124
106 127 113
105 126 110
101 123 105
95 119 97
95 117 96
107 129 114
139 159 157
160 177 188
162 181 192
152 168 176
160 178 187
158 175 184
150 168 178
171 188 202
157 173 178
164 181 191
157 174 181
153 169 177
165 182 192
169 186 196
169 186 199
164 180 193
168 184 197
164 181 191
160 176 184
142 162 166
75 102 62
77 104 64
72 99 59
77 104 63
74 101 62
74 100 61
77 104 63
77 104 63
80 105 69
77 104 66
85 112 77
94 118 92
90 115 87
100 123 100
87 112 83
111 132 121
110 132 116
109 131 117
107 127 114
133 152 149
141 160 161
121 140 135
123 143 136
101 124 102
120 141 134
125 145 136
105 127 108
102 125 102
95 119 94
93 118 87
79 105 68
79 107 66
78 104 63
76 103 62
78 106 66
77 105 64
129 147 144
163 180 190
165 182 192
160 176 185
166 182 191
166 183 197
165 182 193
162 179 188
166 183 192
166 183 194
161 177 185
167 184 196
166 184 194
164 183 195
173 190 204
170 186 198
170 187 201
132 152 149
75 102 62
82 110 68
79 106 65
77 104 63
77 103 62
74 100 62
78 106 65
75 102 62
77 105 64
80 108 67
73 99 60
79 107 67
80 107 66
74 101 61
78 106 65
104 129 104
163 181 194
168 185 196
164 181 192
171 188 200
152 171 178
165 183 197
162 179 191
167 184 196
160 177 187
166 183 195
164 181 193
164 181 193
169 186 198
162 179 189
161 179 187
127 146 138
147 166 171
172 190 206
170 188 203
167 185 199
169 187 199
166 184 198
164 182 193
172 189 203
167 185 201
168 186 199
172 189 203
160 178 189
167 184 197
130 150 146
82 109 71
115 137 124
139 158 159
139 157 156
159 178 189
77 104 62
81 109 67
80 108 66
79 107 66
79 108 66
82 111 69
158 176 182
176 193 208
171 189 202
170 187 199
168 186 198
170 186 199
165 181 194
153 171 176
119 141 128
87 115 79
80 109 67
76 103 63
78 106 64
77 103 63
80 108 69
123 145 135
133 152 151
171 188 201
166 183 194
78 107 66
80 108 65
78 105 64
82 111 69
77 104 63
79 106 65
79 107 66
82 109 67
78 106 65
77 104 64
81 110 68
78 105 63
126 147 141
150 168 176
169 186 199
172 190 205
170 188 202
172 189 202
167 185 198
142 162 164
75 103 63
75 101 63
78 106 65
78 104 63
77 104 64
80 109 67
77 104 64
80 108 67
77 104 63
77 104 63
80 107 65
79 106 65
82 110 68
77 105 64
80 107 66
80 108 66
78 105 64
78 106 64
78 106 65
82 109 73
155 172 183
133 153 149
110 133 117
77 105 64
79 107 66
78 106 65
73 99 60
81 108 67
79 106 65
78 105 64
76 103 63
78 105 64
80 108 66
79 107 66
79 107 65
77 104 63
81 109 66
75 101 62
78 105 64
80 107 66
93 116 94
167 183 194
165 182 192
169 184 194
162 179 190
164 181 190
172 189 202
156 175 183
174 190 203
154 171 178
167 183 194
162 179 189
155 172 179
161 177 186
156 173 180
162 179 191
162 179 189
153 171 179
142 160 162
112 135 121
84 109 78
77 105 64
166 183 194
160 178 188
161 179 189
161 179 190
167 184 198
162 179 192
172 188 201
157 173 179
160 177 188
160 177 189
165 181 193
163 180 191
154 171 181
163 180 193
165 182 195
169 186 199
160 176 185
160 178 190
158 175 184
165 182 195
161 178 188
113 133 122
75 101 61
72 99 60
77 104 63
78 105 64
73 99 60
77 105 64
74 100 61
75 102 62
77 104 63
78 106 65
78 105 64
75 102 62
75 102 62
76 103 63
74 101 61
74 101 61
77 103 63
77 104 65
77 104 64
75 102 62
78 105 64
162 180 192
159 177 188
164 180 192
153 170 176
143 159 159
115 135 126
105 126 109
79 105 67
79 107 66
74 102 62
75 102 61
79 107 66
74 101 61
80 108 66
75 101 61
76 104 63
73 99 60
77 104 63
76 103 63
76 103 63
73 98 58
113 135 119
159 176 186
163 179 187
151 168 174
160 177 188
161 179 193
163 181 192
159 176 185
156 172 181
164 180 192
155 172 182
155 172 182
161 178 188
164 181 189
160 176 183
165 183 194
158 175 184
164 181 191
158 174 183
165 182 195
165 181 192
162 179 191
90 112 85
74 101 61
74 101 61
74 101 60
79 107 66
77 104 64
76 102 62
73 100 60
70 96 57
73 99 60
77 104 63
77 105 64
77 104 64
75 102 62
74 100 61
76 103 62
75 102 63
74 100 60
76 103 63
75 101 62
79 106 66
143 161 164
163 180 193
166 182 191
146 162 169
153 171 179
155 173 180
161 177 184
159 176 182
160 176 185
158 176 184
159 176 188
157 174 184
161 177 186
162 178 188
171 189 202
162 178 189
160 176 184
162 178 187
169 185 195
161 177 187
156 172 180
109 130 116
76 103 62
79 105 64
72 98 58
79 107 66
78 105 64
74 101 61
80 107 65
71 97 58
88 111 85
88 111 85
102 124 106
111 131 121
113 133 119
135 154 154
132 151 149
136 155 157
143 161 163
152 169 176
144 162 163
143 162 160
78 106 68
74 100 61
79 107 65
71 97 58
75 102 62
74 100 60
75 102 62
77 105 64
75 102 63
78 106 65
77 105 64
78 105 63
79 107 66
78 105 63
76 103 63
80 107 66
71 97 58
80 107 66
78 105 65
96 118 97
162 180 189
164 179 189
166 184 195
158 175 184
160 178 189
159 176 183
168 184 198
165 182 194
161 178 184
166 183 194
166 182 193
158 174 181
162 178 185
164 180 190
154 171 179
161 179 189
164 181 193
166 185 199
168 185 198
112 133 120
79 107 66
76 103 63
77 103 63
75 101 61
73 100 61
78 106 65
75 102 62
78 105 65
82 111 68
80 108 67
77 105 63
77 105 64
76 103 63
75 102 61
77 105 64
76 103 63
77 104 64
84 111 74
159 177 186
157 174 185
163 181 193
154 172 178
159 177 186
158 176 185
172 189 202
170 188 202
166 184 196
167 183 197
160 176 184
168 186 199
161 179 190
154 171 175
147 165 169
149 168 171
147 165 167
139 159 159
137 156 156
130 150 145
141 161 164
160 176 181
156 174 181
151 169 174
167 185 199
163 179 187
169 185 198
170 187 198
165 182 190
171 186 198
162 180 194
166 183 196
168 185 197
173 190 202
160 178 188
95 118 93
77 104 64
80 108 66
75 102 63
77 104 63
74 102 62
75 103 62
82 110 69
74 102 62
78 106 65
75 102 62
74 100 61
77 105 64
76 104 64
75 103 63
75 103 63
126 147 141
161 180 193
173 190 205
170 186 197
157 175 182
166 183 191
155 172 179
170 188 201
173 190 205
173 191 206
170 188 204
164 181 191
152 171 176
117 139 128
80 107 68
99 125 102
163 181 191
163 181 192
168 185 197
171 190 206
159 177 187
161 178 186
169 186 198
167 185 195
160 178 191
178 194 210
172 189 205
171 189 203
166 183 197
166 184 196
126 147 141
76 103 62
76 103 63
79 108 67
78 105 64
75 103 63
78 106 64
82 111 68
81 110 68
77 104 65
78 106 65
166 184 198
164 182 195
161 179 189
173 190 204
164 182 190
158 175 181
123 145 137
86 113 75
77 105 64
80 107 65
80 108 66
76 103 63
82 111 69
83 111 70
82 110 68
78 106 65
83 111 70
88 115 79
123 143 134
115 136 124
83 109 72
80 109 68
80 108 66
80 108 67
77 104 65
82 110 68
78 105 64
80 108 66
105 126 105
141 161 161
159 176 187
162 180 191
171 188 202
170 186 197
169 186 199
171 188 201
159 177 187
167 184 195
135 156 154
75 102 63
79 107 66
78 106 65
81 109 67
78 106 65
74 101 61
76 103 62
80 108 67
79 106 64
78 105 64
79 106 66
79 107 66
80 107 65
77 104 63
77 103 62
81 109 66
80 108 67
79 106 64
128 148 140
139 158 158
78 105 68
76 103 63
73 101 61
78 106 65
77 105 64
77 104 63
77 104 64
73 99 59
77 104 64
76 102 63
76 103 62
80 108 67
77 104 63
76 104 63
77 104 63
78 105 64
81 110 68
79 105 64
75 102 62
84 113 70
85 110 80
159 175 183
154 171 181
159 177 186
163 181 194
166 183 192
164 182 193
170 187 200
165 182 191
163 179 188
157 175 185
172 187 198
168 185 196
172 189 202
156 173 181
126 146 142
97 120 93
83 109 75
78 106 65
75 101 61
76 103 63
75 102 63
139 157 156
157 174 181
158 175 182
163 181 190
170 186 200
165 182 192
164 180 188
171 187 202
162 180 191
165 182 193
153 171 180
157 174 181
162 179 188
164 181 191
170 187 200
168 185 196
158 175 182
163 180 193
163 179 189
161 178 189
163 180 190
143 159 162
78 106 65
78 105 64
77 104 64
75 102 62
77 105 65
80 107 67
73 100 60
74 101 60
78 105 64
75 102 62
77 103 62
77 104 63
76 103 63
76 103 63
81 108 67
76 103 62
78 105 65
74 100 61
76 103 63
79 106 66
101 125 103
130 149 145
99 120 106
88 113 83
77 103 63
78 105 64
67 93 55
73 99 59
68 94 54
70 96 57
74 100 60
78 106 65
73 100 60
75 101 62
78 105 64
78 105 64
77 105 65
76 103 62
76 102 62
74 101 61
75 101 61
78 105 63
95 118 95
166 183 190
168 185 199
157 175 184
157 175 183
162 179 191
165 181 193
158 175 185
170 185 196
161 177 187
161 178 187
157 174 181
163 179 190
160 177 184
162 178 187
164 180 191
160 176 182
168 186 201
160 175 184
157 174 182
167 183 193
158 174 183
124 143 137
72 98 59
76 103 63
78 106 64
76 103 63
73 100 61
74 101 62
77 104 63
79 107 66
76 103 62
79 107 65
76 103 62
79 106 65
75 101 61
74 100 60
74 100 61
79 106 65
76 103 63
73 100 60
76 102 63
75 101 61
106 127 115
155 173 182
153 172 179
162 180 191
160 178 187
168 184 194
156 173 181
162 179 191
163 179 190
161 178 189
162 176 186
163 180 191
156 174 183
162 179 185
162 179 189
166 183 196
157 173 183
170 187 201
155 172 180
161 177 187
150 168 174
134 153 151
124 144 138
116 136 125
132 150 150
131 151 149
138 157 158
140 159 162
142 159 161
154 171 177
166 183 197
171 187 199
153 172 181
173 189 203
162 179 193
168 185 196
155 173 181
163 178 187
167 184 198
160 177 186
159 177 186
158 175 184
98 121 100
76 103 63
79 106 64
76 103 63
79 106 65
75 102 62
78 105 65
77 105 64
74 101 61
73 100 60
73 99 60
79 107 66
76 102 62
76 103 63
72 99 60
76 103 63
79 107 66
75 101 61
80 107 66
74 101 61
149 168 172
150 167 176
162 180 191
164 181 191
164 182 193
158 175 188
154 172 182
156 174 181
168 185 196
166 182 191
163 180 192
158 175 181
162 179 190
161 179 190
158 175 184
166 183 195
170 187 200
156 173 181
161 177 189
143 162 166
76 103 62
80 107 66
79 106 64
81 108 67
73 99 60
79 106 65
75 101 60
80 108 67
75 102 62
74 100 61
78 105 64
77 104 64
74 101 61
74 101 61
74 100 59
78 105 64
76 103 62
75 101 60
110 130 115
168 185 198
160 177 186
165 182 194
168 184 194
160 178 190
167 184 197
170 187 200
171 188 201
160 178 186
166 182 193
162 178 185
168 185 197
165 182 191
167 185 197
172 189 205
168 186 199
163 181 192
142 160 160
76 103 63
70 97 58
72 98 58
78 105 65
78 106 65
79 105 70
95 121 94
99 121 100
115 137 125
118 139 128
133 151 146
134 153 152
146 165 170
153 171 179
162 179 190
165 182 194
159 177 186
86 112 77
75 103 62
80 108 66
75 102 62
76 103 63
77 104 63
78 106 64
82 112 69
75 102 63
74 100 61
78 106 65
77 105 64
78 106 65
82 110 67
78 106 64
83 110 73
158 175 184
157 174 183
173 190 203
169 187 203
168 186 197
168 185 195
163 181 194
171 189 203
154 172 178
132 153 148
84 110 78
79 107 67
81 109 67
81 110 68
78 106 65
126 147 141
171 188 199
168 186 199
168 184 194
171 189 203
172 191 206
175 192 206
161 179 186
165 182 195
167 185 198
162 180 192
168 186 200
172 189 202
170 188 203
164 183 193
104 129 107
76 103 63
79 106 65
77 104 64
79 107 65
78 106 66
80 108 66
85 114 72
75 102 62
95 121 91
171 188 202
179 196 212
162 179 188
142 161 161
103 127 107
82 111 69
79 107 66
80 108 66
80 108 66
80 108 66
78 104 63
77 105 64
81 110 68
77 105 64
83 112 70
83 111 69
80 107 65
76 103 63
100 124 100
178 195 209
159 177 186
146 165 170
115 136 123
77 105 65
79 108 67
82 110 70
113 133 119
159 177 187
167 184 193
172 188 200
165 183 196
174 191 206
170 187 200
171 188 200
160 177 187
169 186 199
171 188 200
182 199 216
146 165 167
77 104 63
77 104 63
79 106 65
79 106 65
82 111 69
72 98 59
79 107 66
75 101 61
77 105 64
77 104 63
77 105 65
82 110 68
77 103 63
74 101 61
81 109 67
105 128 111
131 151 152
165 182 193
161 177 186
166 183 196
88 114 83
79 107 65
79 106 64
76 103 63
76 103 62
82 110 68
78 106 65
74 101 60
77 104 64
79 107 67
72 98 58
75 102 63
80 108 67
75 101 61
77 105 65
77 105 63
78 105 64
79 106 65
80 107 66
73 100 60
80 108 67
164 181 193
162 179 188
164 181 194
160 177 189
168 185 200
156 174 185
164 180 191
159 175 186
166 183 197
177 192 207
158 176 185
137 157 157
98 121 100
77 104 64
79 106 65
76 104 63
76 103 63
76 103 62
74 100 61
77 105 64
76 103 62
145 164 167
170 187 199
173 188 202
167 183 195
167 184 197
164 181 192
165 183 195
161 177 186
163 179 190
158 177 189
164 181 192
164 180 192
160 177 188
162 179 191
156 173 182
162 179 188
168 185 198
168 184 198
163 180 190
169 185 199
167 183 193
151 168 171
80 107 66
76 103 62
80 108 67
77 105 64
80 108 66
76 103 63
76 102 62
77 103 63
75 102 62
75 102 61
75 102 61
77 104 63
76 103 63
70 96 57
77 104 64
79 106 68
107 128 113
117 136 129
152 171 175
152 169 177
162 179 191
132 152 148
73 100 60
72 99 59
69 95 56
81 108 67
77 104 63
70 97 58
72 98 58
76 104 63
77 104 63
78 106 65
77 104 64
76 102 61
74 101 60
75 101 62
80 108 66
77 105 64
74 101 61
77 103 63
75 102 62
78 105 64
76 104 64
146 163 169
169 185 196
158 175 186
172 189 202
161 177 187
161 178 189
155 172 178
165 183 195
158 175 185
164 181 192
157 174 182
165 181 192
163 180 193
159 177 185
161 178 186
162 180 189
164 182 196
162 179 192
162 179 189
162 180 190
170 188 201
139 157 158
73 99 61
74 101 61
76 103 63
71 97 57
77 104 63
73 100 60
78 106 64
79 106 64
75 101 62
74 101 61
79 107 65
74 100 61
78 105 63
79 107 66
74 101 61
77 105 65
77 104 64
77 103 62
77 104 63
77 104 63
79 105 70
157 175 184
155 172 180
170 186 195
161 178 187
165 181 192
167 184 197
163 181 192
159 176 184
171 187 198
164 182 194
154 172 181
143 161 163
133 152 151
120 140 135
116 138 129
107 130 113
103 125 107
82 109 73
73 100 61
80 108 67
80 106 68
144 160 162
165 182 192
160 177 187
161 179 191
163 181 191
160 178 187
161 178 187
161 179 189
161 176 185
164 181 191
162 178 189
155 173 183
164 180 189
154 171 177
163 178 187
158 175 184
159 176 186
160 178 186
162 178 190
162 178 187
142 159 165
77 104 63
77 104 64
79 106 66
74 101 62
76 103 64
76 104 63
73 99 60
79 106 65
74 100 61
79 106 65
76 104 64
74 100 61
80 107 65
74 102 62
81 109 67
76 103 63
80 107 66
70 96 58
75 102 61
93 117 91
154 172 180
161 179 190
170 187 201
160 178 186
169 186 196
162 180 188
159 177 185
164 182 193
163 180 189
169 185 197
175 191 203
163 181 191
160 176 186
165 182 193
159 177 189
157 174 182
167 185 199
162 179 187
169 186 199
115 136 122
77 104 63
73 99 59
75 102 62
73 99 60
75 102 63
79 107 65
75 102 63
76 103 63
78 106 65
78 106 65
79 106 65
75 102 62
79 107 65
79 106 65
71 97 59
80 108 66
80 108 66
74 101 61
158 176 185
155 171 179
160 176 185
169 185 196
168 184 198
169 185 196
173 191 206
159 177 187
158 176 186
166 183 193
159 177 184
168 186 199
166 183 195
151 169 174
167 183 196
167 185 197
163 181 193
168 184 195
103 126 106
81 109 67
76 104 63
72 99 59
76 103 64
77 105 64
74 101 62
81 110 68
76 102 62
79 107 65
77 103 63
73 99 60
77 105 64
77 105 64
76 103 62
81 110 68
92 116 91
117 137 129
135 156 153
122 143 136
126 147 141
98 121 103
88 113 80
81 109 69
81 109 67
81 108 67
74 101 60
77 105 64
81 110 68
78 105 64
76 104 64
75 102 62
77 105 65
94 118 96
167 184 195
160 177 186
157 175 185
172 189 204
149 168 171
108 131 114
88 113 86
78 106 65
79 106 65
80 108 67
82 110 68
79 106 65
81 110 69
77 104 64
84 113 71
154 172 177
154 171 179
169 186 197
161 180 191
160 178 188
166 183 196
175 193 206
165 184 195
166 182 191
165 182 194
166 184 197
166 182 192
161 178 187
169 187 200
154 172 177
76 103 63
78 106 64
80 108 67
73 100 61
78 106 65
81 110 68
82 111 69
82 111 70
105 129 106
179 197 213
140 160 160
93 118 91
79 107 65
79 105 65
81 108 66
83 112 70
83 112 70
82 111 69
77 104 64
81 110 69
81 108 67
82 111 69
75 101 60
81 109 67
77 105 64
84 112 70
81 110 67
103 126 105
161 179 191
167 184 195
170 187 201
174 190 204
160 178 188
100 123 101
140 160 157
160 178 186
166 184 194
164 182 194
166 183 196
164 181 189
164 182 194
163 180 190
159 178 188
164 183 195
168 186 199
169 187 201
163 181 193
136 155 158
80 108 67
81 110 67
77 105 65
75 102 62
78 106 65
82 110 67
77 103 63
78 105 64
80 108 66
74 101 61
81 108 66
78 105 64
88 114 83
124 144 140
159 178 189
172 190 205
169 186 199
163 182 194
175 191 204
164 181 192
102 125 104
79 106 65
79 106 65
76 102 62
78 104 64
77 104 64
75 102 62
75 102 62
77 104 62
80 108 66
77 104 63
78 105 65
74 101 60
77 104 63
76 103 62
77 104 64
79 107 66
77 105 64
77 105 64
80 108 67
73 100 61
159 175 184
165 182 195
164 181 196
162 180 192
171 188 200
160 177 187
167 185 195
158 176 185
130 149 145
102 123 104
77 105 64
77 105 64
71 98 58
77 104 63
73 99 60
76 103 63
78 105 64
79 107 66
76 102 61
78 105 64
83 111 69
141 159 161
167 184 195
158 175 185
166 183 195
167 183 195
165 182 195
169 186 199
162 179 190
154 170 178
168 184 195
158 174 183
162 178 189
169 186 200
160 177 188
163 180 192
156 173 184
165 181 194
169 185 196
155 173 182
170 188 203
161 177 183
165 181 192
85 110 75
79 107 66
74 100 61
76 104 63
77 103 63
76 103 62
76 103 63
73 100 61
73 100 61
75 101 61
74 101 61
79 106 68
112 133 115
120 139 133
144 163 163
160 178 189
158 176 186
159 175 185
155 173 181
166 182 192
169 186 198
141 158 156
75 102 61
77 105 64
76 103 63
75 102 62
74 101 60
79 106 65
77 104 64
74 101 61
76 104 63
75 103 63
79 107 66
79 107 66
75 101 61
81 108 67
74 101 61
76 102 62
79 106 65
73 101 61
74 101 61
75 102 62
76 102 62
122 143 137
158 175 185
163 180 193
155 172 179
156 174 185
168 184 194
166 183 193
158 174 186
154 170 179
151 169 177
150 168 179
162 179 189
163 180 191
158 175 184
154 173 182
159 178 188
165 181 192
163 180 193
166 181 191
158 175 184
165 182 194
163 180 191
91 115 90
75 102 61
78 105 64
73 98 59
79 106 65
81 109 67
75 102 62
77 104 64
80 108 66
74 101 61
74 101 61
76 104 63
76 103 63
78 106 65
70 95 56
77 103 62
77 104 63
77 104 63
76 104 64
78 105 64
77 105 64
133 152 149
169 186 198
158 175 183
128 147 139
136 155 156
117 138 127
121 142 135
106 127 106
84 108 80
74 101 62
77 104 63
78 106 65
75 102 62
69 96 57
74 101 61
76 103 62
79 106 66
74 102 62
77 103 62
71 96 57
76 103 62
131 149 147
165 182 193
170 187 202
163 180 192
164 182 194
165 181 193
155 171 176
166 182 193
163 180 192
161 178 188
159 176 183
165 182 194
167 183 193
166 183 193
158 175 183
167 184 197
162 178 187
169 186 200
151 168 176
163 179 188
159 176 185
92 115 89
78 104 63
72 99 60
77 104 64
80 107 65
77 103 63
77 104 63
79 106 65
79 107 67
77 104 63
82 110 68
75 102 62
74 101 61
78 105 64
76 103 62
76 103 62
78 106 65
74 100 59
80 108 67
72 98 59
144 162 167
161 178 187
158 176 186
156 174 184
163 180 192
160 178 190
165 181 192
168 185 196
159 176 184
168 186 199
163 181 190
168 184 197
171 188 201
155 173 182
166 182 195
164 181 192
165 181 191
159 176 185
164 180 189
161 179 189
79 105 68
78 106 66
78 105 64
78 106 65
75 102 61
82 110 69
76 103 62
79 107 66
78 106 65
77 104 64
80 107 65
77 105 64
73 99 59
74 101 61
74 101 61
78 105 64
76 103 63
77 104 64
113 134 120
156 173 181
156 174 183
170 187 197
162 179 191
166 183 194
162 178 190
162 180 191
160 178 189
168 187 200
154 171 178
171 187 200
167 185 196
166 182 193
168 186 200
161 179 189
168 185 197
161 178 187
154 173 181
79 107 66
78 105 64
74 101 62
77 105 64
78 105 64
76 103 63
77 105 65
81 109 67
79 107 66
80 108 67
77 105 64
78 106 64
76 104 63
75 102 61
82 110 67
81 109 67
82 109 72
155 172 179
159 177 187
167 183 192
158 176 185
174 190 203
175 191 206
160 178 189
150 169 175
146 165 165
134 154 154
116 138 126
102 126 106
84 110 76
73 99 59
80 109 68
81 109 68
124 147 135
145 164 166
103 126 112
85 111 78
78 105 64
82 111 69
80 108 66
77 104 63
76 103 63
76 104 64
78 106 64
80 108 67
77 105 64
80 107 66
78 105 64
92 118 90
155 172 180
162 180 190
168 187 201
169 187 199
156 175 185
171 188 198
159 176 188
169 187 201
164 183 193
179 196 213
167 185 196
170 189 206
170 189 203
174 191 204
150 169 173
78 105 64
76 103 63
78 106 64
80 108 67
80 107 66
80 109 68
83 109 74
123 143 131
93 119 91
82 110 68
81 109 67
80 109 67
77 105 65
78 105 63
83 112 70
81 110 68
82 110 68
78 106 65
79 107 65
78 106 65
78 106 65
81 109 67
83 111 68
81 110 69
81 110 68
78 105 64
121 143 131
173 189 201
160 177 187
147 167 171
122 143 133
77 104 66
76 103 63
74 102 62
76 103 65
107 130 114
130 150 145
156 175 183
167 184 198
177 195 211
172 190 205
179 196 211
168 185 198
169 186 199
172 190 203
172 188 200
144 163 167
80 107 66
76 103 62
78 106 65
80 108 67
80 106 65
79 107 65
76 103 63
78 106 65
80 108 67
81 109 70
110 132 118
139 158 158
171 188 200
162 178 187
168 184 195
162 180 190
164 182 193
182 199 215
167 185 196
160 177 188
100 124 98
77 105 64
77 104 64
79 106 64
77 104 64
76 104 64
79 106 65
79 106 65
79 108 66
80 108 67
80 108 67
83 111 69
77 105 64
79 107 67
78 106 65
76 104 63
76 103 63
78 105 64
78 106 65
78 106 65
76 104 62
158 176 182
168 185 196
168 185 198
169 185 195
146 165 167
131 151 147
93 117 89
79 107 66
80 107 66
72 98 59
73 100 60
79 107 65
75 102 61
78 106 65
76 103 63
77 105 64
74 101 61
77 106 65
78 106 65
81 109 67
78 105 64
125 146 140
165 181 190
159 176 188
157 174 183
162 179 189
170 187 200
161 178 189
164 182 194
158 175 186
161 177 187
163 180 189
165 181 189
153 171 181
161 179 187
154 171 181
173 188 199
163 181 191
171 187 200
163 180 190
166 184 196
164 182 194
155 173 183
121 142 133
78 105 65
75 103 62
78 105 65
71 97 57
76 103 63
76 102 62
77 104 63
98 122 97
131 150 145
143 160 162
149 167 173
158 174 184
154 170 175
156 173 182
152 170 180
170 187 203
159 176 185
152 169 178
159 176 185
161 178 187
158 175 185
86 113 78
83 110 68
79 106 65
75 101 62
77 105 64
77 104 64
76 104 63
79 107 66
76 103 63
74 100 60
83 111 69
73 100 61
74 101 61
76 104 63
75 102 61
71 98 58
77 105 64
76 104 62
74 101 62
77 104 63
75 102 61
97 121 99
153 169 177
165 183 194
158 175 183
156 172 180
158 176 185
169 186 199
165 182 192
165 182 194
166 184 196
168 184 195
156 174 185
177 193 210
167 183 197
161 178 188
158 175 184
157 175 186
165 181 193
163 180 192
163 179 190
159 175 187
153 170 179
107 129 115
74 101 61
74 101 61
72 99 59
76 103 63
77 105 64
77 104 64
74 100 60
74 101 62
76 103 62
78 106 65
79 106 65
74 100 61
75 102 62
72 98 59
71 97 59
104 127 106
103 125 107
126 147 140
132 151 149
137 156 158
148 166 168
76 102 62
74 101 61
74 101 61
73 100 60
76 103 62
77 103 61
76 104 63
78 106 65
79 107 65
71 98 59
72 99 60
74 100 60
79 106 65
80 107 66
71 98 59
74 99 60
78 105 65
78 106 66
77 105 64
77 104 63
78 104 66
165 182 193
163 180 190
160 176 186
164 181 192
162 179 190
161 179 189
160 178 188
159 176 185
167 184 197
161 176 185
159 177 187
170 186 200
164 181 193
167 185 197
161 178 186
166 183 193
157 176 187
158 175 183
169 186 198
157 175 184
132 151 147
78 105 64
75 101 62
79 106 65
74 100 60
76 103 62
78 105 63
73 100 59
72 99 59
80 108 66
77 104 63
75 102 62
76 104 63
77 105 64
76 103 62
78 105 64
78 105 64
79 105 63
76 102 62
80 108 66
96 118 96
169 187 203
170 186 198
164 181 194
169 185 196
159 175 185
161 178 188
165 182 194
157 175 185
162 179 187
171 186 199
150 168 177
161 177 189
159 175 183
162 180 193
165 183 194
172 188 202
169 185 195
164 181 191
162 179 191
113 135 121
76 104 63
75 102 62
75 102 61
78 106 65
77 105 64
76 103 63
76 103 62
75 102 62
77 105 64
80 108 66
80 108 67
83 112 69
78 105 63
75 101 61
75 102 62
75 102 61
78 105 65
76 103 62
157 175 183
164 182 195
168 184 198
161 178 186
166 183 195
173 189 201
166 184 198
160 177 187
174 192 205
167 184 195
163 181 193
166 183 196
174 192 205
160 178 190
158 176 187
169 186 197
168 184 197
167 183 194
132 152 150
78 106 64
79 106 65
75 102 61
78 106 65
79 107 66
79 106 64
79 106 65
76 104 64
78 106 65
79 107 66
78 106 66
80 108 67
78 106 65
80 108 66
74 102 62
77 104 64
113 134 119
161 179 190
164 182 191
170 187 199
172 189 201
174 192 207
165 181 192
176 192 207
158 176 188
156 174 183
159 176 182
168 186 199
167 185 197
141 162 162
108 131 116
103 126 105
136 155 156
99 123 100
97 121 100
81 109 68
70 97 57
78 106 65
77 104 63
84 113 70
75 102 62
77 104 64
75 102 61
82 110 68
81 109 68
78 105 64
80 108 66
78 106 65
103 126 108
168 184 199
165 183 194
171 186 199
168 185 200
170 187 200
168 187 200
173 191 204
167 185 196
165 183 194
176 193 207
171 189 205
158 176 186
170 187 201
162 180 190
122 143 137
77 105 64
80 109 68
79 108 66
85 112 77
136 157 152
170 188 200
145 164 167
81 109 67
84 114 71
81 109 67
80 109 67
80 107 66
84 113 70
82 110 69
79 108 66
78 106 64
79 107 66
78 106 66
85 114 71
77 104 64
82 111 69
82 110 69
81 109 67
80 108 67
79 107 65
98 123 101
141 159 161
101 125 107
78 106 64
79 106 65
78 106 65
78 105 65
79 108 67
78 106 65
78 106 65
75 102 61
80 109 67
89 116 82
126 147 140
151 169 172
158 176 184
167 185 199
176 193 207
171 187 199
159 177 185
160 178 186
78 105 64
76 103 63
78 105 64
78 106 66
79 107 66
78 107 65
78 106 65
106 128 110
135 154 154
160 178 188
162 179 193
170 187 202
161 178 189
169 187 203
163 181 191
157 175 182
156 174 184
172 188 201
160 178 186
175 192 207
116 137 123
81 110 68
80 108 67
80 108 66
80 108 66
80 108 66
82 110 68
77 104 63
80 108 66
78 105 64
74 102 62
76 103 62
73 100 61
81 110 68
80 108 67
78 105 64
80 107 66
79 106 65
75 102 63
82 110 68
77 105 65
139 157 157
148 166 168
120 141 133
98 122 98
79 106 64
77 104 63
78 105 64
80 108 66
79 107 65
77 104 63
75 102 61
78 105 64
78 106 64
75 101 62
77 104 63
78 105 64
77 104 63
68 94 56
80 108 67
81 109 67
76 104 63
108 131 113
156 172 177
169 186 198
169 185 197
157 174 182
163 182 195
165 183 191
166 184 196
168 186 200
166 182 193
169 186 199
162 178 188
168 184 196
168 185 196
165 182 194
174 192 207
170 187 197
172 189 202
157 174 185
163 180 190
158 176 186
166 184 196
120 141 134
71 97 57
76 102 62
78 105 65
104 128 109
123 143 135
139 158 157
158 176 186
168 185 196
154 171 178
164 180 190
159 177 187
158 175 185
158 175 184
162 180 193
166 182 194
162 178 184
168 185 197
164 182 192
161 176 185
163 180 191
158 174 186
98 121 100
75 102 62
76 102 61
78 105 63
77 104 63
81 108 67
78 105 65
77 104 64
77 105 64
76 103 62
75 102 62
76 103 63
74 102 62
76 104 63
74 101 61
77 105 65
75 102 62
77 105 65
75 102 61
70 95 57
78 105 64
78 105 64
161 178 188
169 185 197
161 177 189
164 181 192
155 171 179
163 180 191
170 186 199
162 180 188
166 183 195
161 179 187
164 182 193
162 179 190
168 184 199
163 179 187
160 175 182
155 172 180
164 180 190
163 179 189
160 179 190
161 180 192
164 182 195
149 166 173
81 109 68
73 99 60
76 103 63
81 108 67
74 100 61
76 103 62
79 106 65
80 108 67
93 118 92
107 128 112
129 148 143
129 149 147
142 162 164
150 167 174
164 181 191
161 179 189
156 174 184
161 178 187
158 175 181
167 183 197
165 181 192
99 121 100
76 103 63
81 109 68
77 104 64
77 104 64
77 105 64
78 106 65
77 105 64
75 101 62
69 94 56
72 99 58
79 107 65
78 106 65
77 105 64
78 105 64
78 106 65
78 106 65
75 103 62
77 104 63
74 101 61
79 107 66
147 166 172
162 180 191
164 181 191
156 172 185
159 175 185
157 173 181
161 178 187
172 191 205
163 180 193
158 174 181
158 175 183
165 180 193
157 174 183
160 176 185
161 179 190
166 183 194
157 174 182
161 179 191
159 177 187
158 174 181
168 185 197
79 104 74
75 102 62
75 102 62
73 99 59
73 99 60
75 102 61
76 103 63
78 105 64
78 105 65
79 107 67
80 108 67
79 107 66
77 105 64
79 106 65
76 103 63
76 102 62
75 103 63
79 107 66
80 108 66
79 107 65
149 166 173
165 182 193
165 182 193
168 184 196
161 179 189
163 180 189
157 174 182
165 182 192
160 178 187
164 181 191
164 181 193
157 175 183
177 192 207
163 181 193
173 190 202
165 182 192
168 186 197
162 180 189
177 195 210
161 178 187
84 111 72
77 105 64
75 102 62
80 108 67
77 105 64
75 102 62
79 107 66
78 106 65
77 104 63
80 108 66
79 107 66
79 106 65
74 100 61
74 101 61
77 104 64
77 104 63
76 104 63
79 107 66
93 116 89
175 192 205
166 182 191
164 180 190
166 183 193
170 188 202
160 178 191
156 173 181
173 191 206
162 179 187
156 173 182
168 184 196
169 187 202
164 181 192
158 175 186
162 179 189
164 182 196
161 178 191
162 180 190
93 117 88
79 107 67
82 110 68
76 102 63
76 104 63
78 106 65
76 104 63
76 104 63
78 105 65
76 104 63
80 108 65
77 105 64
78 106 65
75 102 62
82 111 69
80 108 65
75 103 63
137 156 153
174 192 205
159 177 187
169 187 201
172 189 204
158 175 184
173 189 204
176 193 210
163 180 189
152 171 178
133 152 145
92 116 90
84 112 70
75 103 62
83 112 70
80 109 67
99 122 99
173 189 200
161 178 187
155 172 179
145 164 167
125 145 136
122 144 132
97 122 95
82 111 69
76 103 63
78 105 65
80 109 67
81 109 68
77 104 63
81 110 69
79 107 66
132 151 146
172 189 202
171 188 200
170 188 199
174 192 207
175 192 206
172 190 203
179 197 212
178 195 210
176 194 208
172 189 202
171 189 201
174 192 205
176 194 211
173 191 206
96 122 94
103 127 105
144 163 164
168 186 197
169 186 198
176 192 205
139 158 159
78 106 65
80 109 68
80 108 66
76 103 64
78 105 63
79 106 64
81 109 68
80 107 66
84 113 70
81 109 66
79 107 66
77 104 63
82 111 69
80 108 67
80 107 65
79 107 66
94 118 94
134 153 151
155 172 179
81 109 67
79 107 65
81 109 67
77 105 63
79 107 65
82 110 68
82 110 68
81 110 68
79 108 66
80 108 67
82 111 69
78 106 65
80 107 66
76 103 63
75 103 63
107 131 111
126 147 139
149 166 172
169 186 200
144 163 166
81 109 67
82 111 68
80 108 67
85 113 71
87 113 82
126 146 137
156 174 182
174 191 205
164 182 192
160 178 189
164 181 191
167 185 199
164 180 190
165 181 192
165 183 195
166 183 194
165 183 197
164 181 191
167 183 193
169 187 200
117 137 127
80 108 66
79 106 65
78 105 64
78 106 65
79 106 65
73 99 59
79 107 66
82 111 69
78 106 65
80 108 67
78 106 64
78 105 64
77 104 63
81 109 68
81 110 69
79 106 64
74 101 60
79 107 66
108 131 114
131 151 146
125 146 137
76 104 63
77 105 64
83 112 69
77 105 64
75 101 61
80 107 66
78 105 64
76 104 63
77 105 64
82 110 68
79 107 66
78 105 65
78 105 64
80 108 66
76 102 62
80 108 66
75 102 62
77 104 64
74 101 62
73 100 60
85 112 75
167 184 194
167 183 195
168 185 195
159 178 190
174 191 204
165 181 191
162 179 186
162 179 192
165 181 191
169 186 200
169 186 198
159 176 185
167 183 193
161 178 188
176 193 207
173 189 203
162 180 190
163 181 192
174 190 204
161 178 187
165 183 195
126 146 140
119 141 132
139 158 155
148 165 168
163 179 187
170 187 199
160 177 188
173 191 208
160 176 185
163 179 191
161 178 188
159 177 188
159 178 188
161 178 187
169 185 198
161 178 188
164 181 192
155 173 182
165 182 192
163 180 189
173 190 202
154 171 179
120 141 132
75 100 61
77 104 64
77 104 64
73 100 59
74 100 59
79 106 66
75 102 63
72 98 58
73 100 60
83 111 69
78 106 66
77 104 63
78 105 65
78 105 65
76 103 62
77 104 64
75 102 61
80 107 65
76 103 62
78 105 65
73 99 60
142 161 165
169 187 201
161 178 186
165 181 193
162 178 188
169 185 197
173 190 204
158 176 186
169 187 200
155 173 182
164 181 190
158 176 183
166 182 195
180 196 213
154 171 179
172 189 204
166 183 194
155 172 182
157 174 183
174 191 206
167 183 193
157 176 184
81 106 73
78 104 64
95 119 92
127 148 143
117 137 127
140 160 161
148 165 168
161 178 186
156 175 184
166 183 195
167 184 196
159 176 186
164 181 191
157 173 179
162 180 190
165 182 191
161 177 186
160 176 182
153 169 176
154 172 180
154 172 180
129 149 146
76 103 63
74 100 60
74 101 61
76 103 63
72 98 58
78 105 65
79 106 65
77 104 63
74 100 60
75 102 62
77 104 64
75 102 63
78 105 64
79 107 65
79 107 66
75 102 60
80 108 66
72 98 59
75 102 62
76 103 63
100 123 103
174 190 203
168 184 194
168 184 196
163 179 191
172 189 201
160 176 187
167 184 197
171 186 198
164 180 189
164 181 192
159 177 188
166 182 195
156 172 182
162 181 193
171 189 203
161 178 189
164 182 192
165 182 193
167 185 198
168 186 197
124 143 140
78 106 66
77 104 64
78 106 65
78 106 65
76 103 63
77 104 63
76 102 62
79 106 65
80 108 67
72 99 59
78 105 64
80 109 68
77 103 64
71 97 58
76 104 64
76 102 62
76 103 63
78 106 64
76 102 62
123 144 135
164 182 191
155 172 179
166 182 194
157 175 182
176 193 208
163 181 193
164 181 192
159 176 185
170 187 199
169 186 201
163 179 189
170 186 198
160 178 187
172 188 201
168 184 195
162 180 195
175 191 205
172 189 202
163 179 187
109 131 113
74 101 61
80 108 67
78 105 64
77 105 65
77 104 64
79 106 65
78 106 65
78 106 65
76 103 63
75 102 63
77 104 63
76 103 63
75 102 62
77 104 64
79 107 66
78 105 64
74 100 60
76 103 63
142 160 156
175 191 206
167 184 196
168 185 199
171 188 202
158 176 186
162 180 190
166 183 196
163 181 195
164 181 192
169 186 200
165 182 194
167 185 198
159 177 187
158 176 187
169 187 200
170 188 201
168 185 195
135 155 152
81 108 67
84 114 71
77 104 63
80 108 66
80 108 66
78 107 66
79 107 66
78 104 63
78 106 64
79 107 65
76 104 63
79 106 66
74 101 62
81 109 67
76 104 64
78 105 64
82 109 72
173 191 207
162 180 190
170 187 200
171 188 200
139 158 158
122 143 131
105 128 110
76 104 64
76 103 62
77 105 64
78 106 65
78 106 65
77 104 64
77 105 65
80 107 66
76 104 63
128 150 141
171 189 204
166 184 195
171 188 204
164 182 193
174 192 205
164 181 193
157 175 182
145 163 169
146 165 169
136 155 151
106 127 112
89 115 81
80 108 66
80 109 67
81 107 74
158 174 182
173 191 205
172 190 204
172 190 204
164 183 197
174 191 204
178 196 213
165 183 197
160 178 188
160 178 188
170 188 202
155 173 183
159 177 188
170 187 198
154 173 183
168 185 195
168 186 199
171 188 202
164 181 192
173 191 206
125 146 137
84 113 70
78 105 64
77 104 64
80 107 66
82 110 67
80 108 66
82 111 69
81 109 67
80 108 68
79 107 66
80 108 67
80 108 67
80 109 67
78 106 65
95 120 93
145 164 168
174 190 204
168 184 196
138 158 159
80 107 66
84 112 70
76 103 63
79 106 65
80 109 67
78 106 65
81 109 68
79 106 65
85 114 71
77 105 64
80 108 66
78 106 65
84 113 71
75 102 62
77 104 64
80 108 66
78 106 65
79 106 64
84 111 75
117 137 128
138 158 157
106 129 111
93 116 94
141 161 159
168 185 195
174 191 206
165 181 189
169 186 198
165 181 193
160 178 188
162 179 189
168 186 200
170 187 201
169 187 200
166 184 198
170 187 197
160 178 186
164 180 189
169 186 201
156 173 180
115 135 127
76 103 63
73 100 61
79 106 65
79 106 65
82 111 69
77 104 64
78 106 65
78 106 66
79 106 65
78 105 65
80 107 65
77 104 63
76 104 62
78 106 65
76 103 63
98 121 100
131 149 145
165 183 192
156 173 182
167 184 196
143 161 161
83 111 70
78 105 63
76 103 62
81 109 68
79 106 66
76 104 64
83 111 69
74 100 60
78 105 64
77 105 64
75 102 61
78 105 64
82 111 68
81 109 67
79 108 66
75 102 61
78 105 65
75 103 62
76 103 62
75 103 63
79 106 66
166 183 192
168 185 197
162 179 189
165 182 192
166 182 194
170 188 200
159 177 186
159 177 188
163 180 191
172 189 202
167 184 197
163 181 190
158 175 184
160 178 187
163 178 188
167 183 195
156 174 181
140 158 165
148 166 168
121 140 132
91 115 92
100 123 102
166 183 193
160 177 186
165 183 194
166 184 197
165 184 196
167 185 198
165 182 194
168 185 196
166 182 194
168 186 201
159 176 187
164 183 195
165 182 194
164 181 191
156 173 180
165 181 189
160 176 185
173 191 206
167 184 195
164 183 198
160 177 185
148 166 166
76 104 63
77 104 64
77 104 64
77 105 64
78 106 65
77 104 63
80 108 67
76 103 62
75 103 62
75 102 62
77 104 64
78 106 64
74 101 60
78 105 64
78 105 65
73 100 60
76 104 63
79 107 65
77 104 64
75 102 61
73 100 61
129 148 145
163 181 193
170 186 198
165 183 195
166 183 196
167 185 196
159 176 184
158 176 183
169 187 200
165 182 194
168 186 197
162 178 187
175 192 205
161 179 190
155 172 182
165 183 193
166 182 194
160 176 187
163 180 193
156 173 177
143 161 162
121 141 134
123 143 140
167 185 197
167 184 199
156 173 182
158 175 186
165 183 196
170 186 198
157 174 183
160 177 190
160 178 190
159 175 185
155 173 182
157 175 186
164 182 194
167 184 198
166 183 194
164 180 190
160 177 186
156 173 180
161 180 190
156 173 180
158 176 186
75 100 64
76 102 62
77 104 63
78 106 65
76 104 63
78 105 65
77 104 63
79 106 65
76 103 63
78 106 65
79 107 65
75 102 63
80 107 66
78 105 64
78 106 65
74 101 62
76 104 64
82 110 68
75 101 60
77 104 65
83 109 72
156 173 184
149 166 171
163 179 191
171 189 203
166 184 197
164 181 192
162 180 189
171 188 201
164 181 191
169 186 198
176 193 208
165 182 194
165 181 194
167 184 195
165 181 193
169 187 199
158 175 185
170 187 200
158 176 184
169 186 199
164 182 192
82 109 73
81 109 67
78 107 66
76 103 63
76 104 63
77 105 64
73 100 60
79 107 66
78 105 64
76 103 63
81 109 68
76 103 63
77 105 64
77 104 64
78 106 65
78 106 64
79 106 64
77 104 63
78 105 64
80 107 69
141 160 164
165 181 194
173 190 203
163 179 189
165 181 193
168 185 197
167 185 196
163 180 190
164 181 192
167 183 193
163 180 190
162 179 188
164 182 193
163 180 192
166 183 194
167 183 194
169 187 200
162 179 190
160 177 186
160 177 186
86 112 77
77 104 64
76 103 63
77 105 64
79 107 66
78 106 65
79 106 65
75 102 62
75 102 62
77 104 63
78 106 65
79 107 66
74 102 62
81 108 67
80 108 66
78 106 65
76 104 63
78 105 65
90 116 84
168 184 195
166 183 193
164 181 193
164 181 193
164 181 189
170 186 197
169 186 198
165 182 192
164 181 192
174 191 205
167 185 200
163 180 188
161 177 188
160 178 189
168 186 197
165 181 190
154 171 178
166 184 197
97 121 92
83 111 68
76 103 62
75 101 61
76 103 62
75 102 61
81 108 66
78 104 64
73 100 60
78 105 65
80 108 67
78 106 65
77 105 64
80 108 67
76 103 62
77 105 64
78 105 70
128 149 144
129 150 144
102 127 108
78 106 66
80 107 66
78 106 66
78 107 66
80 108 66
76 104 64
78 106 66
78 106 64
78 107 66
81 109 67
75 102 63
78 106 65
81 109 67
81 109 70
144 164 169
164 182 194
169 187 200
161 179 190
163 181 193
168 184 196
168 185 196
167 185 196
170 187 201
172 190 203
175 191 204
166 184 197
161 179 189
151 169 175
132 153 147
132 152 150
166 183 195
164 182 192
164 182 193
169 186 199
168 184 196
168 185 197
162 179 188
165 183 195
168 185 198
168 185 198
164 181 193
171 187 200
166 185 198
166 183 195
179 197 215
165 183 196
160 178 186
172 190 204
174 192 208
120 141 134
79 107 66
79 106 65
82 110 68
80 107 66
82 110 68
81 109 67
83 111 69
81 110 68
76 104 63
78 106 65
79 107 67
83 112 72
119 140 130
149 168 172
167 184 197
171 188 200
179 196 213
170 187 198
140 160 160
80 108 67
79 107 66
82 111 70
79 106 65
81 109 67
76 103 62
79 108 67
81 110 69
80 109 67
78 106 65
82 109 67
81 110 68
79 107 66
76 104 64
78 106 65
80 108 67
80 108 67
78 105 64
82 111 70
122 143 130
138 156 155
110 133 113
88 116 79
98 122 99
131 153 148
137 157 155
157 175 182
171 188 202
171 188 201
165 182 193
160 178 188
168 185 197
167 184 196
172 189 200
171 188 199
167 185 197
174 192 209
165 183 193
157 175 186
167 185 196
125 146 139
80 108 66
80 108 65
80 106 65
77 105 63
77 104 64
77 104 64
78 105 65
74 101 61
79 107 66
78 106 64
79 107 66
80 108 67
104 129 109
136 155 156
163 181 189
165 183 196
162 180 189
172 189 203
170 187 199
172 189 203
137 154 154
74 101 61
74 101 61
80 106 65
77 105 64
79 107 66
75 102 62
79 107 66
78 106 65
81 108 67
76 104 65
79 107 66
79 107 66
77 105 64
78 106 64
80 108 67
74 101 61
77 105 64
78 105 65
78 106 66
75 101 61
80 107 65
148 167 173
168 183 197
167 182 193
158 176 187
174 190 205
172 188 201
169 186 198
165 182 194
163 180 190
166 182 193
173 190 205
166 183 193
165 183 195
168 185 196
149 167 169
126 146 138
93 117 91
80 106 73
77 103 63
77 104 64
77 104 64
78 105 67
170 188 201
162 179 187
164 182 194
154 171 176
166 183 194
152 170 178
159 177 189
161 179 190
176 193 206
163 179 190
167 184 194
162 180 191
174 190 202
164 182 194
171 188 202
164 182 192
168 186 197
166 184 195
166 183 195
170 186 197
171 188 203
160 176 184
78 104 66
81 109 68
74 100 60
75 102 62
76 102 62
76 103 62
76 103 64
82 110 68
79 106 65
79 106 65
75 102 62
75 102 62
79 106 65
77 105 65
71 97 58
78 105 65
78 105 65
80 109 68
78 105 65
78 105 65
78 105 64
96 120 95
155 173 182
156 172 182
157 175 185
161 178 189
165 182 194
163 180 190
163 179 189
158 176 186
160 178 188
166 182 191
160 178 188
161 179 188
142 160 163
134 153 152
117 138 130
102 123 107
89 113 83
73 100 61
74 100 61
78 105 66
76 104 64
116 135 126
168 186 201
169 186 199
163 179 188
160 178 189
155 172 177
161 177 185
165 181 192
164 181 192
169 185 198
162 180 190
166 182 191
151 169 177
168 185 199
158 176 185
157 175 184
159 175 186
160 177 183
160 178 186
162 179 191
163 180 190
169 185 196
106 128 113
77 105 64
78 106 65
77 104 64
77 104 64
77 105 64
80 108 66
77 104 63
76 103 62
81 109 66
74 100 61
79 107 66
70 95 57
75 102 62
78 105 64
74 101 61
78 105 65
78 105 64
79 106 65
79 106 66
75 102 61
132 152 148
148 165 171
170 188 203
163 179 191
169 186 198
167 185 197
166 183 195
160 177 186
155 173 183
167 184 195
172 188 200
160 178 190
161 178 188
160 177 186
164 182 195
157 174 183
163 180 188
160 176 186
152 170 175
155 173 182
166 183 195
111 133 120
79 106 65
76 104 64
77 105 65
78 105 65
79 107 65
78 106 66
76 104 63
78 105 65
78 106 65
74 101 61
76 104 63
81 110 68
81 110 68
74 101 61
78 106 65
79 106 65
79 107 66
78 105 65
81 109 68
109 132 113
164 181 191
159 176 187
155 171 177
170 186 196
163 179 189
162 179 190
165 182 192
156 173 180
170 188 201
165 181 193
163 180 191
157 175 182
160 178 187
162 179 189
164 181 192
164 182 194
169 186 200
169 185 196
164 181 192
118 142 128
79 108 67
81 110 68
78 105 65
77 104 63
77 104 63
75 103 63
79 106 65
79 107 67
79 107 65
79 106 65
78 105 64
78 105 64
77 105 64
73 99 60
72 99 59
75 102 62
77 104 63
81 109 67
137 157 155
165 183 196
150 168 176
158 176 184
167 184 198
167 184 198
168 186 200
168 185 195
156 173 179
172 189 203
170 186 198
170 186 198
161 178 190
162 180 192
163 181 192
158 174 184
169 186 198
171 188 201
149 167 172
77 104 64
82 110 68
80 109 68
81 109 67
77 104 64
80 108 66
78 106 65
75 102 62
80 109 67
78 105 64
83 112 70
86 111 81
123 144 135
137 156 155
155 173 181
172 189 201
165 184 196
105 127 108
73 101 61
79 106 66
81 109 67
76 105 64
81 110 69
80 109 68
80 108 67
82 110 68
82 110 68
83 112 69
78 106 65
80 108 66
81 109 67
78 106 65
81 109 67
99 123 100
166 183 195
171 189 203
169 186 199
169 186 200
165 184 198
170 187 201
169 187 201
167 184 198
159 177 186
169 186 201
174 192 206
172 190 205
164 181 192
169 186 202
173 190 204
137 158 157
88 113 84
120 142 130
123 144 138
152 171 176
155 174 182
164 182 194
166 184 195
165 183 193
169 186 199
169 186 199
170 188 200
174 192 207
179 196 211
169 187 201
173 190 204
178 195 211
164 181 192
173 190 205
96 120 97
80 107 65
77 105 64
79 107 67
84 113 70
78 105 64
80 109 67
82 110 68
80 108 66
81 110 67
83 109 75
130 150 148
156 174 181
174 191 205
157 174 181
171 187 202
170 188 202
168 185 195
167 185 197
137 157 157
80 108 67
81 110 68
77 105 65
79 107 66
82 110 69
82 111 69
78 105 64
75 102 62
79 107 66
81 110 68
78 106 65
76 103 62
81 109 67
78 106 66
74 101 61
82 110 68
81 110 68
103 127 106
127 147 141
156 174 181
78 105 64
79 107 65
78 105 64
82 110 68
75 102 62
80 108 67
78 106 66
89 113 86
120 141 132
139 158 159
155 172 180
171 188 203
163 180 192
169 185 196
161 179 190
162 179 188
163 181 191
166 183 196
168 185 196
155 172 182
125 147 142
78 106 67
81 109 67
80 108 67
79 106 66
78 106 65
77 105 64
81 109 67
77 104 63
79 107 65
98 121 98
122 143 134
155 173 181
165 183 196
165 183 196
170 188 202
173 191 204
165 183 194
168 186 198
166 184 197
163 181 191
148 165 169
80 108 67
78 105 64
79 107 66
76 104 63
78 105 64
74 100 60
79 106 65
78 106 64
78 105 64
78 106 65
76 103 63
82 110 68
81 109 67
75 102 62
74 102 61
80 108 65
74 101 61
76 103 63
75 102 62
74 101 62
74 101 61
140 158 161
157 173 183
159 177 188
164 182 193
165 181 192
167 184 196
159 176 185
171 188 201
172 190 206
171 187 199
160 178 189
137 155 157
112 132 121
85 110 78
76 104 64
79 105 64
80 108 65
79 106 65
78 106 65
80 108 67
74 101 61
76 103 63
152 169 174
167 184 195
164 181 190
166 184 196
158 177 185
161 179 191
175 191 204
165 183 196
170 187 199
164 180 188
167 185 197
144 162 167
172 190 204
166 183 196
169 185 197
162 179 188
164 181 193
167 184 194
162 179 188
165 182 195
159 176 186
166 184 195
88 112 83
75 102 62
82 110 68
73 100 60
80 107 65
73 100 61
79 106 64
75 102 62
77 104 63
77 105 64
80 108 67
76 103 63
77 104 64
78 106 65
75 101 61
80 109 67
74 101 61
77 104 64
77 104 64
77 105 64
80 107 65
74 102 62
154 172 178
172 189 202
163 181 193
169 185 197
164 181 193
168 185 196
156 174 185
153 170 175
128 146 143
117 139 129
101 125 105
76 103 62
74 101 61
74 100 60
80 107 66
80 106 65
79 106 65
74 101 61
73 100 60
76 103 64
79 106 65
80 106 68
167 183 194
165 182 194
169 185 195
165 182 195
175 192 204
164 180 193
165 182 196
156 174 181
163 181 192
160 177 187
164 181 192
156 173 183
154 172 180
169 186 197
163 180 189
161 178 189
161 177 189
165 181 192
170 186 199
167 184 193
169 186 198
132 151 148
79 106 65
76 103 63
79 107 65
78 105 64
78 106 65
80 107 66
77 103 63
73 100 60
76 103 62
76 103 64
79 107 66
76 102 62
76 104 64
77 105 63
77 104 64
77 104 64
75 102 62
75 102 63
78 105 64
77 104 63
85 111 76
166 182 194
170 187 202
172 188 200
167 184 197
162 178 190
169 186 199
159 176 186
159 176 184
174 190 203
159 176 186
167 185 199
167 184 197
167 184 198
163 180 190
155 173 183
169 186 196
163 180 190
170 187 201
163 180 189
163 180 190
148 167 170
75 102 62
77 104 63
73 99 60
78 106 65
79 107 65
78 106 65
73 100 60
78 106 65
79 107 66
77 103 62
75 102 62
76 102 62
76 103 63
75 102 62
78 105 65
77 104 64
76 103 63
79 106 66
75 102 60
76 103 63
153 170 174
172 189 203
155 171 180
164 180 188
175 192 207
166 184 196
164 181 190
174 191 204
160 178 186
167 184 197
162 179 188
160 178 186
161 178 190
165 182 193
160 178 189
177 193 209
170 187 200
157 176 183
161 178 189
162 179 189
84 112 72
79 107 65
78 106 64
78 105 64
77 104 63
74 101 61
77 104 63
76 104 64
72 99 60
71 98 59
81 109 67
80 108 67
78 106 64
81 109 67
79 107 66
80 108 66
82 110 67
80 108 67
87 113 82
157 175 183
169 189 204
165 183 195
168 185 197
174 192 206
167 184 197
164 181 191
166 183 195
167 184 194
169 185 198
167 184 195
170 186 198
158 176 185
170 187 199
169 187 199
164 182 194
162 178 186
168 186 198
130 149 140
75 102 62
77 105 65
76 104 63
80 108 67
77 104 64
80 107 69
103 126 105
130 152 146
145 164 165
168 184 193
164 181 193
177 193 206
169 187 203
170 186 200
168 186 198
157 176 186
148 166 169
80 108 69
79 107 66
79 107 65
76 103 64
78 107 65
84 113 70
77 105 64
79 108 67
81 110 68
79 107 66
76 104 63
77 104 63
80 108 67
82 111 69
79 107 66
79 107 66
129 150 143
169 186 200
168 185 197
179 196 211
165 182 197
155 172 178
171 189 201
156 174 182
175 191 202
169 186 198
170 187 200
166 184 195
173 191 207
166 184 195
175 194 211
168 186 199
99 123 103
81 110 68
80 108 66
83 111 68
83 111 68
97 123 94
118 141 129
131 152 150
162 180 189
174 192 207
176 192 204
172 190 207
163 182 194
166 183 194
172 189 201
174 191 204
173 192 209
173 190 203
94 119 88
78 106 66
80 109 67
84 113 70
79 107 66
80 108 66
81 109 67
82 111 68
85 112 75
129 150 143
169 187 201
168 186 199
162 181 192
174 191 205
169 185 197
170 187 200
173 189 203
168 186 199
163 182 194
121 141 133
80 108 66
77 104 63
82 112 70
76 104 65
77 104 64
77 105 64
81 110 68
80 109 67
80 109 67
74 102 62
77 105 65
81 108 66
81 110 69
78 105 63
84 111 71
132 151 149
161 179 190
172 190 203
176 193 209
143 162 166
80 109 67
82 110 68
80 109 67
76 104 63
77 104 63
77 104 64
80 108 66
75 102 62
75 102 62
78 106 65
77 105 64
79 106 69
95 119 95
115 136 126
147 166 169
164 181 191
175 191 205
167 185 196
169 186 198
154 172 181
132 153 151
77 105 64
78 105 65
76 103 62
80 108 67
77 104 63
78 106 65
90 116 89
117 139 126
157 175 183
167 186 197
174 190 203
158 175 182
171 189 204
172 188 200
165 184 196
167 183 194
162 180 189
170 186 196
166 184 197
163 181 192
158 176 182
79 107 67
78 106 66
79 106 65
75 101 61
80 107 66
81 109 67
73 100 60
74 100 61
80 107 66
82 111 70
82 111 69
81 109 68
80 108 66
82 111 69
76 103 63
83 112 69
78 106 65
77 105 64
78 106 65
78 105 65
79 106 65
123 144 137
175 193 209
166 184 197
162 180 192
169 185 197
165 183 196
166 182 193
163 180 190
140 160 160
105 127 110
81 109 70
79 107 66
76 103 64
77 105 64
76 103 63
77 104 64
77 104 63
78 105 65
78 106 65
80 108 67
77 105 65
78 106 65
141 160 163
174 191 203
161 176 186
166 183 195
161 178 189
162 179 189
162 180 192
153 170 176
164 181 194
167 185 198
162 180 191
165 181 191
161 178 186
165 182 195
168 185 197
159 177 184
157 173 180
158 176 184
160 176 186
160 175 186
161 178 188
166 184 196
118 139 129
80 108 67
77 104 63
76 103 62
79 106 64
80 109 67
76 104 63
75 102 61
78 106 65
77 105 64
76 103 63
76 104 64
73 100 60
76 103 63
76 103 62
77 104 63
82 110 68
77 104 63
79 107 66
78 106 65
77 104 63
77 104 63
136 155 154
159 175 183
147 163 167
130 151 148
107 129 113
87 113 83
81 109 67
73 100 61
77 105 64
80 108 67
80 108 66
76 103 63
78 105 63
73 100 61
77 104 64
74 100 61
80 107 66
77 105 64
72 98 60
78 106 65
76 103 63
77 104 64
143 162 164
157 173 184
162 179 187
163 180 191
163 181 193
159 176 185
169 187 202
164 181 191
173 190 205
155 173 181
162 179 189
163 180 191
157 175 184
165 182 191
160 178 190
163 180 191
173 190 203
167 185 198
160 178 186
161 177 187
159 174 182
160 177 182
76 102 68
76 103 63
78 105 64
74 101 61
77 104 63
79 106 65
79 107 66
78 105 65
78 106 64
78 106 65
77 105 64
76 103 62
79 106 66
72 99 60
80 107 65
79 107 66
77 104 65
79 106 65
82 111 68
78 106 65
76 104 63
146 164 171
162 180 190
169 186 198
169 186 198
175 193 207
168 185 197
160 178 189
170 186 196
159 176 186
172 189 203
162 179 188
157 174 184
164 180 190
158 175 184
165 183 197
159 176 185
156 175 182
171 187 198
168 183 194
164 182 194
168 185 197
106 127 114
80 107 65
77 104 63
74 101 62
77 105 64
77 105 64
77 105 64
72 99 60
75 102 62
77 104 64
84 113 70
76 104 63
78 105 64
74 100 61
75 102 63
75 102 62
76 102 62
79 107 66
79 107 66
76 103 62
110 132 115
155 172 176
160 178 187
176 192 206
168 183 195
153 171 181
169 186 198
170 187 200
161 179 190
165 181 190
166 183 197
165 183 195
165 182 192
168 186 200
170 188 203
172 188 203
165 182 195
166 183 197
158 175 187
162 181 192
116 137 124
80 108 66
75 102 62
75 103 64
76 103 63
75 101 61
76 104 63
80 107 66
82 111 68
80 108 66
80 108 66
79 107 66
78 106 64
79 107 66
76 103 63
80 108 66
78 105 64
80 108 67
75 101 61
118 139 126
164 182 195
163 180 188
168 186 199
168 186 198
177 194 207
166 183 195
163 180 193
166 183 196
175 190 205
158 175 184
163 181 193
162 180 192
168 185 199
176 192 205
169 186 200
171 189 204
175 192 208
154 171 176
83 110 76
86 112 80
122 143 136
135 155 157
150 168 172
164 181 194
166 184 194
170 188 201
169 187 200
175 193 211
164 181 192
163 181 195
169 187 201
157 175 185
164 182 195
170 188 201
164 183 196
142 162 162
82 110 68
80 108 66
78 106 65
81 109 68
78 105 64
78 106 66
77 106 66
79 108 66
81 109 67
81 109 67
81 110 69
77 105 64
81 109 68
79 107 65
76 103 62
81 110 70
146 166 169
164 182 196
167 185 198
167 184 197
169 186 199
175 192 208
176 194 209
168 185 198
174 191 206
178 194 208
163 182 194
170 188 204
179 196 212
164 181 191
174 191 207
166 184 198
79 106 68
83 112 69
77 105 64
82 111 69
80 109 68
77 104 64
83 112 69
79 108 68
80 108 69
98 122 99
138 159 158
147 166 170
171 189 203
168 187 200
171 188 202
169 186 197
167 184 196
79 107 67
84 113 71
73 101 61
84 113 70
80 108 68
81 110 68
104 128 106
138 159 159
166 185 196
177 195 212
168 185 196
171 189 203
176 192 205
167 186 196
173 192 206
172 190 203
172 190 206
176 192 204
166 185 199
128 149 142
80 108 66
86 115 72
82 110 68
76 104 63
77 104 63
80 108 67
80 108 66
80 109 67
80 109 67
77 106 65
82 111 68
80 108 67
102 126 103
138 158 157
159 177 183
164 182 193
171 187 199
176 192 206
167 185 198
147 164 168
80 108 66
82 111 69
77 104 63
77 104 63
81 109 67
77 104 63
81 109 68
79 107 66
81 110 68
75 103 63
78 105 64
80 108 67
76 103 64
81 108 67
77 104 64
79 107 65
84 111 75
113 135 123
129 149 138
152 170 175
126 146 140
83 109 71
74 102 62
80 108 66
78 106 65
124 144 138
138 156 156
169 185 197
171 188 203
176 193 207
182 200 219
167 184 197
175 193 209
172 187 198
168 184 196
160 178 189
163 181 192
165 183 195
155 173 179
167 184 197
169 185 195
159 177 187
81 109 67
79 107 66
77 104 64
81 110 68
76 104 63
80 109 67
79 108 67
80 108 67
80 108 66
74 101 62
81 109 67
80 109 67
79 107 65
78 105 64
77 105 64
75 102 62
82 110 67
79 107 66
79 107 66
77 104 63
78 105 64
118 139 127
169 187 200
171 188 201
164 181 193
140 161 161
123 142 133
98 123 98
78 105 65
76 103 63
80 109 67
79 107 65
78 105 65
78 106 65
79 107 66
79 108 67
79 106 65
77 105 64
81 110 68
77 103 63
78 105 65
78 106 64
76 104 63
122 143 139
166 184 196
164 181 191
161 180 192
172 189 203
172 190 206
165 183 193
165 183 194
169 186 199
160 177 186
161 179 192
172 188 199
166 184 195
165 182 194
163 181 190
169 185 198
160 177 189
154 172 180
171 187 200
163 180 192
172 188 201
159 178 187
138 155 156
75 102 62
74 101 62
80 108 65
77 105 64
77 105 65
79 106 65
74 101 61
81 109 67
76 103 64
76 104 64
78 105 64
80 107 66
78 105 64
74 101 61
81 109 68
77 105 65
80 108 66
83 111 74
115 136 123
124 145 137
135 154 154
137 156 153
80 107 69
76 103 62
77 105 65
74 100 60
74 101 61
79 107 65
74 101 61
78 105 64
78 106 64
77 104 64
74 101 61
78 105 65
75 103 63
78 106 65
74 101 61
80 107 67
76 104 64
73 100 60
77 104 64
73 99 59
76 104 64
115 136 126
165 182 195
167 184 194
163 180 191
170 187 202
164 181 194
158 176 186
162 179 190
165 182 192
162 179 190
168 185 198
165 181 193
169 186 200
166 183 195
174 190 205
162 179 189
156 174 183
169 186 201
171 189 203
154 172 178
163 180 187
157 173 181
122 142 137
78 106 66
71 98 59
76 103 64
78 105 64
76 104 63
81 109 66
79 107 66
76 104 64
71 97 57
80 107 66
77 104 64
76 103 63
78 106 65
80 109 67
79 105 64
75 101 61
81 108 66
79 108 67
76 103 63
78 105 64
113 134 119
169 186 200
170 186 196
169 186 197
154 172 180
167 184 196
161 177 186
163 180 191
171 188 201
164 181 192
155 172 179
163 180 190
167 185 198
158 174 184
157 175 181
161 179 190
162 179 192
158 175 185
162 179 190
149 167 172
160 177 188
150 169 174
73 99 61
76 104 64
73 99 59
77 103 64
76 104 64
78 106 65
78 105 64
76 104 63
81 109 67
80 108 67
77 105 64
77 105 64
80 108 67
81 110 68
78 105 64
75 103 63
78 106 65
75 102 62
80 108 67
77 104 66
157 176 186
175 191 205
165 183 194
168 185 198
169 185 200
167 183 194
162 178 188
169 187 202
163 180 192
168 184 197
167 184 194
164 180 189
174 191 207
172 190 205
169 187 201
163 179 190
160 177 185
169 187 200
173 191 204
154 171 181
81 107 72
77 105 64
79 108 67
80 108 67
80 108 67
76 103 64
82 110 67
82 111 70
83 112 69
80 108 66
78 105 65
78 106 66
81 109 68
78 105 64
78 106 64
81 109 67
81 108 67
76 103 63
77 105 64
162 180 191
174 192 208
169 187 199
170 188 202
167 184 196
170 187 201
160 177 187
171 187 199
169 186 198
175 192 207
167 184 196
170 188 202
169 186 199
169 186 199
157 175 183
145 163 166
127 147 140
94 118 91
130 150 144
166 183 195
167 185 199
169 187 201
169 187 199
171 188 202
169 187 199
161 178 187
170 187 201
159 175 183
163 181 192
174 192 206
173 190 203
178 196 213
165 182 192
164 182 194
167 184 195
176 192 207
98 122 95
79 107 66
79 107 66
79 108 67
78 106 65
84 113 70
77 105 65
79 106 65
82 110 68
80 108 66
80 108 66
75 101 62
80 107 66
82 111 68
79 107 67
80 108 66
92 116 92
173 190 202
168 185 198
167 185 197
170 188 201
167 184 196
174 191 202
169 188 201
176 193 207
172 189 202
166 183 192
169 187 199
172 190 205
172 189 201
164 182 193
171 188 201
136 157 155
77 105 64
86 116 73
79 108 66
79 108 67
82 111 69
81 109 68
81 111 69
80 108 67
80 108 67
79 107 66
84 113 70
174 191 205
170 188 202
168 185 198
166 185 198
166 185 198
78 107 66
81 110 68
75 103 63
80 109 67
102 126 104
137 157 157
171 188 200
173 191 206
179 196 212
176 193 208
182 199 216
172 190 205
171 190 203
171 188 199
172 189 202
164 182 192
166 183 196
171 189 204
172 189 203
116 139 123
77 104 64
76 103 63
79 107 66
79 107 66
82 111 69
86 114 71
76 104 64
80 108 66
77 105 64
78 106 65
112 135 119
139 159 157
161 179 189
172 189 202
167 184 195
164 182 194
174 191 204
164 182 193
166 183 196
152 170 175
83 112 70
80 108 68
80 109 68
77 105 64
81 109 67
81 109 67
80 109 67
81 109 68
81 110 68
76 104 63
78 106 65
75 102 62
76 104 63
79 106 65
80 109 67
78 106 65
77 104 63
84 112 68
80 108 67
80 108 67
126 147 142
163 181 190
140 160 160
93 118 94
134 153 148
144 163 165
157 176 184
167 184 197
165 184 198
164 180 192
163 180 192
170 188 202
166 183 196
173 191 204
171 189 202
166 184 194
159 177 186
167 185 200
162 179 187
170 188 202
175 192 207
181 197 213
86 112 80
82 110 68
79 107 66
79 107 66
72 98 60
76 103 62
76 104 63
78 105 65
78 106 66
80 108 66
77 105 65
72 99 59
82 111 68
77 105 65
80 108 67
76 103 63
77 103 64
77 105 64
80 108 66
82 110 67
74 101 62
107 128 115
142 161 163
115 136 124
81 108 69
76 102 62
81 108 66
81 109 68
78 107 65
78 105 64
78 106 65
83 111 67
76 104 63
76 102 62
80 108 66
77 105 64
79 107 66
80 108 66
79 106 64
77 105 65
78 106 65
77 104 63
76 103 63
95 118 96
166 183 195
176 193 207
174 190 204
172 189 203
173 190 204
166 183 194
172 191 205
162 180 193
163 180 190
165 181 192
161 178 189
157 174 183
159 177 187
173 190 203
178 193 206
157 174 182
160 177 184
170 188 200
165 183 192
165 182 194
164 182 195
161 178 187
80 108 68
76 104 63
74 100 61
76 103 64
80 107 65
74 102 62
74 101 61
78 105 65
72 98 59
77 104 63
80 108 66
75 102 63
77 105 64
103 125 106
129 151 143
140 159 162
146 166 172
163 180 190
169 187 201
172 189 203
163 180 190
158 174 182
82 109 70
79 106 65
78 106 65
73 100 61
77 104 64
72 97 59
79 107 66
81 109 67
79 107 66
79 107 66
74 101 61
77 104 65
72 99 60
79 107 65
80 108 67
77 105 66
78 105 63
79 107 65
79 107 66
77 104 64
76 103 63
88 113 81
169 186 197
163 179 191
161 179 190
162 178 189
161 178 189
176 193 207
157 174 184
164 181 191
162 178 189
164 180 188
159 176 187
161 179 188
159 176 182
171 187 196
169 186 199
170 189 203
166 182 197
169 187 200
161 179 188
169 187 200
159 177 188
138 158 157
76 103 63
74 101 62
80 108 66
79 106 65
76 103 61
77 105 64
81 109 68
78 105 64
83 111 69
74 101 61
75 102 62
78 105 65
73 99 60
77 105 64
80 108 66
79 107 65
80 108 67
78 105 65
78 107 66
78 105 64
76 100 66
151 169 175
168 186 199
163 181 191
171 188 201
173 189 201
163 182 193
163 180 189
165 182 195
158 175 186
170 188 201
160 177 186
175 192 206
170 187 199
162 178 186
162 180 191
159 177 187
171 188 202
168 184 195
166 182 193
162 181 193
162 180 192
90 115 87
78 106 66
76 103 63
75 101 61
78 106 65
80 108 66
81 109 67
81 109 67
79 107 66
80 108 66
76 102 62
75 103 63
77 104 63
77 105 64
73 99 60
79 106 66
77 103 63
80 108 67
80 108 66
77 105 65
122 141 133
166 183 193
169 187 198
161 179 189
174 191 204
155 173 181
162 179 190
174 191 206
167 185 200
168 184 197
170 189 205
161 179 185
169 186 200
171 188 201
162 179 189
163 180 191
152 169 177
164 181 194
169 186 197
170 187 201
131 151 143
75 103 63
75 101 62
80 109 67
79 107 65
81 109 68
82 110 68
79 107 66
79 107 66
77 104 64
81 110 68
76 104 63
76 103 63
75 103 62
82 110 69
79 107 65
77 105 64
78 105 65
85 113 71
130 151 144
165 182 192
169 186 195
173 190 204
169 186 199
168 185 199
164 183 195
166 183 191
160 179 189
149 168 171
128 147 143
126 146 139
98 123 97
80 108 66
81 110 68
80 108 66
75 102 62
78 107 66
84 111 73
154 172 180
171 188 205
173 190 205
174 191 205
168 186 199
167 186 201
172 189 202
164 182 194
168 186 199
172 191 207
166 184 195
174 191 204
179 196 213
172 189 203
173 191 206
165 184 196
174 191 204
151 169 176
80 108 66
79 107 65
76 103 63
79 107 66
77 105 65
80 108 67
81 110 67
82 111 68
79 107 66
84 113 70
77 104 63
78 106 64
79 107 66
80 108 67
81 110 68
80 108 67
124 145 138
169 186 198
170 187 199
167 184 196
167 185 200
169 187 200
166 185 199
175 193 209
163 181 193
161 179 186
170 187 201
174 192 205
170 188 202
173 190 206
173 190 203
170 189 203
123 144 131
83 111 69
77 105 64
79 107 66
77 105 64
79 108 67
81 110 68
81 110 69
83 112 69
82 111 69
81 110 68
175 194 211
171 188 202
164 182 195
175 193 209
151 170 173
81 109 67
83 112 69
110 134 114
155 174 176
179 196 211
169 186 200
171 188 203
176 194 211
163 181 193
175 193 208
169 186 199
173 189 201
174 191 206
166 183 196
172 190 205
173 191 206
167 185 197
175 192 207
168 186 198
119 141 130
82 111 69
81 109 67
81 109 67
79 107 66
79 107 66
83 112 70
74 101 62
85 113 73
126 146 141
165 183 194
175 193 207
175 193 208
169 186 199
170 188 201
171 188 201
170 186 199
164 181 192
169 185 196
168 185 199
152 170 172
82 111 68
79 107 66
80 108 67
81 110 68
77 104 63
80 108 67
80 108 68
81 110 68
83 112 70
83 112 70
78 105 64
80 108 67
80 108 67
79 106 65
78 105 65
80 108 67
77 104 63
78 107 65
78 106 65
97 122 94
129 150 148
97 122 95
76 103 64
82 110 67
76 104 62
76 103 63
80 108 67
84 110 75
113 135 123
128 150 141
146 164 165
158 177 185
166 183 198
166 184 197
158 176 185
177 194 208
167 184 195
169 186 198
163 179 188
161 178 191
175 193 209
162 180 192
97 120 98
76 104 65
79 107 66
80 108 66
79 106 65
79 107 66
76 104 64
82 110 68
79 107 65
77 105 63
76 104 63
77 105 64
79 108 66
81 109 68
77 104 64
82 111 69
78 106 65
80 109 68
97 122 96
124 146 137
150 168 171
157 176 185
79 107 66
79 107 66
76 103 62
75 102 62
78 106 65
77 105 64
79 106 66
81 109 67
77 103 62
76 104 64
73 100 60
82 111 68
80 107 66
77 104 64
78 105 64
79 107 66
77 104 64
77 104 63
81 109 67
75 102 61
74 101 61
82 108 74
168 185 197
159 177 185
165 182 195
155 172 180
163 181 192
175 191 207
166 184 195
163 180 189
161 178 188
161 178 186
174 191 207
175 191 202
164 181 192
160 177 186
177 194 209
165 183 193
164 181 192
178 195 209
166 183 194
163 179 186
166 183 196
164 182 194
84 110 78
80 107 66
80 108 66
76 104 64
79 106 66
76 103 63
75 102 62
79 107 66
84 110 74
112 133 118
130 149 145
147 165 168
159 176 185
168 185 197
170 187 203
165 183 193
169 186 199
162 178 185
167 184 198
162 181 191
171 188 200
162 179 187
92 115 91
75 102 62
81 109 67
78 105 65
75 102 62
71 97 57
73 99 60
80 108 66
76 104 63
77 104 64
74 101 60
77 105 64
81 109 67
75 102 62
80 109 66
76 103 63
80 108 67
78 105 65
81 109 67
79 107 65
79 107 66
79 106 64
163 181 191
165 182 193
162 178 188
164 181 190
163 180 194
165 181 190
158 176 184
164 181 193
159 178 188
167 184 196
163 180 190
163 181 194
172 188 202
160 177 187
170 186 198
160 177 188
170 187 197
167 185 198
164 181 192
161 179 188
162 179 188
166 183 195
83 107 78
80 108 66
82 109 67
76 104 63
77 104 64
76 103 64
77 104 63
77 105 64
75 103 62
75 102 61
77 104 63
80 108 67
79 107 66
77 105 64
78 105 64
78 106 65
79 106 64
82 110 68
80 107 65
84 113 70
77 105 64
125 145 139
167 184 196
171 188 203
168 185 197
159 176 189
172 190 204
153 171 179
171 188 202
166 184 196
167 184 196
164 181 195
165 182 191
164 182 195
172 189 202
164 181 191
168 186 197
161 179 189
171 188 203
166 183 196
157 175 182
173 190 205
122 142 134
77 105 65
73 100 61
75 101 61
79 108 67
78 104 63
73 99 59
76 104 63
79 107 66
73 100 60
81 110 68
80 107 66
79 107 66
76 103 62
78 106 65
77 104 66
88 114 81
90 115 83
86 111 78
102 125 105
104 126 109
152 170 176
142 161 164
150 169 174
127 147 140
151 169 171
138 156 157
130 149 146
133 153 151
135 154 151
141 161 161
127 147 142
126 145 143
127 147 144
127 147 142
119 140 130
110 133 119
120 143 133
113 135 124
133 154 147
107 128 114
139 158 158
139 157 158
127 147 142
148 166 169
130 150 147
139 158 158
139 158 160
145 164 166
125 145 139
144 162 160
123 143 137
134 153 148
125 147 139
129 148 146
119 141 128
121 142 130
117 139 129
117 139 127
102 125 103
147 166 170
166 182 192
161 179 189
143 162 166
132 152 149
98 122 100
91 116 86
77 106 65
78 105 65
76 104 64
78 105 65
76 103 63
80 108 66
75 102 63
79 108 67
79 107 66
80 108 66
83 112 70
113 135 121
174 191 205
163 181 191
170 187 199
162 180 192
170 188 202
166 184 197
165 182 195
163 179 191
168 187 202
167 185 197
166 184 197
168 186 198
164 183 196
165 182 193
167 184 194
167 185 198
160 178 187
118 140 131
79 107 65
79 107 66
79 107 67
78 105 64
79 107 65
80 108 67
80 107 66
80 108 67
81 109 66
80 108 67
78 106 65
79 107 66
83 112 69
83 112 69
82 111 69
76 103 65
148 167 171
168 185 202
171 188 199
173 190 202
175 193 208
168 186 197
167 185 197
171 188 202
168 186 201
163 181 192
170 189 202
167 186 201
164 182 193
173 190 203
165 184 196
166 184 196
88 116 80
79 107 66
78 106 64
84 113 71
81 110 67
78 106 65
82 111 69
81 109 68
80 108 67
82 111 68
183 199 214
176 193 207
170 188 203
173 191 206
136 157 157
119 141 127
159 177 183
177 194 210
175 192 208
175 193 209
169 187 200
168 184 193
173 189 200
170 186 198
174 193 211
175 193 208
174 191 206
177 193 205
165 183 196
169 187 199
173 190 203
168 185 197
182 199 217
168 187 201
118 140 128
80 108 66
84 112 69
79 107 66
82 110 69
75 102 62
105 129 109
140 159 158
169 186 197
171 188 202
171 187 198
170 187 201
166 184 196
168 186 198
176 194 209
175 192 205
176 192 206
168 185 199
166 184 195
170 188 202
144 163 163
76 103 62
78 106 64
80 108 66
78 106 65
79 107 66
82 110 68
82 110 69
79 108 66
81 109 67
80 109 68
81 108 67
79 107 66
77 104 63
79 107 65
78 106 65
76 103 62
86 113 76
115 136 122
148 167 171
165 182 195
154 173 180
79 106 64
80 108 66
80 108 67
74 101 61
82 111 70
77 105 64
78 106 65
78 105 64
77 104 63
80 108 66
74 102 62
79 107 67
84 111 76
101 124 104
117 139 127
129 149 144
136 155 154
154 171 176
160 178 186
169 187 203
167 184 198
99 123 101
84 112 70
81 109 68
79 107 66
79 107 66
77 105 64
80 107 65
79 106 65
77 104 63
79 107 65
75 101 62
80 108 66
80 108 66
76 103 62
82 108 71
103 127 110
122 142 133
166 182 192
171 188 200
167 182 193
160 178 187
167 184 194
85 110 74
80 109 67
79 107 66
78 106 64
84 113 71
79 107 65
77 105 64
78 105 65
78 106 65
76 102 63
82 111 69
81 109 67
77 104 63
80 108 67
76 104 64
81 109 68
76 103 63
80 108 66
78 106 65
80 108 66
80 108 66
79 106 65
164 180 191
157 174 182
173 191 207
168 186 199
173 190 202
162 179 187
172 188 202
170 187 200
163 181 190
164 180 192
165 182 193
169 187 200
170 186 197
169 186 197
158 174 182
165 182 195
169 185 196
163 180 191
152 169 176
169 185 198
166 184 197
161 178 190
120 141 132
78 106 65
79 106 66
81 109 67
89 115 85
115 135 126
137 156 159
157 175 185
163 180 190
178 194 208
173 189 202
159 176 183
160 178 188
160 178 188
169 186 197
164 181 191
163 181 194
172 189 202
157 175 182
167 184 197
170 186 198
163 179 189
124 144 133
73 100 60
75 103 62
76 104 64
75 102 62
76 103 64
79 106 65
79 105 64
79 107 65
80 109 67
76 103 63
74 101 60
80 108 67
75 101 61
77 104 63
74 102 61
75 103 62
79 106 65
81 109 67
74 101 61
80 108 67
77 104 63
135 156 153
166 184 197
176 192 205
168 185 198
160 177 187
169 185 198
165 182 194
181 198 214
170 187 201
169 186 200
167 184 196
159 177 185
165 181 191
167 185 197
167 182 191
167 183 194
165 182 193
163 180 191
158 177 187
180 197 213
160 179 190
166 183 192
106 129 112
80 108 67
78 106 65
79 108 66
74 101 61
76 104 63
76 103 64
81 108 66
79 107 65
76 104 64
76 104 64
80 108 67
79 107 66
78 105 64
81 108 67
77 104 63
78 105 65
76 103 63
76 103 64
80 107 66
75 102 61
105 128 105
159 177 186
161 178 188
168 185 197
168 185 198
155 172 179
166 183 195
161 179 188
159 177 186
167 185 197
163 179 189
165 183 193
155 173 180
167 184 197
159 178 185
162 180 191
163 182 195
166 184 195
159 175 185
161 179 188
160 178 188
146 164 168
103 126 106
98 122 100
115 137 125
108 132 115
125 147 139
134 151 150
140 160 162
130 151 150
140 159 159
150 168 176
162 179 188
156 175 180
165 182 191
160 177 188
167 184 197
168 184 199
165 183 194
163 180 193
173 190 202
176 192 208
132 152 148
84 112 70
82 110 67
81 110 69
80 108 66
79 107 65
82 110 68
79 107 66
81 109 66
76 104 63
85 114 71
79 106 65
76 104 63
77 105 65
77 104 62
74 101 61
77 104 63
75 102 63
77 104 64
75 102 62
129 149 146
166 185 197
168 186 198
166 184 195
173 190 202
164 182 193
170 187 200
170 186 197
172 189 203
160 178 189
169 186 195
171 188 199
167 186 198
171 189 203
157 177 187
146 166 170
129 149 149
121 143 134
109 130 113
116 140 129
167 184 196
167 185 199
167 185 200
159 177 187
169 187 200
168 186 200
165 183 195
150 169 174
159 178 187
158 176 185
150 168 173
136 155 153
133 152 149
137 157 152
127 148 142
113 135 122
107 129 108
94 119 92
156 173 179
163 181 193
174 192 207
170 188 201
171 188 202
173 190 205
165 182 194
172 189 202
170 187 198
169 185 195
164 182 194
173 190 206
164 180 191
164 181 190
170 187 202
169 185 196
168 185 197
158 176 183
85 110 80
83 111 69
80 108 67
84 113 70
81 110 68
76 103 62
81 110 68
78 106 66
79 107 66
81 109 67
82 111 69
85 113 71
81 109 68
80 108 66
79 107 66
82 111 70
100 124 100
170 188 202
165 183 193
163 180 188
170 188 202
165 182 194
171 190 204
169 186 199
169 186 196
174 191 206
168 186 200
173 190 203
172 188 200
176 193 208
174 191 207
165 184 196
154 172 178
79 107 66
82 112 69
82 110 68
79 108 67
74 101 61
80 109 67
80 109 67
81 110 68
84 113 70
178 197 214
174 192 208
173 189 202
150 169 173
138 159 161
170 188 200
164 182 194
166 183 195
171 189 204
171 189 203
174 192 208
171 188 204
174 193 210
172 188 200
181 199 218
167 184 196
173 191 206
170 188 202
169 186 199
173 192 208
179 195 210
163 181 190
169 187 201
178 194 210
113 137 118
80 108 67
83 113 70
82 110 68
116 138 128
147 167 171
175 193 208
167 183 194
162 180 190
155 174 181
165 181 192
170 189 203
178 195 211
168 187 199
170 187 199
175 191 204
164 181 195
171 188 201
165 183 195
163 181 190
148 166 170
82 110 68
77 104 63
80 109 68
77 105 64
84 113 70
79 107 67
80 107 65
81 108 67
81 109 68
82 110 68
79 107 66
83 112 70
77 104 64
82 111 69
103 126 106
148 168 171
174 192 206
173 190 202
171 188 202
167 184 195
152 170 176
80 109 68
81 110 68
78 106 66
76 104 63
78 107 65
83 112 69
81 109 68
77 104 64
77 104 64
75 103 63
80 107 66
82 110 68
77 105 64
81 110 68
80 108 67
82 110 68
82 110 68
79 107 65
85 113 75
99 123 101
112 133 119
120 140 132
125 146 138
108 132 113
105 129 103
79 108 66
79 106 65
78 106 66
79 106 65
81 109 67
77 105 65
80 108 66
84 111 73
113 135 121
135 155 150
158 176 183
161 179 188
162 178 189
164 181 193
158 176 186
166 183 195
163 182 194
158 175 186
110 133 118
78 105 65
80 109 67
73 100 60
81 109 67
77 104 64
77 105 65
77 104 63
75 102 62
78 106 65
76 103 62
80 108 66
77 105 64
82 110 68
80 107 65
79 107 65
79 107 66
74 101 62
77 104 63
78 106 65
76 104 64
75 102 61
132 152 152
171 188 201
166 183 196
164 180 188
168 185 198
171 187 199
163 179 190
166 183 196
162 180 191
168 185 195
169 186 199
160 178 184
165 183 193
159 176 183
167 185 197
159 177 187
168 185 197
172 189 203
170 188 200
165 183 192
162 180 190
180 196 208
128 148 144
119 141 129
140 159 161
163 180 192
156 175 183
160 177 187
163 181 189
161 177 183
164 181 191
163 179 186
164 182 192
159 177 187
167 184 197
169 187 200
171 188 201
159 177 188
161 179 190
163 179 189
162 179 187
167 185 198
170 186 199
164 182 196
150 167 173
81 109 67
83 111 69
76 103 63
76 102 62
83 111 69
81 109 67
77 104 64
75 102 61
81 109 67
78 105 64
79 106 64
80 108 66
75 102 63
75 102 62
80 109 67
76 103 63
78 106 65
78 106 65
78 107 65
76 103 62
76 103 63
94 118 93
163 181 191
166 184 197
160 176 184
163 181 191
163 180 190
153 171 179
170 187 197
157 174 184
167 184 196
169 186 197
153 172 182
167 184 196
163 179 188
166 182 198
170 188 202
171 189 203
172 188 202
164 181 189
169 186 199
167 183 194
171 188 201
139 158 161
74 101 61
76 102 62
78 107 66
73 101 62
80 108 66
78 105 65
73 100 60
80 107 66
76 103 63
77 104 63
78 105 65
79 107 65
79 106 65
83 112 69
81 109 68
78 105 64
77 105 63
80 108 67
81 110 68
78 105 64
75 102 62
153 170 174
162 179 187
168 185 197
158 177 185
165 183 193
165 183 196
163 181 193
164 181 192
155 172 180
149 167 173
149 168 172
133 153 151
136 155 150
110 132 120
111 131 118
101 123 102
101 124 109
94 120 94
84 110 76
80 107 65
78 105 65
147 167 171
160 177 186
173 191 206
167 184 194
172 189 202
162 180 190
170 187 201
166 183 195
159 177 188
168 185 197
168 185 197
171 188 199
169 186 197
165 182 194
167 184 195
171 189 206
167 183 196
169 186 200
170 187 199
161 180 192
162 180 190
83 111 74
81 109 67
79 107 65
76 103 63
83 111 68
77 105 64
77 105 64
77 104 64
81 108 67
80 108 67
80 108 67
78 107 66
80 108 66
80 109 67
77 105 65
79 107 65
81 108 65
80 108 67
75 102 62
94 120 93
163 180 192
170 186 197
161 178 189
164 182 192
161 179 191
162 180 191
166 183 192
163 180 191
145 165 165
136 155 155
96 118 96
104 128 107
79 105 64
80 108 67
76 104 64
78 106 65
79 107 65
79 107 65
75 102 61
152 170 174
168 186 198
169 186 199
170 188 202
167 183 194
172 189 204
170 188 200
172 189 202
169 187 200
169 187 200
170 187 201
166 183 198
167 184 195
171 188 201
163 181 193
160 178 188
168 186 200
175 193 207
160 178 187
85 113 73
77 104 64
99 124 99
107 131 109
121 142 133
116 137 122
127 148 141
138 156 157
135 154 154
144 164 167
142 161 164
156 174 183
168 184 195
160 178 191
173 189 200
174 190 204
159 176 184
133 152 150
79 108 66
77 104 63
80 108 66
81 111 69
81 109 66
79 108 66
81 108 67
82 110 68
75 102 63
79 107 67
80 108 67
84 112 69
82 110 69
81 109 67
76 103 64
80 109 67
129 150 145
166 185 198
168 187 199
165 183 195
163 180 193
163 181 192
170 189 205
175 192 209
169 186 200
176 192 207
169 186 200
167 185 197
164 182 193
169 187 200
173 190 205
171 189 205
111 135 119
79 108 66
83 112 70
82 111 69
81 109 67
83 111 69
79 107 66
82 111 69
79 106 66
175 193 209
138 160 157
99 123 96
80 108 66
135 155 157
168 185 198
168 185 197
165 185 200
175 192 206
164 183 195
168 186 199
167 187 202
172 190 205
171 188 203
173 190 204
164 181 192
164 181 192
178 195 209
172 189 202
168 186 198
168 187 202
164 182 192
176 192 205
173 189 203
105 129 108
87 113 79
120 140 127
146 166 171
168 187 200
178 195 209
171 189 202
166 184 198
170 187 201
169 186 199
171 189 204
171 189 202
170 188 200
177 195 210
170 187 198
161 180 191
170 188 202
173 189 204
172 189 201
168 186 200
155 174 179
78 105 64
80 108 67
81 109 67
83 111 69
80 108 67
80 109 68
82 111 68
80 108 66
78 106 66
82 110 68
79 107 66
88 114 82
126 147 140
157 174 182
171 189 204
172 189 202
165 183 194
170 188 202
160 178 190
169 186 199
152 170 175
82 111 69
76 103 63
79 107 67
80 109 67
78 105 64
80 108 67
80 108 66
78 106 64
77 104 64
78 106 64
79 106 65
78 106 66
78 106 65
81 110 69
80 108 67
80 108 66
79 107 65
81 109 68
76 104 63
79 107 66
79 107 66
132 151 146
173 190 206
169 187 201
169 187 199
170 188 202
156 174 180
150 169 174
144 163 163
127 147 141
91 116 91
119 141 128
155 172 179
166 183 196
171 189 202
172 190 205
168 185 198
160 178 190
165 183 194
166 183 193
175 192 205
164 182 193
173 190 204
122 143 136
84 112 70
78 106 64
77 105 64
78 106 65
76 103 62
79 107 66
78 105 64
81 109 67
79 107 66
80 108 67
77 105 65
81 109 67
77 105 64
78 105 65
78 106 65
78 106 66
76 103 63
80 108 67
79 108 66
82 111 69
76 103 64
129 147 141
159 177 186
167 184 195
153 170 178
168 185 197
167 184 196
161 179 190
173 189 200
168 185 197
164 182 195
161 177 185
164 181 193
169 186 200
170 187 201
170 188 200
172 190 205
163 180 190
163 180 192
162 179 191
131 151 147
112 134 121
85 110 78
104 127 109
166 183 196
162 179 189
165 183 195
158 176 188
171 188 202
169 186 197
164 182 195
166 182 193
174 192 208
169 187 201
166 183 195
161 178 187
170 187 199
167 183 196
158 176 185
166 183 195
162 179 189
168 186 200
159 177 186
175 192 207
176 193 206
176 192 208
84 111 76
78 106 65
76 103 62
75 101 61
79 107 66
78 106 65
77 105 64
73 99 59
77 104 63
79 107 65
81 109 67
79 107 66
76 103 62
78 106 64
78 106 65
74 101 61
78 105 64
74 101 61
80 109 67
78 105 64
78 105 65
74 100 60
150 168 174
163 180 191
169 186 200
166 184 197
160 176 186
170 188 201
164 182 193
172 190 205
155 174 183
162 178 189
158 176 188
178 195 212
159 175 181
161 178 188
162 180 191
173 189 203
160 177 188
163 180 191
173 191 204
174 191 203
165 182 195
164 182 193
84 109 77
83 112 70
78 106 64
76 104 64
77 104 64
76 104 64
79 107 65
81 109 67
77 104 64
78 105 65
78 105 65
80 108 66
79 108 66
78 105 65
81 108 66
79 106 65
78 106 66
79 107 66
80 108 66
88 115 83
108 131 113
129 149 145
131 150 148
120 140 134
113 135 124
110 132 117
91 116 88
88 114 80
78 106 65
79 107 66
78 106 65
80 108 66
78 106 65
81 109 68
81 109 69
77 104 64
79 107 66
83 112 69
76 104 64
76 103 62
76 103 63
81 108 66
105 128 110
168 186 200
158 175 185
168 185 199
161 178 189
161 179 190
169 187 201
158 175 184
178 195 210
169 188 203
165 182 195
173 190 205
166 184 197
163 179 188
167 184 195
172 188 201
167 184 196
164 180 191
164 181 193
160 177 187
170 186 199
124 144 139
77 105 63
78 106 65
81 109 68
77 105 65
76 104 63
79 108 67
79 107 66
75 101 61
84 112 69
80 107 67
80 108 67
74 101 61
80 107 65
79 107 66
80 107 66
78 106 66
76 103 62
85 112 79
111 135 119
140 160 159
146 164 166
127 147 140
118 139 126
100 125 101
79 105 69
77 104 63
82 111 69
77 104 63
76 103 63
77 105 64
79 106 64
74 101 62
81 108 66
76 104 64
78 105 65
79 108 65
79 107 65
82 111 68
107 130 111
167 184 197
164 182 192
166 184 195
169 186 199
169 186 199
167 185 197
171 189 205
174 191 206
163 181 192
174 190 204
159 176 187
168 185 198
178 194 207
163 180 193
164 182 194
160 177 188
177 194 210
169 186 197
126 147 140
80 108 66
80 108 66
83 111 69
79 107 65
79 106 66
78 106 65
82 110 68
83 112 70
83 111 69
83 112 68
77 105 65
78 106 67
95 119 92
109 131 119
123 145 133
137 156 151
140 160 161
103 127 106
102 127 109
94 119 90
78 105 64
81 110 67
78 106 65
79 107 67
81 110 68
81 110 67
77 105 64
80 109 67
80 107 66
78 106 66
83 111 68
80 108 66
83 113 70
88 114 80
163 179 189
168 187 202
168 185 197
179 197 213
168 187 204
171 189 201
178 195 211
172 189 202
166 185 195
176 194 209
170 189 203
163 181 193
176 194 210
175 193 208
175 192 207
164 183 195
95 121 93
79 108 67
80 109 67
82 110 69
78 105 64
80 109 67
81 110 68
83 111 69
101 126 102
76 104 63
81 110 67
81 109 68
147 167 169
175 192 209
170 187 202
172 190 205
177 194 211
164 183 195
174 192 207
166 185 195
172 189 204
170 188 201
173 190 203
176 194 211
178 195 212
173 191 207
172 190 205
173 191 207
167 184 195
182 200 218
173 190 203
168 186 198
143 162 164
164 182 191
172 190 203
168 186 200
166 184 196
174 190 204
167 184 196
177 194 210
176 193 209
175 192 206
171 189 203
178 196 213
170 188 202
172 191 206
159 176 184
171 188 202
171 189 203
176 194 208
176 193 208
172 190 205
154 173 179
73 99 59
78 106 65
79 107 65
81 109 67
82 110 68
82 111 69
73 100 60
79 107 66
86 114 76
121 143 132
152 172 175
172 190 205
161 179 189
173 190 205
173 191 205
174 191 205
164 181 192
166 183 193
168 185 198
175 193 209
159 178 185
78 106 65
80 107 66
78 107 65
77 105 64
82 110 68
81 110 68
78 106 65
82 111 68
76 104 64
79 107 66
82 110 68
75 103 63
82 111 68
82 110 68
81 109 67
75 102 62
77 105 65
82 110 69
82 111 69
81 109 66
79 107 65
127 148 144
176 193 209
170 186 198
169 187 201
170 188 203
169 185 196
155 174 182
118 140 126
85 111 76
77 106 65
78 106 65
72 99 61
80 108 66
94 120 88
113 135 123
129 149 146
139 160 159
143 162 164
163 181 191
166 184 195
171 190 204
171 189 204
136 155 153
81 108 65
79 107 66
80 107 66
77 104 64
78 106 66
80 108 67
78 105 65
78 106 65
78 105 65
78 105 64
79 107 66
76 104 65
77 104 64
81 108 66
79 107 65
80 108 67
80 108 66
81 109 67
80 108 67
79 107 66
80 109 68
108 132 115
166 183 192
164 182 194
162 180 192
161 179 193
164 180 189
174 189 203
169 186 198
163 179 191
168 186 200
165 184 196
165 182 192
153 170 178
162 178 188
150 170 175
139 158 156
109 130 114
88 115 81
78 105 64
79 107 66
82 111 69
77 105 64
85 111 77
165 182 194
163 180 190
163 181 190
169 185 195
171 188 204
169 186 200
166 183 192
167 184 196
167 184 198
165 183 196
174 192 207
164 181 195
159 178 189
164 181 193
169 186 199
166 183 193
176 194 208
170 188 201
166 183 197
167 185 199
161 179 189
168 185 198
113 135 121
78 106 65
76 104 64
77 104 64
79 107 64
80 109 67
81 109 66
77 104 64
76 103 62
80 108 67
78 105 65
72 99 59
77 105 64
79 106 65
74 101 61
78 105 63
76 104 64
73 100 61
83 111 68
73 100 60
79 106 65
76 103 63
134 154 154
159 177 187
167 185 198
164 183 196
158 176 184
159 176 187
170 186 197
159 177 186
164 181 189
164 182 193
168 185 198
153 171 178
168 186 199
171 189 202
160 178 189
179 195 210
163 180 192
157 174 183
168 186 200
163 180 190
166 183 193
155 174 181
117 138 127
79 107 66
74 101 60
80 108 66
73 101 61
74 101 62
77 105 64
79 107 66
76 104 64
80 107 65
84 109 74
96 120 98
118 137 127
124 145 136
122 144 134
135 154 153
157 174 182
160 178 188
169 185 197
162 179 191
165 183 193
165 182 191
90 117 83
79 107 65
80 107 66
82 111 69
75 102 62
76 103 64
80 108 67
78 105 64
78 106 65
82 110 68
76 104 64
76 103 63
81 110 67
74 100 60
73 100 60
79 106 65
81 110 68
78 105 64
79 107 65
78 106 66
82 111 69
144 163 169
162 181 190
168 185 197
170 185 197
167 185 196
174 191 204
167 184 195
168 185 195
165 182 191
162 179 191
164 181 191
173 189 202
159 177 189
166 182 192
167 185 195
164 180 191
162 179 190
163 180 191
169 186 197
161 179 189
156 174 182
80 108 67
79 107 65
78 106 64
79 107 66
79 107 66
84 112 69
78 106 65
80 107 66
77 104 64
89 115 83
113 134 120
121 142 130
133 153 149
137 156 155
145 163 168
161 179 189
163 180 190
170 187 201
166 183 193
158 174 182
82 110 68
76 104 64
77 104 63
75 102 62
80 108 68
79 107 66
80 107 65
78 106 64
82 110 69
83 112 69
79 107 66
81 109 67
80 107 65
78 106 66
79 107 66
82 111 70
77 105 65
76 103 63
78 106 65
156 175 183
167 184 194
164 183 195
169 187 202
170 188 202
173 191 206
161 179 192
165 183 195
173 191 207
175 191 204
174 192 208
174 190 203
163 180 192
168 185 195
163 180 189
169 187 199
164 182 193
172 190 204
165 183 194
78 105 64
78 105 65
76 104 63
77 105 65
80 109 67
79 107 66
80 108 67
81 109 66
80 109 67
79 107 66
80 108 67
74 101 61
84 112 69
79 107 65
80 109 68
82 111 68
78 106 65
106 130 111
171 190 206
166 183 194
164 182 194
163 181 189
153 172 176
131 151 147
135 156 153
117 138 126
107 130 109
94 119 92
80 108 67
81 108 67
81 110 68
80 107 65
80 109 67
81 109 67
121 142 134
166 184 197
172 189 204
174 192 206
164 183 195
172 190 205
168 186 200
164 183 195
170 188 202
168 187 198
176 193 206
170 188 203
164 182 195
170 187 200
175 193 211
173 191 207
157 175 182
81 110 68
75 103 63
84 113 70
77 105 65
79 107 66
82 111 68
83 112 69
80 109 67
84 113 70
80 108 66
80 109 68
160 178 187
179 196 212
166 183 193
172 189 203
177 194 208
169 187 198
168 185 199
174 192 206
172 190 206
168 185 197
169 187 200
169 187 201
166 184 198
171 188 202
165 184 197
174 192 205
163 181 195
149 168 173
123 145 134
85 113 78
166 184 194
170 187 200
167 183 193
171 189 205
171 189 202
168 186 201
163 180 190
175 193 211
173 190 206
175 191 205
171 188 202
175 192 206
158 175 182
164 182 195
166 184 197
171 189 203
173 190 204
166 184 196
167 185 198
175 194 211
154 173 180
78 106 65
82 111 70
77 104 63
78 106 65
81 109 67
80 109 67
87 113 80
150 169 175
160 179 191
170 188 202
165 183 196
176 193 209
173 191 207
164 180 188
170 187 200
167 184 194
171 189 203
169 187 203
170 187 201
159 177 185
159 176 188
77 105 64
78 106 64
83 110 68
78 105 64
76 105 63
84 113 70
77 105 64
80 108 67
79 107 66
82 110 69
82 109 67
80 108 67
80 108 66
76 103 64
77 105 64
79 107 66
81 109 68
81 108 66
81 109 68
82 111 69
80 109 68
113 135 124
172 189 203
176 193 207
146 164 165
115 138 126
90 117 85
82 111 68
81 109 67
84 112 69
81 109 67
78 107 66
79 106 65
83 112 69
80 108 65
81 110 69
82 111 68
81 109 68
79 107 66
79 108 66
82 111 68
85 112 77
94 120 95
121 142 138
149 167 168
144 163 163
125 146 138
129 148 140
102 124 106
102 125 102
86 113 79
77 104 64
77 105 64
79 107 66
79 107 66
81 109 68
80 109 68
79 106 66
74 101 60
79 107 65
79 106 65
78 106 65
78 106 65
80 109 67
83 111 68
91 117 90
170 186 196
158 176 186
168 185 196
166 185 196
173 190 207
173 190 203
162 179 192
173 190 205
163 180 190
164 182 192
140 159 161
114 136 125
86 112 80
77 104 64
78 106 66
78 106 65
76 102 63
77 104 64
83 111 69
77 104 64
76 103 62
79 107 66
147 166 169
174 190 204
170 189 204
162 180 190
163 181 194
166 183 195
166 184 197
173 190 203
172 190 205
167 184 195
168 185 196
171 188 201
170 187 197
166 183 195
154 172 181
165 183 195
172 189 202
166 182 195
172 188 199
162 179 190
156 172 181
167 184 197
136 154 156
75 102 62
77 104 64
78 106 65
78 105 64
78 106 66
79 108 67
78 105 65
73 100 60
83 111 69
78 106 65
74 101 62
76 103 63
80 108 66
79 106 65
76 103 62
78 106 65
78 105 65
81 110 67
77 104 64
82 110 68
77 104 63
111 134 121
158 177 186
161 179 189
172 188 202
166 183 194
175 192 207
166 184 197
169 185 198
174 192 207
173 190 203
159 175 184
165 183 196
175 193 208
162 179 189
166 183 196
167 183 192
169 186 201
163 181 194
172 190 205
172 188 200
172 188 200
171 187 200
152 170 175
77 104 63
78 105 63
91 116 84
104 128 106
118 138 128
133 154 150
149 168 175
162 179 187
159 176 188
165 182 195
165 183 194
164 181 193
173 190 203
160 177 188
163 181 195
163 181 193
162 179 190
166 184 197
170 187 202
171 188 199
161 178 189
133 153 153
79 106 64
80 107 65
80 108 67
80 108 67
79 107 66
81 109 68
78 106 65
75 102 63
77 105 65
77 104 64
79 107 66
75 103 62
80 108 66
77 105 64
78 105 65
77 104 64
78 106 65
80 109 67
79 107 65
75 102 62
110 132 117
163 181 193
170 187 200
161 179 192
169 186 199
172 188 201
167 184 197
176 193 207
160 177 186
165 181 194
165 183 196
165 182 193
157 175 186
170 187 198
169 184 196
171 188 205
171 190 203
170 187 201
168 187 202
165 183 195
160 178 187
117 139 129
115 136 123
131 151 146
125 146 135
143 162 167
155 174 181
147 166 170
162 180 189
165 182 193
170 187 200
166 183 196
170 187 199
172 190 201
179 196 212
168 186 202
163 179 191
165 182 196
161 178 190
171 188 200
164 181 192
108 130 115
77 105 65
79 106 66
79 106 65
79 107 66
79 107 66
79 106 65
79 108 67
84 113 70
80 108 66
81 109 66
77 105 64
81 108 66
80 109 67
78 106 65
80 109 68
74 102 62
79 107 66
80 108 67
101 126 104
168 186 199
169 187 201
165 183 194
172 189 204
166 183 194
162 180 192
172 189 202
162 181 189
169 186 200
164 182 193
171 188 199
172 189 201
170 187 199
171 188 199
161 179 187
161 178 186
171 189 202
163 181 193
138 157 156
79 107 66
76 103 63
79 107 66
79 107 66
82 110 68
76 104 63
80 108 67
79 108 66
77 104 64
79 107 66
84 113 70
81 110 68
79 108 66
79 106 65
82 110 68
77 105 65
80 108 67
159 176 183
175 194 209
169 187 197
167 185 198
184 201 218
172 188 200
168 185 198
177 194 209
173 191 206
167 184 195
167 185 198
152 171 180
140 159 159
135 154 153
130 150 143
110 134 115
86 113 77
145 166 168
174 193 211
178 195 209
173 191 207
163 182 194
172 190 204
168 186 201
166 184 196
175 192 207
171 189 202
173 191 208
172 190 204
158 176 184
166 183 196
171 188 201
175 192 206
114 137 125
80 108 67
83 112 70
84 112 69
81 109 68
82 110 69
81 110 68
84 114 72
80 108 66
81 109 67
81 109 67
149 170 174
174 192 208
169 186 198
172 190 205
174 192 205
177 195 213
177 194 210
171 190 204
170 188 201
177 194 209
172 190 204
161 180 190
171 188 201
168 185 196
177 195 211
140 161 164
113 135 121
81 109 67
82 112 70
78 106 65
162 179 188
173 191 204
168 187 201
172 189 205
172 190 204
169 188 201
166 183 196
168 185 199
168 187 199
169 187 201
173 190 204
170 187 199
173 190 207
162 181 193
171 189 205
179 197 215
167 185 196
159 177 188
174 191 206
172 187 200
151 170 177
84 113 70
85 114 72
81 109 67
83 110 70
102 126 105
154 172 176
166 182 194
169 186 201
171 188 202
165 182 192
167 185 200
172 189 203
167 186 199
168 185 196
169 187 200
163 180 190
171 189 202
169 187 201
175 193 209
166 184 196
170 188 201
80 108 65
74 101 61
76 104 63
80 109 67
79 107 65
80 108 67
81 110 69
79 107 66
79 108 67
80 108 67
79 108 67
80 107 66
85 114 71
82 110 68
80 108 67
78 105 64
76 104 64
77 106 66
80 108 68
80 108 66
81 109 67
120 141 136
126 148 140
87 113 82
81 109 68
78 105 65
77 104 63
78 105 65
79 106 65
74 102 62
82 110 68
78 106 65
81 109 68
79 108 67
82 110 68
80 108 67
78 105 64
82 110 68
79 107 66
77 105 64
77 104 63
72 99 60
79 107 66
98 121 103
167 184 196
172 190 204
170 187 201
166 183 195
173 191 205
169 187 201
164 182 194
167 185 197
156 175 184
154 173 181
133 152 150
139 157 157
127 147 141
118 139 128
117 138 128
104 127 106
94 118 95
84 111 73
78 106 65
78 105 64
79 107 65
79 107 65
158 176 186
162 181 191
167 184 195
173 191 205
171 188 202
169 186 198
139 157 157
125 146 138
91 117 85
77 105 64
78 106 65
73 99 60
77 104 63
81 110 68
82 110 68
79 106 65
79 106 64
75 103 63
81 109 67
79 106 66
78 106 65
74 101 61
136 155 151
161 178 190
167 184 196
161 180 190
162 179 188
165 183 196
170 188 199
167 185 197
166 184 194
175 192 206
168 185 196
165 183 197
164 181 191
156 174 184
169 186 200
172 189 203
156 172 179
162 180 191
171 189 202
169 186 199
170 185 195
166 183 194
154 173 180
79 107 65
82 111 68
79 107 66
78 105 64
77 105 64
73 100 61
80 107 66
78 105 63
80 108 67
81 108 66
83 111 69
74 100 61
78 106 65
77 104 63
80 108 67
76 103 62
79 106 65
82 110 68
81 109 68
78 105 64
81 109 67
79 106 64
160 178 189
172 189 201
165 182 194
162 179 190
166 184 197
166 183 194
173 190 203
167 184 193
164 181 193
165 182 192
163 181 189
172 189 203
168 186 199
172 189 202
165 183 196
165 183 196
170 186 196
165 181 191
144 164 166
132 152 151
114 136 127
108 132 116
150 168 172
161 179 187
168 185 196
171 189 202
161 178 187
170 187 202
167 186 200
179 195 210
164 181 192
168 184 195
163 181 194
173 191 207
169 186 200
169 187 200
170 186 199
165 183 197
162 178 190
168 185 198
164 181 192
173 190 204
172 188 200
149 167 173
80 108 66
81 109 67
79 108 66
75 102 62
78 107 66
78 106 66
79 107 65
80 108 67
79 108 66
80 109 68
77 105 65
80 108 66
81 109 68
77 104 63
77 105 65
75 102 62
83 113 71
80 109 67
78 106 66
81 109 68
84 109 74
155 173 182
165 184 197
166 184 195
173 190 202
163 179 189
170 187 199
173 190 205
174 191 205
158 176 185
157 175 184
145 165 169
144 162 163
135 154 153
137 155 152
125 145 138
111 133 118
99 122 100
91 115 91
86 112 79
78 105 63
103 126 105
167 184 196
167 185 198
167 185 199
167 184 196
158 176 185
173 190 203
162 181 191
167 183 196
160 178 189
158 176 185
162 179 188
165 184 199
169 187 198
172 189 203
154 172 178
169 187 200
170 188 202
168 184 194
170 188 202
159 176 183
80 106 70
81 109 67
78 106 65
83 112 70
78 106 65
76 103 63
77 104 64
75 102 63
81 109 68
76 103 64
78 106 65
77 105 64
84 113 70
78 105 65
77 105 64
82 111 69
80 108 67
81 109 67
80 108 67
144 164 163
160 178 188
168 186 201
166 184 193
164 182 192
171 187 201
166 184 196
173 191 204
178 195 209
173 191 208
161 180 190
169 186 198
179 196 213
170 187 197
169 186 201
162 179 191
171 187 200
177 194 209
175 193 208
94 121 94
78 105 64
82 110 67
82 111 68
78 106 65
78 105 65
82 110 68
78 106 65
79 106 65
77 105 65
77 105 64
79 107 64
81 109 66
74 101 60
78 106 65
79 106 65
82 111 69
84 111 73
173 190 203
172 188 200
173 191 206
167 185 198
173 191 205
161 180 190
168 186 202
170 187 200
176 193 206
168 185 199
169 187 201
168 186 201
168 186 201
174 192 205
167 184 197
173 190 204
165 181 194
116 138 123
123 145 138
144 164 165
150 170 174
167 185 197
172 189 203
176 193 208
165 182 192
176 193 206
170 188 200
176 193 207
179 196 212
175 192 209
170 186 200
170 188 201
164 183 196
88 112 86
84 113 70
83 112 70
79 107 67
80 108 66
78 107 65
79 107 67
82 111 69
80 108 67
79 108 67
170 187 200
176 193 208
174 191 204
177 194 209
173 190 204
180 197 213
179 196 213
175 193 210
172 190 205
171 190 204
175 192 203
170 189 203
166 185 197
144 164 164
98 123 98
81 110 67
81 109 67
76 104 63
83 113 70
83 111 68
168 186 199
167 185 200
167 185 198
175 191 206
168 185 199
165 183 197
171 189 204
171 189 202
173 188 200
170 188 202
163 182 193
174 192 210
172 189 204
169 187 200
166 183 195
171 189 203
167 185 198
176 194 212
166 183 194
167 185 197
152 170 174
80 108 66
95 119 97
130 151 147
154 171 178
169 187 199
173 189 202
162 179 188
162 180 192
166 184 200
169 186 198
173 190 204
167 185 198
177 194 211
171 188 200
178 194 208
172 189 205
177 194 209
161 179 189
165 183 192
166 183 194
178 195 210
80 107 71
82 109 67
84 113 70
82 111 70
78 106 65
81 109 67
80 108 66
84 112 69
78 107 66
77 104 63
80 108 68
82 111 70
80 110 67
78 106 66
83 111 70
79 107 66
80 109 68
79 106 65
106 129 108
144 163 161
159 176 186
152 171 181
77 105 64
77 104 64
79 107 66
80 108 66
81 109 68
83 112 70
80 108 67
83 112 70
76 104 64
80 107 66
80 108 67
78 105 63
80 108 67
81 108 67
83 111 68
79 106 65
79 107 65
76 103 62
78 106 65
80 108 66
77 104 64
97 121 92
165 182 191
179 195 210
170 187 201
173 190 203
169 187 200
166 183 193
170 187 197
174 190 204
166 184 196
166 185 197
165 182 191
166 183 193
170 188 200
171 188 202
160 178 188
162 179 190
171 188 202
171 188 201
164 181 192
164 182 192
152 170 172
147 165 169
116 139 131
129 150 145
162 181 193
154 173 182
130 150 149
123 143 138
95 117 93
89 115 85
90 115 86
76 103 63
79 106 65
78 106 65
77 104 64
77 105 64
82 110 68
82 110 67
79 107 66
79 107 65
81 109 66
81 110 69
80 108 67
83 111 69
123 143 130
170 187 201
169 186 199
174 192 206
158 176 184
165 181 191
165 181 191
168 185 198
164 182 195
158 175 184
170 187 199
170 188 202
173 190 202
165 183 195
160 177 185
166 183 196
169 187 201
161 177 186
163 181 193
173 190 204
167 186 199
164 181 193
175 191 203
91 117 84
76 103 62
78 105 64
79 106 65
79 107 66
79 106 66
77 105 64
83 112 69
74 101 60
79 107 66
79 106 65
77 104 64
83 112 70
71 98 59
77 105 65
79 107 66
77 104 64
76 104 63
82 111 68
77 105 65
77 105 65
81 109 67
136 155 152
166 183 197
175 192 203
163 181 192
167 184 195
162 180 195
169 188 202
162 179 189
171 188 202
171 188 202
161 179 191
143 162 165
148 166 168
126 145 140
113 137 121
100 124 101
83 109 76
79 107 67
76 104 63
76 104 64
81 108 66
75 103 62
139 158 157
174 192 206
163 180 192
170 187 199
170 187 200
166 184 196
170 188 200
167 184 195
164 183 196
168 185 199
169 185 198
171 188 200
169 187 200
174 191 205
174 191 205
169 186 199
174 192 207
166 184 197
163 180 189
165 182 196
167 185 197
165 183 193
103 126 110
73 100 60
77 104 64
76 104 64
78 105 65
83 112 69
78 105 64
79 108 66
83 112 70
79 106 63
74 102 61
81 109 67
76 104 64
80 108 66
79 107 66
78 106 68
79 107 65
101 127 98
97 122 94
117 138 125
112 132 119
136 156 157
142 161 162
119 139 132
117 138 126
115 138 125
102 125 102
89 115 86
87 113 80
79 106 65
79 106 65
77 104 63
80 108 67
77 104 63
77 105 64
80 107 66
82 110 68
80 109 67
78 105 64
77 105 64
84 113 70
80 108 66
159 177 184
172 190 205
172 188 202
172 189 201
168 186 198
162 180 190
177 194 208
167 184 195
161 178 188
168 186 202
166 184 197
169 185 196
163 180 192
164 181 192
170 187 200
166 183 192
178 196 213
168 186 201
173 188 202
172 191 206
126 146 139
76 104 64
78 106 66
78 106 64
83 111 69
80 108 67
83 111 69
81 109 67
80 108 66
78 106 65
81 109 66
74 101 62
81 109 67
79 107 66
84 113 70
79 107 66
82 111 69
79 107 66
79 107 65
107 131 113
162 180 189
177 195 212
176 194 212
173 190 204
166 184 198
168 186 199
171 189 205
172 188 201
163 181 191
165 183 194
180 198 213
172 190 207
178 196 212
169 186 199
175 191 205
169 187 202
168 186 200
175 193 210
144 163 165
82 111 69
82 111 69
79 107 66
81 111 69
81 110 69
83 111 69
77 106 64
79 106 65
76 103 63
79 108 68
82 111 69
79 107 66
82 110 67
76 104 63
78 106 65
81 110 69
79 107 66
123 143 137
175 192 206
172 189 202
170 188 202
178 196 214
170 188 203
173 191 205
167 185 197
172 190 205
170 189 203
165 181 192
170 188 203
166 183 194
166 183 195
177 194 205
170 187 199
172 189 200
152 172 177
80 108 67
77 106 65
81 109 68
81 110 68
85 113 73
104 129 105
119 141 129
143 162 162
146 165 164
164 182 192
173 191 206
170 189 203
173 192 208
167 185 198
174 191 203
152 171 177
83 112 70
81 109 68
78 105 65
78 106 65
84 113 71
81 110 69
81 110 68
83 112 70
85 113 75
169 187 200
172 190 205
181 198 213
176 194 212
176 194 210
173 191 205
175 192 208
171 188 200
177 195 211
172 190 204
164 182 192
140 160 158
97 123 97
82 111 69
82 111 69
81 108 66
84 113 70
75 104 64
83 111 69
84 112 72
177 196 212
167 185 195
174 193 208
177 194 210
170 188 203
167 184 197
174 192 208
175 193 207
184 200 217
172 189 202
166 184 198
177 194 209
175 191 205
174 190 203
167 186 200
178 194 206
173 190 205
175 193 209
170 188 202
172 189 203
156 176 184
156 173 180
166 183 191
169 186 198
169 187 201
168 185 196
168 186 200
158 176 184
174 192 207
178 197 215
172 191 207
177 195 211
168 184 197
179 196 211
166 183 196
172 189 205
175 192 206
165 182 193
159 178 187
164 182 193
175 192 206
172 191 206
95 121 95
79 107 65
80 108 67
83 112 70
78 106 65
78 106 65
81 110 68
78 105 64
82 111 69
82 110 68
79 108 66
81 110 68
82 110 68
77 105 65
82 110 67
94 117 92
135 155 152
164 182 193
167 184 194
163 181 192
171 188 203
166 183 192
77 104 64
77 105 64
77 105 65
80 108 66
79 107 66
82 111 69
81 109 67
76 104 63
83 112 69
80 108 67
80 109 68
78 105 64
77 104 64
80 108 66
79 107 66
81 109 67
79 107 66
79 107 65
84 113 70
81 109 68
82 111 69
78 106 65
167 185 197
172 189 203
162 182 196
162 179 189
172 188 199
158 175 185
161 178 188
175 191 206
167 185 197
164 182 193
174 191 207
166 183 195
170 188 203
166 184 196
171 189 202
160 176 188
160 177 185
170 187 201
174 191 206
165 183 194
156 174 181
132 151 147
149 166 172
168 184 197
174 191 207
169 185 196
160 179 189
165 183 194
162 180 191
173 190 205
164 182 194
170 188 202
153 171 180
152 170 174
163 180 188
147 165 168
144 162 164
144 162 167
135 155 148
127 148 144
138 158 156
119 140 130
111 134 119
104 126 111
115 137 124
142 160 162
157 173 181
161 178 188
169 186 198
171 188 203
168 186 197
168 185 198
162 179 189
164 181 192
164 181 193
162 179 190
164 182 192
177 195 211
164 180 186
159 177 188
163 180 189
172 189 204
162 180 192
176 191 204
165 182 194
169 185 197
150 168 175
112 133 120
82 111 70
76 103 63
76 103 62
79 107 66
77 105 64
74 101 61
76 103 63
77 104 64
74 101 61
78 105 64
79 107 65
79 108 67
79 107 66
77 104 63
78 106 65
80 108 67
76 104 64
73 100 60
80 109 67
77 104 64
78 106 65
119 140 125
165 182 191
163 180 190
167 185 199
166 184 196
152 171 179
148 167 169
127 148 139
120 141 128
92 116 88
87 112 79
79 108 67
78 106 65
81 109 67
78 105 64
78 106 65
79 107 66
77 105 64
76 104 64
75 102 63
79 107 66
82 110 69
98 123 99
179 195 209
164 182 193
173 190 205
162 180 189
171 189 204
160 177 186
171 188 198
170 187 200
163 180 191
163 180 191
171 189 202
163 182 195
169 186 198
168 185 199
163 180 190
168 185 199
171 188 203
165 183 194
166 183 198
168 185 199
166 184 195
128 149 147
105 128 109
106 129 111
107 130 114
117 139 129
134 153 151
129 150 147
141 161 160
140 161 160
132 152 150
144 161 162
146 165 170
154 173 180
160 178 188
161 179 188
165 182 191
158 175 185
175 192 206
175 192 206
173 190 203
177 193 208
160 177 184
77 105 63
82 110 68
77 104 63
77 105 65
81 109 68
80 108 66
80 108 67
83 112 70
79 106 65
76 104 64
76 102 62
80 108 67
78 106 65
81 110 68
76 104 63
80 108 66
76 104 64
79 108 66
80 108 67
79 106 65
116 139 126
171 188 201
164 182 196
169 185 196
165 183 196
175 192 208
174 191 205
168 185 198
173 190 206
177 195 211
168 185 196
181 197 214
165 182 195
175 192 205
168 187 202
167 185 197
169 187 201
172 190 205
168 185 196
156 175 185
165 184 196
84 113 76
80 109 67
75 101 61
76 104 63
80 109 68
80 108 66
83 110 68
77 105 63
82 110 68
78 105 65
76 104 63
79 107 65
79 107 66
76 103 63
82 110 69
81 110 69
80 107 65
79 107 66
78 106 65
143 163 162
176 193 210
173 189 205
169 186 200
166 183 194
165 182 194
166 186 199
165 183 194
158 177 183
163 182 196
162 181 193
171 190 206
170 187 202
167 185 196
167 184 196
171 188 201
163 181 193
165 182 193
168 186 198
101 126 103
82 111 68
81 110 68
77 104 63
80 109 67
82 111 69
80 109 67
78 106 64
80 108 67
80 109 67
83 111 69
82 110 69
80 108 67
79 108 66
80 108 66
80 109 67
78 106 66
77 104 64
153 172 179
170 188 201
163 180 191
160 178 188
171 187 199
172 190 206
170 189 204
178 195 211
175 192 207
167 185 198
163 182 193
172 189 203
175 192 205
168 186 199
168 186 199
172 189 201
161 179 190
111 134 114
82 110 68
80 109 68
78 106 66
80 108 66
78 106 66
78 106 65
79 107 65
77 105 64
79 107 66
91 118 84
113 136 122
116 141 129
156 175 183
169 187 199
174 191 206
122 143 133
84 112 70
79 107 67
81 109 67
84 114 72
83 112 70
84 112 70
83 111 68
95 121 94
176 194 208
174 192 207
179 197 214
174 192 208
178 194 207
174 192 205
174 192 207
170 189 202
165 182 193
125 147 136
93 120 89
78 106 65
78 106 66
80 108 66
78 105 65
80 109 66
81 110 68
77 104 64
81 109 67
84 111 74
174 192 206
174 191 206
173 189 204
168 186 198
173 190 206
172 190 202
174 191 204
162 178 188
172 190 203
172 189 204
174 193 209
168 186 200
170 188 200
176 193 210
170 186 199
171 188 201
164 181 191
170 187 201
144 163 165
100 125 102
113 136 118
166 183 194
164 182 194
170 187 201
172 190 203
170 187 199
177 193 206
178 195 212
170 187 201
171 188 202
172 190 203
171 189 203
175 192 204
173 191 204
165 184 198
177 195 211
167 185 197
168 185 196
170 188 200
177 194 209
174 191 207
172 190 205
90 116 83
82 110 68
79 108 66
82 111 68
80 108 66
82 112 70
83 112 70
80 109 67
78 106 66
79 107 66
76 103 63
82 112 70
92 117 90
147 166 168
161 178 187
167 184 196
169 187 200
168 186 198
157 176 184
170 188 202
168 186 200
174 191 207
81 109 67
83 112 70
83 112 70
79 108 66
79 108 66
80 107 66
74 101 61
80 108 66
80 109 67
81 109 68
81 110 69
81 110 69
75 102 63
79 107 66
83 112 69
80 108 66
79 107 65
82 109 68
78 106 65
82 111 69
79 106 66
80 109 67
159 176 185
169 187 199
166 183 196
172 187 200
161 180 192
172 189 203
170 188 202
164 180 190
172 191 206
170 187 200
165 183 193
168 185 196
169 186 197
171 188 203
173 190 204
167 185 199
162 179 190
151 168 172
116 139 121
96 120 96
78 106 65
76 104 64
116 137 126
180 196 212
166 184 194
174 190 205
166 183 195
156 173 180
169 187 200
170 187 201
169 185 198
168 186 197
173 189 204
167 184 195
165 182 194
164 181 192
166 185 197
171 189 203
160 178 185
166 185 198
167 183 194
167 184 195
172 190 204
163 182 194
170 189 203
91 115 87
79 107 65
80 108 67
79 107 65
79 107 69
84 111 74
93 119 89
105 128 110
97 120 98
107 130 110
115 137 124
111 133 120
115 137 124
118 139 128
110 132 117
127 146 140
126 147 136
117 137 129
132 152 154
130 149 143
138 157 157
140 160 162
131 151 147
117 139 127
112 134 120
98 121 98
116 137 128
107 128 112
104 128 110
107 130 113
108 130 110
104 128 107
100 123 102
102 126 105
92 116 90
100 123 104
94 118 92
85 111 78
89 115 87
99 124 99
91 116 86
97 122 93
91 117 87
86 114 74
102 125 103
143 163 162
119 140 131
112 136 117
87 113 80
101 125 106
96 120 94
99 124 100
97 120 98
98 121 98
93 118 90
92 117 89
102 126 105
103 127 107
97 120 98
102 125 102
101 124 106
104 127 106
118 139 127
124 147 138
99 123 100
107 129 111
121 143 131
152 171 175
141 160 161
132 153 150
133 151 149
125 145 138
131 152 148
135 155 152
119 141 130
133 154 148
120 141 130
121 142 131
121 141 131
109 131 113
106 129 110
103 125 108
97 121 97
90 116 84
83 110 73
81 109 67
78 106 64
81 110 69
92 118 88
165 183 195
161 178 189
162 179 190
172 190 205
169 187 200
167 184 195
169 185 195
178 195 212
168 186 200
166 182 193
172 189 203
170 187 201
166 183 195
164 181 192
171 188 200
166 183 198
165 182 193
163 181 192
172 190 204
169 187 199
173 190 202
103 127 106
78 105 65
80 108 66
82 110 67
78 105 65
78 106 66
82 110 68
80 107 66
78 106 66
79 107 66
83 111 68
78 105 64
77 104 63
79 106 65
80 107 66
80 107 65
80 108 67
81 109 68
80 107 66
77 105 64
83 112 69
162 180 192
169 187 201
175 192 207
162 180 190
172 189 203
179 197 213
175 193 208
170 187 199
159 177 187
174 191 206
164 182 193
166 184 197
167 184 195
164 182 194
164 183 195
174 192 205
174 191 207
170 187 200
176 192 206
168 186 199
119 139 127
79 106 65
79 107 66
76 103 62
75 103 62
82 111 68
76 103 62
78 105 65
79 107 66
76 103 63
76 103 62
82 110 68
79 107 65
82 112 69
79 107 66
81 110 68
77 105 64
75 102 61
79 107 66
91 117 90
167 186 202
166 183 195
173 191 207
173 191 206
167 184 194
173 191 205
166 184 196
176 193 207
169 187 201
168 186 200
171 188 203
164 182 194
173 191 206
174 191 204
173 189 202
163 179 191
168 187 202
164 183 193
146 164 168
82 110 67
79 106 64
78 107 66
81 109 68
76 103 62
82 110 68
76 103 64
78 106 65
85 114 72
81 110 67
80 109 67
80 108 66
78 105 65
80 108 66
83 112 70
80 107 65
78 107 66
102 127 104
175 192 206
163 182 194
177 195 212
176 194 210
168 186 200
170 187 198
170 187 199
170 189 203
174 191 204
163 181 194
174 192 207
175 192 207
177 194 211
170 187 199
172 189 205
175 192 206
161 180 189
84 111 74
81 110 68
77 105 65
82 110 68
82 111 69
82 111 69
78 107 65
80 109 67
82 111 69
81 109 68
81 110 68
80 109 67
81 109 68
77 105 64
83 110 74
103 126 105
133 155 153
134 153 146
99 123 100
88 116 80
81 109 68
81 110 69
79 108 66
111 133 118
171 190 207
179 197 213
171 189 201
178 195 209
164 181 193
177 195 211
169 186 196
121 142 130
84 112 75
80 108 67
83 112 70
79 108 67
78 106 66
79 107 66
79 107 66
79 107 66
77 105 65
82 110 67
82 111 69
92 118 87
177 195 211
170 188 201
161 179 192
170 188 202
176 194 209
168 185 199
175 193 209
177 194 209
180 198 216
180 198 215
168 187 201
167 185 198
174 191 206
177 193 207
176 193 208
151 170 178
116 138 123
93 119 88
81 109 67
82 110 69
121 143 133
170 188 201
172 189 199
170 187 203
163 182 193
174 192 208
173 191 206
174 191 206
171 190 204
172 189 201
171 190 205
167 185 198
166 183 195
163 182 198
179 196 210
167 186 202
176 194 210
168 186 199
177 194 209
167 185 200
162 179 190
174 192 208
108 131 113
83 112 70
79 107 66
80 109 68
82 110 68
82 110 69
79 108 66
79 107 66
81 109 68
90 117 83
122 143 134
153 173 180
166 183 195
169 185 196
171 189 204
177 195 213
167 186 201
167 184 196
172 189 203
173 190 203
171 189 201
167 184 199
94 119 92
84 113 70
77 105 64
78 105 65
79 106 65
79 108 67
82 111 69
78 105 65
78 105 65
78 106 65
78 106 66
81 109 68
83 111 69
80 109 67
78 105 64
78 106 65
80 108 66
78 106 64
81 109 67
78 107 65
83 112 69
80 108 66
141 160 161
169 186 200
175 193 209
174 190 201
167 185 200
167 184 196
167 184 197
174 190 203
166 184 196
170 187 199
164 181 192
166 184 197
159 176 185
158 174 182
135 154 148
114 136 122
78 104 65
79 107 65
81 110 68
74 101 61
73 100 60
79 108 67
110 132 114
164 180 191
165 183 196
173 191 206
172 190 202
170 188 200
174 191 203
163 180 193
173 191 206
170 187 200
167 183 194
155 173 179
171 188 200
168 185 195
168 187 201
168 184 195
173 190 204
164 181 192
166 183 194
171 189 202
157 175 184
162 179 188
177 195 214
112 134 122
80 108 66
82 110 68
76 104 63
79 107 66
80 108 67
78 105 66
79 107 66
80 108 67
76 104 63
78 105 64
79 107 65
83 112 70
80 107 65
79 106 64
79 107 67
79 108 66
79 107 66
77 104 64
77 104 63
81 109 67
79 108 67
91 116 86
160 177 186
170 188 204
170 187 198
168 187 203
171 188 202
159 177 185
166 183 196
172 189 205
162 179 191
166 184 196
167 183 194
163 182 191
166 183 192
165 183 196
168 185 198
160 178 185
141 160 160
124 144 136
98 121 99
91 117 87
78 105 65
83 112 69
155 174 182
166 182 189
164 181 190
173 190 203
173 191 205
165 182 194
171 187 197
171 188 202
173 191 207
164 182 197
165 182 189
163 179 189
172 190 203
167 184 194
166 183 193
171 189 204
164 181 191
166 183 194
164 181 191
169 187 201
167 185 196
169 187 201
134 154 149
77 104 63
79 107 65
77 105 64
76 103 63
80 109 68
75 102 61
82 111 69
82 111 69
79 107 66
80 108 67
76 104 63
81 109 68
82 111 68
82 110 67
78 106 65
78 106 65
77 105 65
78 106 65
81 109 67
78 105 65
79 107 66
144 162 164
167 184 197
168 186 200
170 188 202
161 178 187
170 187 199
163 181 189
173 190 205
165 182 192
172 190 202
173 190 205
171 188 201
159 176 184
172 189 201
167 185 197
168 187 200
173 191 204
161 178 188
166 183 193
161 177 186
168 184 196
150 167 175
81 110 68
82 111 69
78 106 65
82 110 69
81 110 68
79 106 65
81 109 68
82 110 69
78 106 65
75 102 62
78 106 65
80 108 67
83 112 70
80 108 67
79 107 65
77 105 64
79 108 66
78 106 65
73 101 60
80 108 67
136 155 151
168 186 200
174 192 208
165 183 195
173 191 206
162 178 189
171 188 202
172 188 200
163 181 193
173 192 206
178 196 214
168 186 198
163 181 192
173 190 205
166 184 197
170 186 200
170 188 201
172 190 205
166 185 198
171 188 200
159 178 185
74 101 61
78 106 64
75 102 62
79 107 67
78 105 64
78 106 65
79 107 66
82 110 68
81 109 67
77 105 65
77 106 66
81 109 66
78 106 65
84 113 71
85 113 70
78 105 65
77 105 64
78 107 66
81 109 68
134 154 152
173 189 202
171 188 203
168 185 198
169 187 202
172 190 203
168 186 201
172 190 206
171 188 201
172 190 203
169 186 196
174 191 206
166 184 197
168 186 198
170 188 203
171 188 201
169 187 199
163 181 189
177 195 210
104 127 109
78 105 64
79 107 66
84 112 69
81 109 66
77 106 65
81 109 68
83 112 70
83 111 69
75 102 62
80 107 65
79 107 65
80 109 68
81 110 68
84 113 70
80 108 66
83 112 70
83 112 70
155 173 180
164 182 194
168 187 201
181 197 213
173 190 204
170 188 200
173 191 207
168 186 199
166 184 194
175 192 207
171 189 203
170 188 201
178 196 211
174 192 209
171 189 203
161 179 190
170 189 200
133 155 150
78 105 64
78 106 65
83 111 69
82 111 68
79 107 65
81 110 68
83 112 70
79 108 67
83 112 69
79 108 66
79 107 66
80 108 67
83 112 69
83 112 70
81 109 66
121 143 130
175 193 208
175 193 206
165 183 194
83 113 71
81 110 68
82 110 67
109 134 115
175 192 207
177 195 211
176 195 212
177 194 208
159 177 187
118 143 128
81 109 67
80 108 66
83 112 71
79 107 65
77 105 64
79 107 66
78 107 66
79 108 67
80 107 66
81 110 68
83 112 70
81 110 68
82 112 70
98 123 96
175 193 207
176 193 207
174 192 208
177 195 209
173 191 204
165 184 198
170 188 201
174 190 205
176 194 209
169 186 200
168 186 200
170 188 202
172 190 205
141 161 161
110 133 115
79 107 66
83 112 69
80 108 66
80 109 68
82 110 68
111 134 116
177 194 210
173 190 206
172 190 205
172 190 203
169 185 198
173 191 209
173 191 206
171 188 200
173 190 204
168 185 198
168 185 198
174 193 208
171 189 204
171 188 202
176 194 210
169 187 200
172 190 204
172 190 202
172 190 205
175 193 208
167 185 197
110 133 116
78 105 64
79 107 66
80 109 67
85 114 72
80 108 65
85 113 75
123 144 135
153 172 178
169 187 201
180 198 215
175 192 204
172 190 205
168 186 198
176 193 208
171 189 205
171 188 199
167 186 200
170 188 201
166 184 195
177 193 208
167 185 198
91 116 86
79 107 66
80 109 68
80 108 67
78 105 65
83 112 70
82 111 69
78 105 64
82 111 69
76 104 64
83 113 71
77 105 64
76 104 64
80 108 67
82 110 68
81 109 68
77 104 63
77 105 65
81 109 67
77 104 63
78 106 65
80 107 65
133 155 154
169 187 200
170 187 201
170 188 201
166 183 194
172 188 201
165 183 194
171 187 201
173 190 205
159 178 188
154 172 178
120 140 130
94 119 88
74 102 61
79 107 66
78 106 64
80 107 66
80 108 67
82 110 69
78 107 66
78 105 65
85 115 72
84 111 76
166 183 192
173 190 203
172 189 199
170 187 203
168 186 201
168 186 201
165 183 197
165 181 193
174 192 206
163 180 192
171 188 202
169 186 199
167 185 195
164 182 195
171 189 202
172 189 200
176 194 210
163 181 192
169 186 199
169 187 201
171 188 201
171 188 202
129 151 148
77 104 64
80 108 66
79 107 66
82 110 68
80 108 67
80 108 67
76 103 62
75 103 62
84 113 70
79 107 65
84 112 69
82 110 68
77 105 64
81 109 67
78 106 66
81 109 68
80 108 67
76 104 64
78 106 64
77 104 64
80 108 67
82 111 70
162 179 188
168 185 196
173 190 203
164 181 191
164 181 192
161 178 186
155 174 181
170 187 203
169 187 201
170 187 200
148 166 171
142 162 161
127 146 143
92 117 89
80 108 66
78 106 65
81 109 68
74 101 62
78 105 64
78 106 65
81 109 68
84 112 69
129 148 147
162 179 190
174 191 203
172 189 202
165 182 193
157 175 182
159 177 186
173 190 203
171 189 203
158 175 185
177 195 210
176 193 211
164 182 195
162 181 193
172 189 202
173 190 204
161 179 191
177 193 208
175 192 206
176 191 204
164 182 193
166 184 196
145 164 167
77 105 63
82 110 68
81 108 66
76 104 63
78 106 65
82 111 68
80 108 66
78 105 64
72 98 60
80 108 66
83 111 69
76 103 64
79 106 64
77 105 64
79 107 66
80 108 66
74 100 62
80 108 66
78 106 64
77 105 64
80 108 67
116 137 125
163 180 190
169 186 199
160 179 190
171 188 201
172 189 202
175 192 207
170 188 200
168 186 200
174 191 205
162 180 193
175 191 204
164 182 193
161 180 190
170 188 202
173 190 203
171 190 205
167 185 197
170 188 203
170 187 201
164 182 196
161 179 189
90 116 87
79 107 66
78 106 65
75 102 61
77 105 64
81 109 68
81 109 67
76 103 62
80 107 66
78 106 65
79 107 65
77 105 64
83 112 70
78 107 66
80 107 66
83 112 69
79 107 66
77 104 64
81 109 66
79 106 65
90 115 85
166 185 196
173 190 203
174 192 209
177 194 209
172 189 201
172 189 202
169 187 201
173 189 202
168 186 201
166 184 199
169 187 200
165 184 195
175 193 211
172 190 204
172 190 203
170 187 201
173 190 203
169 188 204
167 185 197
165 183 196
118 138 128
79 106 65
79 107 65
82 110 68
80 107 65
81 110 69
82 110 68
79 108 67
83 111 69
83 111 69
75 101 62
81 110 68
83 112 70
76 103 63
80 108 66
80 110 69
79 107 65
78 106 64
81 110 69
92 117 86
171 188 203
168 185 195
174 192 208
165 183 196
160 179 189
170 188 202
180 197 214
172 189 201
168 185 198
166 185 198
167 184 197
165 183 195
166 183 195
181 199 217
167 185 200
172 190 201
163 181 189
169 187 201
151 170 177
85 114 71
82 110 69
82 110 67
80 108 67
81 110 68
79 107 66
83 111 68
80 108 67
78 106 64
81 109 68
77 105 64
82 110 67
77 105 65
82 111 69
79 107 66
82 112 70
83 111 69
95 120 94
164 183 194
175 192 205
164 182 193
174 192 207
170 188 203
178 194 210
175 192 207
174 191 205
171 189 204
168 187 201
169 186 199
168 185 199
177 195 209
173 190 204
175 192 208
173 190 205
171 188 202
104 130 102
80 109 68
80 108 66
80 109 68
83 112 69
80 109 68
82 111 69
82 110 68
87 116 71
81 110 68
79 107 66
80 109 67
82 110 68
78 107 65
76 104 63
85 114 71
149 169 175
169 187 200
180 197 213
82 111 69
82 111 69
83 111 68
132 154 150
173 191 206
171 190 206
154 173 177
124 148 142
84 114 71
83 112 69
83 111 69
83 112 70
80 109 67
85 114 71
85 114 71
82 111 69
81 110 69
78 107 66
82 111 69
77 105 65
84 112 69
85 114 71
83 112 70
98 123 98
173 192 211
173 191 204
167 185 200
173 189 205
178 197 215
166 184 196
170 188 204
167 184 197
176 195 211
171 189 204
160 178 184
136 154 150
87 112 80
82 111 68
81 110 68
84 114 72
83 112 70
81 109 67
78 106 66
81 109 67
100 124 101
176 194 211
177 195 210
165 182 195
170 188 202
173 190 206
172 189 203
178 195 211
171 189 202
167 184 198
169 188 201
176 194 212
169 185 197
177 195 212
170 188 200
170 188 201
166 183 193
173 190 202
169 187 201
167 186 198
171 188 203
173 190 205
106 130 111
83 112 70
81 109 67
82 110 68
103 127 106
140 159 160
170 187 201
181 199 219
176 193 208
166 182 191
175 191 203
177 194 208
165 184 196
171 189 206
170 188 200
166 184 196
172 190 204
173 191 206
164 182 192
178 196 212
165 183 194
163 181 195
111 135 114
78 106 65
79 107 65
83 112 69
79 107 65
78 106 65
81 109 67
79 107 65
80 108 66
79 107 66
81 109 66
81 110 68
83 112 69
82 110 68
79 107 66
81 107 66
82 111 69
78 105 64
78 106 65
80 108 66
80 108 66
77 104 64
123 144 138
168 184 196
171 189 204
158 177 187
169 187 203
170 187 199
159 177 186
134 153 154
103 127 104
90 116 82
81 109 67
78 105 64
75 103 62
81 109 67
80 108 67
81 109 68
83 112 70
76 103 63
80 107 66
76 103 63
81 110 68
83 112 69
77 105 64
167 185 198
168 187 198
171 189 201
166 182 196
173 191 205
163 180 193
156 174 186
167 184 196
168 186 198
175 191 204
168 186 197
174 192 207
163 181 192
172 190 206
176 193 209
169 186 200
174 190 203
163 181 192
166 183 195
174 191 202
173 192 207
162 180 189
156 176 186
79 107 66
78 106 65
81 109 67
77 104 63
79 107 67
78 106 64
77 105 64
81 110 69
80 108 67
80 108 66
79 107 65
80 108 67
77 105 64
80 109 67
82 111 69
80 108 66
84 112 70
80 108 66
80 109 67
76 104 63
81 110 68
77 104 64
134 155 151
171 190 204
169 186 198
168 186 199
161 179 187
150 168 171
135 155 152
138 158 158
105 128 106
77 105 64
77 105 65
77 105 64
80 108 68
79 107 66
77 105 65
82 109 67
78 106 65
80 108 66
80 108 67
80 107 66
79 106 65
80 108 67
90 117 88
169 187 201
169 185 197
160 178 188
168 185 197
169 185 195
160 177 188
176 194 208
160 178 187
161 178 188
169 186 200
163 181 192
167 185 198
167 186 199
171 189 202
168 185 195
163 180 190
170 186 195
167 184 198
170 187 203
174 191 205
164 182 194
166 183 193
94 118 90
78 105 64
80 108 66
81 109 67
81 110 69
80 109 67
77 105 65
76 104 64
78 106 65
79 108 67
77 104 64
82 110 68
80 108 66
80 108 67
75 102 61
77 105 65
82 110 68
80 108 67
82 111 69
77 106 65
81 110 69
79 106 66
173 191 208
168 185 199
165 183 194
172 190 205
167 186 201
163 181 193
169 186 200
167 186 197
170 188 201
164 182 192
158 176 188
171 188 201
168 185 195
166 184 196
163 181 194
167 184 195
165 183 195
163 182 194
166 184 196
165 182 194
171 188 202
133 152 149
77 104 63
82 111 68
78 106 65
78 106 65
84 112 70
78 106 64
82 110 68
79 107 66
81 109 67
78 106 64
80 108 66
80 109 67
83 112 69
78 106 65
80 108 67
78 105 64
80 108 67
79 106 65
80 109 67
80 109 68
137 157 158
175 193 208
169 187 202
165 183 195
170 189 201
176 194 209
163 181 190
171 189 201
163 181 191
170 187 198
166 183 194
169 187 199
171 186 197
169 187 200
163 181 195
165 183 198
168 185 196
163 180 193
168 187 201
164 182 194
150 169 172
81 109 67
85 114 72
79 107 65
82 109 67
81 110 69
78 105 64
80 109 67
78 106 64
79 107 66
83 112 70
80 108 66
79 107 66
81 110 68
80 109 68
78 106 65
80 108 66
77 105 64
77 105 64
80 109 68
155 173 176
170 188 202
172 188 202
170 188 201
182 199 217
163 180 188
167 185 198
173 191 205
166 184 196
170 188 203
168 187 201
172 189 201
174 192 206
174 192 204
170 188 201
164 181 190
174 191 204
173 189 203
166 184 195
125 146 141
81 110 68
81 109 68
81 110 69
79 106 65
79 108 67
78 106 66
79 107 66
81 110 68
83 112 70
82 110 69
84 114 71
80 108 67
81 110 68
79 107 66
82 110 67
76 104 64
81 109 68
123 144 133
173 190 204
178 195 210
175 194 209
175 192 208
172 191 205
171 188 200
163 182 193
171 189 203
165 182 190
177 194 209
173 190 204
173 190 203
176 193 208
171 188 201
176 194 212
173 190 203
158 176 183
80 109 68
82 111 69
84 114 71
81 109 68
84 113 71
83 112 69
80 109 69
84 112 70
78 107 66
83 112 70
80 109 67
81 110 68
82 112 70
82 111 69
83 113 71
97 122 94
163 182 193
168 187 197
80 107 66
82 111 68
84 114 71
143 162 161
142 163 166
108 132 108
83 111 69
83 112 70
84 113 71
80 108 67
77 106 65
84 113 70
81 109 68
83 112 70
82 111 69
84 113 70
81 109 67
82 110 68
82 111 69
77 105 65
83 113 70
86 115 72
85 114 70
127 147 136
164 182 196
181 198 217
178 195 211
177 195 211
179 196 211
178 194 209
170 188 202
173 191 206
166 184 195
126 147 141
94 122 86
83 112 69
81 109 67
80 109 67
79 108 66
78 105 65
81 110 69
83 112 69
83 112 70
81 109 67
111 135 119
170 189 204
168 185 198
166 185 197
170 189 203
179 195 209
177 194 208
171 189 203
164 181 193
175 192 207
168 185 197
167 186 199
172 190 206
165 183 193
170 188 201
171 188 201
171 188 202
177 195 211
178 195 212
172 190 205
169 186 199
168 185 198
127 148 136
92 119 89
130 152 149
161 180 190
170 188 202
171 189 202
166 184 197
180 198 214
168 185 196
176 194 209
174 191 203
172 189 201
173 191 208
164 182 191
173 190 204
171 190 205
167 185 196
170 187 198
175 192 208
173 190 204
167 186 199
163 182 195
110 133 115
81 110 69
81 110 67
77 104 64
79 106 65
82 110 69
82 110 68
83 111 69
79 107 66
78 106 65
80 109 68
79 108 67
75 102 63
80 108 67
81 109 68
84 112 70
76 104 63
83 111 69
80 108 66
78 105 65
83 112 69
77 105 65
106 130 108
171 189 202
176 193 208
161 178 187
135 155 151
107 129 109
80 108 67
78 106 65
81 110 69
74 101 60
80 109 67
80 107 66
80 108 66
81 109 67
80 109 67
77 104 64
75 102 62
80 108 66
76 103 63
80 108 67
73 99 60
77 104 63
78 106 64
147 165 169
172 190 204
160 178 185
154 172 182
164 181 191
164 183 196
165 181 194
171 188 202
163 181 194
174 191 204
158 176 187
164 182 194
165 182 193
175 192 206
163 180 190
172 189 203
173 190 203
176 193 209
172 189 203
166 184 196
171 189 203
165 182 194
166 183 194
78 105 64
79 107 66
81 109 67
82 111 68
78 106 65
82 110 68
75 102 62
83 112 70
78 106 64
77 104 63
77 105 64
83 111 69
78 106 65
79 106 65
83 111 68
82 111 69
79 107 66
77 105 64
82 110 68
76 102 62
82 111 69
88 116 80
115 138 126
137 157 159
122 143 136
95 120 94
76 103 62
76 104 64
80 108 67
75 103 62
75 103 63
80 108 66
77 105 64
82 111 69
77 104 64
79 106 65
75 103 63
79 107 66
85 113 70
77 105 65
77 104 64
77 105 64
81 109 67
81 110 68
76 103 63
158 176 185
164 182 192
168 184 196
170 188 200
163 182 189
168 186 199
172 189 203
167 185 197
169 186 199
168 185 198
169 186 198
173 191 207
170 188 200
166 181 192
170 187 200
168 185 200
166 183 197
169 187 199
170 187 199
178 195 212
173 189 203
172 188 198
121 142 133
82 110 68
78 106 64
79 107 66
76 103 63
78 106 65
79 107 66
77 105 65
81 110 68
78 106 65
78 106 65
80 107 66
78 106 65
76 105 64
78 107 66
79 106 66
80 108 66
83 112 70
81 110 69
82 111 68
74 100 61
79 108 66
142 161 163
171 188 201
167 183 197
167 184 198
176 192 207
171 188 201
171 188 201
179 197 215
159 177 187
165 182 194
170 186 197
167 185 198
168 185 194
167 184 197
166 184 193
164 182 192
171 188 201
162 179 188
170 187 199
171 189 204
173 190 204
160 176 185
82 109 70
77 105 65
82 110 68
78 105 64
78 107 66
78 105 64
80 109 67
81 110 68
83 111 68
82 110 67
83 112 70
78 106 66
84 113 71
81 109 67
84 112 70
81 109 67
81 109 67
80 108 67
84 112 70
80 108 67
86 110 84
163 182 193
167 185 195
171 188 203
171 189 205
168 186 196
173 189 203
175 192 208
171 189 203
171 188 201
178 196 214
165 182 194
176 192 205
170 187 202
165 183 195
174 192 206
168 186 200
171 188 200
168 186 198
166 183 197
162 180 192
116 139 127
81 109 68
83 112 70
77 105 64
78 106 66
78 106 64
84 113 70
81 109 67
83 112 70
80 108 66
83 111 69
79 107 67
78 106 65
77 105 64
77 106 65
78 105 64
80 109 67
77 105 63
81 110 69
86 112 80
158 176 183
179 194 209
164 181 191
171 188 200
167 185 198
171 189 204
170 186 196
171 189 202
165 183 196
174 192 206
166 183 195
166 184 198
174 192 207
180 196 210
165 184 199
172 190 202
169 187 203
169 186 197
163 180 191
85 112 75
79 106 65
78 106 65
80 108 66
80 108 67
82 111 68
82 111 69
77 105 65
80 108 66
80 108 67
78 106 64
83 112 70
78 107 65
83 111 68
81 109 67
80 109 67
78 106 66
86 113 78
167 185 197
177 193 205
172 189 203
173 191 206
182 199 217
173 190 205
172 189 201
178 195 212
178 195 211
176 195 211
172 189 203
173 191 206
172 189 202
170 188 200
178 195 211
171 189 202
178 196 213
113 136 119
83 112 70
82 110 67
82 110 67
84 114 71
86 115 72
80 109 68
77 106 65
82 111 69
83 113 71
81 109 68
81 109 67
84 114 71
82 111 69
85 114 71
81 110 69
124 147 139
173 191 206
82 111 69
82 111 69
125 146 139
126 148 141
80 108 66
79 107 66
82 111 69
82 111 70
83 112 70
83 112 69
78 106 65
81 110 67
82 112 70
80 108 66
80 109 68
82 110 68
81 110 69
82 111 69
83 112 70
80 109 67
81 109 67
83 111 68
78 106 65
103 127 111
167 186 201
169 187 199
174 192 205
167 184 196
174 190 205
171 188 200
155 174 180
115 136 122
79 107 65
80 107 65
83 113 71
83 112 70
85 114 70
78 105 64
84 113 70
76 104 63
80 109 67
80 107 66
81 111 69
81 109 68
103 127 108
166 184 195
167 185 200
173 191 205
174 193 210
175 192 207
173 191 207
177 194 209
169 186 198
166 184 196
174 191 205
171 187 199
171 187 198
167 185 197
173 190 204
177 195 213
178 196 213
182 199 216
174 192 208
176 193 208
176 193 208
149 167 171
142 162 164
174 191 205
168 187 200
168 186 199
174 192 207
174 191 204
173 191 205
167 185 195
173 190 205
175 193 210
172 191 208
173 191 205
176 194 208
166 184 197
168 186 199
171 189 201
165 182 193
170 188 201
176 193 206
165 182 191
164 181 191
169 187 202
124 144 141
77 105 65
84 112 69
81 110 68
82 110 68
80 109 67
84 112 69
79 108 66
80 108 67
80 108 67
80 108 67
79 107 66
77 104 63
77 105 65
79 107 65
81 110 68
79 107 65
79 107 65
80 108 66
80 109 68
82 110 68
86 114 77
116 139 123
130 151 144
96 120 97
81 110 68
80 109 67
81 109 67
82 110 68
82 110 68
77 105 65
80 108 67
82 110 69
79 107 65
82 110 68
79 107 66
79 108 67
78 106 65
79 107 67
81 109 67
81 109 68
77 105 64
80 108 67
83 111 70
80 109 66
139 157 156
175 193 208
172 190 208
164 183 194
158 177 189
160 179 188
170 187 199
168 185 197
181 198 216
165 183 195
176 193 208
172 191 208
168 185 198
165 184 199
171 188 202
168 185 196
175 192 206
167 185 196
172 188 201
168 185 199
167 185 199
163 182 193
169 186 197
110 135 115
76 104 64
76 103 63
83 112 70
75 103 63
81 110 68
80 108 66
77 105 64
80 109 67
81 110 69
78 106 65
77 105 64
79 108 66
80 108 67
76 104 64
81 111 69
80 108 66
93 119 88
122 143 130
149 168 171
153 173 179
165 183 195
159 176 185
77 105 64
77 105 64
77 104 63
78 105 65
80 108 66
82 110 68
80 109 67
80 109 67
78 105 64
80 108 67
76 104 64
79 107 65
82 110 67
76 104 64
79 107 66
80 108 67
75 102 62
83 111 69
80 108 67
83 111 69
80 107 66
82 111 69
135 155 155
166 183 195
160 178 187
164 182 195
170 188 200
169 187 201
161 178 188
170 188 205
162 179 192
174 192 207
157 175 184
168 185 197
171 189 204
162 180 192
171 188 198
174 192 206
164 182 194
163 181 189
164 182 195
169 187 200
168 186 200
171 188 203
149 168 174
80 108 67
81 109 67
78 107 66
75 102 63
77 104 63
79 107 66
78 106 66
78 106 64
80 109 67
80 109 67
82 111 69
77 105 65
83 112 70
83 112 69
81 109 67
81 110 69
74 101 60
80 108 66
82 110 68
77 104 63
78 106 65
110 132 115
166 183 194
167 184 195
164 183 193
169 187 200
168 185 196
167 183 194
172 190 205
168 185 199
170 187 199
169 188 200
167 184 197
174 191 205
169 185 197
170 188 201
173 190 204
179 196 212
170 188 203
174 192 207
163 180 189
169 185 197
173 190 206
118 139 129
83 112 71
77 105 66
81 109 67
84 112 69
76 104 63
75 103 62
80 108 67
84 112 69
78 105 64
83 111 69
78 106 65
80 109 67
80 108 66
78 105 64
84 112 70
79 107 65
82 110 68
81 110 68
78 105 65
79 107 66
141 161 161
173 190 204
160 178 190
168 186 200
171 190 204
174 191 206
163 181 194
172 188 201
174 191 205
173 189 202
171 188 200
178 195 211
174 192 206
179 197 215
168 185 196
168 185 197
175 194 211
166 184 196
171 188 200
180 196 210
152 171 175
78 105 64
76 104 63
84 113 71
78 106 65
77 105 64
81 109 68
81 110 68
82 110 68
81 110 68
77 105 65
81 110 68
78 107 66
80 109 68
80 108 67
81 110 68
78 105 64
82 111 69
83 112 70
78 106 65
125 147 140
169 187 202
174 192 210
171 188 203
174 191 207
175 192 204
173 190 206
173 190 206
170 187 200
166 184 196
178 195 210
174 191 205
171 188 203
174 192 207
175 194 209
175 192 210
170 187 199
168 186 200
167 185 200
130 151 149
84 113 70
81 110 68
82 110 68
81 111 69
80 109 68
81 109 68
80 109 67
83 111 69
79 108 67
79 108 66
83 112 70
79 107 66
84 113 70
83 111 68
78 106 66
84 113 71
78 106 66
114 136 123
171 188 202
165 184 197
174 191 206
167 185 197
176 192 206
179 195 210
167 184 195
171 189 204
175 194 211
174 192 208
171 188 203
170 188 203
180 197 214
178 196 212
171 187 199
172 190 206
155 174 183
93 119 89
81 110 68
78 106 65
82 111 69
84 113 71
81 111 70
81 109 67
82 112 70
81 110 69
79 108 67
83 112 70
82 112 70
88 117 74
76 103 63
80 109 68
82 110 68
152 171 178
