P3
400 225
255
214 231 254
214 231 254
214 231 254
214 231 254
214 231 254
214 231 254
214 231 254
214 231 254
214 231 254
214 231 254
214 231 254
214 231 254
214 231 254
214 231 254
214 231 254
214 231 254
214 231 254
214 231 254
214 231 254
214 231 254
214 231 254
214 231 254
214 231 254
214 231 254
214 231 254
214 231 254
214 231 254
214 231 254
214 231 254
214 231 254
214 231 254
214 231 254
214 231 254
214 231 254
214 231 254
214 231 254
214 231 254
214 231 254
214 231 254
214 231 254
214 231 254
214 231 254
214 231 254
214 231 254
214 231 254
214 231 254
214 231 254
214 231 254
214 231 254
214 231 254
214 231 254
214 231 254
214 231 254
214 231 254
214 231 254
214 231 254
214 231 254
214 231 254
214 231 254
214 231 254
214 231 254
214 231 254
214 231 254
214 231 254
214 231 254
214 231 254
214 231 254
214 231 254
214 231 254
214 231 254
214 231 254
214 231 254
214 231 254
214 231 254
214 231 254
214 231 254
214 231 254
214 231 254
214 231 254
214 231 254
214 231 254
214 231 254
214 231 254
214 231 254
214 231 254
214 231 254
214 231 254
214 231 254
214 231 254
214 231 254
214 231 254
214 231 254
214 231 254
214 231 254
214 231 254
214 231 254
214 231 254
214 231 254
214 231 254
214 231 254
214 231 254
214 231 254
214 231 254
214 231 254
214 231 254
214 231 254
214 231 254
214 231 254
214 231 254
214 231 254
214 231 254
214 231 254
214 231 254
214 231 254
214 231 254
214 231 254
214 231 254
214 231 254
214 231 254
214 231 254
214 231 254
214 231 254
214 231 254
214 231 254
214 231 254
214 231 254
214 231 254
214 231 254
214 231 254
214 231 254
214 231 254
214 231 254
214 231 254
214 231 254
214 231 254
214 231 254
214 231 254
214 231 254
214 231 254
214 231 254
214 231 254
214 231 254
214 231 254
214 231 254
214 231 254
214 231 254
214 231 254
214 231 254
214 231 254
214 231 254
214 231 254
214 231 254
214 231 254
214 231 254
214 231 254
214 231 254
214 231 254
214 231 254
214 231 254
214 231 254
214 231 254
214 231 254
214 231 254
214 231 254
214 231 254
214 231 254
214 231 254
214 231 254
214 231 254
214 231 254
214 231 254
214 231 254
214 231 254
214 231 254
214 231 254
214 231 254
214 231 254
214 231 254
214 231 254
214 231 254
214 231 254
214 231 254
214 231 254
214 231 254
214 231 254
214 231 254
214 231 254
214 231 254
214 231 254
214 231 254
214 231 254
214 231 254
214 231 254
214 231 254
214 231 254
214 231 254
214 231 254
214 231 254
214 231 254
214 231 254
214 231 254
214 231 254
214 231 254
214 231 254
214 231 254
214 231 254
214 231 254
214 231 254
214 231 254
214 231 254
214 231 254
214 231 254
214 231 254
214 231 254
214 231 254
214 231 254
214 231 254
214 231 254
214 231 254
214 231 254
214 231 254
214 231 254
214 231 254
214 231 254
214 231 254
214 231 254
214 231 254
214 231 254
214 231 254
214 231 254
214 231 254
214 231 254
214 231 254
214 231 254
214 231 254
214 231 254
214 231 254
214 231 254
214 231 254
214 231 254
214 231 254
214 231 254
214 231 254
214 231 254
214 231 254
214 231 254
214 231 254
214 231 254
214 231 254
214 231 254
214 231 254
214 231 254
214 231 254
214 231 254
214 231 254
214 231 254
214 231 254
214 231 254
214 231 254
214 231 254
214 231 254
214 231 254
214 231 254
214 231 254
214 231 254
214 231 254
214 231 254
214 231 254
214 231 254
214 231 254
214 231 254
214 231 254
214 231 254
214 231 254
214 231 254
214 231 254
214 231 254
214 231 254
214 231 254
214 231 254
214 231 254
214 231 254
214 231 254
214 231 254
214 231 254
214 231 254
214 231 254
214 231 254
214 231 254
214 231 254
214 231 254
214 231 254
214 231 254
214 231 254
214 231 254
214 231 254
214 231 254
214 231 254
214 231 254
214 231 254
214 231 254
214 231 254
214 231 254
214 231 254
214 231 254
214 231 254
214 231 254
214 231 254
214 231 254
214 231 254
214 231 254
214 231 254
214 231 254
214 231 254
214 231 254
214 231 254
214 231 254
214 231 254
214 231 254
214 231 254
214 231 254
214 231 254
214 231 254
214 231 254
214 231 254
214 231 254
214 231 254
214 231 254
214 231 254
214 231 254
214 231 254
214 231 254
214 231 254
214 231 254
214 231 254
214 231 254
214 231 254
214 231 254
214 231 254
214 231 254
214 231 254
214 231 254
214 231 254
214 231 254
214 231 254
214 231 254
214 231 254
214 231 254
214 231 254
214 231 254
214 231 254
214 231 254
214 231 254
214 231 254
214 231 254
214 231 254
214 231 254
214 231 254
214 231 254
214 231 254
214 231 254
214 231 254
214 231 254
214 231 254
214 231 254
214 231 254
214 231 254
214 231 254
214 231 254
214 231 254
214 231 254
214 231 254
214 231 254
214 231 254
214 231 254
214 231 254
214 231 254
214 231 254
214 231 254
214 231 254
214 231 254
214 231 254
214 231 254
214 231 254
214 231 254
214 231 254
214 231 254
214 231 254
214 231 254
214 231 254
214 231 254
214 231 254
214 231 254
214 231 254
214 231 254
214 231 254
214 231 254
214 231 254
214 231 254
214 231 254
214 231 254
214 231 254
214 231 254
214 231 254
214 231 254
214 231 254
214 231 254
214 231 254
214 231 254
214 231 254
214 231 254
214 231 254
214 231 254
214 231 254
214 231 254
214 231 254
214 231 254
214 231 254
214 231 254
214 231 254
214 231 254
214 231 254
214 231 254
214 231 254
214 231 254
214 231 254
214 231 254
214 231 254
214 231 254
214 231 254
214 231 254
214 231 254
214 231 254
214 231 254
214 231 254
214 231 254
214 231 254
214 231 254
214 231 254
214 231 254
214 231 254
214 231 254
214 231 254
214 231 254
214 231 254
214 231 254
214 231 254
214 231 254
214 231 254
214 231 254
214 231 254
214 231 254
214 231 254
214 231 254
214 231 254
214 231 254
214 231 254
214 231 254
214 231 254
214 231 254
214 231 254
214 231 254
214 231 254
214 231 254
214 231 254
214 231 254
214 231 254
214 231 254
214 231 254
214 231 254
214 231 254
214 231 254
214 231 254
214 231 254
214 231 254
214 231 254
214 231 254
214 231 254
214 231 254
214 231 254
214 231 254
214 231 254
214 231 254
214 231 254
214 231 254
214 231 254
214 231 254
214 231 254
214 231 254
214 231 254
214 231 254
214 231 254
214 231 254
214 231 254
214 231 254
214 231 254
214 231 254
214 231 254
214 231 254
214 231 254
214 231 254
214 231 254
214 231 254
214 231 254
214 231 254
214 231 254
214 231 254
214 231 254
214 231 254
214 231 254
214 231 254
214 231 254
214 231 254
214 231 254
214 231 254
214 231 254
214 231 254
214 231 254
214 231 254
214 231 254
214 231 254
214 231 254
214 231 254
214 231 254
214 231 254
214 231 254
214 231 254
214 231 254
214 231 254
214 231 254
214 231 254
214 231 254
214 231 254
214 231 254
214 231 254
214 231 254
214 231 254
214 231 254
214 231 254
214 231 254
214 231 254
214 231 254
214 231 254
214 231 254
214 231 254
214 231 254
214 231 254
214 231 254
214 231 254
214 231 254
214 231 254
214 231 254
214 231 254
214 231 254
214 231 254
214 231 254
214 231 254
214 231 254
214 231 254
214 231 254
214 231 254
214 231 254
214 231 254
214 231 254
214 231 254
214 231 254
214 231 254
214 231 254
214 231 254
214 231 254
214 231 254
214 231 254
214 231 254
214 231 254
214 231 254
214 231 254
214 231 254
214 231 254
214 231 254
214 231 254
214 231 254
214 231 254
214 231 254
214 231 254
214 231 254
214 231 254
214 231 254
214 231 254
214 231 254
214 231 254
214 231 254
214 231 254
214 231 254
214 231 254
214 231 254
214 231 254
214 231 254
214 231 254
214 231 254
214 231 254
214 231 254
214 231 254
214 231 254
214 231 254
214 231 254
214 231 254
214 231 254
214 231 254
214 231 254
214 231 254
214 231 254
214 231 254
214 231 254
214 231 254
214 231 254
214 231 254
214 231 254
214 231 254
214 231 254
214 231 254
214 231 254
214 231 254
214 231 254
214 231 254
214 231 254
214 231 254
214 231 254
214 231 254
214 231 254
214 231 254
214 231 254
214 231 254
214 231 254
214 231 254
214 231 254
214 231 254
214 231 254
214 231 254
214 231 254
214 231 254
214 231 254
214 231 254
214 231 254
214 231 254
214 231 254
214 231 254
214 231 254
214 231 254
214 231 254
214 231 254
214 231 254
214 231 254
214 231 254
214 231 254
214 231 254
214 231 254
214 231 254
214 231 254
214 231 254
214 231 254
214 231 254
214 231 254
214 231 254
214 231 254
214 231 254
214 231 254
214 231 254
214 231 254
214 231 254
214 231 254
214 231 254
214 231 254
214 231 254
214 231 254
214 231 254
214 231 254
214 231 254
214 231 254
214 231 254
214 231 254
214 231 254
214 231 254
214 231 254
214 231 254
214 231 254
214 231 254
214 231 254
214 231 254
214 231 254
214 231 254
214 231 254
214 231 254
214 231 254
214 231 254
214 231 254
214 231 254
214 231 254
214 231 254
214 231 254
214 231 254
214 231 254
214 231 254
214 231 254
214 231 254
214 231 254
214 231 254
214 231 254
214 231 254
214 231 254
214 231 254
214 231 254
214 231 254
214 231 254
214 231 254
214 231 254
214 231 254
214 231 254
214 231 254
214 231 254
214 231 254
214 231 254
214 231 254
214 231 254
214 231 254
214 231 254
214 231 254
214 231 254
214 231 254
214 231 254
214 231 254
214 231 254
214 231 254
214 231 254
214 231 254
214 231 254
214 231 254
214 231 254
214 231 254
214 231 254
214 231 254
214 231 254
214 231 254
214 231 254
214 231 254
214 231 254
214 231 254
214 231 254
214 231 254
214 231 254
214 231 254
214 231 254
214 231 254
214 231 254
214 231 254
214 231 254
214 231 254
214 231 254
214 231 254
214 231 254
214 231 254
214 231 254
214 231 254
214 231 254
214 231 254
214 231 254
214 231 254
214 231 254
214 231 254
214 231 254
214 231 254
214 231 254
214 231 254
214 231 254
214 231 254
214 231 254
214 231 254
214 231 254
214 231 254
214 231 254
214 231 254
214 231 254
214 231 254
214 231 254
214 231 254
214 231 254
214 231 254
214 231 254
214 231 254
214 231 254
214 231 254
214 231 254
214 231 254
214 231 254
214 231 254
214 231 254
214 231 254
214 231 254
214 231 254
214 231 254
214 231 254
214 231 254
214 231 254
214 231 254
214 231 254
214 231 254
214 231 254
214 231 254
214 231 254
214 231 254
214 231 254
214 231 254
214 231 254
214 231 254
214 231 254
214 231 254
214 231 254
214 231 254
214 231 254
214 231 254
214 231 254
214 231 254
214 231 254
214 231 254
214 231 254
214 231 254
214 231 254
214 231 254
214 231 254
214 231 254
214 231 254
214 231 254
214 231 254
214 231 254
214 231 254
214 231 254
214 231 254
214 231 254
214 231 254
214 231 254
214 231 254
214 231 254
214 231 254
214 231 254
214 231 254
214 231 254
214 231 254
214 231 254
214 231 254
214 231 254
214 231 254
214 231 254
214 231 254
214 231 254
214 231 254
214 231 254
214 231 254
214 231 254
214 231 254
214 231 254
214 231 254
214 231 254
214 231 254
214 231 254
214 231 254
214 231 254
214 231 254
214 231 254
214 231 254
214 231 254
214 231 254
214 231 254
214 231 254
214 231 254
214 231 254
214 231 254
214 231 254
214 231 254
214 231 254
214 231 254
214 231 254
214 231 254
214 231 254
214 231 254
214 231 254
214 231 254
214 231 254
214 231 254
214 231 254
214 231 254
214 231 254
214 231 254
214 231 254
214 231 254
214 231 254
214 231 254
214 231 254
214 231 254
214 231 254
214 231 254
214 231 254
214 231 254
214 231 254
214 231 254
214 231 254
214 231 254
214 231 254
214 231 254
214 231 254
214 231 254
214 231 254
214 231 254
214 231 254
214 231 254
214 231 254
214 231 254
214 231 254
214 231 254
214 231 254
214 231 254
214 231 254
214 231 254
214 231 254
214 231 254
214 231 254
214 231 254
214 231 254
214 231 254
214 231 254
214 231 254
214 231 254
214 231 254
214 231 254
214 231 254
214 231 254
214 231 254
214 231 254
214 231 254
214 231 254
214 231 254
214 231 254
214 231 254
214 231 254
214 231 254
214 231 254
214 231 254
214 231 254
214 231 254
214 231 254
214 231 254
214 231 254
214 231 254
214 231 254
214 231 254
214 231 254
214 231 254
214 231 254
214 231 254
214 231 254
214 231 254
214 231 254
214 231 254
214 231 254
214 231 254
214 231 254
214 231 254
214 231 254
214 231 254
214 231 254
214 231 254
214 231 254
214 231 254
214 231 254
214 231 254
214 231 254
214 231 254
214 231 254
214 231 254
214 231 254
214 231 254
214 231 254
214 231 254
214 231 254
214 231 254
214 231 254
214 231 254
214 231 254
214 231 254
214 231 254
214 231 254
214 231 254
214 231 254
214 231 254
214 231 254
214 231 254
214 231 254
214 231 254
214 231 254
214 231 254
214 231 254
214 231 254
214 231 254
214 231 254
214 231 254
214 231 254
214 231 254
214 231 254
214 231 254
214 231 254
214 231 254
214 231 254
214 231 254
214 231 254
214 231 254
214 231 254
214 231 254
214 231 254
214 231 254
214 231 254
214 231 254
214 231 254
214 231 254
214 231 254
214 231 254
214 231 254
214 231 254
214 231 254
214 231 254
214 231 254
214 231 254
214 231 254
214 231 254
214 231 254
214 231 254
214 231 254
214 231 254
214 231 254
214 231 254
214 231 254
214 231 254
214 231 254
214 231 254
214 231 254
214 231 254
214 231 254
214 231 254
214 231 254
214 231 254
214 231 254
214 231 254
214 231 254
214 231 254
214 231 254
214 231 254
214 231 254
214 231 254
214 231 254
214 231 254
214 231 254
214 231 254
214 231 254
214 231 254
214 231 254
214 231 254
214 231 254
214 231 254
214 231 254
214 231 254
214 231 254
214 231 254
214 231 254
214 231 254
214 231 254
214 231 254
214 231 254
214 231 254
214 231 254
214 231 254
214 231 254
214 231 254
214 231 254
214 231 254
214 231 254
214 231 254
214 231 254
214 231 254
214 231 254
214 231 254
214 231 254
214 231 254
214 231 254
214 231 254
214 231 254
214 231 254
214 231 254
214 231 254
214 231 254
214 231 254
214 231 254
214 231 254
214 231 254
214 231 254
214 231 254
214 231 254
214 231 254
214 231 254
214 231 254
214 231 254
214 231 254
214 231 254
214 231 254
214 231 254
214 231 254
214 231 254
214 231 254
214 231 254
214 231 254
214 231 254
214 231 254
214 231 254
214 231 254
214 231 254
214 231 254
214 231 254
214 231 254
214 231 254
214 231 254
214 231 254
214 231 254
214 231 254
214 231 254
214 231 254
214 231 254
214 231 254
214 231 254
214 231 254
214 231 254
214 231 254
214 231 254
214 231 254
214 231 254
214 231 254
214 231 254
214 231 254
214 231 254
214 231 254
214 231 254
214 231 254
214 231 254
214 231 254
214 231 254
214 231 254
214 231 254
214 231 254
214 231 254
214 231 254
214 231 254
214 231 254
214 231 254
214 231 254
214 231 254
214 231 254
214 231 254
214 231 254
214 231 254
214 231 254
214 231 254
214 231 254
214 231 254
214 231 254
214 231 254
214 231 254
214 231 254
214 231 254
214 231 254
214 231 254
214 231 254
214 231 254
214 231 254
214 231 254
214 231 254
214 231 254
214 231 254
214 231 254
214 231 254
214 231 254
214 231 254
214 231 254
214 231 254
214 231 254
214 231 254
214 231 254
214 231 254
214 231 254
214 231 254
214 231 254
214 231 254
214 231 254
214 231 254
214 231 254
214 231 254
214 231 254
214 231 254
214 231 254
214 231 254
214 231 254
214 231 254
214 231 254
214 231 254
214 231 254
214 231 254
214 231 254
214 231 254
214 231 254
214 231 254
214 231 254
214 231 254
214 231 254
214 231 254
214 231 254
214 231 254
214 231 254
214 231 254
214 231 254
214 231 254
214 231 254
214 231 254
214 231 254
214 231 254
214 231 254
214 231 254
214 231 254
214 231 254
214 231 254
214 231 254
214 231 254
214 231 254
214 231 254
214 231 254
214 231 254
214 231 254
214 231 254
214 231 254
214 231 254
214 231 254
214 231 254
214 231 254
214 231 254
214 231 254
214 231 254
214 231 254
214 231 254
214 231 254
214 231 254
214 231 254
214 231 254
214 231 254
214 231 254
214 231 254
214 231 254
214 231 254
214 231 254
214 231 254
214 231 254
214 231 254
214 231 254
214 231 254
214 231 254
214 231 254
214 231 254
214 231 254
214 231 254
214 231 254
214 231 254
214 231 254
214 231 254
214 231 254
214 231 254
214 231 254
214 231 254
214 231 254
214 231 254
214 231 254
214 231 254
214 231 254
214 231 254
214 231 254
214 231 254
214 231 254
214 231 254
214 231 254
214 231 254
214 231 254
214 231 254
214 231 254
214 231 254
214 231 254
214 231 254
214 231 254
214 231 254
214 231 254
214 231 254
214 231 254
214 231 254
214 231 254
214 231 254
214 231 254
214 231 254
214 231 254
214 231 254
214 231 254
214 231 254
214 231 254
214 231 254
214 231 254
214 231 254
214 231 254
214 231 254
214 231 254
214 231 254
214 231 254
214 231 254
214 231 254
214 231 254
214 231 254
214 231 254
214 231 254
214 231 254
214 231 254
214 231 254
214 231 254
214 231 254
214 231 254
214 231 254
214 231 254
214 231 254
214 231 254
214 231 254
214 231 254
214 231 254
214 231 254
214 231 254
214 231 254
214 231 254
214 231 254
214 231 254
214 231 254
214 231 254
214 231 254
214 231 254
214 231 254
214 231 254
214 231 254
214 231 254
214 231 254
214 231 254
214 231 254
214 231 254
214 231 254
214 231 254
214 231 254
214 231 254
214 231 254
214 231 254
214 231 254
214 231 254
214 231 254
214 231 254
214 231 254
214 231 254
214 231 254
214 231 254
214 231 254
214 231 254
214 231 254
214 231 254
214 231 254
214 231 254
214 231 254
214 231 254
214 231 254
214 231 254
214 231 254
214 231 254
214 231 254
214 231 254
214 231 254
214 231 254
214 231 254
214 231 254
214 231 254
214 231 254
214 231 254
214 231 254
214 231 254
214 231 254
214 231 254
214 231 254
214 231 254
214 231 254
214 231 254
214 231 254
214 231 254
214 231 254
214 231 254
214 231 254
214 231 254
214 231 254
214 231 254
214 231 254
214 231 254
214 231 254
214 231 254
214 231 254
214 231 254
214 231 254
214 231 254
214 231 254
214 231 254
214 231 254
214 231 254
214 231 254
214 231 254
214 231 254
214 231 254
214 231 254
214 231 254
214 231 254
214 231 254
214 231 254
214 231 254
214 231 254
214 231 254
214 231 254
214 231 254
214 231 254
214 231 254
214 231 254
214 231 254
214 231 254
214 231 254
214 231 254
214 231 254
214 231 254
214 231 254
214 231 254
214 231 254
214 231 254
214 231 254
214 231 254
214 231 254
214 231 254
214 231 254
214 231 254
214 231 254
214 231 254
214 231 254
214 231 254
214 231 254
214 231 254
214 231 254
214 231 254
214 231 254
214 231 254
214 231 254
214 231 254
214 231 254
214 231 254
214 231 254
214 231 254
214 231 254
214 231 254
214 231 254
214 231 254
214 231 254
214 231 254
214 231 254
214 231 254
214 231 254
214 231 254
214 231 254
214 231 254
214 231 254
214 231 254
214 231 254
214 231 254
214 231 254
214 231 254
214 231 254
214 231 254
214 231 254
214 231 254
214 231 254
214 231 254
214 231 254
214 231 254
214 231 254
214 231 254
214 231 254
214 231 254
214 231 254
214 231 254
214 231 254
214 231 254
214 231 254
214 231 254
214 231 254
214 231 254
214 231 254
214 231 254
214 231 254
214 231 254
214 231 254
214 231 254
214 231 254
214 231 254
214 231 254
214 231 254
214 231 254
214 231 254
214 231 254
214 231 254
214 231 254
214 231 254
214 231 254
214 231 254
214 231 254
214 231 254
214 231 254
214 231 254
214 231 254
214 231 254
214 231 254
214 231 254
214 231 254
214 231 254
214 231 254
214 231 254
214 231 254
214 231 254
214 231 254
214 231 254
214 231 254
214 231 254
214 231 254
214 231 254
214 231 254
214 231 254
214 231 254
214 231 254
214 231 254
214 231 254
214 231 254
214 231 254
214 231 254
214 231 254
214 231 254
214 231 254
214 231 254
214 231 254
214 231 254
214 231 254
214 231 254
214 231 254
214 231 254
214 231 254
214 231 254
214 231 254
214 231 254
214 231 254
214 231 254
214 231 254
214 231 254
214 231 254
214 231 254
214 231 254
214 231 254
214 231 254
214 231 254
214 231 254
214 231 254
214 231 254
214 231 254
214 231 254
214 231 254
214 231 254
214 231 254
214 231 254
214 231 254
214 231 254
214 231 254
214 231 254
214 231 254
214 231 254
214 231 254
214 231 254
214 231 254
214 231 254
214 231 254
214 231 254
214 231 254
214 231 254
214 231 254
214 231 254
214 231 254
214 231 254
214 231 254
214 231 254
214 231 254
214 231 254
214 231 254
214 231 254
214 231 254
214 231 254
214 231 254
214 231 254
214 231 254
214 231 254
214 231 254
214 231 254
214 231 254
214 231 254
214 231 254
214 231 254
214 231 254
214 231 254
214 231 254
214 231 254
214 231 254
214 231 254
214 231 254
214 231 254
214 231 254
214 231 254
214 231 254
214 231 254
214 231 254
214 231 254
214 231 254
214 231 254
214 231 254
214 231 254
214 231 254
214 231 254
214 231 254
214 231 254
214 231 254
214 231 254
214 231 254
214 231 254
214 231 254
214 231 254
214 231 254
214 231 254
214 231 254
214 231 254
214 231 254
214 231 254
214 231 254
214 231 254
214 231 254
214 231 254
214 231 254
214 231 254
214 231 254
214 231 254
214 231 254
214 231 254
214 231 254
214 231 254
214 231 254
214 231 254
214 231 254
214 231 254
214 231 254
214 231 254
214 231 254
214 231 254
214 231 254
214 231 254
214 231 254
214 231 254
214 231 254
214 231 254
214 231 254
214 231 254
214 231 254
214 231 254
214 231 254
214 231 254
214 231 254
214 231 254
214 231 254
214 231 254
214 231 254
214 231 254
214 231 254
214 231 254
214 231 254
214 231 254
214 231 254
214 231 254
214 231 254
214 231 254
214 231 254
214 231 254
214 231 254
214 231 254
214 231 254
214 231 254
214 231 254
214 231 254
214 231 254
214 231 254
214 231 254
214 231 254
214 231 254
214 231 254
214 231 254
214 231 254
214 231 254
214 231 254
214 231 254
214 231 254
214 231 254
214 231 254
214 231 254
214 231 254
214 231 254
214 231 254
214 231 254
214 231 254
214 231 254
214 231 254
214 231 254
214 231 254
214 231 254
214 231 254
214 231 254
214 231 254
214 231 254
214 231 254
214 231 254
214 231 254
214 231 254
214 231 254
214 231 254
214 231 254
214 231 254
214 231 254
214 231 254
214 231 254
214 231 254
214 231 254
214 231 254
214 231 254
214 231 254
214 231 254
214 231 254
214 231 254
214 231 254
214 231 254
214 231 254
214 231 254
214 231 254
214 231 254
214 231 254
214 231 254
214 231 254
214 231 254
214 231 254
214 231 254
214 231 254
214 231 254
214 231 254
214 231 254
214 231 254
214 231 254
214 231 254
214 231 254
214 231 254
214 231 254
214 231 254
214 231 254
214 231 254
214 231 254
214 231 254
214 231 254
214 231 254
214 231 254
214 231 254
214 231 254
214 231 254
211 229 254
210 228 252
205 224 250
199 217 240
205 224 251
198 215 239
200 218 243
195 213 238
196 214 237
193 210 231
192 209 230
199 217 240
205 224 249
210 227 252
204 221 246
209 226 249
213 230 254
214 231 254
214 231 254
214 231 254
214 231 254
214 231 254
214 231 254
214 231 254
214 231 254
214 231 254
214 231 254
214 231 254
214 231 254
214 231 254
214 231 254
214 231 254
214 231 254
214 231 254
214 231 254
214 231 254
214 231 254
214 231 254
214 231 254
214 231 254
214 231 254
214 231 254
214 231 254
214 231 254
214 231 254
214 231 254
214 231 254
214 231 254
214 231 254
214 231 254
214 231 254
214 231 254
214 231 254
214 231 254
214 231 254
214 231 254
214 231 254
214 231 254
214 231 254
214 231 254
214 231 254
214 231 254
214 231 254
214 231 254
214 231 254
214 231 254
214 231 254
214 231 254
214 231 254
214 231 254
214 231 254
214 231 254
214 231 254
214 231 254
214 231 254
214 231 254
214 231 254
214 231 254
214 231 254
214 231 254
214 231 254
214 231 254
214 231 254
214 231 254
214 231 254
214 231 254
214 231 254
214 231 254
214 231 254
214 231 254
214 231 254
214 231 254
214 231 254
214 231 254
214 231 254
214 231 254
214 231 254
214 231 254
214 231 254
214 231 254
214 231 254
214 231 254
214 231 254
214 231 254
214 231 254
214 231 254
214 231 254
214 231 254
214 231 254
214 231 254
214 231 254
214 231 254
214 231 254
214 231 254
214 231 254
214 231 254
214 231 254
214 231 254
214 231 254
214 231 254
214 231 254
214 231 254
214 231 254
214 231 254
214 231 254
214 231 254
214 231 254
214 231 254
214 231 254
214 231 254
214 231 254
214 231 254
214 231 254
214 231 254
214 231 254
214 231 254
214 231 254
214 231 254
214 231 254
214 231 254
214 231 254
214 231 254
214 231 254
214 231 254
214 231 254
214 231 254
214 231 254
214 231 254
214 231 254
214 231 254
214 231 254
214 231 254
214 231 254
214 231 254
214 231 254
214 231 254
214 231 254
214 231 254
214 231 254
214 231 254
214 231 254
214 231 254
214 231 254
214 231 254
214 231 254
214 231 254
214 231 254
214 231 254
214 231 254
214 231 254
214 231 254
214 231 254
214 231 254
214 231 254
214 231 254
214 231 254
214 231 254
214 231 254
214 231 254
214 231 254
214 231 254
214 231 254
214 231 254
214 231 254
214 231 254
214 231 254
214 231 254
214 231 254
214 231 254
214 231 254
214 231 254
214 231 254
214 231 254
214 231 254
214 231 254
214 231 254
214 231 254
214 231 254
214 231 254
214 231 254
214 231 254
214 231 254
214 231 254
214 231 254
214 231 254
214 231 254
214 231 254
214 231 254
214 231 254
214 231 254
214 231 254
214 231 254
214 231 254
214 231 254
214 231 254
214 231 254
214 231 254
214 231 254
214 231 254
214 231 254
214 231 254
214 231 254
214 231 254
214 231 254
214 231 254
214 231 254
214 231 254
214 231 254
214 231 254
214 231 254
214 231 254
214 231 254
214 231 254
214 231 254
214 231 254
214 231 254
214 231 254
214 231 254
214 231 254
214 231 254
214 231 254
214 231 254
214 231 254
214 231 254
214 231 254
214 231 254
214 231 254
214 231 254
214 231 254
214 231 254
214 231 254
214 231 254
214 231 254
214 231 254
214 231 254
214 231 254
214 231 254
214 231 254
214 231 254
214 231 254
214 231 254
214 231 254
214 231 254
214 231 254
214 231 254
214 231 254
214 231 254
214 231 254
214 231 254
214 231 254
214 231 254
214 231 254
214 231 254
214 231 254
214 231 254
214 231 254
214 231 254
214 231 254
214 231 254
214 231 254
214 231 254
214 231 254
214 231 254
214 231 254
214 231 254
214 231 254
214 231 254
214 231 254
214 231 254
214 231 254
214 231 254
214 231 254
214 231 254
214 231 254
214 231 254
214 231 254
214 231 254
214 231 254
214 231 254
214 231 254
214 231 254
214 231 254
214 231 254
214 231 254
214 231 254
214 231 254
214 231 254
214 231 254
214 231 254
214 231 254
214 231 254
214 231 254
214 231 254
214 231 254
214 231 254
214 231 254
214 231 254
214 231 254
214 231 254
214 231 254
214 231 254
214 231 254
214 231 254
214 231 254
214 231 254
214 231 254
214 231 254
214 231 254
214 231 254
214 231 254
214 231 254
214 231 254
214 231 254
214 231 254
214 231 254
214 231 254
214 231 254
214 231 254
214 231 254
214 231 254
214 231 254
214 231 254
214 231 254
214 231 254
214 231 254
214 231 254
214 231 254
214 231 254
214 231 254
214 231 254
214 231 254
214 231 254
214 231 254
214 231 254
214 231 254
214 231 254
214 231 254
214 231 254
214 231 254
214 231 254
214 231 254
214 231 254
214 231 254
214 231 254
214 231 254
214 231 254
214 231 254
214 231 254
214 231 254
214 231 254
214 231 254
214 231 254
214 231 254
214 231 254
214 231 254
214 231 254
214 231 254
214 231 254
214 231 254
214 231 254
214 231 254
214 231 254
214 231 254
214 231 254
214 231 254
214 231 254
214 231 254
214 231 254
214 231 254
214 231 254
214 231 254
213 230 254
204 223 248
202 220 245
190 209 234
190 208 233
178 194 216
173 192 215
158 176 195
153 171 191
182 206 236
156 176 199
135 151 166
123 137 148
125 144 174
141 159 179
134 151 175
137 158 189
151 168 184
154 168 171
105 115 132
123 136 151
137 150 167
76 89 118
74 84 109
58 68 98
75 86 117
76 85 113
115 127 152
138 150 174
155 168 190
162 176 201
186 203 228
207 226 250
213 230 254
214 231 254
214 231 254
214 231 254
214 231 254
214 231 254
214 231 254
214 231 254
214 231 254
214 231 254
214 231 254
214 231 254
214 231 254
214 231 254
214 231 254
214 231 254
214 231 254
214 231 254
214 231 254
214 231 254
214 231 254
214 231 254
214 231 254
214 231 254
214 231 254
214 231 254
214 231 254
214 231 254
214 231 254
214 231 254
214 231 254
214 231 254
214 231 254
214 231 254
214 231 254
214 231 254
214 231 254
214 231 254
214 231 254
214 231 254
214 231 254
214 231 254
214 231 254
214 231 254
214 231 254
214 231 254
214 231 254
214 231 254
214 231 254
214 231 254
214 231 254
214 231 254
214 231 254
214 231 254
214 231 254
214 231 254
214 231 254
214 231 254
214 231 254
214 231 254
214 231 254
214 231 254
214 231 254
214 231 254
214 231 254
214 231 254
214 231 254
214 231 254
214 231 254
214 231 254
214 231 254
214 231 254
214 231 254
214 231 254
214 231 254
214 231 254
214 231 254
214 231 254
214 231 254
214 231 254
214 231 254
214 231 254
214 231 254
214 231 254
214 231 254
214 231 254
214 231 254
214 231 254
214 231 254
214 231 254
214 231 254
214 231 254
214 231 254
214 231 254
214 231 254
214 231 254
214 231 254
214 231 254
214 231 254
214 231 254
214 231 254
214 231 254
214 231 254
214 231 254
214 231 254
214 231 254
214 231 254
214 231 254
214 231 254
214 231 254
214 231 254
214 231 254
214 231 254
214 231 254
214 231 254
214 231 254
214 231 254
214 231 254
214 231 254
214 231 254
214 231 254
214 231 254
214 231 254
214 231 254
214 231 254
214 231 254
214 231 254
214 231 254
214 231 254
214 231 254
214 231 254
214 231 254
214 231 254
214 231 254
214 231 254
214 231 254
214 231 254
214 231 254
214 231 254
214 231 254
214 231 254
214 231 254
214 231 254
214 231 254
214 231 254
214 231 254
214 231 254
214 231 254
214 231 254
214 231 254
214 231 254
214 231 254
214 231 254
214 231 254
214 231 254
214 231 254
214 231 254
214 231 254
214 231 254
214 231 254
214 231 254
214 231 254
214 231 254
214 231 254
214 231 254
214 231 254
214 231 254
214 231 254
214 231 254
214 231 254
214 231 254
214 231 254
214 231 254
214 231 254
214 231 254
214 231 254
214 231 254
214 231 254
214 231 254
214 231 254
214 231 254
214 231 254
214 231 254
214 231 254
214 231 254
214 231 254
214 231 254
214 231 254
214 231 254
214 231 254
214 231 254
214 231 254
214 231 254
214 231 254
214 231 254
214 231 254
214 231 254
214 231 254
214 231 254
214 231 254
214 231 254
214 231 254
214 231 254
214 231 254
214 231 254
214 231 254
214 231 254
214 231 254
214 231 254
214 231 254
214 231 254
214 231 254
214 231 254
214 231 254
214 231 254
214 231 254
214 231 254
214 231 254
214 231 254
214 231 254
214 231 254
214 231 254
214 231 254
214 231 254
214 231 254
214 231 254
214 231 254
214 231 254
214 231 254
214 231 254
214 231 254
214 231 254
214 231 254
214 231 254
214 231 254
214 231 254
214 231 254
214 231 254
214 231 254
214 231 254
214 231 254
214 231 254
214 231 254
214 231 254
214 231 254
214 231 254
214 231 254
214 231 254
214 231 254
214 231 254
214 231 254
214 231 254
214 231 254
214 231 254
214 231 254
214 231 254
214 231 254
214 231 254
214 231 254
214 231 254
214 231 254
214 231 254
214 231 254
214 231 254
214 231 254
214 231 254
214 231 254
214 231 254
214 231 254
214 231 254
214 231 254
214 231 254
214 231 254
214 231 254
214 231 254
214 231 254
214 231 254
214 231 254
214 231 254
214 231 254
214 231 254
214 231 254
214 231 254
214 231 254
214 231 254
214 231 254
214 231 254
214 231 254
214 231 254
214 231 254
214 231 254
214 231 254
214 231 254
214 231 254
214 231 254
214 231 254
214 231 254
214 231 254
214 231 254
214 231 254
214 231 254
214 231 254
214 231 254
214 231 254
214 231 254
214 231 254
214 231 254
214 231 254
214 231 254
214 231 254
214 231 254
214 231 254
214 231 254
214 231 254
214 231 254
214 231 254
214 231 254
214 231 254
214 231 254
214 231 254
214 231 254
214 231 254
214 231 254
214 231 254
214 231 254
214 231 254
214 231 254
214 231 254
214 231 254
214 231 254
214 231 254
214 231 254
214 231 254
214 231 254
214 231 254
214 231 254
214 231 254
214 231 254
214 231 254
214 231 254
214 231 254
214 231 254
214 231 254
214 231 254
214 231 254
214 231 254
214 231 254
214 231 254
214 231 254
214 231 254
214 231 254
214 231 254
214 231 254
214 231 254
214 231 254
214 231 254
214 231 254
214 231 254
214 231 254
214 231 254
214 231 254
214 231 254
211 229 254
200 220 247
184 203 228
166 182 203
119 129 142
102 110 118
77 79 69
79 81 59
92 97 84
85 87 63
87 90 73
78 83 63
68 73 41
109 125 149
156 178 207
155 179 214
125 141 159
73 84 103
67 68 58
62 67 48
62 68 79
108 124 159
131 148 171
83 90 100
106 116 124
80 84 83
79 79 63
75 78 73
74 78 79
78 83 89
96 106 119
83 91 98
105 120 139
92 105 129
79 89 117
49 57 91
10 11 66
10 12 68
51 58 94
134 150 179
155 172 199
175 194 219
207 226 253
210 229 254
214 231 254
214 231 254
214 231 254
214 231 254
214 231 254
214 231 254
214 231 254
214 231 254
214 231 254
214 231 254
214 231 254
214 231 254
214 231 254
214 231 254
214 231 254
214 231 254
214 231 254
214 231 254
214 231 254
214 231 254
214 231 254
214 231 254
214 231 254
214 231 254
214 231 254
214 231 254
214 231 254
214 231 254
214 231 254
214 231 254
214 231 254
214 231 254
214 231 254
214 231 254
214 231 254
214 231 254
214 231 254
214 231 254
214 231 254
214 231 254
214 231 254
214 231 254
214 231 254
214 231 254
214 231 254
214 231 254
214 231 254
214 231 254
214 231 254
214 231 254
214 231 254
214 231 254
214 231 254
214 231 254
214 231 254
214 231 254
214 231 254
214 231 254
214 231 254
214 231 254
214 231 254
214 231 254
214 231 254
214 231 254
214 231 254
214 231 254
214 231 254
214 231 254
214 231 254
214 231 254
214 231 254
214 231 254
214 231 254
214 231 254
214 231 254
214 231 254
214 231 254
214 231 254
214 231 254
214 231 254
214 231 254
214 231 254
214 231 254
214 231 254
214 231 254
214 231 254
214 231 254
214 231 254
214 231 254
214 231 254
214 231 254
214 231 254
214 231 254
214 231 254
214 231 254
214 231 254
214 231 254
214 231 254
214 231 254
214 231 254
214 231 254
214 231 254
214 231 254
214 231 254
214 231 254
214 231 254
214 231 254
214 231 254
214 231 254
214 231 254
214 231 254
214 231 254
214 231 254
214 231 254
214 231 254
214 231 254
214 231 254
214 231 254
214 231 254
214 231 254
214 231 254
214 231 254
214 231 254
214 231 254
214 231 254
214 231 254
214 231 254
214 231 254
214 231 254
214 231 254
214 231 254
214 231 254
214 231 254
214 231 254
214 231 254
214 231 254
214 231 254
214 231 254
214 231 254
214 231 254
214 231 254
214 231 254
214 231 254
214 231 254
214 231 254
214 231 254
214 231 254
214 231 254
214 231 254
214 231 254
214 231 254
214 231 254
214 231 254
214 231 254
214 231 254
214 231 254
214 231 254
214 231 254
214 231 254
214 231 254
214 231 254
214 231 254
214 231 254
214 231 254
214 231 254
214 231 254
214 231 254
214 231 254
214 231 254
214 231 254
214 231 254
214 231 254
214 231 254
214 231 254
214 231 254
214 231 254
214 231 254
214 231 254
215 231 254
215 231 254
215 231 254
215 231 254
215 231 254
215 231 254
215 231 254
215 231 254
215 231 254
215 231 254
215 231 254
215 231 254
215 231 254
215 231 254
215 231 254
215 231 254
215 231 254
215 231 254
215 231 254
215 231 254
215 231 254
214 231 254
214 231 254
214 231 254
214 231 254
214 231 254
214 231 254
214 231 254
214 231 254
214 231 254
214 231 254
214 231 254
214 231 254
214 231 254
214 231 254
214 231 254
214 231 254
214 231 254
214 231 254
214 231 254
214 231 254
214 231 254
214 231 254
214 231 254
214 231 254
214 231 254
214 231 254
214 231 254
214 231 254
214 231 254
214 231 254
214 231 254
214 231 254
214 231 254
214 231 254
214 231 254
214 231 254
214 231 254
214 231 254
214 231 254
214 231 254
214 231 254
214 231 254
214 231 254
214 231 254
214 231 254
214 231 254
214 231 254
214 231 254
214 231 254
214 231 254
214 231 254
214 231 254
214 231 254
214 231 254
214 231 254
214 231 254
214 231 254
214 231 254
214 231 254
214 231 254
214 231 254
214 231 254
214 231 254
214 231 254
214 231 254
214 231 254
214 231 254
214 231 254
214 231 254
214 231 254
214 231 254
214 231 254
214 231 254
214 231 254
214 231 254
214 231 254
214 231 254
214 231 254
214 231 254
214 231 254
214 231 254
214 231 254
214 231 254
214 231 254
214 231 254
214 231 254
214 231 254
214 231 254
214 231 254
214 231 254
214 231 254
214 231 254
214 231 254
214 231 254
214 231 254
214 231 254
214 231 254
214 231 254
214 231 254
214 231 254
214 231 254
214 231 254
214 231 254
214 231 254
214 231 254
214 231 254
214 231 254
214 231 254
214 231 254
214 231 254
214 231 254
214 231 254
214 231 254
214 231 254
214 231 254
214 231 254
214 231 254
214 231 254
214 231 254
214 231 254
214 231 254
214 231 254
214 231 254
214 231 254
214 231 254
214 231 254
214 231 254
214 231 254
214 231 254
214 231 254
214 231 254
214 231 254
214 231 254
214 231 254
214 231 254
214 231 254
214 231 254
214 231 254
214 231 254
214 231 254
214 231 254
214 231 254
214 231 254
214 231 254
214 231 254
214 231 254
214 231 254
214 231 254
214 231 254
214 231 254
214 231 254
214 231 254
211 228 252
196 213 239
180 198 223
145 162 187
133 149 175
104 118 144
68 74 96
41 44 63
38 38 59
54 56 59
46 48 53
60 61 46
47 51 43
40 49 60
43 51 41
41 50 52
42 54 57
43 54 64
39 52 67
40 52 74
46 57 67
53 61 49
40 49 50
50 51 44
60 60 42
62 63 45
68 72 65
64 65 49
78 85 92
94 106 123
66 71 69
65 68 57
56 58 49
24 29 56
38 46 85
45 58 102
40 47 70
50 54 48
39 43 55
47 51 56
82 90 88
95 105 113
64 71 88
67 77 105
9 17 75
0 16 78
4 18 79
27 34 80
93 108 139
143 162 188
174 195 222
203 223 251
209 228 254
214 231 254
214 231 254
214 231 254
214 231 254
214 231 254
214 231 254
214 231 254
214 231 254
214 231 254
214 231 254
214 231 254
214 231 254
214 231 254
214 231 254
214 231 254
214 231 254
214 231 254
214 231 254
214 231 254
214 231 254
214 231 254
214 231 254
214 231 254
214 231 254
214 231 254
214 231 254
214 231 254
214 231 254
214 231 254
214 231 254
214 231 254
214 231 254
214 231 254
214 231 254
214 231 254
214 231 254
214 231 254
214 231 254
214 231 254
214 231 254
214 231 254
214 231 254
214 231 254
214 231 254
214 231 254
214 231 254
214 231 254
214 231 254
214 231 254
214 231 254
214 231 254
214 231 254
214 231 254
214 231 254
214 231 254
214 231 254
214 231 254
214 231 254
214 231 254
214 231 254
214 231 254
214 231 254
214 231 254
214 231 254
214 231 254
214 231 254
214 231 254
214 231 254
214 231 254
214 231 254
214 231 254
214 231 254
214 231 254
214 231 254
214 231 254
214 231 254
214 231 254
214 231 254
214 231 254
214 231 254
214 231 254
214 231 254
214 231 254
214 231 254
214 231 254
214 231 254
214 231 254
214 231 254
214 231 254
214 231 254
214 231 254
214 231 254
214 231 254
214 231 254
214 231 254
214 231 254
214 231 254
214 231 254
214 231 254
214 231 254
214 231 254
214 231 254
214 231 254
214 231 254
214 231 254
214 231 254
214 231 254
214 231 254
214 231 254
214 231 254
214 231 254
214 231 254
214 231 254
214 231 254
214 231 254
214 231 254
214 231 254
214 231 254
214 231 254
214 231 254
214 231 254
214 231 254
214 231 254
214 231 254
214 231 254
214 231 254
214 231 254
214 231 254
214 231 254
214 231 254
214 231 254
214 231 254
214 231 254
214 231 254
214 231 254
214 231 254
214 231 254
214 231 254
214 231 254
214 231 254
214 231 254
214 231 254
214 231 254
214 231 254
214 231 254
214 231 254
214 231 254
214 231 254
214 231 254
214 231 254
214 231 254
214 231 254
214 231 254
214 231 254
215 231 254
215 231 254
215 231 254
215 231 254
215 231 254
215 231 254
215 231 254
215 231 254
215 231 254
215 231 254
215 231 254
215 231 254
215 231 254
215 231 254
215 231 254
215 231 254
215 231 254
215 231 254
215 231 254
215 231 254
215 231 254
215 231 254
215 231 254
215 231 254
215 231 254
215 231 254
215 231 254
215 231 254
215 231 254
215 231 254
215 231 254
215 231 254
215 231 254
215 231 254
215 231 254
215 231 254
215 231 254
215 231 254
215 231 254
215 231 254
215 231 254
215 231 254
215 231 254
215 231 254
215 231 254
215 231 254
215 231 254
215 231 254
215 231 254
215 231 254
215 231 254
215 231 254
215 231 254
215 231 254
215 231 254
215 231 254
215 231 254
215 231 254
215 231 254
215 231 254
215 231 254
215 231 254
215 231 254
215 231 254
214 231 254
215 231 254
214 231 254
214 231 254
214 231 254
214 231 254
214 231 254
214 231 254
214 231 254
214 231 254
214 231 254
214 231 254
214 231 254
214 231 254
214 231 254
214 231 254
214 231 254
214 231 254
214 231 254
214 231 254
214 231 254
214 231 254
214 231 254
214 231 254
214 231 254
214 231 254
214 231 254
214 231 254
214 231 254
214 231 254
214 231 254
214 231 254
214 231 254
214 231 254
214 231 254
214 231 254
214 231 254
214 231 254
214 231 254
214 231 254
214 231 254
214 231 254
214 231 254
214 231 254
214 231 254
214 231 254
214 231 254
214 231 254
214 231 254
214 231 254
214 231 254
214 231 254
214 231 254
214 231 254
214 231 254
214 231 254
214 231 254
214 231 254
214 231 254
214 231 254
214 231 254
214 231 254
214 231 254
214 231 254
214 231 254
214 231 254
214 231 254
214 231 254
214 231 254
214 231 254
214 231 254
214 231 254
214 231 254
214 231 254
214 231 254
214 231 254
214 231 254
214 231 254
214 231 254
214 231 254
214 231 254
214 231 254
214 231 254
214 231 254
214 231 254
214 231 254
214 231 254
214 231 254
214 231 254
214 231 254
214 231 254
214 231 254
214 231 254
214 231 254
214 231 254
214 231 254
214 231 254
214 231 254
214 231 254
214 231 254
214 231 254
214 231 254
214 231 254
214 231 254
214 231 254
214 231 254
214 231 254
214 231 254
214 231 254
214 231 254
214 231 254
214 231 254
214 231 254
214 231 254
214 231 254
214 231 254
214 231 254
214 231 254
214 231 254
214 231 254
214 231 254
214 231 254
214 231 254
214 231 254
214 231 254
214 231 254
184 199 221
146 158 178
123 135 153
47 52 60
33 38 30
37 43 21
49 55 28
55 59 39
62 64 44
54 59 35
48 56 29
46 54 30
45 51 35
47 51 35
52 57 36
54 59 39
44 52 39
51 54 31
52 53 29
51 53 29
54 55 29
53 55 29
53 54 29
53 57 31
52 56 33
56 56 35
60 59 41
57 58 42
58 60 44
58 59 45
51 54 43
51 53 42
41 44 49
74 82 88
95 107 122
80 91 116
30 39 89
9 18 71
9 15 67
6 11 66
12 14 61
21 23 59
25 27 57
66 66 46
65 68 47
57 62 47
79 86 80
102 116 133
106 118 131
69 78 94
72 84 110
32 42 84
0 23 86
23 34 88
49 58 96
127 145 167
182 204 234
200 223 254
203 225 254
210 229 254
214 231 254
214 231 254
214 231 254
214 231 254
214 231 254
214 231 254
214 231 254
214 231 254
214 231 254
214 231 254
214 231 254
214 231 254
214 231 254
214 231 254
214 231 254
214 231 254
214 231 254
214 231 254
214 231 254
214 231 254
214 231 254
214 231 254
214 231 254
214 231 254
214 231 254
214 231 254
214 231 254
214 231 254
214 231 254
214 231 254
214 231 254
214 231 254
214 231 254
214 231 254
214 231 254
214 231 254
214 231 254
214 231 254
214 231 254
214 231 254
214 231 254
214 231 254
214 231 254
214 231 254
214 231 254
214 231 254
214 231 254
214 231 254
214 231 254
214 231 254
214 231 254
214 231 254
214 231 254
214 231 254
214 231 254
214 231 254
214 231 254
214 231 254
214 231 254
214 231 254
214 231 254
214 231 254
214 231 254
214 231 254
214 231 254
214 231 254
214 231 254
214 231 254
214 231 254
214 231 254
214 231 254
214 231 254
214 231 254
214 231 254
214 231 254
214 231 254
214 231 254
214 231 254
214 231 254
214 231 254
214 231 254
214 231 254
214 231 254
214 231 254
214 231 254
214 231 254
214 231 254
214 231 254
214 231 254
214 231 254
214 231 254
214 231 254
214 231 254
214 231 254
214 231 254
214 231 254
214 231 254
214 231 254
214 231 254
214 231 254
214 231 254
214 231 254
214 231 254
214 231 254
214 231 254
214 231 254
214 231 254
214 231 254
214 231 254
214 231 254
214 231 254
214 231 254
214 231 254
214 231 254
214 231 254
214 231 254
214 231 254
214 231 254
214 231 254
214 231 254
214 231 254
214 231 254
214 231 254
214 231 254
215 231 254
215 231 254
215 231 254
215 231 254
215 231 254
215 231 254
215 231 254
215 231 254
215 231 254
215 231 254
215 231 254
215 231 254
215 231 254
215 231 254
215 231 254
215 231 254
215 231 254
215 231 254
215 231 254
215 231 254
215 231 254
215 231 254
215 231 254
215 231 254
215 231 254
215 231 254
215 231 254
215 231 254
215 231 254
215 231 254
215 231 254
215 231 254
215 231 254
215 231 254
215 231 254
215 231 254
215 231 254
215 231 254
215 231 254
215 231 254
215 231 254
215 231 254
215 231 254
215 231 254
215 231 254
215 231 254
215 231 254
215 231 254
215 231 254
215 231 254
215 231 254
215 231 254
215 231 254
215 231 254
215 231 254
215 231 254
215 231 254
215 231 254
215 231 254
215 231 254
215 231 254
215 231 254
215 231 254
215 231 254
215 231 254
215 231 254
215 231 254
215 231 254
215 231 254
215 231 254
215 231 254
215 231 254
215 231 254
215 231 254
215 231 254
215 231 254
215 231 254
215 231 254
215 231 254
215 231 254
215 231 254
215 231 254
215 231 254
215 231 254
215 231 254
215 231 254
215 231 254
215 231 254
215 231 254
215 231 254
215 231 254
215 231 254
215 231 254
215 231 254
215 231 254
215 231 254
215 231 254
215 231 254
215 231 254
215 231 254
215 231 254
215 231 254
215 231 254
215 231 254
215 231 254
215 231 254
215 231 254
215 231 254
215 231 254
215 231 254
215 231 254
215 231 254
215 231 254
215 231 254
215 231 254
215 231 254
215 231 254
215 231 254
215 231 254
215 231 254
214 231 254
214 231 254
214 231 254
214 231 254
214 231 254
214 231 254
214 231 254
214 231 254
214 231 254
214 231 254
214 231 254
214 231 254
214 231 254
214 231 254
214 231 254
214 231 254
214 231 254
214 231 254
214 231 254
214 231 254
214 231 254
214 231 254
214 231 254
214 231 254
214 231 254
214 231 254
214 231 254
214 231 254
214 231 254
214 231 254
214 231 254
214 231 254
214 231 254
214 231 254
214 231 254
214 231 254
214 231 254
214 231 254
214 231 254
214 231 254
214 231 254
214 231 254
214 231 254
214 231 254
214 231 254
214 231 254
214 231 254
214 231 254
214 231 254
214 231 254
214 231 254
214 231 254
214 231 254
214 231 254
214 231 254
214 231 254
214 231 254
214 231 254
214 231 254
214 231 254
214 231 254
214 231 254
214 231 254
214 231 254
214 231 254
214 231 254
214 231 254
214 231 254
214 231 254
214 231 254
214 231 254
214 231 254
214 231 254
214 231 254
214 231 254
214 231 254
214 231 254
214 231 254
214 231 254
214 231 254
214 231 254
214 231 254
214 231 254
214 231 254
214 231 254
214 231 254
214 231 254
214 231 254
214 231 254
214 231 254
214 231 254
214 231 254
209 226 248
167 180 195
133 144 152
60 67 48
38 48 22
36 44 13
38 43 12
37 44 19
27 39 44
25 33 46
18 26 45
24 31 29
32 40 24
40 45 18
39 44 16
39 44 21
40 43 25
37 43 22
38 42 21
44 50 27
50 52 26
54 55 26
52 52 27
50 51 26
47 49 24
43 44 22
40 42 24
43 45 21
44 46 25
43 46 27
48 51 30
47 49 29
47 50 37
41 45 51
35 38 65
31 33 63
14 18 62
50 53 50
85 87 63
50 54 55
45 47 63
63 70 86
55 62 94
10 17 68
38 42 57
42 44 53
33 35 50
36 38 54
61 65 53
51 56 42
70 71 48
62 63 48
58 57 50
63 67 72
88 98 107
33 38 65
0 8 64
0 14 71
0 18 78
12 21 77
27 34 68
109 124 141
167 189 217
197 221 251
196 221 254
203 225 254
208 228 254
213 230 254
214 231 254
214 231 254
214 231 254
214 231 254
214 231 254
214 231 254
214 231 254
214 231 254
214 231 254
214 231 254
214 231 254
214 231 254
214 231 254
214 231 254
214 231 254
214 231 254
214 231 254
214 231 254
214 231 254
214 231 254
214 231 254
214 231 254
214 231 254
214 231 254
214 231 254
214 231 254
214 231 254
214 231 254
214 231 254
214 231 254
214 231 254
214 231 254
214 231 254
214 231 254
214 231 254
214 231 254
214 231 254
214 231 254
214 231 254
214 231 254
214 231 254
214 231 254
214 231 254
214 231 254
214 231 254
214 231 254
214 231 254
214 231 254
214 231 254
214 231 254
214 231 254
214 231 254
214 231 254
214 231 254
214 231 254
214 231 254
214 231 254
214 231 254
214 231 254
214 231 254
214 231 254
214 231 254
214 231 254
214 231 254
214 231 254
214 231 254
214 231 254
214 231 254
214 231 254
214 231 254
214 231 254
214 231 254
214 231 254
214 231 254
214 231 254
214 231 254
214 231 254
214 231 254
214 231 254
214 231 254
214 231 254
214 231 254
214 231 254
214 231 254
214 231 254
214 231 254
214 231 254
214 231 254
214 231 254
214 231 254
214 231 254
214 231 254
215 231 254
215 231 254
215 231 254
215 231 254
215 231 254
215 231 254
215 231 254
215 231 254
215 231 254
215 231 254
215 231 254
215 231 254
215 231 254
215 231 254
215 231 254
215 231 254
215 231 254
215 231 254
215 231 254
215 231 254
215 231 254
215 231 254
215 231 254
215 231 254
215 231 254
215 231 254
215 231 254
215 231 254
215 231 254
215 231 254
215 231 254
215 231 254
215 231 254
215 231 254
215 231 254
215 231 254
215 231 254
215 231 254
215 231 254
215 231 254
215 231 254
215 231 254
215 231 254
215 231 254
215 231 254
215 231 254
215 231 254
215 231 254
215 231 254
215 231 254
215 231 254
215 231 254
215 231 254
215 231 254
215 231 254
215 231 254
215 231 254
215 231 254
215 231 254
215 231 254
215 231 254
215 231 254
215 231 254
215 231 254
215 231 254
215 231 254
215 231 254
215 231 254
215 231 254
215 231 254
215 231 254
215 231 254
215 231 254
215 231 254
215 231 254
215 231 254
215 231 254
215 231 254
215 231 254
215 231 254
215 231 254
215 231 254
215 231 254
215 231 254
215 231 254
215 231 254
215 231 254
215 231 254
215 231 254
215 231 254
215 231 254
215 231 254
215 231 254
215 231 254
215 231 254
215 231 254
215 231 254
215 231 254
215 231 254
215 231 254
215 231 254
215 231 254
215 231 254
215 231 254
215 231 254
215 231 254
215 231 254
215 231 254
215 231 254
215 231 254
215 231 254
215 231 254
215 231 254
215 231 254
215 231 254
215 231 254
215 231 254
215 231 254
215 231 254
215 231 254
215 231 254
215 231 254
215 231 254
215 231 254
215 231 254
215 231 254
215 231 254
215 231 254
215 231 254
215 231 254
215 231 254
215 231 254
215 231 254
215 231 254
215 231 254
215 231 254
215 231 254
215 231 254
215 231 254
215 231 254
215 231 254
215 231 254
215 231 254
215 231 254
215 231 254
215 231 254
215 231 254
215 231 254
215 231 254
215 231 254
215 231 254
215 231 254
215 231 254
215 231 254
215 231 254
215 231 254
215 231 254
215 231 254
215 231 254
215 231 254
215 231 254
215 231 254
215 231 254
215 231 254
215 231 254
215 231 254
215 231 254
215 231 254
215 231 254
215 231 254
215 231 254
215 231 254
215 231 254
215 231 254
215 231 254
215 231 254
215 231 254
215 231 254
215 231 254
215 231 254
215 231 254
215 231 254
215 231 254
215 231 254
215 231 254
215 231 254
215 231 254
214 231 254
214 231 254
214 231 254
214 231 254
214 231 254
214 231 254
214 231 254
214 231 254
214 231 254
214 231 254
214 231 254
214 231 254
214 231 254
214 231 254
214 231 254
214 231 254
214 231 254
214 231 254
214 231 254
214 231 254
214 231 254
214 231 254
214 231 254
214 231 254
214 231 254
214 231 254
214 231 254
214 231 254
214 231 254
214 231 254
214 231 254
214 231 254
214 231 254
214 231 254
214 231 254
214 231 254
214 231 254
214 231 254
214 231 254
214 231 254
214 231 254
214 231 254
214 231 254
214 231 254
214 231 254
214 231 254
214 231 254
214 231 254
214 231 254
214 231 254
213 229 252
176 190 207
103 113 115
51 60 39
44 53 20
54 62 33
57 62 35
54 61 33
37 46 12
37 47 10
39 44 12
33 38 12
30 37 11
33 41 10
33 42 9
37 44 15
36 42 16
34 41 16
29 35 21
34 39 17
41 45 18
43 46 20
46 48 20
48 48 19
45 45 21
43 45 21
34 37 24
36 40 18
38 42 18
34 38 18
41 46 20
40 43 14
42 45 20
41 45 29
25 28 51
16 18 63
7 12 69
0 9 74
0 3 65
0 4 67
0 4 66
9 10 63
12 13 56
49 52 57
14 16 63
14 20 70
38 42 65
10 18 65
40 42 56
39 42 59
31 33 61
34 35 58
22 24 61
34 37 55
50 50 49
55 56 53
68 69 59
86 94 98
57 62 73
12 14 58
2 9 64
0 0 63
0 0 63
0 2 62
1 4 63
44 50 78
81 92 109
162 183 211
191 215 247
197 221 254
195 220 253
198 219 248
187 204 229
208 224 247
214 231 254
214 231 254
214 231 254
214 231 254
214 231 254
214 231 254
214 231 254
214 231 254
214 231 254
214 231 254
214 231 254
214 231 254
214 231 254
214 231 254
214 231 254
214 231 254
214 231 254
214 231 254
214 231 254
214 231 254
214 231 254
214 231 254
214 231 254
214 231 254
214 231 254
214 231 254
214 231 254
214 231 254
214 231 254
214 231 254
214 231 254
214 231 254
214 231 254
214 231 254
214 231 254
214 231 254
214 231 254
214 231 254
214 231 254
214 231 254
214 231 254
214 231 254
214 231 254
214 231 254
214 231 254
214 231 254
214 231 254
214 231 254
215 231 254
214 231 254
214 231 254
215 231 254
215 231 254
215 231 254
215 231 254
215 231 254
215 231 254
215 231 254
215 231 254
215 231 254
215 231 254
215 231 254
215 231 254
215 231 254
215 231 254
215 231 254
215 231 254
215 231 254
215 231 254
215 231 254
215 231 254
215 231 254
215 231 254
215 231 254
215 231 254
215 231 254
215 231 254
215 231 254
215 231 254
215 231 254
215 231 254
215 231 254
215 231 254
215 231 254
215 231 254
215 231 254
215 231 254
215 231 254
215 231 254
215 231 254
215 231 254
215 231 254
215 231 254
215 231 254
215 231 254
215 231 254
215 231 254
215 231 254
215 231 254
215 231 254
215 231 254
215 231 254
215 231 254
215 231 254
215 231 254
215 231 254
215 231 254
215 231 254
215 231 254
215 231 254
215 231 254
215 231 254
215 231 254
215 231 254
215 231 254
215 231 254
215 231 254
215 231 254
215 231 254
215 231 254
215 231 254
215 231 254
215 231 254
215 231 254
215 231 254
215 231 254
215 231 254
215 231 254
215 231 254
215 231 254
215 231 254
215 231 254
215 231 254
215 231 254
215 231 254
215 231 254
215 231 254
215 231 254
215 231 254
215 231 254
215 231 254
215 231 254
215 231 254
215 231 254
215 231 254
215 231 254
215 231 254
215 231 254
215 231 254
215 231 254
215 231 254
215 231 254
215 231 254
215 231 254
215 231 254
215 231 254
215 231 254
215 231 254
215 231 254
215 231 254
215 231 254
215 231 254
215 231 254
215 231 254
215 231 254
215 231 254
215 231 254
215 231 254
215 231 254
215 231 254
215 231 254
215 231 254
215 231 254
215 231 254
215 231 254
215 231 254
215 231 254
215 231 254
215 231 254
215 231 254
215 231 254
215 231 254
215 231 254
215 231 254
215 231 254
215 231 254
215 231 254
215 231 254
215 231 254
215 231 254
215 231 254
215 231 254
215 231 254
215 231 254
215 231 254
215 231 254
215 231 254
215 231 254
215 231 254
215 231 254
215 231 254
215 231 254
215 231 254
215 231 254
215 231 254
215 231 254
215 231 254
215 231 254
215 231 254
215 231 254
215 231 254
215 231 254
215 231 254
215 231 254
215 231 254
215 231 254
215 231 254
215 231 254
215 231 254
215 231 254
215 231 254
215 231 254
215 231 254
215 231 254
215 231 254
215 231 254
215 231 254
215 231 254
215 231 254
215 231 254
215 231 254
215 231 254
215 231 254
215 231 254
215 231 254
215 231 254
215 231 254
215 231 254
215 231 254
215 231 254
215 231 254
215 231 254
215 231 254
215 231 254
215 231 254
215 231 254
215 231 254
215 231 254
215 231 254
215 231 254
215 231 254
215 231 254
215 231 254
215 231 254
215 231 254
215 231 254
215 231 254
215 231 254
215 231 254
215 231 254
215 231 254
215 231 254
215 231 254
215 231 254
215 231 254
215 231 254
215 231 254
215 231 254
215 231 254
215 231 254
215 231 254
215 231 254
215 231 254
215 231 254
215 231 254
215 231 254
215 231 254
215 231 254
215 231 254
215 231 254
215 231 254
215 231 254
215 231 254
215 231 254
215 231 254
215 231 254
215 231 254
215 231 254
215 231 254
215 231 254
215 231 254
215 231 254
215 231 254
215 231 254
215 231 254
215 231 254
215 231 254
215 231 254
215 231 254
215 231 254
215 231 254
215 231 254
215 231 254
215 231 254
215 231 254
215 231 254
215 231 254
215 231 254
215 231 254
215 231 254
215 231 254
215 231 254
215 231 254
215 231 254
215 231 254
215 231 254
215 231 254
215 231 254
215 231 254
215 231 254
215 231 254
215 231 254
215 231 254
215 231 254
187 202 220
143 156 167
51 62 45
40 51 16
44 53 21
44 55 21
58 68 34
68 74 45
64 67 39
43 52 19
34 46 7
34 45 7
39 45 15
37 45 15
31 40 4
27 37 18
26 42 19
28 44 20
28 37 15
27 38 10
30 37 13
36 42 17
35 41 10
37 40 17
33 37 12
34 38 12
36 39 19
38 43 18
42 46 17
39 43 20
44 48 17
42 45 17
43 46 13
46 47 19
31 35 35
4 9 69
0 1 68
0 4 68
0 0 68
0 0 70
0 0 70
0 0 68
0 0 64
0 0 64
0 0 63
0 0 62
0 0 64
0 6 69
8 13 67
0 7 70
21 27 60
56 56 29
57 57 28
60 61 39
63 63 44
55 57 46
39 42 59
24 26 53
15 20 56
39 41 58
38 43 62
14 18 55
16 18 61
2 8 67
0 6 66
0 0 58
0 0 59
0 0 61
0 0 65
6 10 67
75 87 106
150 168 192
194 218 249
195 221 254
171 193 225
103 115 143
130 141 162
182 196 218
215 231 254
215 231 254
215 231 254
215 231 254
215 231 254
215 231 254
215 231 254
215 231 254
215 231 254
215 231 254
215 231 254
215 231 254
215 231 254
215 231 254
215 231 254
215 231 254
215 231 254
215 231 254
215 231 254
215 231 254
215 231 254
215 231 254
215 231 254
215 231 254
215 231 254
215 231 254
215 231 254
215 231 254
215 231 254
215 231 254
215 231 254
215 231 254
215 231 254
215 231 254
215 231 254
215 231 254
215 231 254
215 231 254
215 231 254
215 231 254
215 231 254
215 231 254
215 231 254
215 231 254
215 231 254
215 231 254
215 231 254
215 231 254
215 231 254
215 231 254
215 231 254
215 231 254
215 231 254
215 231 254
215 231 254
215 231 254
215 231 254
215 231 254
215 231 254
215 231 254
215 231 254
215 231 254
215 231 254
215 231 254
215 231 254
215 231 254
215 231 254
215 231 254
215 231 254
215 231 254
215 231 254
215 231 254
215 231 254
215 231 254
215 231 254
215 231 254
215 231 254
215 231 254
215 231 254
215 231 254
215 231 254
215 231 254
215 231 254
215 231 254
215 231 254
215 231 254
215 231 254
215 231 254
215 231 254
215 231 254
215 231 254
215 231 254
215 231 254
215 231 254
215 231 254
215 231 254
215 231 254
215 231 254
215 231 254
215 231 254
215 231 254
215 231 254
215 231 254
215 231 254
215 231 254
215 231 254
215 231 254
215 231 254
215 231 254
215 231 254
215 231 254
215 231 254
215 231 254
215 231 254
215 231 254
215 231 254
215 231 254
215 231 254
215 231 254
215 231 254
215 231 254
215 231 254
215 231 254
215 231 254
215 231 254
215 231 254
215 231 254
215 231 254
215 231 254
215 231 254
215 231 254
215 231 254
215 231 254
215 231 254
215 231 254
215 231 254
215 231 254
215 231 254
215 231 254
215 231 254
215 231 254
215 231 254
215 231 254
215 231 254
215 231 254
215 231 254
215 231 254
215 231 254
215 231 254
215 231 254
215 231 254
215 231 254
215 231 254
215 231 254
215 231 254
215 231 254
215 231 254
215 231 254
215 231 254
215 231 254
215 231 254
215 232 254
215 232 254
215 232 254
215 232 254
215 232 254
215 232 254
215 232 254
215 231 254
215 231 254
215 231 254
215 231 254
215 231 254
215 231 254
215 231 254
215 231 254
215 231 254
215 231 254
215 231 254
215 231 254
215 231 254
215 231 254
215 231 254
215 231 254
215 231 254
215 231 254
215 231 254
215 231 254
215 231 254
215 231 254
215 231 254
215 231 254
215 231 254
215 231 254
215 231 254
215 231 254
215 231 254
215 231 254
215 231 254
215 231 254
215 231 254
215 231 254
215 231 254
215 231 254
215 231 254
215 231 254
215 231 254
215 231 254
215 231 254
215 231 254
215 231 254
215 231 254
215 231 254
215 231 254
215 231 254
215 231 254
215 231 254
215 231 254
215 231 254
215 231 254
215 231 254
215 231 254
215 231 254
215 231 254
215 231 254
215 231 254
215 231 254
215 231 254
215 231 254
215 231 254
215 231 254
215 231 254
215 231 254
215 231 254
215 231 254
215 231 254
215 231 254
215 231 254
215 231 254
215 231 254
215 231 254
215 231 254
215 231 254
215 231 254
215 231 254
215 231 254
215 231 254
215 231 254
215 231 254
215 231 254
215 231 254
215 231 254
215 231 254
215 231 254
215 231 254
215 231 254
215 231 254
215 231 254
215 231 254
215 231 254
215 231 254
215 231 254
215 231 254
215 231 254
215 231 254
215 231 254
215 231 254
215 231 254
215 231 254
215 231 254
215 231 254
215 231 254
215 231 254
215 231 254
215 231 254
215 231 254
215 231 254
215 231 254
215 231 254
215 231 254
215 231 254
215 231 254
215 231 254
215 231 254
215 231 254
215 231 254
215 231 254
215 231 254
215 231 254
215 231 254
215 231 254
215 231 254
215 231 254
215 231 254
215 231 254
215 231 254
215 231 254
215 231 254
215 231 254
215 231 254
215 231 254
215 231 254
215 231 254
215 231 254
215 231 254
215 231 254
215 231 254
215 231 254
215 231 254
215 231 254
215 231 254
215 231 254
215 231 254
215 231 254
215 231 254
215 231 254
215 231 254
215 231 254
215 231 254
209 226 248
165 179 194
64 74 67
35 47 13
31 44 3
32 45 7
32 44 6
35 46 10
46 59 24
46 56 25
50 56 28
40 51 20
26 42 0
26 40 0
28 42 2
30 44 4
30 44 7
32 45 9
26 41 14
32 44 5
31 44 4
31 42 8
27 36 13
29 37 13
31 39 6
27 35 3
26 34 5
30 38 12
36 44 14
36 42 18
40 46 22
34 40 15
35 39 15
40 44 14
43 46 12
46 49 16
42 44 13
9 12 64
0 8 68
0 6 70
0 4 70
0 0 64
0 0 64
0 0 69
0 0 69
0 0 68
0 0 67
0 0 67
0 0 64
0 0 64
0 1 63
0 4 65
0 6 66
1 4 65
30 35 57
49 53 19
46 48 21
48 49 25
52 53 30
62 62 38
59 59 35
49 51 39
12 14 59
17 23 62
0 0 64
4 4 62
22 30 55
4 7 64
0 0 64
0 0 64
0 0 65
0 0 61
0 6 67
0 11 75
0 7 70
78 88 114
139 156 180
188 211 241
196 219 250
147 167 196
12 19 69
83 89 112
144 155 175
210 227 250
215 231 254
215 231 254
215 231 254
215 231 254
215 231 254
215 231 254
215 231 254
215 231 254
215 231 254
215 231 254
215 231 254
215 231 254
215 231 254
215 231 254
215 231 254
215 231 254
215 231 254
215 231 254
215 231 254
215 231 254
215 231 254
215 231 254
215 231 254
215 231 254
215 231 254
215 231 254
215 231 254
215 231 254
215 231 254
215 231 254
215 231 254
215 231 254
215 231 254
215 231 254
215 231 254
215 231 254
215 231 254
215 231 254
215 231 254
215 231 254
215 231 254
215 231 254
215 231 254
215 231 254
215 231 254
215 231 254
215 231 254
215 231 254
215 231 254
215 231 254
215 231 254
215 231 254
215 231 254
215 231 254
215 231 254
215 231 254
215 231 254
215 231 254
215 231 254
215 231 254
215 231 254
215 231 254
215 231 254
215 231 254
215 231 254
215 231 254
215 231 254
215 231 254
215 231 254
215 231 254
215 231 254
215 231 254
215 231 254
215 231 254
215 231 254
215 231 254
215 231 254
215 231 254
215 231 254
215 231 254
215 231 254
215 231 254
215 231 254
215 231 254
215 231 254
215 231 254
215 231 254
215 231 254
215 231 254
215 231 254
215 231 254
215 231 254
215 231 254
215 231 254
215 231 254
215 231 254
215 231 254
215 231 254
215 231 254
215 231 254
215 231 254
215 231 254
215 231 254
215 231 254
215 231 254
215 231 254
215 231 254
215 231 254
215 231 254
215 231 254
215 231 254
215 231 254
215 231 254
215 231 254
215 231 254
215 231 254
215 231 254
215 231 254
215 231 254
215 231 254
215 231 254
215 231 254
215 231 254
215 231 254
215 231 254
215 231 254
215 231 254
215 231 254
215 231 254
215 231 254
215 231 254
215 231 254
215 231 254
215 231 254
215 231 254
215 231 254
215 231 254
215 231 254
215 231 254
215 231 254
215 231 254
215 231 254
215 231 254
215 231 254
215 231 254
215 231 254
215 231 254
215 231 254
215 231 254
215 231 254
215 231 254
215 231 254
215 232 254
215 232 254
215 232 254
215 232 254
215 232 254
215 232 254
215 232 254
215 232 254
215 232 254
215 232 254
215 232 254
215 232 254
215 232 254
215 232 254
215 232 254
215 232 254
215 232 254
215 232 254
215 232 254
215 232 254
215 232 254
215 232 254
215 232 254
215 232 254
215 232 254
215 232 254
215 232 254
215 232 254
215 232 254
215 232 254
215 232 254
215 232 254
215 232 254
215 232 254
215 232 254
215 232 254
215 232 254
215 231 254
215 231 254
215 231 254
215 231 254
215 231 254
215 231 254
215 231 254
215 231 254
215 231 254
215 231 254
215 231 254
215 231 254
215 231 254
215 231 254
215 231 254
215 231 254
215 231 254
215 231 254
215 231 254
215 231 254
215 231 254
215 231 254
215 231 254
215 231 254
215 231 254
215 231 254
215 231 254
215 231 254
215 231 254
215 231 254
215 231 254
215 231 254
215 231 254
215 231 254
215 231 254
215 231 254
215 231 254
215 231 254
215 231 254
215 231 254
215 231 254
215 231 254
215 231 254
215 231 254
215 231 254
215 231 254
215 231 254
215 231 254
215 231 254
215 231 254
215 231 254
215 231 254
215 231 254
215 231 254
215 231 254
215 231 254
215 231 254
215 231 254
215 231 254
215 231 254
215 231 254
215 231 254
215 231 254
215 231 254
215 231 254
215 231 254
215 231 254
215 231 254
215 231 254
215 231 254
215 231 254
215 231 254
215 231 254
215 231 254
215 231 254
215 231 254
215 231 254
215 231 254
215 231 254
215 231 254
215 231 254
215 231 254
215 231 254
215 231 254
215 231 254
215 231 254
215 231 254
215 231 254
215 231 254
215 231 254
215 231 254
215 231 254
215 231 254
215 231 254
215 231 254
215 231 254
215 231 254
215 231 254
215 231 254
215 231 254
215 231 254
215 231 254
215 231 254
215 231 254
215 231 254
215 231 254
215 231 254
215 231 254
215 231 254
215 231 254
215 231 254
215 231 254
215 231 254
215 231 254
215 231 254
215 231 254
215 231 254
215 231 254
215 231 254
215 231 254
215 231 254
215 231 254
215 231 254
215 231 254
215 231 254
192 208 227
148 161 172
72 84 69
49 60 36
36 46 11
35 45 8
32 45 9
38 51 14
31 44 10
29 43 8
25 40 0
24 39 1
25 42 4
26 44 0
26 41 0
27 41 0
24 41 0
28 44 2
31 45 0
29 43 0
29 47 2
39 54 11
35 48 10
30 40 13
37 42 30
38 43 24
37 45 16
40 48 19
35 43 13
27 35 16
28 36 16
31 38 17
37 42 14
35 42 13
33 40 9
32 38 9
34 38 4
38 43 8
39 45 9
37 41 17
32 37 25
6 25 82
0 26 79
0 14 76
0 8 70
0 7 66
0 5 67
0 0 67
0 0 68
0 0 68
0 0 65
0 0 64
0 0 61
0 0 63
0 0 63
3 3 60
27 32 47
37 42 33
45 49 18
44 48 16
47 50 19
52 55 21
52 55 24
56 57 27
44 50 38
27 36 54
17 33 78
9 29 82
43 50 50
63 66 54
42 44 56
3 3 61
0 0 62
0 0 63
0 6 65
0 6 65
0 5 65
0 5 63
0 7 67
28 31 72
123 138 163
143 160 183
151 171 195
91 104 134
0 0 58
52 56 82
130 141 160
193 208 230
215 231 254
215 231 254
215 231 254
215 231 254
215 231 254
215 231 254
215 231 254
215 231 254
215 231 254
215 231 254
215 231 254
215 231 254
215 231 254
215 231 254
215 231 254
215 231 254
215 231 254
215 231 254
215 231 254
215 231 254
215 231 254
215 231 254
215 231 254
215 231 254
215 231 254
215 231 254
215 231 254
215 231 254
215 231 254
215 231 254
215 231 254
215 231 254
215 231 254
215 231 254
215 231 254
215 231 254
215 231 254
215 231 254
215 231 254
215 231 254
215 231 254
215 231 254
215 231 254
215 231 254
215 231 254
215 231 254
215 231 254
215 231 254
215 231 254
215 231 254
215 231 254
215 231 254
215 231 254
215 231 254
215 231 254
215 231 254
215 231 254
215 231 254
215 231 254
215 231 254
215 231 254
215 231 254
215 231 254
215 231 254
215 231 254
215 231 254
215 231 254
215 231 254
215 231 254
215 231 254
215 231 254
215 231 254
215 231 254
215 231 254
215 231 254
215 231 254
215 231 254
215 231 254
215 231 254
215 231 254
215 231 254
215 231 254
215 231 254
215 231 254
215 231 254
215 231 254
215 231 254
215 231 254
215 231 254
215 231 254
215 231 254
215 231 254
215 231 254
215 231 254
215 231 254
215 231 254
215 231 254
215 231 254
215 231 254
215 231 254
215 231 254
215 231 254
215 231 254
215 231 254
215 231 254
215 231 254
215 231 254
215 231 254
215 231 254
215 231 254
215 231 254
215 231 254
215 231 254
215 231 254
215 231 254
215 231 254
215 231 254
215 231 254
215 231 254
215 231 254
215 231 254
215 231 254
215 231 254
215 232 254
215 232 254
215 232 254
215 232 254
215 232 254
215 232 254
215 232 254
215 232 254
215 232 254
215 232 254
215 232 254
215 232 254
215 232 254
215 232 254
215 232 254
215 232 254
215 232 254
215 232 254
215 232 254
215 232 254
215 232 254
215 232 254
215 232 254
215 232 254
215 232 254
215 232 254
215 232 254
215 232 254
215 232 254
215 232 254
215 232 254
215 232 254
215 232 254
215 232 254
215 232 254
215 232 254
215 232 254
215 232 254
215 232 254
215 232 254
215 232 254
215 232 254
215 232 254
215 232 254
215 232 254
215 232 254
215 232 254
215 232 254
215 232 254
215 232 254
215 232 254
215 232 254
215 232 254
215 232 254
215 232 254
215 232 254
215 232 254
215 232 254
215 232 254
215 232 254
215 232 254
215 232 254
215 232 254
215 232 254
215 232 254
215 232 254
215 232 254
215 232 254
215 232 254
215 232 254
215 232 254
215 232 254
215 232 254
215 232 254
215 232 254
215 232 254
215 232 254
215 232 254
215 232 254
215 232 254
215 232 254
215 232 254
215 232 254
215 232 254
215 232 254
215 232 254
215 232 254
215 232 254
215 232 254
215 232 254
215 232 254
215 231 254
215 232 254
215 231 254
215 231 254
215 231 254
215 231 254
215 231 254
215 231 254
215 231 254
215 231 254
215 231 254
215 231 254
215 231 254
215 231 254
215 231 254
215 231 254
215 231 254
215 231 254
215 231 254
215 231 254
215 231 254
215 231 254
215 231 254
215 231 254
215 231 254
215 231 254
215 231 254
215 231 254
215 231 254
215 231 254
215 231 254
215 231 254
215 231 254
215 231 254
215 231 254
215 231 254
215 231 254
215 231 254
215 231 254
215 231 254
215 231 254
215 231 254
215 231 254
215 231 254
215 231 254
215 231 254
215 231 254
215 231 254
215 231 254
215 231 254
215 231 254
215 231 254
215 231 254
215 231 254
215 231 254
215 231 254
215 231 254
215 231 254
215 231 254
215 231 254
215 231 254
215 231 254
215 231 254
215 231 254
215 231 254
215 231 254
215 231 254
215 231 254
215 231 254
215 231 254
215 231 254
215 231 254
215 231 254
215 231 254
215 231 254
215 231 254
215 231 254
215 231 254
215 231 254
215 231 254
215 231 254
215 231 254
215 231 254
215 231 254
215 231 254
215 231 254
215 231 254
215 231 254
215 231 254
215 231 254
215 231 254
215 231 254
215 231 254
215 231 254
215 231 254
215 231 254
175 190 205
147 164 173
89 105 99
139 157 168
131 149 156
74 86 71
38 51 15
28 42 9
40 53 17
31 44 7
26 41 5
46 59 28
27 42 9
21 40 0
25 44 0
24 44 0
23 45 0
25 45 0
28 49 4
31 51 8
27 45 0
26 45 0
27 46 0
32 48 8
35 47 8
37 47 12
41 48 16
36 44 18
31 39 14
30 41 9
27 40 3
25 37 13
16 25 21
28 37 9
28 38 8
30 41 9
32 44 10
30 41 5
33 42 7
36 45 0
34 48 7
38 47 10
39 46 10
29 48 59
29 49 52
27 41 44
21 32 63
20 31 60
3 20 77
0 7 70
0 0 66
0 3 69
0 8 71
0 0 69
0 0 65
0 5 67
0 2 69
1 4 64
1 2 58
0 3 59
27 33 52
44 50 19
44 50 20
48 52 21
51 56 24
53 58 23
52 57 19
46 53 18
42 51 18
39 51 28
44 51 21
58 62 28
66 66 41
53 55 48
27 34 60
3 5 63
0 0 62
0 0 58
0 0 53
0 0 53
0 3 60
0 0 64
0 6 66
0 11 73
11 19 72
77 90 121
54 64 91
7 9 61
0 0 54
21 23 58
117 127 146
177 191 212
215 231 254
215 231 254
215 231 254
215 231 254
215 231 254
215 231 254
215 231 254
215 231 254
215 231 254
215 231 254
215 231 254
215 231 254
215 231 254
215 231 254
215 231 254
215 231 254
215 231 254
215 231 254
215 231 254
215 231 254
215 231 254
215 231 254
215 231 254
215 231 254
215 231 254
215 231 254
215 231 254
215 231 254
215 231 254
215 231 254
215 231 254
215 231 254
215 231 254
215 231 254
215 231 254
215 231 254
215 231 254
215 231 254
215 231 254
215 231 254
215 231 254
215 231 254
215 231 254
215 231 254
215 231 254
215 231 254
215 231 254
215 231 254
215 231 254
215 231 254
215 231 254
215 231 254
215 231 254
215 231 254
215 231 254
215 231 254
215 231 254
215 231 254
215 231 254
215 231 254
215 231 254
215 231 254
215 231 254
215 231 254
215 231 254
215 231 254
215 231 254
215 231 254
215 231 254
215 231 254
215 231 254
215 231 254
215 231 254
215 231 254
215 231 254
215 231 254
215 231 254
215 231 254
215 231 254
215 231 254
215 231 254
215 231 254
215 231 254
215 231 254
215 231 254
215 231 254
215 231 254
215 231 254
215 231 254
215 231 254
215 231 254
215 231 254
215 231 254
215 231 254
215 232 254
215 232 254
215 232 254
215 232 254
215 232 254
215 232 254
215 232 254
215 232 254
215 232 254
215 232 254
215 232 254
215 232 254
215 232 254
215 232 254
215 232 254
215 232 254
215 232 254
215 232 254
215 232 254
215 232 254
215 232 254
215 232 254
215 232 254
215 232 254
215 232 254
215 232 254
215 232 254
215 232 254
215 232 254
215 232 254
215 232 254
215 232 254
215 232 254
215 232 254
215 232 254
215 232 254
215 232 254
215 232 254
215 232 254
215 232 254
215 232 254
215 232 254
215 232 254
215 232 254
215 232 254
215 232 254
215 232 254
215 232 254
215 232 254
215 232 254
215 232 254
215 232 254
215 232 254
215 232 254
215 232 254
215 232 254
215 232 254
215 232 254
215 232 254
215 232 254
215 232 254
215 232 254
215 232 254
215 232 254
215 232 254
215 232 254
215 232 254
215 232 254
215 232 254
215 232 254
215 232 254
215 232 254
215 232 254
215 232 254
215 232 254
215 232 254
215 232 254
215 232 254
215 232 254
215 232 254
215 232 254
215 232 254
215 232 254
215 232 254
215 232 254
215 232 254
215 232 254
215 232 254
215 232 254
215 232 254
215 232 254
215 232 254
215 232 254
215 232 254
215 232 254
215 232 254
215 232 254
215 232 254
215 232 254
215 232 254
215 232 254
215 232 254
215 232 254
215 232 254
215 232 254
215 232 254
215 232 254
215 232 254
215 232 254
215 232 254
215 232 254
215 232 254
215 232 254
215 232 254
215 232 254
215 232 254
215 232 254
215 232 254
215 232 254
215 232 254
215 232 254
215 232 254
215 232 254
215 232 254
215 232 254
215 232 254
215 232 254
215 232 254
215 232 254
215 232 254
215 232 254
215 232 254
215 232 254
215 232 254
215 232 254
215 232 254
215 232 254
215 232 254
215 232 254
215 232 254
215 232 254
215 232 254
215 232 254
215 232 254
215 232 254
215 232 254
215 232 254
215 232 254
215 232 254
215 232 254
215 232 254
215 232 254
215 232 254
215 232 254
215 232 254
215 232 254
215 231 254
215 231 254
215 231 254
215 231 254
215 231 254
215 231 254
215 231 254
215 231 254
215 231 254
215 231 254
215 231 254
215 231 254
215 231 254
215 231 254
215 231 254
215 231 254
215 231 254
215 231 254
215 231 254
215 231 254
215 231 254
215 231 254
215 231 254
215 231 254
215 231 254
215 231 254
215 231 254
215 231 254
215 231 254
215 231 254
215 231 254
215 231 254
215 231 254
215 231 254
215 231 254
215 231 254
215 231 254
215 231 254
215 231 254
215 231 254
215 231 254
215 231 254
215 231 254
215 231 254
215 231 254
215 231 254
215 231 254
215 231 254
215 231 254
215 231 254
215 231 254
215 231 254
215 231 254
215 231 254
215 231 254
214 230 253
180 195 213
101 114 121
55 69 85
84 100 112
114 133 150
143 167 181
114 137 141
110 129 132
30 46 7
33 48 12
38 52 13
44 56 20
37 51 20
61 72 43
22 39 2
22 41 0
22 42 0
22 42 0
28 49 6
26 46 3
23 45 0
22 42 0
23 43 0
24 44 0
24 44 0
23 41 0
27 41 7
20 34 6
26 39 7
27 39 4
23 36 0
20 34 0
25 39 0
21 37 7
25 39 2
26 40 3
29 45 0
26 42 0
24 40 0
26 44 6
28 44 0
25 41 0
28 45 0
29 43 6
27 40 0
31 43 0
34 44 1
30 40 2
32 41 5
37 42 8
30 43 25
24 38 53
19 29 57
12 20 66
4 14 71
4 12 73
0 15 75
0 9 72
0 6 74
7 17 66
6 13 62
0 2 61
10 17 65
32 41 22
40 45 11
36 42 13
37 43 13
44 50 14
45 52 12
44 51 14
43 51 16
33 43 8
35 44 11
37 42 8
48 53 23
59 61 32
57 60 31
35 44 37
9 17 59
0 0 62
0 0 58
0 0 57
0 0 56
0 0 57
0 0 59
0 0 60
0 1 63
0 14 73
0 20 77
0 12 72
0 10 69
0 0 53
0 0 51
0 0 51
109 118 137
176 189 211
215 231 254
215 231 254
215 231 254
215 231 254
215 231 254
215 231 254
215 231 254
215 231 254
215 231 254
215 231 254
215 231 254
215 231 254
215 231 254
215 231 254
215 231 254
215 231 254
215 231 254
215 231 254
215 231 254
215 231 254
215 231 254
215 231 254
215 231 254
215 231 254
215 231 254
215 231 254
215 231 254
215 231 254
215 231 254
215 231 254
215 231 254
215 231 254
215 231 254
215 231 254
215 231 254
215 231 254
215 231 254
215 231 254
215 231 254
215 231 254
215 231 254
215 231 254
215 231 254
215 231 254
215 231 254
215 231 254
215 231 254
215 231 254
215 231 254
215 231 254
215 231 254
215 231 254
215 231 254
215 231 254
215 232 254
215 231 254
215 231 254
215 232 254
215 232 254
215 232 254
215 232 254
215 232 254
215 232 254
215 232 254
215 232 254
215 232 254
215 232 254
215 232 254
215 232 254
215 232 254
215 232 254
215 232 254
215 232 254
215 232 254
215 232 254
215 232 254
215 232 254
215 232 254
215 232 254
215 232 254
215 232 254
215 232 254
215 232 254
215 232 254
215 232 254
215 232 254
215 232 254
215 232 254
215 232 254
215 232 254
215 232 254
215 232 254
215 232 254
215 232 254
215 232 254
215 232 254
215 232 254
215 232 254
215 232 254
215 232 254
215 232 254
215 232 254
215 232 254
215 232 254
215 232 254
215 232 254
215 232 254
215 232 254
215 232 254
215 232 254
215 232 254
215 232 254
215 232 254
215 232 254
215 232 254
215 232 254
215 232 254
215 232 254
215 232 254
215 232 254
215 232 254
215 232 254
215 232 254
215 232 254
215 232 254
215 232 254
215 232 254
215 232 254
215 232 254
215 232 254
215 232 254
215 232 254
215 232 254
215 232 254
215 232 254
215 232 254
215 232 254
215 232 254
215 232 254
215 232 254
215 232 254
215 232 254
215 232 254
215 232 254
215 232 254
215 232 254
215 232 254
215 232 254
215 232 254
215 232 254
215 232 254
215 232 254
215 232 254
215 232 254
215 232 254
215 232 254
215 232 254
215 232 254
215 232 254
215 232 254
215 232 254
215 232 254
215 232 254
215 232 254
215 232 254
215 232 254
215 232 254
215 232 254
215 232 254
215 232 254
215 232 254
215 232 254
215 232 254
215 232 254
215 232 254
215 232 254
215 232 254
215 232 254
215 232 254
215 232 254
215 232 254
215 232 254
215 232 254
215 232 254
215 232 254
215 232 254
215 232 254
215 232 254
215 232 254
215 232 254
215 232 254
215 232 254
215 232 254
215 232 254
215 232 254
215 232 254
215 232 254
215 232 254
215 232 254
215 232 254
215 232 254
215 232 254
215 232 254
215 232 254
215 232 254
215 232 254
215 232 254
215 232 254
215 232 254
215 232 254
215 232 254
215 232 254
215 232 254
215 232 254
215 232 254
215 232 254
215 232 254
215 232 254
215 232 254
215 232 254
215 232 254
215 232 254
215 232 254
215 232 254
215 232 254
215 232 254
215 232 254
215 232 254
215 232 254
215 232 254
215 232 254
215 232 254
215 232 254
215 232 254
215 232 254
215 232 254
215 232 254
215 232 254
215 232 254
215 232 254
215 232 254
215 232 254
215 232 254
215 232 254
215 232 254
215 232 254
215 232 254
215 232 254
215 232 254
215 232 254
215 232 254
215 232 254
215 232 254
215 232 254
215 232 254
215 232 254
215 232 254
215 232 254
215 232 254
215 232 254
215 232 254
215 232 254
215 232 254
215 232 254
215 232 254
215 232 254
215 232 254
215 232 254
215 232 254
215 232 254
215 232 254
215 232 254
215 232 254
215 232 254
215 232 254
215 232 254
215 232 254
215 232 254
215 232 254
215 232 254
215 232 254
215 232 254
215 232 254
215 232 254
215 232 254
215 232 254
215 232 254
215 232 254
215 232 254
215 232 254
215 232 254
215 232 254
215 232 254
215 232 254
215 232 254
215 232 254
215 232 254
215 232 254
215 232 254
215 232 254
215 232 254
214 230 253
179 194 212
103 115 127
35 47 68
1 3 57
0 0 55
0 0 59
48 62 73
31 45 48
124 144 146
99 117 107
54 72 39
47 63 27
41 54 18
31 45 11
25 42 8
23 40 5
25 47 0
37 59 10
38 61 10
40 63 13
38 60 14
22 42 0
25 44 3
22 43 0
25 46 0
23 42 0
22 41 0
25 44 3
24 43 3
19 35 0
20 37 4
22 39 3
14 28 11
19 34 4
17 32 0
18 34 0
21 35 0
24 38 1
28 44 5
23 42 0
24 44 0
26 40 0
24 40 0
19 34 0
16 31 4
20 35 0
20 37 0
21 39 0
25 40 0
27 40 0
28 40 7
29 38 0
33 38 0
32 38 0
34 42 0
33 42 11
33 42 21
35 43 25
35 45 27
12 37 90
0 19 84
0 28 86
15 26 66
26 32 41
33 43 20
40 47 11
36 43 5
37 45 9
36 44 7
34 40 9
32 39 6
34 41 2
37 44 6
39 47 7
38 47 12
34 41 5
33 42 4
42 50 9
45 49 17
48 52 20
37 45 32
21 31 50
6 14 65
0 0 61
0 0 58
0 0 55
0 0 58
0 0 58
0 0 58
0 0 63
0 1 61
0 0 60
0 11 68
0 1 59
0 0 50
0 0 51
0 0 51
0 0 51
117 127 147
190 204 226
215 232 254
215 232 254
215 232 254
215 232 254
215 232 254
215 232 254
215 232 254
215 232 254
215 232 254
215 232 254
215 232 254
215 232 254
215 232 254
215 232 254
215 232 254
215 232 254
215 232 254
215 232 254
215 232 254
215 232 254
215 232 254
215 232 254
215 232 254
215 232 254
215 232 254
215 232 254
215 232 254
215 232 254
215 232 254
215 232 254
215 232 254
215 232 254
215 232 254
215 232 254
215 232 254
215 232 254
215 232 254
215 232 254
215 232 254
215 232 254
215 232 254
215 232 254
215 232 254
215 232 254
215 232 254
215 232 254
215 232 254
215 232 254
215 232 254
215 232 254
215 232 254
215 232 254
215 232 254
215 232 254
215 232 254
215 232 254
215 232 254
215 232 254
215 232 254
215 232 254
215 232 254
215 232 254
215 232 254
215 232 254
215 232 254
215 232 254
215 232 254
215 232 254
215 232 254
215 232 254
215 232 254
215 232 254
215 232 254
215 232 254
215 232 254
215 232 254
215 232 254
215 232 254
215 232 254
215 232 254
215 232 254
215 232 254
215 232 254
215 232 254
215 232 254
215 232 254
215 232 254
215 232 254
215 232 254
215 232 254
215 232 254
215 232 254
215 232 254
215 232 254
215 232 254
215 232 254
215 232 254
215 232 254
215 232 254
215 232 254
215 232 254
215 232 254
215 232 254
215 232 254
215 232 254
215 232 254
215 232 254
215 232 254
215 232 254
215 232 254
215 232 254
215 232 254
215 232 254
215 232 254
215 232 254
215 232 254
215 232 254
215 232 254
215 232 254
215 232 254
215 232 254
215 232 254
215 232 254
215 232 254
215 232 254
215 232 254
215 232 254
215 232 254
215 232 254
215 232 254
215 232 254
215 232 254
215 232 254
215 232 254
215 232 254
215 232 254
215 232 254
215 232 254
215 232 254
215 232 254
215 232 254
215 232 254
215 232 254
215 232 254
215 232 254
215 232 254
215 232 254
215 232 254
215 232 254
215 232 254
215 232 254
215 232 254
215 232 254
215 232 254
215 232 254
215 232 254
215 232 254
215 232 254
215 232 254
215 232 254
215 232 254
215 232 254
215 232 254
215 232 254
215 232 254
215 232 254
215 232 254
215 232 254
215 232 254
215 232 254
215 232 254
215 232 254
215 232 254
215 232 254
215 232 254
215 232 254
215 232 254
215 232 254
215 232 254
215 232 254
215 232 254
215 232 254
215 232 254
215 232 254
215 232 254
215 232 254
215 232 254
215 232 254
215 232 254
215 232 254
215 232 254
215 232 254
215 232 254
215 232 254
215 232 254
215 232 254
215 232 254
215 232 254
215 232 254
215 232 254
215 232 254
215 232 254
215 232 254
215 232 254
215 232 254
215 232 254
215 232 254
215 232 254
215 232 254
215 232 254
215 232 254
215 232 254
215 232 254
215 232 254
215 232 254
215 232 254
215 232 254
215 232 254
215 232 254
215 232 254
215 232 254
215 232 254
215 232 254
215 232 254
215 232 254
215 232 254
215 232 254
215 232 254
215 232 254
215 232 254
215 232 254
215 232 254
215 232 254
215 232 254
215 232 254
215 232 254
215 232 254
215 232 254
215 232 254
215 232 254
215 232 254
215 232 254
215 232 254
215 232 254
215 232 254
215 232 254
215 232 254
215 232 254
215 232 254
215 232 254
215 232 254
215 232 254
215 232 254
215 232 254
215 232 254
215 232 254
215 232 254
215 232 254
215 232 254
215 232 254
215 232 254
215 232 254
215 232 254
215 232 254
215 232 254
215 232 254
215 232 254
215 232 254
215 232 254
215 232 254
215 232 254
215 232 254
215 232 254
215 232 254
215 232 254
215 232 254
215 232 254
215 232 254
215 232 254
215 232 254
215 232 254
215 232 254
215 232 254
215 232 254
215 232 254
215 232 254
215 232 254
215 232 254
215 232 254
215 232 254
215 232 254
215 232 254
215 232 254
215 232 254
215 232 254
215 232 254
215 232 254
215 232 254
188 204 223
93 103 121
16 22 63
0 0 55
0 0 54
0 0 55
0 0 59
9 16 52
24 41 38
43 63 51
108 135 128
69 89 78
36 55 24
31 47 20
22 36 5
17 34 0
20 39 1
20 38 4
20 38 0
30 50 4
29 51 5
30 50 4
27 46 2
29 48 4
37 58 13
39 60 16
37 58 12
37 57 18
33 51 10
34 54 11
31 50 8
27 47 0
19 38 0
24 41 4
29 46 2
30 47 8
32 48 0
30 48 1
29 48 5
28 50 9
25 49 8
21 47 7
23 44 8
28 42 5
27 40 4
22 37 0
16 32 0
22 40 5
23 40 3
23 40 0
23 38 0
23 38 0
21 36 6
25 38 0
27 39 0
30 39 0
30 37 0
31 38 0
33 43 7
33 40 6
27 40 0
14 49 77
2 38 99
0 43 104
9 45 97
32 47 43
37 46 17
28 36 14
25 36 5
25 35 12
33 43 9
32 41 7
27 36 4
26 36 0
27 37 5
30 36 10
29 36 5
31 39 0
36 43 12
27 35 3
31 38 6
35 39 11
46 52 17
42 51 19
31 39 27
21 35 51
16 26 61
9 14 62
1 1 56
0 0 54
0 0 57
0 0 59
0 0 60
0 0 58
0 0 55
0 0 56
0 0 53
0 0 51
0 0 52
0 0 52
0 0 52
0 0 54
103 111 131
191 206 228
215 232 254
215 232 254
215 232 254
215 232 254
215 232 254
215 232 254
215 232 254
215 232 254
215 232 254
215 232 254
215 232 254
215 232 254
215 232 254
215 232 254
215 232 254
215 232 254
215 232 254
215 232 254
215 232 254
215 232 254
215 232 254
215 232 254
215 232 254
215 232 254
215 232 254
215 232 254
215 232 254
215 232 254
215 232 254
215 232 254
215 232 254
215 232 254
215 232 254
215 232 254
215 232 254
215 232 254
215 232 254
215 232 254
215 232 254
215 232 254
215 232 254
215 232 254
215 232 254
215 232 254
215 232 254
215 232 254
215 232 254
215 232 254
215 232 254
215 232 254
215 232 254
215 232 254
215 232 254
215 232 254
215 232 254
215 232 254
215 232 254
215 232 254
215 232 254
215 232 254
215 232 254
215 232 254
215 232 254
215 232 254
215 232 254
215 232 254
215 232 254
215 232 254
215 232 254
215 232 254
215 232 254
215 232 254
215 232 254
215 232 254
215 232 254
215 232 254
215 232 254
215 232 254
215 232 254
215 232 254
215 232 254
215 232 254
215 232 254
215 232 254
215 232 254
215 232 254
215 232 254
215 232 254
215 232 254
215 232 254
215 232 254
215 232 254
215 232 254
215 232 254
215 232 254
215 232 254
215 232 254
215 232 254
215 232 254
215 232 254
215 232 254
215 232 254
215 232 254
215 232 254
215 232 254
215 232 254
215 232 254
215 232 254
215 232 254
215 232 254
215 232 254
215 232 254
215 232 254
215 232 254
215 232 254
215 232 254
215 232 254
215 232 254
215 232 254
215 232 254
215 232 254
215 232 254
215 232 254
215 232 254
215 232 254
215 232 254
215 232 254
215 232 254
215 232 254
215 232 254
215 232 254
215 232 254
215 232 254
215 232 254
215 232 254
215 232 254
215 232 254
215 232 254
215 232 254
215 232 254
215 232 254
215 232 254
215 232 254
215 232 254
215 232 254
215 232 254
215 232 254
215 232 254
215 232 254
215 232 254
215 232 254
215 232 254
215 232 254
215 232 254
215 232 254
215 232 254
215 232 254
215 232 254
215 232 254
215 232 254
215 232 254
215 232 254
215 232 254
215 232 254
215 232 254
215 232 254
215 232 254
215 232 254
215 232 254
215 232 254
215 232 254
215 232 254
215 232 254
215 232 254
215 232 254
215 232 254
215 232 254
215 232 254
215 232 254
215 232 254
215 232 254
215 232 254
215 232 254
215 232 254
215 232 254
215 232 254
215 232 254
215 232 254
215 232 254
215 232 254
215 232 254
215 232 254
215 232 254
215 232 254
215 232 254
215 232 254
215 232 254
215 232 254
215 232 254
215 232 254
215 232 254
215 232 254
215 232 254
215 232 254
215 232 254
215 232 254
215 232 254
215 232 254
215 232 254
215 232 254
215 232 254
215 232 254
215 232 254
215 232 254
215 232 254
215 232 254
215 232 254
215 232 254
215 232 254
215 232 254
215 232 254
215 232 254
215 232 254
215 232 254
215 232 254
215 232 254
215 232 254
215 232 254
215 232 254
215 232 254
215 232 254
215 232 254
215 232 254
215 232 254
215 232 254
215 232 254
215 232 254
215 232 254
215 232 254
215 232 254
215 232 254
215 232 254
215 232 254
215 232 254
215 232 254
215 232 254
215 232 254
215 232 254
215 232 254
215 232 254
215 232 254
215 232 254
215 232 254
215 232 254
215 232 254
215 232 254
215 232 254
215 232 254
215 232 254
215 232 254
215 232 254
215 232 254
215 232 254
215 232 254
215 232 254
215 232 254
215 232 254
215 232 254
215 232 254
215 232 254
215 232 254
215 232 254
215 232 254
215 232 254
215 232 254
215 232 254
215 232 254
215 232 254
215 232 254
215 232 254
215 232 254
215 232 254
215 232 254
215 232 254
215 232 254
215 232 254
215 232 254
215 232 254
215 232 254
215 232 254
215 232 254
215 232 254
215 232 254
215 232 254
196 212 233
128 141 154
19 26 58
0 0 53
0 0 52
0 0 53
0 0 53
0 0 56
0 0 58
6 18 41
8 25 34
48 68 50
51 71 43
30 48 12
18 35 0
17 33 0
16 33 0
17 36 0
21 40 5
38 54 22
32 45 16
23 38 0
21 39 0
24 44 0
36 57 14
42 64 18
47 70 23
48 72 25
49 72 27
57 76 33
58 75 33
55 72 32
52 69 29
56 71 32
58 74 32
58 75 33
53 72 29
45 63 20
30 50 0
29 47 1
28 46 7
18 44 10
25 42 4
13 45 0
26 44 8
28 43 2
29 44 0
27 40 0
26 39 0
24 38 0
23 39 0
21 37 0
18 33 0
21 36 0
18 35 0
21 36 0
18 33 0
22 36 0
26 38 0
26 36 0
29 40 0
31 41 0
30 40 0
27 50 36
20 77 90
9 64 111
3 65 117
9 56 104
31 53 35
38 46 9
28 39 5
30 41 1
31 42 2
32 43 0
29 40 6
29 41 0
28 38 0
27 37 0
31 41 0
28 36 0
30 37 0
31 40 4
28 37 5
22 30 13
23 33 6
28 40 0
28 39 5
28 42 6
26 49 39
22 41 31
12 30 49
1 10 65
0 2 57
0 0 52
0 0 54
0 0 57
0 0 57
0 0 57
0 0 58
0 0 57
0 0 54
0 0 51
0 0 52
0 0 53
0 0 53
0 0 54
107 116 136
197 212 235
215 232 254
215 232 254
215 232 254
215 232 254
215 232 254
215 232 254
215 232 254
215 232 254
215 232 254
215 232 254
215 232 254
215 232 254
215 232 254
215 232 254
215 232 254
215 232 254
215 232 254
215 232 254
215 232 254
215 232 254
215 232 254
215 232 254
215 232 254
215 232 254
215 232 254
215 232 254
215 232 254
215 232 254
215 232 254
215 232 254
215 232 254
215 232 254
215 232 254
215 232 254
215 232 254
215 232 254
215 232 254
215 232 254
215 232 254
215 232 254
215 232 254
215 232 254
215 232 254
215 232 254
215 232 254
215 232 254
215 232 254
215 232 254
215 232 254
215 232 254
215 232 254
215 232 254
215 232 254
215 232 254
215 232 254
215 232 254
215 232 254
215 232 254
215 232 254
215 232 254
215 232 254
215 232 254
215 232 254
215 232 254
215 232 254
215 232 254
215 232 254
215 232 254
215 232 254
215 232 254
215 232 254
215 232 254
215 232 254
215 232 254
215 232 254
215 232 254
215 232 254
215 232 254
215 232 254
215 232 254
215 232 254
215 232 254
215 232 254
215 232 254
215 232 254
215 232 254
215 232 254
215 232 254
215 232 254
215 232 254
215 232 254
215 232 254
215 232 254
215 232 254
215 232 254
215 232 254
215 232 254
215 232 254
215 232 254
215 232 254
215 232 254
215 232 254
215 232 254
215 232 254
215 232 254
215 232 254
215 232 254
215 232 254
215 232 254
215 232 254
215 232 254
215 232 254
215 232 254
215 232 254
215 232 254
215 232 254
215 232 254
215 232 254
215 232 254
215 232 254
215 232 254
215 232 254
215 232 254
215 232 254
215 232 254
215 232 254
215 232 254
215 232 254
215 232 254
215 232 254
215 232 254
215 232 254
215 232 254
215 232 254
215 232 254
215 232 254
215 232 254
215 232 254
215 232 254
215 232 254
215 232 254
215 232 254
215 232 254
215 232 254
215 232 254
215 232 254
215 232 254
215 232 254
215 232 254
215 232 254
215 232 254
215 232 254
215 232 254
215 232 254
215 232 254
215 232 254
215 232 254
215 232 254
215 232 254
215 232 254
215 232 254
215 232 254
215 232 254
215 232 254
215 232 254
215 232 254
215 232 254
215 232 254
215 232 254
215 232 254
215 232 254
215 232 254
215 232 254
215 232 254
215 232 254
215 232 254
215 232 254
215 232 254
215 232 254
215 232 254
215 232 254
215 232 254
215 232 254
215 232 254
215 232 254
215 232 254
215 232 254
215 232 254
215 232 254
215 232 254
215 232 254
215 232 254
215 232 254
215 232 254
215 232 254
215 232 254
215 232 254
215 232 254
215 232 254
215 232 254
215 232 254
215 232 254
215 232 254
215 232 254
215 232 254
215 232 254
215 232 254
215 232 254
215 232 254
215 232 254
215 232 254
215 232 254
215 232 254
215 232 254
215 232 254
215 232 254
215 232 254
215 232 254
215 232 254
215 232 254
215 232 254
215 232 254
215 232 254
215 232 254
215 232 254
215 232 254
215 232 254
215 232 254
215 232 254
215 232 254
215 232 254
215 232 254
215 232 254
215 232 254
215 232 254
215 232 254
215 232 254
215 232 254
215 232 254
215 232 254
215 232 254
215 232 254
215 232 254
215 232 254
215 232 254
215 232 254
215 232 254
215 232 254
215 232 254
215 232 254
215 232 254
215 232 254
215 232 254
215 232 254
215 232 254
215 232 254
215 232 254
215 232 254
215 232 254
215 232 254
215 232 254
215 232 254
215 232 254
215 232 254
215 232 254
215 232 254
215 232 254
215 232 254
215 232 254
215 232 254
215 232 254
215 232 254
215 232 254
215 232 254
215 232 254
215 232 254
215 232 254
215 232 254
215 232 254
215 232 254
215 232 254
215 232 254
215 232 254
215 232 254
215 232 254
215 232 254
215 232 254
215 232 254
215 232 254
215 232 254
211 227 250
136 148 168
42 51 70
0 0 51
0 0 49
0 0 49
0 0 50
0 0 52
0 0 55
0 6 53
6 18 49
0 14 61
23 41 40
66 89 66
53 71 51
18 30 0
20 33 0
20 36 0
20 38 0
18 36 2
52 70 42
48 61 31
59 70 41
59 68 43
24 36 8
26 46 0
38 62 13
44 70 19
53 73 28
64 80 41
70 80 44
80 87 53
81 89 52
78 85 48
75 82 49
80 87 50
75 85 46
65 80 40
60 78 35
47 66 24
43 65 22
34 56 8
33 56 11
29 55 10
25 49 2
27 50 2
34 50 4
26 40 0
30 45 0
21 35 0
19 34 0
18 34 0
18 34 0
15 30 0
16 32 0
16 32 0
18 35 0
16 33 0
16 33 0
19 37 0
22 39 0
24 37 0
28 40 0
30 43 0
29 39 0
30 42 0
32 47 22
29 53 61
8 91 127
12 68 98
24 55 52
35 44 10
28 42 0
33 44 6
26 38 0
27 39 0
27 40 1
29 41 1
30 42 0
32 43 0
34 45 0
32 43 0
29 40 0
29 40 0
24 34 0
22 32 0
23 34 0
26 39 0
27 40 0
22 36 0
15 36 9
22 37 13
21 37 0
21 37 12
19 35 42
3 8 61
0 0 52
0 0 54
0 0 57
0 0 54
0 0 56
0 0 57
0 0 55
0 0 53
0 0 55
0 0 55
0 0 55
0 0 55
0 0 55
30 32 67
132 143 164
213 229 252
215 232 254
215 232 254
215 232 254
215 232 254
215 232 254
215 232 254
215 232 254
215 232 254
215 232 254
215 232 254
215 232 254
215 232 254
215 232 254
215 232 254
215 232 254
215 232 254
215 232 254
215 232 254
215 232 254
215 232 254
215 232 254
215 232 254
215 232 254
215 232 254
215 232 254
215 232 254
215 232 254
215 232 254
215 232 254
215 232 254
215 232 254
215 232 254
215 232 254
215 232 254
215 232 254
215 232 254
215 232 254
215 232 254
215 232 254
215 232 254
215 232 254
215 232 254
215 232 254
215 232 254
215 232 254
215 232 254
215 232 254
215 232 254
215 232 254
215 232 254
215 232 254
215 232 254
215 232 254
215 232 254
215 232 254
215 232 254
215 232 254
215 232 254
215 232 254
215 232 254
215 232 254
215 232 254
215 232 254
215 232 254
215 232 254
215 232 254
215 232 254
215 232 254
215 232 254
215 232 254
215 232 254
215 232 254
215 232 254
215 232 254
215 232 254
215 232 254
215 232 254
215 232 254
215 232 254
215 232 254
215 232 254
215 232 254
215 232 254
215 232 254
215 232 254
215 232 254
215 232 254
215 232 254
215 232 254
215 232 254
215 232 254
215 232 254
215 232 254
215 232 254
215 232 254
215 232 254
215 232 254
215 232 254
215 232 254
215 232 254
215 232 254
215 232 254
215 232 254
215 232 254
215 232 254
215 232 254
215 232 254
215 232 254
215 232 254
215 232 254
215 232 254
215 232 254
215 232 254
215 232 254
215 232 254
215 232 254
215 232 254
215 232 254
215 232 254
215 232 254
215 232 254
215 232 254
215 232 254
215 232 254
215 232 254
215 232 254
215 232 254
215 232 254
215 232 254
215 232 254
215 232 254
215 232 254
215 232 254
215 232 254
215 232 254
215 232 254
215 232 254
215 232 254
215 232 254
215 232 254
215 232 254
215 232 254
215 232 254
215 232 254
215 232 254
215 232 254
215 232 254
215 232 254
215 232 254
215 232 254
215 232 254
215 232 254
215 232 254
215 232 254
215 232 254
215 232 254
215 232 254
215 232 254
215 232 254
215 232 254
215 232 254
215 232 254
215 232 254
215 232 254
215 232 254
215 232 254
215 232 254
215 232 254
215 232 254
215 232 254
215 232 254
215 232 254
215 232 254
215 232 254
215 232 254
215 232 254
215 232 254
215 232 254
215 232 254
215 232 254
215 232 254
215 232 254
215 232 254
215 232 254
215 232 254
215 232 254
215 232 254
215 232 254
215 232 254
215 232 254
215 232 254
215 232 254
215 232 254
215 232 254
215 232 254
215 232 254
215 232 254
215 232 254
215 232 254
215 232 254
215 232 254
215 232 254
215 232 254
215 232 254
215 232 254
215 232 254
215 232 254
215 232 254
215 232 254
215 232 254
215 232 254
215 232 254
215 232 254
215 232 254
215 232 254
215 232 254
215 232 254
215 232 254
215 232 254
215 232 254
215 232 254
215 232 254
215 232 254
215 232 254
215 232 254
215 232 254
215 232 254
215 232 254
215 232 254
215 232 254
215 232 254
215 232 254
215 232 254
215 232 254
215 232 254
215 232 254
215 232 254
215 232 254
215 232 254
215 232 254
215 232 254
215 232 254
215 232 254
215 232 254
215 232 254
215 232 254
215 232 254
215 232 254
215 232 254
215 232 254
215 232 254
215 232 254
215 232 254
215 232 254
215 232 254
215 232 254
215 232 254
215 232 254
215 232 254
215 232 254
215 232 254
215 232 254
215 232 254
215 232 254
215 232 254
215 232 254
215 232 254
215 232 254
215 232 254
215 232 254
215 232 254
215 232 254
215 232 254
215 232 254
215 232 254
215 232 254
215 232 254
215 232 254
215 232 254
215 232 254
215 232 254
215 232 254
215 232 254
215 232 254
215 232 254
215 232 254
215 232 254
175 189 210
75 81 104
0 1 52
0 0 50
0 0 49
0 0 48
0 0 52
0 0 54
0 0 54
0 0 56
6 22 46
3 16 61
2 9 48
19 36 21
73 96 76
49 63 41
30 40 3
36 46 8
29 42 0
21 38 0
18 35 2
34 51 21
51 67 33
68 81 57
80 87 63
50 58 31
38 56 15
54 75 28
76 85 48
86 89 57
93 92 64
102 98 69
105 102 71
103 102 66
92 96 61
83 89 58
79 88 52
74 83 49
66 79 42
59 75 34
54 73 31
48 72 27
43 70 21
40 61 12
38 63 13
33 61 14
34 58 11
41 63 10
32 48 5
32 47 0
26 39 0
24 38 0
24 37 0
20 35 0
17 33 0
16 31 0
13 26 0
15 30 0
18 34 5
20 36 1
20 38 0
23 40 0
23 40 0
24 41 0
25 41 0
28 42 0
31 46 0
30 45 0
26 42 6
31 47 12
32 43 11
33 45 6
28 43 7
27 38 0
23 38 9
24 37 1
27 40 0
22 34 6
15 25 10
22 35 0
27 41 0
24 38 0
29 40 0
20 31 0
20 32 0
22 35 0
22 36 0
26 40 0
29 43 0
24 37 0
24 38 0
18 34 0
21 35 0
23 39 0
21 36 0
25 43 1
19 34 38
2 8 57
0 0 54
0 0 56
0 0 53
0 0 53
0 0 58
0 0 61
0 0 56
0 0 54
0 0 56
0 0 55
0 0 57
0 0 57
0 0 56
0 0 58
74 80 105
169 182 204
215 232 254
215 232 254
215 232 254
215 232 254
215 232 254
215 232 254
215 232 254
215 232 254
215 232 254
215 232 254
215 232 254
215 232 254
215 232 254
215 232 254
215 232 254
215 232 254
215 232 254
215 232 254
215 232 254
215 232 254
215 232 254
215 232 254
215 232 254
215 232 254
215 232 254
215 232 254
215 232 254
215 232 254
215 232 254
215 232 254
215 232 254
215 232 254
215 232 254
215 232 254
215 232 254
215 232 254
215 232 254
215 232 254
215 232 254
215 232 254
215 232 254
215 232 254
215 232 254
215 232 254
215 232 254
215 232 254
215 232 254
215 232 254
215 232 254
215 232 254
215 232 254
215 232 254
215 232 254
215 232 254
215 232 254
215 232 254
215 232 254
215 232 254
215 232 254
215 232 254
215 232 254
215 232 254
215 232 254
215 232 254
215 232 254
215 232 254
215 232 254
215 232 254
215 232 254
215 232 254
215 232 254
215 232 254
215 232 254
215 232 254
215 232 254
215 232 254
215 232 254
215 232 254
215 232 254
215 232 254
215 232 254
215 232 254
215 232 254
215 232 254
215 232 254
215 232 254
215 232 254
215 232 254
215 232 254
215 232 254
215 232 254
215 232 254
215 232 254
215 232 254
215 232 254
215 232 254
215 232 254
215 232 254
215 232 254
215 232 254
215 232 254
215 232 254
215 232 254
215 232 254
215 232 254
215 232 254
215 232 254
215 232 254
215 232 254
215 232 254
215 232 254
215 232 254
215 232 254
215 232 254
215 232 254
215 232 254
215 232 254
215 232 254
215 232 254
215 232 254
215 232 254
215 232 254
215 232 254
215 232 254
215 232 254
215 232 254
215 232 254
215 232 254
215 232 254
215 232 254
215 232 254
215 232 254
215 232 254
215 232 254
215 232 254
215 232 254
215 232 254
215 232 254
215 232 254
215 232 254
215 232 254
215 232 254
215 232 254
215 232 254
215 232 254
215 232 254
215 232 254
215 232 254
215 232 254
215 232 254
215 232 254
215 232 254
215 232 254
215 232 254
215 232 254
215 232 254
215 232 254
215 232 254
215 232 254
215 232 254
215 232 254
215 232 254
215 232 254
215 232 254
215 232 254
215 232 254
215 232 254
215 232 254
215 232 254
215 232 254
215 232 254
215 232 254
215 232 254
215 232 254
215 232 254
215 232 254
215 232 254
215 232 254
215 232 254
215 232 254
215 232 254
215 232 254
215 232 254
215 232 254
215 232 254
215 232 254
215 232 254
215 232 254
215 232 254
215 232 254
215 232 254
215 232 254
215 232 254
215 232 254
215 232 254
215 232 254
215 232 254
215 232 254
215 232 254
215 232 254
215 232 254
215 232 254
215 232 254
215 232 254
215 232 254
215 232 254
215 232 254
215 232 254
215 232 254
215 232 254
215 232 254
215 232 254
215 232 254
215 232 254
215 232 254
215 232 254
215 232 254
215 232 254
215 232 254
215 232 254
215 232 254
215 232 254
215 232 254
215 232 254
215 232 254
215 232 254
215 232 254
215 232 254
215 232 254
215 232 254
215 232 254
215 232 254
215 232 254
215 232 254
215 232 254
215 232 254
215 232 254
215 232 254
215 232 254
215 232 254
215 232 254
215 232 254
215 232 254
215 232 254
215 232 254
215 232 254
215 232 254
215 232 254
215 232 254
215 232 254
215 232 254
215 232 254
215 232 254
215 232 254
215 232 254
215 232 254
215 232 254
215 232 254
215 232 254
215 232 254
215 232 254
215 232 254
215 232 254
215 232 254
215 232 254
215 232 254
215 232 254
215 232 254
215 232 254
215 232 254
215 232 254
215 232 254
215 232 254
215 232 254
215 232 254
215 232 254
215 232 254
215 232 254
215 232 254
215 232 254
215 232 254
215 232 254
215 232 254
215 232 254
196 211 233
112 121 141
0 3 55
0 0 51
0 0 50
0 0 50
0 0 52
0 0 52
0 0 52
0 0 52
0 0 52
0 1 58
0 9 49
0 0 56
3 12 49
35 53 35
104 127 117
90 107 93
55 66 46
34 43 9
34 46 8
26 41 7
20 38 1
26 44 12
39 58 24
54 70 39
40 51 18
45 55 22
56 71 34
82 87 51
91 92 58
92 93 67
101 98 71
104 101 73
97 95 65
95 98 66
87 93 60
83 89 54
75 86 47
63 80 35
56 75 27
56 76 30
47 69 20
45 69 18
46 71 19
48 75 22
43 69 17
43 67 18
39 67 15
47 72 15
39 60 4
31 48 0
24 38 5
24 38 3
22 39 4
24 38 4
21 36 0
22 38 0
21 34 0
22 40 0
14 26 25
15 27 20
23 40 0
24 43 0
23 42 0
22 40 0
24 44 0
21 41 0
24 44 0
25 43 0
25 43 0
23 41 0
28 44 0
29 45 0
27 44 0
25 44 0
25 43 0
26 44 0
23 40 0
23 39 0
27 40 2
26 42 0
24 42 0
21 37 0
19 34 0
23 38 6
18 30 0
17 32 0
16 35 10
16 35 19
18 34 14
18 35 0
21 37 0
17 31 0
18 35 0
20 34 0
22 35 9
12 24 38
18 31 42
14 28 39
0 5 60
0 3 64
0 0 62
0 0 57
0 0 53
0 0 58
0 0 61
0 0 58
0 0 59
0 0 60
0 0 56
0 0 59
0 4 65
0 0 57
0 0 58
0 0 62
112 120 144
201 216 239
215 232 254
215 232 254
215 232 254
215 232 254
215 232 254
215 232 254
215 232 254
215 232 254
215 232 254
215 232 254
215 232 254
215 232 254
215 232 254
215 232 254
215 232 254
215 232 254
215 232 254
215 232 254
215 232 254
215 232 254
215 232 254
215 232 254
215 232 254
215 232 254
215 232 254
215 232 254
215 232 254
215 232 254
215 232 254
215 232 254
215 232 254
215 232 254
215 232 254
215 232 254
215 232 254
215 232 254
215 232 254
215 232 254
215 232 254
215 232 254
215 232 254
215 232 254
215 232 254
215 232 254
215 232 254
215 232 254
215 232 254
215 232 254
215 232 254
215 232 254
215 232 254
215 232 254
215 232 254
215 232 254
215 232 254
215 232 254
215 232 254
215 232 254
215 232 254
215 232 254
215 232 254
215 232 254
215 232 254
215 232 254
215 232 254
215 232 254
215 232 254
215 232 254
215 232 254
215 232 254
215 232 254
215 232 254
215 232 254
215 232 254
215 232 254
215 232 254
215 232 254
215 232 254
215 232 254
215 232 254
215 232 254
215 232 254
215 232 254
215 232 254
215 232 254
215 232 254
215 232 254
215 232 254
215 232 254
215 232 254
215 232 254
215 232 254
215 232 254
215 232 254
215 232 254
215 232 254
215 232 254
215 232 254
215 232 254
215 232 254
215 232 254
215 232 254
215 232 254
215 232 254
215 232 254
215 232 254
215 232 254
215 232 254
215 232 254
215 232 254
215 232 254
215 232 254
215 232 254
215 232 254
215 232 254
215 232 254
215 232 254
215 232 254
215 232 254
215 232 254
215 232 254
215 232 254
215 232 254
215 232 254
215 232 254
215 232 254
215 232 254
215 232 254
215 232 254
215 232 254
215 232 254
215 232 254
215 232 254
215 232 254
215 232 254
215 232 254
215 232 254
215 232 254
215 232 254
215 232 254
215 232 254
215 232 254
215 232 254
215 232 254
215 232 254
215 232 254
215 232 254
215 232 254
215 232 254
215 232 254
215 232 254
215 232 254
215 232 254
215 232 254
215 232 254
215 232 254
215 232 254
215 232 254
215 232 254
215 232 254
215 232 254
215 232 254
215 232 254
215 232 254
215 232 254
215 232 254
215 232 254
215 232 254
215 232 254
215 232 254
215 232 254
215 232 254
215 232 254
215 232 254
215 232 254
215 232 254
215 232 254
215 232 254
215 232 254
215 232 254
215 232 254
215 232 254
215 232 254
215 232 254
215 232 254
215 232 254
215 232 254
215 232 254
215 232 254
215 232 254
215 232 254
215 232 254
215 232 254
215 232 254
215 232 254
215 232 254
215 232 254
215 232 254
215 232 254
215 232 254
215 232 254
215 232 254
215 232 254
215 232 254
215 232 254
215 232 254
215 232 254
215 232 254
215 232 254
215 232 254
215 232 254
215 232 254
215 232 254
215 232 254
215 232 254
215 232 254
215 232 254
215 232 254
215 232 254
215 232 254
215 232 254
215 232 254
215 232 254
215 232 254
215 232 254
215 232 254
215 232 254
215 232 254
215 232 254
215 232 254
215 232 254
215 232 254
215 232 254
215 232 254
215 232 254
215 232 254
215 232 254
215 232 254
215 232 254
215 232 254
215 232 254
215 232 254
215 232 254
215 232 254
215 232 254
215 232 254
215 232 254
215 232 254
215 232 254
215 232 254
215 232 254
215 232 254
215 232 254
215 232 254
215 232 254
215 232 254
215 232 254
215 232 254
215 232 254
215 232 254
215 232 254
215 232 254
215 232 254
215 232 254
215 232 254
215 232 254
215 232 254
215 232 254
215 232 254
215 232 254
215 232 254
215 232 254
215 232 254
215 232 254
215 232 254
215 232 254
215 232 254
215 232 254
215 232 254
215 232 254
213 229 252
161 173 194
48 52 77
0 0 51
0 0 50
0 0 50
0 0 50
0 0 51
0 0 52
0 0 52
0 0 50
0 0 50
0 0 52
0 0 51
0 0 53
6 14 51
9 24 33
24 42 26
51 68 56
91 115 106
78 95 78
37 49 18
34 44 8
32 44 9
24 41 6
23 40 3
30 44 8
41 53 23
38 49 12
46 55 19
78 86 50
88 94 60
101 101 69
105 102 73
93 92 61
98 95 66
99 99 70
91 93 63
87 91 60
78 84 52
72 82 46
69 81 42
63 78 34
56 73 29
49 71 23
51 76 27
48 73 24
45 69 18
48 72 23
46 72 24
46 71 22
45 67 22
41 60 15
32 50 13
22 37 16
29 48 6
21 39 7
25 42 0
22 37 0
24 38 0
22 39 0
24 44 5
25 48 15
20 39 24
17 32 31
20 38 28
23 43 10
23 42 0
24 42 0
25 46 0
27 48 0
26 46 0
25 46 0
29 49 0
29 47 0
30 50 0
27 48 0
27 49 0
26 46 0
27 44 0
25 42 0
21 36 0
24 42 0
23 44 0
23 45 0
22 43 0
19 38 0
22 39 5
24 42 7
15 39 21
8 36 46
0 22 87
0 18 78
3 19 77
9 25 54
11 22 45
12 25 45
12 21 42
11 21 45
0 0 60
1 5 53
22 41 16
4 15 47
0 5 68
0 0 62
0 0 63
0 0 58
0 0 54
0 0 58
0 0 64
0 0 59
0 0 61
0 0 58
0 0 60
0 0 64
0 0 65
0 0 60
0 0 62
0 0 65
48 52 85
159 172 193
214 231 253
215 232 254
215 232 254
215 232 254
215 232 254
215 232 254
215 232 254
215 232 254
215 232 254
215 232 254
215 232 254
215 232 254
215 232 254
215 232 254
215 232 254
215 232 254
215 232 254
215 232 254
215 232 254
215 232 254
215 232 254
215 232 254
215 232 254
215 232 254
215 232 254
215 232 254
215 232 254
215 232 254
215 232 254
215 232 254
215 232 254
215 232 254
215 232 254
215 232 254
215 232 254
215 232 254
215 232 254
215 232 254
215 232 254
215 232 254
215 232 254
215 232 254
215 232 254
215 232 254
215 232 254
215 232 254
215 232 254
215 232 254
215 232 254
215 232 254
215 232 254
215 232 254
215 232 254
215 232 254
215 232 254
215 232 254
215 232 254
215 232 254
215 232 254
215 232 254
215 232 254
215 232 254
215 232 254
215 232 254
215 232 254
215 232 254
215 232 254
215 232 254
215 232 254
215 232 254
215 232 254
215 232 254
215 232 254
215 232 254
215 232 254
215 232 254
215 232 254
215 232 254
215 232 254
215 232 254
215 232 254
215 232 254
215 232 254
215 232 254
215 232 254
215 232 254
215 232 254
215 232 254
215 232 254
215 232 254
215 232 254
215 232 254
215 232 254
215 232 254
215 232 254
215 232 254
215 232 254
215 232 254
215 232 254
215 232 254
215 232 254
215 232 254
215 232 254
215 232 254
215 232 254
215 232 254
215 232 254
215 232 254
215 232 254
215 232 254
215 232 254
215 232 254
215 232 254
215 232 254
215 232 254
215 232 254
215 232 254
215 232 254
215 232 254
215 232 254
215 232 254
215 232 254
215 232 254
215 232 254
215 232 254
215 232 254
215 232 254
215 232 254
215 232 254
215 232 254
215 232 254
215 232 254
215 232 254
215 232 254
215 232 254
215 232 254
215 232 254
215 232 254
215 232 254
215 232 254
215 232 254
215 232 254
215 232 254
215 232 254
215 232 254
215 232 254
215 232 254
215 232 254
215 232 254
215 232 254
215 232 254
215 232 254
215 232 254
215 232 254
215 232 254
215 232 254
215 232 254
215 232 254
215 232 254
215 232 254
215 232 254
215 232 254
215 232 254
215 232 254
215 232 254
215 232 254
215 232 254
215 232 254
215 232 254
215 232 254
215 232 254
215 232 254
215 232 254
215 232 254
215 232 254
215 232 254
215 232 254
215 232 254
215 232 254
215 232 254
215 232 254
215 232 254
215 232 254
215 232 254
215 232 254
215 232 254
215 232 254
215 232 254
215 232 254
215 232 254
215 232 254
215 232 254
215 232 254
215 232 254
215 232 254
215 232 254
215 232 254
215 232 254
215 232 254
215 232 254
215 232 254
215 232 254
215 232 254
215 232 254
215 232 254
215 232 254
215 232 254
215 232 254
215 232 254
215 232 254
215 232 254
215 232 254
215 232 254
215 232 254
215 232 254
215 232 254
215 232 254
215 232 254
215 232 254
215 232 254
215 232 254
215 232 254
215 232 254
215 232 254
215 232 254
215 232 254
215 232 254
215 232 254
215 232 254
215 232 254
215 232 254
215 232 254
215 232 254
215 232 254
215 232 254
215 232 254
215 232 254
215 232 254
215 232 254
215 232 254
215 232 254
215 232 254
215 232 254
215 232 254
215 232 254
215 232 254
215 232 254
215 232 254
215 232 254
215 232 254
215 232 254
215 232 254
215 232 254
215 232 254
215 232 254
215 232 254
215 232 254
215 232 254
215 232 254
215 232 254
215 232 254
215 232 254
215 232 254
215 232 254
215 232 254
215 232 254
215 232 254
215 232 254
215 232 254
215 232 254
215 232 254
215 232 254
215 232 254
215 232 254
215 232 254
215 232 254
215 232 254
215 232 254
204 220 242
118 127 147
0 0 51
0 0 49
0 0 49
0 0 50
0 0 50
0 0 52
0 0 53
0 0 52
0 0 50
0 0 51
0 0 51
0 0 49
0 0 50
0 0 52
5 17 38
15 36 10
13 35 21
7 27 49
33 55 41
36 54 25
21 39 0
32 42 9
37 48 12
26 42 0
23 41 0
26 43 5
28 42 3
29 45 5
38 54 17
83 86 53
109 107 75
118 113 81
115 114 84
102 102 71
97 97 65
92 93 64
89 91 62
78 84 54
76 84 49
69 79 42
68 78 40
66 79 39
56 74 31
50 73 24
48 73 19
48 72 22
50 72 24
44 67 22
45 70 23
46 71 29
47 69 26
45 67 17
36 57 12
27 47 12
27 50 0
29 52 0
26 46 4
21 39 0
21 40 0
21 39 17
24 43 35
7 14 57
0 0 61
0 0 59
0 1 64
10 24 46
20 38 30
22 41 13
21 40 0
23 42 0
23 44 0
25 45 0
27 47 0
30 51 0
29 50 0
28 49 0
28 49 0
23 44 0
24 43 0
20 38 0
20 37 0
21 40 0
22 43 0
25 45 5
22 39 12
26 46 0
21 42 0
21 51 33
10 59 90
13 43 72
19 46 39
22 42 27
17 42 33
9 32 56
12 23 60
13 25 45
6 14 53
0 0 56
0 0 57
0 3 59
20 37 25
19 38 11
13 27 42
4 12 52
5 13 51
0 1 57
0 0 57
0 0 55
0 0 58
0 0 64
0 0 64
0 1 64
0 4 61
0 0 59
0 2 64
0 1 69
0 3 67
0 1 66
0 4 68
0 0 62
96 103 125
201 216 238
215 232 254
215 232 254
215 232 254
215 232 254
215 232 254
215 232 254
215 232 254
215 232 254
215 232 254
215 232 254
215 232 254
215 232 254
215 232 254
215 232 254
215 232 254
215 232 254
215 232 254
215 232 254
215 232 254
215 232 254
215 232 254
215 232 254
215 232 254
215 232 254
215 232 254
215 232 254
215 232 254
215 232 254
215 232 254
215 232 254
215 232 254
215 232 254
215 232 254
215 232 254
215 232 254
215 232 254
215 232 254
215 232 254
215 232 254
215 232 254
215 232 254
215 232 254
215 232 254
215 232 254
215 232 254
215 232 254
215 232 254
215 232 254
215 232 254
215 232 254
215 232 254
215 232 254
215 232 254
215 232 254
215 232 254
215 232 254
215 232 254
215 232 254
215 232 254
215 232 254
215 232 254
215 232 254
215 232 254
215 232 254
215 232 254
215 232 254
215 232 254
215 232 254
215 232 254
215 232 254
215 232 254
215 232 254
215 232 254
215 232 254
215 232 254
215 232 254
215 232 254
215 232 254
215 232 254
215 232 254
215 232 254
215 232 254
215 232 254
215 232 254
215 232 254
215 232 254
215 232 254
215 232 254
215 232 254
215 232 254
215 232 254
215 232 254
215 232 254
215 232 254
215 232 254
215 232 254
215 232 254
215 232 254
215 232 254
215 232 254
215 232 254
215 232 254
215 232 254
215 232 254
215 232 254
215 232 254
215 232 254
215 232 254
215 232 254
215 232 254
215 232 254
215 232 254
215 232 254
215 232 254
215 232 254
215 232 254
215 232 254
215 232 254
215 232 254
215 232 254
215 232 254
215 232 254
215 232 254
215 232 254
215 232 254
215 232 254
215 232 254
215 232 254
215 232 254
215 232 254
215 232 254
215 232 254
215 232 254
215 232 254
215 232 254
215 232 254
215 232 254
215 232 254
215 232 254
215 232 254
215 232 254
215 232 254
215 232 254
215 232 254
215 232 254
215 232 254
215 232 254
215 232 254
215 232 254
215 232 254
215 232 254
215 232 254
215 232 254
215 232 254
215 232 254
215 232 254
215 232 254
215 232 254
215 232 254
215 232 254
215 232 254
215 232 254
215 232 254
215 232 254
215 232 254
215 232 254
215 232 254
215 232 254
215 232 254
215 232 254
215 232 254
215 232 254
215 232 254
215 232 254
215 232 254
215 232 254
215 232 254
215 232 254
215 232 254
215 232 254
215 232 254
215 232 254
215 232 254
215 232 254
215 232 254
215 232 254
215 232 254
215 232 254
215 232 254
215 232 254
215 232 254
215 232 254
215 232 254
215 232 254
215 232 254
215 232 254
215 232 254
215 232 254
215 232 254
215 232 254
215 232 254
215 232 254
215 232 254
215 232 254
215 232 254
215 232 254
215 232 254
215 232 254
215 232 254
215 232 254
215 232 254
215 232 254
215 232 254
215 232 254
215 232 254
215 232 254
215 232 254
215 232 254
215 232 254
215 232 254
215 232 254
215 232 254
215 232 254
215 232 254
215 232 254
215 232 254
215 232 254
215 232 254
215 232 254
215 232 254
215 232 254
215 232 254
215 232 254
215 232 254
215 232 254
215 232 254
215 232 254
215 232 254
215 232 254
215 232 254
215 232 254
215 232 254
215 232 254
215 232 254
215 232 254
215 232 254
215 232 254
215 232 254
215 232 254
215 232 254
215 232 254
215 232 254
215 232 254
215 232 254
215 232 254
215 232 254
215 232 254
215 232 254
215 232 254
215 232 254
215 232 254
215 232 254
215 232 254
215 232 254
215 232 254
215 232 254
215 232 254
215 232 254
215 232 254
215 232 254
215 232 254
215 232 254
215 232 254
215 232 254
215 232 254
177 191 213
48 51 77
0 0 50
0 0 48
0 0 48
0 0 49
0 0 51
0 0 51
0 0 52
0 0 52
0 0 51
0 0 51
0 0 52
0 0 51
0 0 50
0 0 55
0 0 52
0 9 68
9 27 55
7 33 21
8 40 71
22 57 49
30 51 16
41 50 21
65 69 41
41 50 16
38 52 14
25 42 7
25 42 3
38 51 11
40 53 20
35 46 9
79 84 50
109 107 73
112 109 75
106 104 72
88 88 53
85 86 55
91 93 63
89 93 62
86 91 61
80 87 54
75 85 48
72 83 44
65 77 37
55 70 29
53 72 30
51 72 26
50 71 20
48 71 18
45 70 18
45 71 20
45 70 27
44 70 20
40 64 11
35 56 3
26 48 5
27 49 0
31 53 0
32 53 5
22 45 35
9 30 58
0 9 67
4 9 63
14 40 59
7 32 42
0 5 68
0 0 64
0 0 63
2 6 67
12 31 49
24 47 3
21 42 0
20 40 0
22 41 0
23 42 0
20 41 0
26 51 0
23 44 7
21 42 0
19 41 0
18 39 0
19 40 0
21 45 0
20 41 0
24 44 0
21 42 0
19 43 0
20 39 0
21 46 22
19 68 58
23 56 37
23 51 0
25 48 0
22 52 13
18 53 50
12 38 47
0 15 79
0 4 65
0 5 73
0 5 68
0 4 61
0 3 59
19 35 36
28 45 0
29 44 9
27 44 8
24 42 6
8 19 42
0 0 57
0 0 58
0 0 57
0 8 65
0 14 77
0 8 72
0 11 71
0 2 64
0 0 60
0 3 59
0 4 66
0 4 67
0 3 66
0 0 62
0 0 58
52 56 83
176 190 211
215 232 254
215 232 254
215 232 254
215 232 254
215 232 254
215 232 254
215 232 254
215 232 254
215 232 254
215 232 254
215 232 254
215 232 254
215 232 254
215 232 254
215 232 254
215 232 254
215 232 254
215 232 254
215 232 254
215 232 254
215 232 254
215 232 254
215 232 254
215 232 254
215 232 254
215 232 254
215 232 254
215 232 254
215 232 254
215 232 254
215 232 254
215 232 254
215 232 254
215 232 254
215 232 254
215 232 254
215 232 254
215 232 254
215 232 254
215 232 254
215 232 254
215 232 254
215 232 254
215 232 254
215 232 254
215 232 254
215 232 254
215 232 254
215 232 254
215 232 254
215 232 254
215 232 254
215 232 254
215 232 254
215 232 254
215 232 254
215 232 254
215 232 254
215 232 254
215 232 254
215 232 254
215 232 254
215 232 254
215 232 254
215 232 254
215 232 254
215 232 254
215 232 254
215 232 254
215 232 254
215 232 254
215 232 254
215 232 254
215 232 254
215 232 254
215 232 254
215 232 254
215 232 254
215 232 254
215 232 254
215 232 254
215 232 254
215 232 254
215 232 254
215 232 254
215 232 254
215 232 254
215 232 254
215 232 254
215 232 254
215 232 254
215 232 254
215 232 254
215 232 254
215 232 254
215 232 254
215 232 254
215 232 254
215 232 254
215 232 254
215 232 254
215 232 254
215 232 254
215 232 254
215 232 254
215 232 254
215 232 254
215 232 254
215 232 254
215 232 254
215 232 254
215 232 254
215 232 254
215 232 254
215 232 254
215 232 254
215 232 254
215 232 254
215 232 254
215 232 254
215 232 254
215 232 254
215 232 254
215 232 254
215 232 254
215 232 254
215 232 254
215 232 254
215 232 254
215 232 254
215 232 254
215 232 254
215 232 254
215 232 254
215 232 254
215 232 254
215 232 254
216 232 254
216 232 254
216 232 254
216 232 254
216 232 254
216 232 254
216 232 254
216 232 254
216 232 254
216 232 254
216 232 254
216 232 254
216 232 254
216 232 254
216 232 254
216 232 254
215 232 254
215 232 254
215 232 254
215 232 254
215 232 254
215 232 254
215 232 254
215 232 254
215 232 254
215 232 254
215 232 254
215 232 254
215 232 254
215 232 254
215 232 254
215 232 254
215 232 254
215 232 254
215 232 254
215 232 254
215 232 254
215 232 254
215 232 254
215 232 254
215 232 254
215 232 254
215 232 254
215 232 254
215 232 254
215 232 254
215 232 254
215 232 254
215 232 254
215 232 254
215 232 254
215 232 254
215 232 254
215 232 254
215 232 254
215 232 254
215 232 254
215 232 254
215 232 254
215 232 254
215 232 254
215 232 254
215 232 254
215 232 254
215 232 254
215 232 254
215 232 254
215 232 254
215 232 254
215 232 254
215 232 254
215 232 254
215 232 254
215 232 254
215 232 254
215 232 254
215 232 254
215 232 254
215 232 254
215 232 254
215 232 254
215 232 254
215 232 254
215 232 254
215 232 254
215 232 254
215 232 254
215 232 254
215 232 254
215 232 254
215 232 254
215 232 254
215 232 254
215 232 254
215 232 254
215 232 254
215 232 254
215 232 254
215 232 254
215 232 254
215 232 254
215 232 254
215 232 254
215 232 254
215 232 254
215 232 254
215 232 254
215 232 254
215 232 254
215 232 254
215 232 254
215 232 254
215 232 254
215 232 254
215 232 254
215 232 254
215 232 254
215 232 254
215 232 254
215 232 254
215 232 254
215 232 254
215 232 254
215 232 254
215 232 254
215 232 254
215 232 254
215 232 254
215 232 254
215 232 254
215 232 254
215 232 254
215 232 254
215 232 254
215 232 254
208 224 246
138 148 168
0 0 50
0 0 49
0 0 48
0 0 50
0 0 50
0 0 52
0 0 52
0 0 52
0 0 51
0 0 53
0 0 52
0 0 52
0 0 51
0 0 48
0 0 58
0 0 57
0 0 57
0 8 64
5 29 53
11 34 17
19 43 40
21 45 15
45 54 24
87 87 59
96 95 66
83 85 53
56 67 32
24 41 3
25 43 0
44 55 18
43 55 18
41 51 15
68 74 41
71 74 43
66 70 36
85 90 57
83 89 56
97 99 69
100 101 71
113 113 83
107 108 78
93 96 65
83 90 59
77 83 48
61 74 34
55 71 29
63 76 33
59 76 34
55 73 27
49 71 21
49 72 25
46 70 17
46 69 22
44 67 20
37 61 11
45 67 21
38 58 13
30 51 4
33 56 3
30 54 9
28 56 30
23 55 21
23 49 33
24 51 13
24 53 8
27 48 7
23 47 23
22 40 36
23 42 29
19 41 27
20 45 49
26 57 21
18 45 29
18 42 21
20 42 14
25 49 0
24 47 0
20 39 9
23 45 0
21 46 0
20 45 0
20 44 0
23 48 0
24 49 0
24 48 0
23 47 0
24 46 0
27 51 0
28 52 0
27 62 33
21 59 33
25 49 1
26 54 0
29 56 2
24 49 2
23 45 3
22 51 22
8 35 81
0 17 60
0 0 64
0 0 60
0 3 62
0 0 62
15 32 45
28 45 32
27 38 28
29 41 21
28 42 13
29 45 11
10 21 43
2 5 58
0 0 63
0 0 63
0 10 67
0 11 72
0 3 69
0 3 69
0 10 71
0 1 59
0 0 56
0 0 61
0 0 62
0 0 60
0 0 59
0 0 56
0 0 57
141 152 173
207 222 245
215 232 254
215 232 254
215 232 254
215 232 254
215 232 254
215 232 254
215 232 254
215 232 254
215 232 254
215 232 254
215 232 254
215 232 254
215 232 254
215 232 254
215 232 254
215 232 254
215 232 254
215 232 254
215 232 254
215 232 254
215 232 254
215 232 254
215 232 254
215 232 254
215 232 254
215 232 254
215 232 254
215 232 254
215 232 254
215 232 254
215 232 254
215 232 254
215 232 254
215 232 254
215 232 254
215 232 254
215 232 254
215 232 254
215 232 254
215 232 254
215 232 254
215 232 254
215 232 254
215 232 254
215 232 254
215 232 254
215 232 254
215 232 254
215 232 254
215 232 254
215 232 254
215 232 254
215 232 254
215 232 254
215 232 254
215 232 254
215 232 254
215 232 254
215 232 254
215 232 254
215 232 254
215 232 254
215 232 254
215 232 254
215 232 254
215 232 254
215 232 254
215 232 254
215 232 254
215 232 254
215 232 254
215 232 254
215 232 254
215 232 254
215 232 254
215 232 254
215 232 254
215 232 254
215 232 254
215 232 254
215 232 254
215 232 254
215 232 254
215 232 254
215 232 254
215 232 254
215 232 254
215 232 254
215 232 254
215 232 254
215 232 254
215 232 254
215 232 254
215 232 254
215 232 254
215 232 254
215 232 254
215 232 254
215 232 254
215 232 254
215 232 254
215 232 254
215 232 254
215 232 254
215 232 254
215 232 254
215 232 254
215 232 254
215 232 254
215 232 254
215 232 254
215 232 254
215 232 254
215 232 254
215 232 254
215 232 254
215 232 254
216 232 254
216 232 254
216 232 254
216 232 254
216 232 254
216 232 254
216 232 254
216 232 254
216 232 254
216 232 254
216 232 254
216 232 254
216 232 254
216 232 254
216 232 254
216 232 254
216 232 254
216 232 254
216 232 254
216 232 254
216 232 254
216 232 254
216 232 254
216 232 254
216 232 254
216 232 254
216 232 254
216 232 254
216 232 254
216 232 254
216 232 254
216 232 254
216 232 254
216 232 254
216 232 254
216 232 254
216 232 254
216 232 254
216 232 254
216 232 254
216 232 254
216 232 254
216 232 254
216 232 254
216 232 254
216 232 254
216 232 254
216 232 254
216 232 254
216 232 254
216 232 254
216 232 254
216 232 254
216 232 254
216 232 254
216 232 254
216 232 254
216 232 254
216 232 254
216 232 254
216 232 254
216 232 254
216 232 254
216 232 254
216 232 254
215 232 254
215 232 254
215 232 254
215 232 254
215 232 254
215 232 254
215 232 254
215 232 254
215 232 254
215 232 254
215 232 254
215 232 254
215 232 254
215 232 254
215 232 254
215 232 254
215 232 254
215 232 254
215 232 254
215 232 254
215 232 254
215 232 254
215 232 254
215 232 254
215 232 254
215 232 254
215 232 254
215 232 254
215 232 254
215 232 254
215 232 254
215 232 254
215 232 254
215 232 254
215 232 254
215 232 254
215 232 254
215 232 254
215 232 254
215 232 254
215 232 254
215 232 254
215 232 254
215 232 254
215 232 254
215 232 254
215 232 254
215 232 254
215 232 254
215 232 254
215 232 254
215 232 254
215 232 254
215 232 254
215 232 254
215 232 254
215 232 254
215 232 254
215 232 254
215 232 254
215 232 254
215 232 254
215 232 254
215 232 254
215 232 254
215 232 254
215 232 254
215 232 254
215 232 254
215 232 254
215 232 254
215 232 254
215 232 254
215 232 254
215 232 254
215 232 254
215 232 254
215 232 254
215 232 254
215 232 254
215 232 254
215 232 254
215 232 254
215 232 254
215 232 254
215 232 254
215 232 254
195 210 231
61 65 86
0 0 51
0 0 51
0 0 50
0 0 50
0 0 50
0 0 53
0 0 53
0 0 52
0 0 51
0 0 53
0 0 52
0 0 52
0 0 51
0 0 51
0 0 50
0 0 53
0 0 52
0 0 52
0 15 65
14 43 30
21 44 3
26 45 11
58 60 35
80 83 53
76 84 49
86 88 57
68 76 38
54 68 26
27 47 5
30 47 8
47 57 23
46 56 20
57 65 30
73 79 46
68 76 42
75 80 46
101 101 73
104 103 74
99 100 69
92 96 62
92 93 62
93 96 64
87 92 58
79 86 49
71 81 46
67 79 44
68 79 42
69 80 43
60 73 34
55 71 28
51 71 25
50 71 25
46 68 22
48 70 23
44 66 24
41 64 16
43 66 20
46 67 25
44 64 20
40 61 15
35 58 6
32 58 6
29 56 0
32 57 0
31 51 4
27 53 1
31 51 9
27 54 24
13 40 68
6 24 67
2 12 63
15 39 43
17 41 52
10 25 56
3 21 58
9 33 51
8 26 67
13 30 60
23 47 17
27 50 0
21 45 0
21 46 0
29 54 0
31 55 0
29 53 0
31 54 2
30 53 6
37 61 8
35 61 13
35 60 7
32 55 2
29 53 8
25 51 0
23 51 0
26 54 3
30 53 6
28 51 0
26 49 2
26 54 39
16 60 72
17 36 62
14 23 52
1 3 58
14 34 41
4 11 59
0 0 58
0 0 64
0 0 58
5 11 61
17 30 38
11 24 47
20 37 29
3 6 61
0 0 64
0 10 68
0 11 70
0 3 63
0 6 69
0 17 80
0 13 75
0 1 61
0 0 59
0 0 59
0 0 60
0 0 61
0 0 64
0 0 60
0 0 57
74 80 106
194 209 231
215 232 254
215 232 254
215 232 254
215 232 254
215 232 254
215 232 254
215 232 254
215 232 254
215 232 254
215 232 254
215 232 254
215 232 254
215 232 254
215 232 254
215 232 254
215 232 254
215 232 254
215 232 254
215 232 254
215 232 254
215 232 254
215 232 254
215 232 254
215 232 254
215 232 254
215 232 254
215 232 254
215 232 254
215 232 254
215 232 254
215 232 254
215 232 254
215 232 254
215 232 254
215 232 254
215 232 254
215 232 254
215 232 254
215 232 254
215 232 254
215 232 254
215 232 254
215 232 254
215 232 254
215 232 254
215 232 254
215 232 254
215 232 254
215 232 254
215 232 254
215 232 254
215 232 254
215 232 254
215 232 254
215 232 254
215 232 254
215 232 254
215 232 254
215 232 254
215 232 254
215 232 254
215 232 254
215 232 254
215 232 254
215 232 254
215 232 254
215 232 254
215 232 254
215 232 254
215 232 254
215 232 254
215 232 254
215 232 254
215 232 254
215 232 254
215 232 254
215 232 254
215 232 254
215 232 254
215 232 254
215 232 254
215 232 254
215 232 254
215 232 254
215 232 254
215 232 254
215 232 254
215 232 254
216 232 254
216 232 254
216 232 254
216 232 254
216 232 254
216 232 254
216 232 254
216 232 254
216 232 254
216 232 254
216 232 254
216 232 254
216 232 254
216 232 254
216 232 254
216 232 254
216 232 254
216 232 254
216 232 254
216 232 254
216 232 254
216 232 254
216 232 254
216 232 254
216 232 254
216 232 254
216 232 254
216 232 254
216 232 254
216 232 254
216 232 254
216 232 254
216 232 254
216 232 254
216 232 254
216 232 254
216 232 254
216 232 254
216 232 254
216 232 254
216 232 254
216 232 254
216 232 254
216 232 254
216 232 254
216 232 254
216 232 254
216 232 254
216 232 254
216 232 254
216 232 254
216 232 254
216 232 254
216 232 254
216 232 254
216 232 254
216 232 254
216 232 254
216 232 254
216 232 254
216 232 254
216 232 254
216 232 254
216 232 254
216 232 254
216 232 254
216 232 254
216 232 254
216 232 254
216 232 254
216 232 254
216 232 254
216 232 254
216 232 254
216 232 254
216 232 254
216 232 254
216 232 254
216 232 254
216 232 254
216 232 254
216 232 254
216 232 254
216 232 254
216 232 254
216 232 254
216 232 254
216 232 254
216 232 254
216 232 254
216 232 254
216 232 254
216 232 254
216 232 254
216 232 254
216 232 254
216 232 254
216 232 254
216 232 254
216 232 254
216 232 254
216 232 254
216 232 254
216 232 254
216 232 254
216 232 254
216 232 254
216 232 254
216 232 254
216 232 254
216 232 254
216 232 254
216 232 254
216 232 254
216 232 254
216 232 254
216 232 254
216 232 254
216 232 254
216 232 254
216 232 254
216 232 254
216 232 254
216 232 254
216 232 254
216 232 254
216 232 254
216 232 254
216 232 254
216 232 254
215 232 254
215 232 254
215 232 254
215 232 254
215 232 254
215 232 254
215 232 254
215 232 254
215 232 254
215 232 254
215 232 254
215 232 254
215 232 254
215 232 254
215 232 254
215 232 254
215 232 254
215 232 254
215 232 254
215 232 254
215 232 254
215 232 254
215 232 254
215 232 254
215 232 254
215 232 254
215 232 254
215 232 254
215 232 254
215 232 254
215 232 254
215 232 254
215 232 254
215 232 254
215 232 254
215 232 254
215 232 254
215 232 254
215 232 254
215 232 254
215 232 254
215 232 254
215 232 254
215 232 254
215 232 254
215 232 254
215 232 254
215 232 254
215 232 254
175 188 209
37 40 66
0 0 50
0 0 52
0 0 52
0 0 50
0 0 50
0 0 52
0 0 53
0 0 52
0 0 50
0 0 52
0 0 54
0 0 53
0 0 52
0 0 52
0 0 52
0 0 52
0 0 51
0 0 48
0 3 57
7 36 65
23 49 9
18 42 0
42 49 21
83 80 54
87 87 58
69 76 42
45 56 20
58 64 27
45 55 16
30 43 8
39 48 14
47 55 21
66 71 39
70 75 40
58 63 30
53 61 28
66 69 39
99 101 70
93 94 60
81 86 53
86 90 61
91 90 61
97 98 63
83 87 49
81 90 49
82 89 50
79 84 48
79 84 49
69 77 43
62 74 37
62 78 38
58 75 31
55 74 32
49 70 26
47 70 27
46 70 26
40 65 17
39 64 17
39 61 16
43 63 20
45 65 20
40 65 13
38 65 11
37 62 5
40 66 10
38 60 11
34 61 7
40 65 22
26 69 61
5 22 67
10 23 73
27 46 36
34 57 15
33 58 0
31 51 28
0 9 70
0 0 64
6 17 58
17 31 51
12 26 62
26 50 15
27 49 3
26 50 0
28 50 0
29 53 0
39 64 11
43 66 13
38 61 11
40 63 13
37 61 7
31 55 0
27 52 0
25 50 4
29 51 1
27 52 0
26 51 0
23 48 0
25 51 8
23 50 19
27 51 39
24 58 48
25 55 37
22 46 51
18 37 48
19 42 33
15 37 28
1 11 54
0 0 62
0 0 62
0 0 64
0 0 63
1 6 69
7 19 60
4 12 58
0 0 66
0 0 61
0 4 64
0 10 69
0 7 68
0 17 79
0 14 76
0 10 72
0 0 63
0 0 59
0 0 56
0 0 59
0 0 61
0 0 64
0 2 61
0 0 57
21 23 66
175 188 210
215 232 254
215 232 254
215 232 254
215 232 254
215 232 254
215 232 254
215 232 254
215 232 254
215 232 254
215 232 254
215 232 254
215 232 254
215 232 254
215 232 254
215 232 254
215 232 254
215 232 254
215 232 254
215 232 254
215 232 254
215 232 254
215 232 254
215 232 254
215 232 254
215 232 254
215 232 254
215 232 254
215 232 254
215 232 254
215 232 254
215 232 254
215 232 254
215 232 254
215 232 254
215 232 254
215 232 254
215 232 254
215 232 254
215 232 254
215 232 254
215 232 254
215 232 254
215 232 254
215 232 254
215 232 254
215 232 254
215 232 254
215 232 254
215 232 254
216 232 254
216 232 254
216 232 254
216 232 254
216 232 254
216 232 254
216 232 254
216 232 254
216 232 254
216 232 254
216 232 254
216 232 254
216 232 254
216 232 254
216 232 254
216 232 254
216 232 254
216 232 254
216 232 254
216 232 254
216 232 254
216 232 254
216 232 254
216 232 254
216 232 254
216 232 254
216 232 254
216 232 254
216 232 254
216 232 254
216 232 254
216 232 254
216 232 254
216 232 254
216 232 254
216 232 254
216 232 254
216 232 254
216 232 254
216 232 254
216 232 254
216 232 254
216 232 254
216 232 254
216 232 254
216 232 254
216 232 254
216 232 254
216 232 254
216 232 254
216 232 254
216 232 254
216 232 254
216 232 254
216 232 254
216 232 254
216 232 254
216 232 254
216 232 254
216 232 254
216 232 254
216 232 254
216 232 254
216 232 254
216 232 254
216 232 254
216 232 254
216 232 254
216 232 254
216 232 254
216 232 254
216 232 254
216 232 254
216 232 254
216 232 254
216 232 254
216 232 254
216 232 254
216 232 254
216 232 254
216 232 254
216 232 254
216 232 254
216 232 254
216 232 254
216 232 254
216 232 254
216 232 254
216 232 254
216 232 254
216 232 254
216 232 254
216 232 254
216 232 254
216 232 254
216 232 254
216 232 254
216 232 254
216 232 254
216 232 254
216 232 254
216 232 254
216 232 254
216 232 254
216 232 254
216 232 254
216 232 254
216 232 254
216 232 254
216 232 254
216 232 254
216 232 254
216 232 254
216 232 254
216 232 254
216 232 254
216 232 254
216 232 254
216 232 254
216 232 254
216 232 254
216 232 254
216 232 254
216 232 254
216 232 254
216 232 254
216 232 254
216 232 254
216 232 254
216 232 254
216 232 254
216 232 254
216 232 254
216 232 254
216 232 254
216 232 254
216 232 254
216 232 254
216 232 254
216 232 254
216 232 254
216 232 254
216 232 254
216 232 254
216 232 254
216 232 254
216 232 254
216 232 254
216 232 254
216 232 254
216 232 254
216 232 254
216 232 254
216 232 254
216 232 254
216 232 254
216 232 254
216 232 254
216 232 254
216 232 254
216 232 254
216 232 254
216 232 254
216 232 254
216 232 254
216 232 254
216 232 254
216 232 254
216 232 254
216 232 254
216 232 254
216 232 254
216 232 254
216 232 254
216 232 254
216 232 254
216 232 254
216 232 254
216 232 254
216 232 254
216 232 254
216 232 254
216 232 254
216 232 254
216 232 254
216 232 254
216 232 254
216 232 254
216 232 254
216 232 254
216 232 254
216 232 254
216 232 254
216 232 254
216 232 254
216 232 254
216 232 254
216 232 254
216 232 254
216 232 254
216 232 254
216 232 254
216 232 254
216 232 254
216 232 254
216 232 254
216 232 254
216 232 254
216 232 254
216 232 254
216 232 254
216 232 254
216 232 254
216 232 254
216 232 254
214 231 253
139 150 169
0 0 51
0 0 50
0 0 50
0 0 49
0 0 48
0 0 48
0 0 49
0 0 52
0 0 52
0 0 51
0 0 52
0 0 54
0 0 54
0 0 53
0 0 51
0 0 52
0 0 53
0 0 51
0 0 51
0 0 46
6 17 56
28 49 21
33 51 11
47 53 28
84 82 59
82 80 54
61 65 34
56 62 31
54 63 28
51 59 23
45 52 19
54 57 26
66 67 39
72 74 43
78 80 50
56 63 30
48 54 24
48 52 27
72 74 46
128 125 92
144 140 108
67 66 35
101 103 71
105 104 71
94 94 60
68 73 35
50 58 24
72 80 44
79 85 49
74 82 46
68 78 40
65 78 38
62 78 37
60 76 35
57 75 33
52 72 31
46 68 27
43 68 23
38 63 15
38 62 15
36 60 15
40 63 16
42 65 17
41 65 17
40 62 11
39 61 11
37 61 6
37 60 11
43 63 17
44 66 17
27 52 56
0 17 79
21 45 55
35 54 0
38 60 9
40 57 0
25 68 58
23 38 72
10 14 66
22 37 56
43 67 22
40 62 20
41 62 16
40 62 23
36 58 28
36 57 24
34 57 28
31 51 35
37 59 8
27 50 0
25 48 2
27 51 7
27 52 0
26 52 0
28 50 5
27 55 7
30 55 0
26 54 13
23 49 18
17 41 51
9 39 86
7 33 80
22 51 55
24 55 31
27 52 18
26 44 17
14 31 35
5 13 52
0 0 58
0 0 57
0 0 59
0 0 65
0 0 67
0 0 65
0 0 63
0 1 56
0 0 55
0 0 58
0 0 60
0 0 63
0 0 68
0 10 70
0 13 77
0 13 76
0 7 69
0 0 57
0 0 54
0 0 53
0 0 54
0 0 58
0 4 63
0 0 58
0 0 56
0 3 65
134 145 168
213 230 252
216 232 254
216 232 254
216 232 254
216 232 254
216 232 254
216 232 254
216 232 254
216 232 254
216 232 254
216 232 254
216 232 254
216 232 254
216 232 254
216 232 254
216 232 254
216 232 254
216 232 254
216 232 254
216 232 254
216 232 254
216 232 254
216 232 254
216 232 254
216 232 254
216 232 254
216 232 254
216 232 254
216 232 254
216 232 254
216 232 254
216 232 254
216 232 254
216 232 254
216 232 254
216 232 254
216 232 254
216 232 254
216 232 254
216 232 254
216 232 254
216 232 254
216 232 254
216 232 254
216 232 254
216 232 254
216 232 254
216 232 254
216 232 254
216 232 254
216 232 254
216 232 254
216 232 254
216 232 254
216 232 254
216 232 254
216 232 254
216 232 254
216 232 254
216 232 254
216 232 254
216 232 254
216 232 254
216 232 254
216 232 254
216 232 254
216 232 254
216 232 254
216 232 254
216 232 254
216 232 254
216 232 254
216 232 254
216 232 254
216 232 254
216 232 254
216 232 254
216 232 254
216 232 254
216 232 254
216 232 254
216 232 254
216 232 254
216 232 254
216 232 254
216 232 254
216 232 254
216 232 254
216 232 254
216 232 254
216 232 254
216 232 254
216 232 254
216 232 254
216 232 254
216 232 254
216 232 254
216 232 254
216 232 254
216 232 254
216 232 254
216 232 254
216 232 254
216 232 254
216 232 254
216 232 254
216 232 254
216 232 254
216 232 254
216 232 254
216 232 254
216 232 254
216 232 254
216 232 254
216 232 254
216 232 254
216 232 254
216 232 254
216 232 254
216 232 254
216 232 254
216 232 254
216 232 254
216 232 254
216 232 254
216 232 254
216 232 254
216 232 254
216 232 254
216 232 254
216 232 254
216 232 254
216 232 254
216 232 254
216 232 254
216 232 254
216 232 254
216 232 254
216 232 254
216 232 254
216 232 254
216 232 254
216 232 254
216 232 254
216 232 254
216 232 254
216 232 254
216 232 254
216 232 254
216 232 254
216 232 254
216 232 254
216 232 254
216 232 254
216 232 254
216 232 254
216 232 254
216 232 254
216 232 254
216 232 254
216 232 254
216 232 254
216 232 254
216 232 254
216 232 254
216 232 254
216 232 254
216 232 254
216 232 254
216 232 254
216 232 254
216 232 254
216 232 254
216 232 254
216 232 254
216 232 254
216 232 254
216 232 254
216 232 254
216 232 254
216 232 254
216 232 254
216 232 254
216 232 254
216 232 254
216 232 254
216 232 254
216 232 254
216 232 254
216 232 254
216 232 254
216 232 254
216 232 254
216 232 254
216 232 254
216 232 254
216 232 254
216 232 254
216 232 254
216 232 254
216 232 254
216 232 254
216 232 254
216 232 254
216 232 254
216 232 254
216 232 254
216 232 254
216 232 254
216 232 254
216 232 254
216 232 254
216 232 254
216 232 254
216 232 254
216 232 254
216 232 254
216 232 254
216 232 254
216 232 254
216 232 254
216 232 254
216 232 254
216 232 254
216 232 254
216 232 254
216 232 254
216 232 254
216 232 254
216 232 254
216 232 254
216 232 254
216 232 254
216 232 254
216 232 254
216 232 254
216 232 254
216 232 254
216 232 254
216 232 254
216 232 254
216 232 254
216 232 254
216 232 254
216 232 254
216 232 254
216 232 254
216 232 254
216 232 254
216 232 254
216 232 254
216 232 254
216 232 254
216 232 254
216 232 254
216 232 254
216 232 254
216 232 254
216 232 254
216 232 254
216 232 254
216 232 254
211 227 250
99 106 125
0 0 51
0 0 50
0 0 51
0 0 49
0 0 48
0 0 48
0 0 50
0 0 52
0 0 52
0 0 52
0 0 52
0 0 53
0 0 54
0 0 54
0 0 51
0 0 49
0 0 53
0 0 50
0 0 49
0 0 47
3 12 53
23 43 27
31 54 13
37 45 19
75 73 48
71 69 44
60 62 34
61 63 36
85 84 59
81 85 53
56 64 30
57 64 32
66 67 41
87 84 60
95 93 63
81 87 53
62 70 36
52 59 29
60 63 37
98 94 70
123 117 85
124 121 88
95 97 61
112 110 74
105 104 69
101 102 65
91 95 56
65 73 35
81 91 52
82 91 49
75 86 44
68 82 37
63 80 35
56 76 33
50 72 29
52 70 30
48 68 29
45 68 25
38 63 17
40 63 15
39 62 15
36 59 15
38 63 15
39 64 16
43 66 21
41 63 14
37 59 4
38 61 6
40 60 9
43 66 19
45 66 18
22 42 72
0 24 89
18 45 67
40 59 5
40 64 10
45 65 22
49 72 47
50 68 25
33 48 51
33 51 52
52 70 19
51 71 27
43 67 37
28 42 71
16 34 63
20 36 59
15 28 63
18 41 57
29 55 4
27 50 0
25 48 0
27 53 3
29 53 1
25 52 0
26 51 0
29 55 2
21 46 34
12 30 57
0 22 78
1 16 77
0 6 64
14 26 61
26 47 13
16 36 32
0 9 61
0 3 62
0 0 63
0 0 57
0 0 58
0 0 57
0 0 56
0 0 59
0 0 63
0 0 69
0 0 58
0 0 54
0 0 57
0 0 53
0 0 56
0 0 62
0 0 69
0 0 63
0 7 67
0 9 72
0 9 67
0 0 54
0 0 52
0 0 49
0 0 53
0 0 52
0 0 60
0 0 60
0 0 57
0 0 57
0 15 76
108 117 143
204 220 242
216 232 254
216 232 254
216 232 254
216 232 254
216 232 254
216 232 254
216 232 254
216 232 254
216 232 254
216 232 254
216 232 254
216 232 254
216 232 254
216 232 254
216 232 254
216 232 254
216 232 254
216 232 254
216 232 254
216 232 254
216 232 254
216 232 254
216 232 254
216 232 254
216 232 254
216 232 254
216 232 254
216 232 254
216 232 254
216 232 254
216 232 254
216 232 254
216 232 254
216 232 254
216 232 254
216 232 254
216 232 254
216 232 254
216 232 254
216 232 254
216 232 254
216 232 254
216 232 254
216 232 254
216 232 254
216 232 254
216 232 254
216 232 254
216 232 254
216 232 254
216 232 254
216 232 254
216 232 254
216 232 254
216 232 254
216 232 254
216 232 254
216 232 254
216 232 254
216 232 254
216 232 254
216 232 254
216 232 254
216 232 254
216 232 254
216 232 254
216 232 254
216 232 254
216 232 254
216 232 254
216 232 254
216 232 254
216 232 254
216 232 254
216 232 254
216 232 254
216 232 254
216 232 254
216 232 254
216 232 254
216 232 254
216 232 254
216 232 254
216 232 254
216 232 254
216 232 254
216 232 254
216 232 254
216 232 254
216 232 254
216 232 254
216 232 254
216 232 254
216 232 254
216 232 254
216 232 254
216 232 254
216 232 254
216 232 254
216 232 254
216 232 254
216 232 254
216 232 254
216 232 254
216 232 254
216 232 254
216 232 254
216 232 254
216 232 254
216 232 254
216 232 254
216 232 254
216 232 254
216 232 254
216 232 254
216 232 254
216 232 254
216 232 254
216 232 254
216 232 254
216 232 254
216 232 254
216 232 254
216 232 254
216 232 254
216 232 254
216 232 254
216 232 254
216 232 254
216 232 254
216 232 254
216 232 254
216 232 254
216 232 254
216 232 254
216 232 254
216 232 254
216 232 254
216 232 254
216 232 254
216 232 254
216 232 254
216 232 254
216 232 254
216 232 254
216 232 254
216 232 254
216 232 254
216 232 254
216 232 254
216 232 254
216 232 254
216 232 254
216 232 254
216 232 254
216 232 254
216 232 254
216 232 254
216 232 254
216 232 254
216 232 254
216 232 254
216 232 254
216 232 254
216 232 254
216 232 254
216 232 254
216 232 254
216 232 254
216 232 254
216 232 254
216 232 254
216 232 254
216 232 254
216 232 254
216 232 254
216 232 254
216 232 254
216 232 254
216 232 254
216 232 254
216 232 254
216 232 254
216 232 254
216 232 254
216 232 254
216 232 254
216 232 254
216 232 254
216 232 254
216 232 254
216 232 254
216 232 254
216 232 254
216 232 254
216 232 254
216 232 254
216 232 254
216 232 254
216 232 254
216 232 254
216 232 254
216 232 254
216 232 254
216 232 254
216 232 254
216 232 254
216 232 254
216 232 254
216 232 254
216 232 254
216 232 254
216 232 254
216 232 254
216 232 254
216 232 254
216 232 254
216 232 254
216 232 254
216 232 254
216 232 254
216 232 254
216 232 254
216 232 254
216 232 254
216 232 254
216 232 254
216 232 254
216 232 254
216 232 254
216 232 254
216 232 254
216 232 254
216 232 254
216 232 254
216 232 254
216 232 254
216 232 254
216 232 254
216 232 254
216 232 254
216 232 254
216 232 254
216 232 254
216 232 254
216 232 254
216 232 254
216 232 254
216 232 254
216 232 254
216 232 254
216 232 254
216 232 254
216 232 254
216 232 254
216 232 254
216 232 254
216 232 254
216 232 254
195 210 232
68 73 94
0 0 51
0 0 50
0 0 50
0 0 48
0 0 47
0 0 49
0 0 50
0 0 53
0 0 52
0 0 54
0 0 55
0 0 53
0 0 53
0 0 52
0 0 51
0 0 48
0 0 50
0 0 50
0 0 52
0 0 49
0 6 56
8 31 50
24 47 6
25 38 10
65 64 41
93 89 66
87 82 60
83 81 59
91 87 61
91 87 60
100 97 69
90 87 59
81 83 53
84 85 58
86 84 55
88 87 55
67 77 41
51 60 27
67 71 40
79 80 53
102 100 74
128 125 93
129 123 93
116 112 78
93 93 59
100 101 69
97 99 64
87 90 54
78 85 47
74 81 43
81 89 55
79 90 55
75 87 50
68 80 44
61 77 37
57 77 33
52 72 31
47 67 25
44 66 21
40 65 16
38 64 15
38 62 15
36 60 15
37 62 15
38 64 16
39 64 15
38 64 14
41 65 15
41 66 14
41 67 16
44 66 14
42 63 15
28 42 57
0 26 91
7 31 76
41 65 13
39 61 6
45 64 14
42 64 13
53 68 23
36 61 49
47 67 34
37 58 58
36 58 64
27 46 69
24 47 60
37 64 14
40 67 8
40 64 11
38 62 13
32 57 3
34 60 0
33 59 0
34 59 0
30 56 0
24 51 0
30 53 0
29 54 12
9 21 65
0 0 59
0 0 58
0 0 60
0 0 64
0 4 68
4 17 64
3 10 66
0 0 60
0 0 58
0 0 59
0 0 58
0 0 57
0 0 57
0 0 57
0 0 60
0 0 58
0 0 64
0 0 66
0 0 61
0 0 62
0 0 60
0 0 57
0 0 55
0 0 60
0 0 68
0 0 64
0 10 72
0 3 68
0 0 63
0 0 59
0 0 51
0 0 51
0 0 55
0 0 55
0 0 60
0 0 62
0 0 60
0 4 61
0 18 78
64 71 108
190 205 227
216 232 254
216 232 254
216 232 254
216 232 254
216 232 254
216 232 254
216 232 254
216 232 254
216 232 254
216 232 254
216 232 254
216 232 254
216 232 254
216 232 254
216 232 254
216 232 254
216 232 254
216 232 254
216 232 254
216 232 254
216 232 254
216 232 254
216 232 254
216 232 254
216 232 254
216 232 254
216 232 254
216 232 254
216 232 254
216 232 254
216 232 254
216 232 254
216 232 254
216 232 254
216 232 254
216 232 254
216 232 254
216 232 254
216 232 254
216 232 254
216 232 254
216 232 254
216 232 254
216 232 254
216 232 254
216 232 254
216 232 254
216 232 254
216 232 254
216 232 254
216 232 254
216 232 254
216 232 254
216 232 254
216 232 254
216 232 254
216 232 254
216 232 254
216 232 254
216 232 254
216 232 254
216 232 254
216 232 254
216 232 254
216 232 254
216 232 254
216 232 254
216 232 254
216 232 254
216 232 254
216 232 254
216 232 254
216 232 254
216 232 254
216 232 254
216 232 254
216 232 254
216 232 254
216 232 254
216 232 254
216 232 254
216 232 254
216 232 254
216 232 254
216 232 254
216 232 254
216 232 254
216 232 254
216 232 254
216 232 254
216 232 254
216 232 254
216 232 254
216 232 254
216 232 254
216 232 254
216 232 254
216 232 254
216 232 254
216 232 254
216 232 254
216 232 254
216 232 254
216 232 254
216 232 254
216 232 254
216 232 254
216 232 254
216 232 254
216 232 254
216 232 254
216 232 254
216 232 254
216 232 254
216 232 254
216 232 254
216 232 254
216 232 254
216 232 254
216 232 254
216 232 254
216 232 254
216 232 254
216 232 254
216 232 254
216 232 254
216 232 254
216 232 254
216 232 254
216 232 254
216 232 254
216 232 254
216 232 254
216 232 254
216 232 254
216 232 254
216 232 254
216 232 254
216 232 254
216 232 254
216 232 254
216 232 254
216 232 254
216 232 254
216 232 254
216 232 254
216 232 254
216 232 254
216 232 254
216 232 254
216 232 254
216 232 254
216 232 254
216 232 254
216 232 254
216 232 254
216 232 254
216 232 254
216 232 254
216 232 254
216 232 254
216 232 254
216 232 254
216 232 254
216 232 254
216 232 254
216 232 254
216 232 254
216 232 254
216 232 254
216 232 254
216 232 254
216 232 254
216 232 254
216 232 254
216 232 254
216 232 254
216 232 254
216 232 254
216 232 254
216 232 254
216 232 254
216 232 254
216 232 254
216 232 254
216 232 254
216 232 254
216 232 254
216 232 254
216 232 254
216 232 254
216 232 254
216 232 254
216 232 254
216 232 254
216 232 254
216 232 254
216 232 254
216 232 254
216 232 254
216 232 254
216 232 254
216 232 254
216 232 254
216 232 254
216 232 254
216 232 254
216 232 254
216 232 254
216 232 254
216 232 254
216 232 254
216 232 254
216 232 254
216 232 254
216 232 254
216 232 254
216 232 254
216 232 254
216 232 254
216 232 254
216 232 254
216 232 254
216 232 254
216 232 254
216 232 254
216 232 254
216 232 254
216 232 254
216 232 254
216 232 254
216 232 254
216 232 254
216 232 254
216 232 254
216 232 254
216 232 254
216 232 254
216 232 254
216 232 254
216 232 254
216 232 254
216 232 254
216 232 254
216 232 254
216 232 254
216 232 254
216 232 254
216 232 254
216 232 254
216 232 254
216 232 254
216 232 254
216 232 254
216 232 254
216 232 254
216 232 254
178 191 212
57 61 84
0 0 49
0 0 49
0 0 49
0 0 48
0 0 48
0 0 50
0 0 51
0 0 52
0 0 52
0 0 51
0 0 51
0 0 53
0 0 53
0 0 53
0 0 52
0 0 52
0 0 52
0 0 52
0 0 52
0 0 53
0 5 57
11 31 43
21 44 0
22 34 3
51 54 30
79 77 56
97 91 68
98 90 65
92 85 62
100 94 68
90 84 59
105 99 75
103 100 73
90 91 55
90 94 58
88 90 60
77 83 52
66 73 45
72 73 47
124 118 93
119 114 90
126 121 90
134 131 95
120 122 85
106 106 72
100 100 64
83 85 51
94 100 63
88 95 57
85 91 55
84 91 59
87 94 64
84 90 59
79 85 54
77 85 54
71 81 47
65 77 39
50 69 29
44 66 23
41 65 19
42 64 16
43 64 20
43 64 19
43 64 19
42 65 17
42 65 15
41 65 15
41 64 15
41 64 15
39 63 1
38 60 11
36 62 11
47 66 11
46 62 44
14 31 73
27 51 43
41 66 11
40 63 14
41 62 13
46 64 22
36 71 57
16 53 95
15 40 92
9 43 91
16 47 78
24 53 42
28 52 19
28 51 6
28 54 1
31 58 0
32 58 0
32 60 0
32 58 0
29 54 0
30 54 2
29 56 0
29 54 7
30 51 2
34 55 11
15 32 58
0 6 60
0 0 60
0 0 63
0 3 60
0 3 65
0 0 60
0 0 58
0 0 58
0 0 61
0 0 55
0 0 60
0 0 58
0 0 58
0 0 58
0 0 58
0 0 57
0 0 58
0 0 64
0 0 64
0 0 62
0 0 63
0 0 61
0 0 57
0 0 55
0 0 59
0 0 65
0 3 68
0 10 71
0 0 62
0 0 57
0 0 53
0 0 52
0 0 54
0 0 61
0 0 60
0 0 60
0 0 63
0 0 64
0 2 63
0 11 72
48 54 95
187 201 223
216 232 254
216 232 254
216 232 254
216 232 254
216 232 254
216 232 254
216 232 254
216 232 254
216 232 254
216 232 254
216 232 254
216 232 254
216 232 254
216 232 254
216 232 254
216 232 254
216 232 254
216 232 254
216 232 254
216 232 254
216 232 254
216 232 254
216 232 254
216 232 254
216 232 254
216 232 254
216 232 254
216 232 254
216 232 254
216 232 254
216 232 254
216 232 254
216 232 254
216 232 254
216 232 254
216 232 254
216 232 254
216 232 254
216 232 254
216 232 254
216 232 254
216 232 254
216 232 254
216 232 254
216 232 254
216 232 254
216 232 254
216 232 254
216 232 254
216 232 254
216 232 254
216 232 254
216 232 254
216 232 254
216 232 254
216 232 254
216 232 254
216 232 254
216 232 254
216 232 254
216 232 254
216 232 254
216 232 254
216 232 254
216 232 254
216 232 254
216 232 254
216 232 254
216 232 254
216 232 254
216 232 254
216 232 254
216 232 254
216 232 254
216 232 254
216 232 254
216 232 254
216 232 254
216 232 254
216 232 254
216 232 254
216 232 254
216 232 254
216 232 254
216 232 254
216 232 254
216 232 254
216 232 254
216 232 254
216 232 254
216 232 254
216 232 254
216 232 254
216 232 254
216 232 254
216 232 254
216 232 254
216 232 254
216 232 254
216 232 254
216 232 254
216 232 254
216 232 254
216 232 254
216 232 254
216 232 254
216 232 254
216 232 254
216 232 254
216 232 254
216 232 254
216 232 254
216 232 254
216 232 254
216 232 254
216 232 254
216 232 254
216 232 254
216 232 254
216 232 254
216 232 254
216 232 254
216 232 254
216 232 254
216 232 254
216 232 254
216 232 254
216 232 254
216 232 254
216 232 254
216 232 254
216 232 254
216 232 254
216 232 254
216 232 254
216 232 254
216 232 254
216 232 254
216 232 254
216 232 254
216 232 254
216 232 254
216 232 254
216 232 254
216 232 254
216 232 254
216 232 254
216 232 254
216 232 254
216 232 254
216 232 254
216 232 254
216 232 254
216 232 254
216 232 254
216 232 254
216 232 254
216 232 254
216 232 254
216 232 254
216 232 254
216 232 254
216 232 254
216 232 254
216 232 254
216 232 254
216 232 254
216 232 254
216 232 254
216 232 254
216 232 254
216 232 254
216 232 254
216 232 254
216 232 254
216 232 254
216 232 254
216 232 254
216 232 254
216 232 254
216 232 254
216 232 254
216 232 254
216 232 254
216 232 254
216 232 254
216 232 254
216 232 254
216 232 254
216 232 254
216 232 254
216 232 254
216 232 254
216 232 254
216 232 254
216 232 254
216 232 254
216 232 254
216 232 254
216 232 254
216 232 254
216 232 254
216 232 254
216 232 254
216 232 254
216 232 254
216 232 254
216 232 254
216 232 254
216 232 254
216 232 254
216 232 254
216 232 254
216 232 254
216 232 254
216 232 254
216 232 254
216 232 254
216 232 254
216 232 254
216 232 254
216 232 254
216 232 254
216 232 254
216 232 254
216 232 254
216 232 254
216 232 254
216 232 254
216 232 254
216 232 254
216 232 254
216 232 254
216 232 254
216 232 254
216 232 254
216 232 254
216 232 254
216 232 254
216 232 254
216 232 254
216 232 254
216 232 254
216 232 254
216 232 254
216 232 254
216 232 254
216 232 254
216 232 254
216 232 254
216 232 254
216 232 254
216 232 254
216 232 254
216 232 254
183 197 218
30 32 62
0 0 48
0 0 47
0 0 48
0 0 47
0 0 47
0 0 49
0 0 52
0 0 53
0 0 52
0 0 52
0 0 50
0 0 51
0 0 51
0 0 52
0 0 51
0 0 52
0 0 54
0 0 52
0 0 52
0 0 51
0 0 56
6 16 55
18 37 0
38 51 18
53 57 32
67 66 42
68 67 42
97 91 65
98 93 69
103 96 70
105 96 70
97 91 66
86 84 59
102 92 65
97 94 67
107 106 76
109 104 72
72 80 48
82 85 56
122 115 87
142 139 106
131 128 93
139 138 100
121 117 84
100 98 71
79 78 47
96 99 66
92 96 68
93 99 66
90 98 67
87 93 66
87 93 66
82 90 61
80 88 55
70 79 44
61 74 38
61 77 38
55 74 32
47 65 26
46 65 26
49 67 27
50 67 24
43 63 19
45 68 22
44 67 20
43 67 20
41 64 15
43 65 15
42 66 15
39 62 12
38 62 0
37 60 12
32 59 2
38 60 1
41 64 4
37 64 9
41 62 3
39 61 7
40 65 14
46 69 16
48 69 24
48 67 26
37 60 49
37 63 40
36 65 30
36 62 10
36 59 7
30 53 0
29 53 8
29 53 0
28 54 0
35 56 0
32 57 0
32 57 0
32 52 2
32 53 6
33 53 7
27 60 34
28 54 31
23 46 41
14 39 45
4 28 70
0 14 69
0 4 71
0 15 79
0 14 76
0 0 67
0 0 63
0 0 58
0 0 55
0 0 58
0 0 62
0 0 63
0 0 59
0 0 59
0 0 61
0 0 56
0 0 52
0 0 54
0 0 61
0 0 63
0 0 61
0 0 60
0 0 59
0 0 55
0 0 60
0 0 63
0 0 66
0 2 68
0 0 60
0 0 51
0 0 49
0 0 49
0 0 52
0 0 54
0 0 57
0 0 60
0 0 58
0 0 60
0 0 63
0 0 60
0 6 68
21 26 77
168 181 203
216 232 254
216 232 254
216 232 254
216 232 254
216 232 254
216 232 254
216 232 254
216 232 254
216 232 254
216 232 254
216 232 254
216 232 254
216 232 254
216 232 254
216 232 254
216 232 254
216 232 254
216 232 254
216 232 254
216 232 254
216 232 254
216 232 254
216 232 254
216 232 254
216 232 254
216 232 254
216 232 254
216 232 254
216 232 254
216 232 254
216 232 254
216 232 254
216 232 254
216 232 254
216 232 254
216 232 254
216 232 254
216 232 254
216 232 254
216 232 254
216 232 254
216 232 254
216 232 254
216 232 254
216 232 254
216 232 254
216 232 254
216 232 254
216 232 254
216 232 254
216 232 254
216 232 254
216 232 254
216 232 254
216 232 254
216 232 254
216 232 254
216 232 254
216 232 254
216 232 254
216 232 254
216 232 254
216 232 254
216 232 254
216 232 254
216 232 254
216 232 254
216 232 254
216 232 254
216 232 254
216 232 254
216 232 254
216 232 254
216 232 254
216 232 254
216 232 254
216 232 254
216 232 254
216 232 254
216 232 254
216 232 254
216 232 254
216 232 254
216 232 254
216 232 254
216 232 254
216 232 254
216 232 254
216 232 254
216 232 254
216 232 254
216 232 254
216 232 254
216 232 254
216 232 254
216 232 254
216 232 254
216 232 254
216 232 254
216 232 254
216 232 254
216 232 254
216 232 254
216 232 254
216 232 254
216 232 254
216 232 254
216 232 254
216 232 254
216 232 254
216 232 254
216 232 254
216 232 254
216 232 254
216 232 254
216 232 254
216 232 254
216 232 254
216 232 254
216 232 254
216 232 254
216 232 254
216 232 254
216 232 254
216 232 254
216 232 254
216 232 254
216 232 254
216 232 254
216 232 254
216 232 254
216 232 254
216 232 254
216 232 254
216 232 254
216 232 254
216 232 254
216 232 254
216 232 254
216 232 254
216 232 254
216 232 254
216 232 254
216 232 254
216 232 254
216 232 254
216 232 254
216 232 254
216 232 254
216 232 254
216 232 254
216 232 254
216 232 254
216 232 254
216 232 254
216 232 254
216 232 254
216 232 254
216 232 254
216 232 254
216 232 254
216 232 254
216 232 254
216 232 254
216 232 254
216 232 254
216 232 254
216 232 254
216 232 254
216 232 254
216 232 254
216 232 254
216 232 254
216 232 254
216 232 254
216 232 254
216 232 254
216 232 254
216 232 254
216 232 254
216 232 254
216 232 254
216 232 254
216 232 254
216 232 254
216 232 254
216 232 254
216 232 254
216 232 254
216 232 254
216 232 254
216 232 254
216 232 254
216 232 254
216 232 254
216 232 254
216 232 254
216 232 254
216 232 254
216 232 254
216 232 254
216 232 254
216 232 254
216 232 254
216 232 254
216 232 254
216 232 254
216 232 254
216 232 254
216 232 254
216 232 254
216 232 254
216 232 254
216 232 254
216 232 254
216 232 254
216 232 254
216 232 254
216 232 254
216 232 254
216 232 254
216 232 254
216 232 254
216 232 254
216 232 254
216 232 254
216 232 254
216 232 254
216 232 254
216 232 254
216 232 254
216 232 254
216 232 254
216 232 254
216 232 254
216 232 254
216 232 254
216 232 254
216 232 254
216 232 254
216 232 254
216 232 254
216 232 254
216 232 254
216 232 254
216 232 254
216 232 254
216 232 254
216 232 254
216 232 254
216 232 254
216 232 254
216 232 254
158 170 190
21 23 56
0 0 48
0 0 49
0 0 49
0 0 47
0 0 48
0 0 51
0 0 51
0 0 52
0 0 53
0 0 52
0 0 51
0 0 51
0 0 50
0 0 51
0 0 49
0 0 49
0 0 50
0 0 52
0 0 50
0 0 50
0 0 55
0 4 60
12 30 47
32 42 10
61 62 35
64 65 41
78 74 50
100 93 71
118 114 91
125 117 93
112 103 75
105 96 67
99 94 66
99 99 73
110 107 79
154 158 156
146 153 143
67 82 47
68 75 42
74 76 45
78 79 50
95 92 67
109 105 76
123 118 88
77 85 47
48 59 23
62 68 37
57 62 31
86 92 63
89 96 67
85 92 64
84 91 63
82 89 58
76 86 51
77 89 50
67 80 39
57 72 30
49 67 24
50 71 28
45 64 22
50 69 29
50 70 28
45 66 21
41 64 17
46 69 22
44 67 17
43 68 16
42 66 15
43 66 15
42 66 15
39 62 8
40 63 0
39 64 10
36 61 9
38 64 7
38 63 15
36 63 14
36 64 10
35 61 0
37 64 5
43 64 12
46 63 16
41 63 16
42 64 10
37 64 3
41 64 12
38 60 6
36 58 4
37 59 0
33 56 0
31 54 0
31 55 0
37 56 0
36 57 5
32 57 6
31 59 8
33 54 11
38 74 53
17 65 76
4 44 75
2 23 74
0 7 77
0 14 77
0 14 75
0 8 73
0 14 76
0 11 73
0 0 68
0 0 65
0 0 64
0 0 65
0 0 64
0 0 64
0 0 64
0 0 59
0 0 55
0 0 55
0 0 55
0 0 52
0 0 51
0 0 55
0 0 57
0 0 60
0 0 55
0 0 57
0 0 57
0 0 59
0 0 61
0 0 61
0 0 65
0 0 59
0 0 50
0 0 45
0 0 46
0 0 51
0 0 53
0 0 53
0 0 57
0 0 57
0 0 57
0 0 60
0 0 62
0 0 60
0 1 66
37 40 79
148 159 180
216 232 254
216 232 254
216 232 254
216 232 254
216 232 254
216 232 254
216 232 254
216 232 254
216 232 254
216 232 254
216 232 254
216 232 254
216 232 254
216 232 254
216 232 254
216 232 254
216 232 254
216 232 254
216 232 254
216 232 254
216 232 254
216 232 254
216 232 254
216 232 254
216 232 254
216 232 254
216 232 254
216 232 254
216 232 254
216 232 254
216 232 254
216 232 254
216 232 254
216 232 254
216 232 254
216 232 254
216 232 254
216 232 254
216 232 254
216 232 254
216 232 254
216 232 254
216 232 254
216 232 254
216 232 254
216 232 254
216 232 254
216 232 254
216 232 254
216 232 254
216 232 254
216 232 254
216 232 254
216 232 254
216 232 254
216 232 254
216 232 254
216 232 254
216 232 254
216 232 254
216 232 254
216 232 254
216 232 254
216 232 254
216 232 254
216 232 254
216 232 254
216 232 254
216 232 254
216 232 254
216 232 254
216 232 254
216 232 254
216 232 254
216 232 254
216 232 254
216 232 254
216 232 254
216 232 254
216 232 254
216 232 254
216 232 254
216 232 254
216 232 254
216 232 254
216 232 254
216 232 254
216 232 254
216 232 254
216 232 254
216 232 254
216 232 254
216 232 254
216 232 254
216 232 254
216 232 254
216 232 254
216 232 254
216 232 254
216 232 254
216 232 254
216 232 254
216 232 254
216 232 254
216 232 254
216 232 254
216 232 254
216 232 254
216 232 254
216 232 254
216 232 254
216 232 254
216 232 254
216 232 254
216 232 254
216 232 254
216 232 254
216 232 254
216 232 254
216 232 254
216 232 254
216 232 254
216 232 254
216 232 254
216 232 254
216 232 254
216 232 254
216 232 254
216 232 254
216 232 254
216 232 254
216 232 254
216 232 254
216 232 254
216 232 254
216 232 254
216 232 254
216 232 254
216 232 254
216 232 254
216 232 254
216 232 254
216 232 254
216 232 254
216 232 254
216 232 254
216 232 254
216 232 254
216 232 254
216 232 254
216 232 254
216 232 254
216 232 254
216 232 254
216 232 254
216 232 254
216 232 254
216 232 254
216 232 254
216 232 254
216 232 254
216 232 254
216 232 254
216 232 254
216 232 254
216 232 254
216 232 254
216 232 254
216 232 254
216 232 254
216 232 254
216 232 254
216 232 254
216 232 254
216 232 254
216 232 254
216 232 254
216 232 254
216 232 254
216 232 254
216 232 254
216 232 254
216 232 254
216 232 254
216 232 254
216 232 254
216 232 254
216 232 254
216 232 254
216 232 254
216 232 254
216 232 254
216 232 254
216 232 254
216 232 254
216 232 254
216 232 254
216 232 254
216 232 254
216 232 254
216 232 254
216 232 254
216 232 254
216 232 254
216 232 254
216 232 254
216 232 254
216 232 254
216 232 254
216 232 254
216 232 254
216 232 254
216 232 254
216 232 254
216 232 254
216 232 254
216 232 254
216 232 254
216 232 254
216 232 254
216 232 254
216 232 254
216 232 254
216 232 254
216 232 254
216 232 254
216 232 254
216 232 254
216 232 254
216 232 254
216 232 254
216 232 254
216 232 254
216 232 254
216 232 254
216 232 254
216 232 254
216 232 254
216 232 254
216 232 254
216 232 254
216 232 254
216 232 254
216 232 254
216 232 254
216 232 254
216 232 254
216 232 254
216 232 254
216 232 254
216 232 254
151 162 182
0 0 51
0 0 51
0 0 52
0 0 50
0 0 48
0 0 49
0 0 53
0 0 53
0 0 52
0 0 53
0 0 55
0 0 54
0 0 50
0 0 49
0 0 49
0 0 50
0 0 48
0 0 45
0 0 47
0 0 50
0 0 52
0 0 54
0 0 64
7 25 58
19 36 15
36 46 12
38 44 14
62 63 39
91 85 63
120 114 94
132 128 103
118 109 80
117 108 79
109 102 74
102 98 70
115 107 77
134 135 106
192 204 203
126 117 89
97 98 69
60 68 33
90 91 63
113 106 84
136 128 101
96 97 66
76 81 51
50 61 29
51 59 21
45 52 19
59 68 33
83 91 57
87 95 64
85 92 59
85 91 59
85 92 60
84 91 56
78 89 52
76 88 47
74 86 42
71 84 41
69 82 42
64 76 38
59 74 36
52 70 28
45 68 23
42 65 17
44 68 18
43 69 18
42 68 15
42 67 15
44 67 15
42 65 14
40 63 6
39 62 0
37 62 12
36 59 7
34 60 11
34 61 2
36 60 10
40 65 4
44 67 0
38 63 0
37 63 5
42 66 9
36 63 12
46 66 21
34 61 1
32 58 3
30 57 0
31 57 0
34 58 0
31 55 0
30 54 0
32 56 1
41 61 12
40 62 13
41 65 12
42 62 15
43 57 15
21 47 57
0 14 78
0 4 67
0 3 67
0 8 67
0 9 71
0 5 65
0 5 66
0 0 63
0 0 55
0 0 58
0 0 62
0 0 65
0 0 63
0 0 65
0 0 64
0 0 60
0 0 55
0 0 51
0 0 51
0 0 49
0 0 51
0 0 52
0 0 49
0 0 52
0 0 54
0 0 52
0 0 51
0 0 54
0 0 54
0 0 55
0 0 56
0 0 60
0 0 61
0 0 54
0 0 49
0 0 46
0 0 48
0 0 51
0 0 53
0 0 56
0 0 58
0 0 55
0 0 58
0 0 62
0 0 59
0 0 61
0 0 66
21 23 65
158 170 191
216 232 254
216 232 254
216 232 254
216 232 254
216 232 254
216 232 254
216 232 254
216 232 254
216 232 254
216 232 254
216 232 254
216 232 254
216 232 254
216 232 254
216 232 254
216 232 254
216 232 254
216 232 254
216 232 254
216 232 254
216 232 254
216 232 254
216 232 254
216 232 254
216 232 254
216 232 254
216 232 254
216 232 254
216 232 254
216 232 254
216 232 254
216 232 254
216 232 254
216 232 254
216 232 254
216 232 254
216 232 254
216 232 254
216 232 254
216 232 254
216 232 254
216 232 254
216 232 254
216 232 254
216 232 254
216 232 254
216 232 254
216 232 254
216 232 254
216 232 254
216 232 254
216 232 254
216 232 254
216 232 254
216 232 254
216 232 254
216 232 254
216 232 254
216 232 254
216 232 254
216 232 254
216 232 254
216 232 254
216 232 254
216 232 254
216 232 254
216 232 254
216 232 254
216 232 254
216 232 254
216 232 254
216 232 254
216 232 254
216 232 254
216 232 254
216 232 254
216 232 254
216 232 254
216 232 254
216 232 254
216 232 254
216 232 254
216 232 254
216 232 254
216 232 254
216 232 254
216 232 254
216 232 254
216 232 254
216 232 254
216 232 254
216 232 254
216 232 254
216 232 254
216 232 254
216 232 254
216 232 254
216 232 254
216 232 254
216 232 254
216 232 254
216 232 254
216 232 254
216 232 254
216 232 254
216 232 254
216 232 254
216 232 254
216 232 254
216 232 254
216 232 254
216 232 254
216 232 254
216 232 254
216 232 254
216 232 254
216 232 254
216 232 254
216 232 254
216 232 254
216 232 254
216 232 254
216 232 254
216 232 254
216 232 254
216 232 254
216 232 254
216 232 254
216 232 254
216 232 254
216 232 254
216 232 254
216 232 254
216 232 254
216 232 254
216 232 254
216 232 254
216 232 254
216 232 254
216 232 254
216 232 254
216 232 254
216 232 254
216 232 254
216 232 254
216 232 254
216 232 254
216 232 254
216 232 254
216 232 254
216 232 254
216 232 254
216 232 254
216 232 254
216 232 254
216 232 254
216 232 254
216 232 254
216 232 254
216 232 254
216 232 254
216 232 254
216 232 254
216 232 254
216 232 254
216 232 254
216 232 254
216 232 254
216 232 254
216 232 254
216 232 254
216 232 254
216 232 254
216 232 254
216 232 254
216 232 254
216 232 254
216 232 254
216 232 254
216 232 254
216 232 254
216 232 254
216 232 254
216 232 254
216 232 254
216 232 254
216 232 254
216 232 254
216 232 254
216 232 254
216 232 254
216 232 254
216 232 254
216 232 254
216 232 254
216 232 254
216 232 254
216 232 254
216 232 254
216 232 254
216 232 254
216 232 254
216 232 254
216 232 254
216 232 254
216 232 254
216 232 254
216 232 254
216 232 254
216 232 254
216 232 254
216 232 254
216 232 254
216 232 254
216 232 254
216 232 254
216 232 254
216 232 254
216 232 254
216 232 254
216 232 254
216 232 254
216 232 254
216 232 254
216 232 254
216 232 254
216 232 254
216 232 254
216 232 254
216 232 254
216 232 254
216 232 254
216 232 254
216 232 254
216 232 254
216 232 254
216 232 254
216 232 254
216 232 254
216 232 254
216 232 254
216 232 254
216 232 254
216 232 254
216 232 254
216 232 254
216 232 254
216 232 254
216 232 254
145 156 175
0 0 50
0 0 51
0 0 51
0 0 49
0 0 49
0 0 49
0 0 55
0 0 57
0 0 54
0 0 54
0 0 56
0 0 54
0 0 50
0 0 48
0 0 47
0 0 48
0 0 47
0 0 43
0 0 45
0 0 49
0 0 50
0 0 53
0 0 54
1 9 69
24 42 20
47 50 20
78 76 44
40 45 11
63 64 38
107 99 77
128 123 98
130 124 95
119 112 86
111 104 77
108 105 77
100 99 74
108 103 76
133 126 96
143 142 116
129 120 90
87 89 58
88 89 62
107 103 75
107 106 77
104 98 73
77 81 49
57 64 32
50 61 22
52 57 26
61 63 37
52 57 28
84 91 61
85 92 59
86 91 59
89 93 63
89 94 63
86 92 59
82 89 51
82 89 49
79 88 47
71 84 41
70 82 41
67 82 40
60 76 35
53 72 28
47 68 23
46 67 22
47 70 20
41 65 16
43 67 20
42 66 13
41 67 12
40 65 11
39 62 3
41 63 12
39 62 9
42 64 14
40 64 15
38 64 10
39 64 8
37 62 2
34 60 0
35 60 0
37 63 2
39 63 3
39 63 4
32 55 4
31 56 2
31 55 0
31 56 0
29 55 0
30 56 0
30 54 0
31 55 0
37 59 8
38 62 9
38 61 25
29 78 46
34 67 45
26 64 46
5 28 81
0 8 69
0 0 64
0 0 68
0 0 61
0 0 55
0 0 49
0 0 50
0 0 49
0 0 47
0 0 42
0 0 47
0 0 54
0 0 57
0 0 57
0 0 56
0 0 53
0 0 50
0 0 51
0 0 51
0 0 47
0 0 45
0 0 47
0 0 48
0 0 51
0 0 54
0 0 50
0 0 49
0 0 50
0 0 51
0 0 54
0 0 53
0 0 54
0 0 58
0 0 56
0 0 52
0 0 50
0 0 48
0 0 50
0 0 52
0 0 52
0 0 55
0 0 56
0 0 56
0 0 57
0 0 61
0 0 58
0 0 61
0 0 62
0 0 57
159 170 191
216 232 254
216 232 254
216 232 254
216 232 254
216 232 254
216 232 254
216 232 254
216 232 254
216 232 254
216 232 254
216 232 254
216 232 254
216 232 254
216 232 254
216 232 254
216 232 254
216 232 254
216 232 254
216 232 254
216 232 254
216 232 254
216 232 254
216 232 254
216 232 254
216 232 254
216 232 254
216 232 254
216 232 254
216 232 254
216 232 254
216 232 254
216 232 254
216 232 254
216 232 254
216 232 254
216 232 254
216 232 254
216 232 254
216 232 254
216 232 254
216 232 254
216 232 254
216 232 254
216 232 254
216 232 254
216 232 254
216 232 254
216 232 254
216 232 254
216 232 254
216 232 254
216 232 254
216 232 254
216 232 254
216 232 254
216 232 254
216 232 254
216 232 254
216 232 254
216 232 254
216 232 254
216 232 254
216 232 254
216 232 254
216 232 254
216 232 254
216 232 254
216 232 254
216 232 254
216 232 254
216 232 254
216 232 254
216 232 254
216 232 254
216 232 254
216 232 254
216 232 254
216 232 254
216 232 254
216 232 254
216 232 254
216 232 254
216 232 254
216 232 254
216 232 254
216 232 254
216 232 254
216 232 254
216 232 254
216 232 254
216 232 254
216 232 254
216 232 254
216 232 254
216 232 254
216 232 254
216 232 254
216 232 254
216 232 254
216 232 254
216 232 254
216 232 254
216 232 254
216 232 254
216 232 254
216 232 254
216 232 254
216 232 254
216 232 254
216 232 254
216 232 254
216 232 254
216 232 254
216 232 254
216 232 254
216 232 254
216 232 254
216 232 254
216 232 254
216 232 254
216 232 254
216 232 254
216 232 254
216 232 254
216 232 254
216 232 254
216 232 254
216 232 254
216 232 254
216 232 254
216 232 254
216 232 254
216 232 254
216 232 254
216 232 254
216 232 254
216 232 254
216 232 254
216 232 254
216 232 254
216 232 254
216 232 254
216 232 254
216 232 254
216 232 254
216 232 254
216 232 254
216 232 254
216 232 254
216 232 254
216 232 254
216 232 254
216 232 254
216 232 254
216 232 254
216 232 254
216 232 254
216 232 254
216 232 254
216 232 254
216 232 254
216 232 254
216 232 254
216 232 254
216 232 254
216 232 254
216 232 254
216 232 254
216 232 254
216 232 254
216 232 254
216 232 254
216 232 254
216 232 254
216 232 254
216 232 254
216 232 254
216 232 254
216 232 254
216 232 254
216 232 254
216 232 254
216 232 254
216 232 254
216 232 254
216 232 254
216 232 254
216 232 254
216 232 254
216 232 254
216 232 254
216 232 254
216 232 254
216 232 254
216 232 254
216 232 254
216 232 254
216 232 254
216 232 254
216 232 254
216 232 254
216 232 254
216 232 254
216 232 254
216 232 254
216 232 254
216 232 254
216 232 254
216 232 254
216 232 254
216 232 254
216 232 254
216 232 254
216 232 254
216 232 254
216 232 254
216 232 254
216 232 254
216 232 254
216 232 254
216 232 254
216 232 254
216 232 254
216 232 254
216 232 254
216 232 254
216 232 254
216 232 254
216 232 254
216 232 254
216 232 254
216 232 254
216 232 254
216 232 254
216 232 254
216 232 254
216 232 254
216 232 254
216 232 254
216 232 254
216 232 254
216 232 254
216 232 254
216 232 254
216 232 254
216 232 254
216 232 254
141 152 171
0 0 49
0 0 50
0 0 49
0 0 49
0 0 49
0 0 49
0 0 57
0 0 57
0 0 54
0 0 51
0 0 54
0 0 53
0 0 50
0 0 46
0 0 46
0 0 47
0 0 46
0 0 45
0 0 45
0 0 48
0 0 50
0 0 52
0 0 54
0 6 64
1 13 64
35 47 19
70 73 40
75 77 38
35 45 13
64 64 40
118 108 85
140 133 107
118 112 85
110 105 79
106 100 74
116 109 82
103 98 73
118 109 79
145 139 114
148 140 112
100 96 65
99 95 70
157 140 113
159 139 115
131 116 95
96 90 66
87 88 58
58 64 29
51 61 26
61 64 32
68 70 43
70 76 51
97 102 70
95 100 65
96 102 66
94 101 66
89 96 60
84 91 55
87 93 56
89 94 57
84 90 53
76 85 47
74 83 44
70 82 41
63 78 36
53 73 29
51 71 27
47 67 23
46 68 20
44 67 17
40 63 12
41 62 5
41 62 0
39 59 0
39 58 3
44 63 11
42 66 14
42 65 13
44 68 15
41 65 14
39 64 5
36 61 0
36 60 0
37 62 0
35 61 0
38 66 0
35 62 0
29 53 0
32 56 0
32 56 0
32 57 0
30 56 0
29 54 0
28 52 0
33 57 0
33 59 0
31 59 10
31 59 20
26 101 69
32 63 21
19 56 69
0 15 76
0 2 60
0 0 68
0 0 66
0 0 59
0 0 50
0 0 46
0 0 47
0 0 47
0 0 45
0 0 42
0 0 42
0 0 44
0 0 50
0 0 53
0 0 50
0 0 49
0 0 47
0 0 46
0 0 47
0 0 44
0 0 45
0 0 45
0 0 45
0 0 49
0 0 51
0 0 49
0 0 46
0 0 46
0 0 49
0 0 55
0 0 56
0 0 50
0 0 52
0 0 55
0 0 53
0 0 52
0 0 52
0 0 50
0 0 52
0 0 51
0 0 49
0 0 54
0 0 56
0 0 53
0 0 52
0 0 53
0 0 53
0 0 58
0 0 57
0 0 57
141 152 173
216 232 254
216 232 254
216 232 254
216 232 254
216 232 254
216 232 254
216 232 254
216 232 254
216 232 254
216 232 254
216 232 254
216 232 254
216 232 254
216 232 254
216 232 254
216 232 254
216 232 254
216 232 254
216 232 254
216 232 254
216 232 254
216 232 254
216 232 254
216 232 254
216 232 254
216 232 254
216 232 254
216 232 254
216 232 254
216 232 254
216 232 254
216 232 254
216 232 254
216 232 254
216 232 254
216 232 254
216 232 254
216 232 254
216 232 254
216 232 254
216 232 254
216 232 254
216 232 254
216 232 254
216 232 254
216 232 254
216 232 254
216 232 254
216 232 254
216 232 254
216 232 254
216 232 254
216 232 254
216 232 254
216 232 254
216 232 254
216 232 254
216 232 254
216 232 254
216 232 254
216 232 254
216 232 254
216 232 254
216 232 254
216 232 254
216 232 254
216 232 254
216 232 254
216 232 254
216 232 254
216 232 254
216 232 254
216 232 254
216 232 254
216 232 254
216 232 254
216 232 254
216 232 254
216 232 254
216 232 254
216 232 254
216 232 254
216 232 254
216 232 254
216 232 254
216 232 254
216 232 254
216 232 254
216 232 254
216 232 254
216 232 254
216 232 254
216 232 254
216 232 254
216 232 254
216 232 254
216 232 254
216 232 254
216 232 254
216 232 254
216 232 254
216 232 254
216 232 254
216 232 254
216 232 254
216 232 254
216 232 254
216 232 254
216 232 254
216 232 254
216 232 254
216 232 254
216 232 254
216 232 254
216 232 254
216 232 254
216 232 254
216 232 254
216 232 254
216 232 254
216 232 254
216 232 254
216 232 254
216 232 254
216 232 254
216 232 254
216 232 254
216 232 254
216 232 254
216 232 254
216 232 254
216 232 254
216 232 254
216 232 254
216 232 254
216 232 254
216 232 254
216 232 254
216 232 254
216 232 254
216 232 254
216 232 254
216 232 254
216 232 254
216 232 254
216 232 254
216 232 254
216 232 254
216 232 254
216 232 254
216 232 254
216 232 254
216 232 254
216 232 254
216 232 254
216 232 254
216 232 254
216 232 254
216 232 254
216 232 254
216 232 254
216 232 254
216 232 254
216 232 254
216 232 254
216 232 254
216 232 254
216 232 254
216 232 254
216 232 254
216 232 254
216 232 254
216 232 254
216 232 254
216 232 254
216 232 254
216 232 254
216 232 254
216 232 254
216 232 254
216 232 254
216 232 254
216 232 254
216 232 254
216 232 254
216 232 254
216 232 254
216 232 254
216 232 254
216 232 254
216 232 254
216 232 254
216 232 254
216 232 254
216 232 254
216 232 254
216 232 254
216 232 254
216 232 254
216 232 254
216 232 254
216 232 254
216 232 254
216 232 254
216 232 254
216 232 254
216 232 254
216 232 254
216 232 254
216 232 254
216 232 254
216 232 254
216 232 254
216 232 254
216 232 254
216 232 254
216 232 254
216 232 254
216 232 254
216 232 254
216 232 254
216 232 254
216 232 254
216 232 254
216 232 254
216 232 254
216 232 254
216 232 254
216 232 254
216 232 254
216 232 254
216 232 254
216 232 254
216 232 254
216 232 254
216 232 254
216 232 254
216 232 254
216 232 254
216 232 254
216 232 254
216 232 254
216 232 254
216 232 254
216 232 254
157 169 188
0 0 48
0 0 50
0 0 50
0 0 49
0 0 49
0 0 50
0 0 55
0 0 52
0 0 51
0 0 49
0 0 52
0 0 54
0 0 50
0 0 46
0 0 45
0 0 45
0 0 45
0 0 45
0 0 46
0 0 48
0 0 52
0 0 52
0 0 51
0 0 56
0 1 60
14 25 50
48 57 22
80 81 42
76 82 40
42 50 16
67 67 46
110 109 82
127 121 100
120 114 87
114 108 80
121 117 92
126 120 94
101 98 72
109 103 74
126 116 88
93 86 61
73 74 48
126 112 84
164 138 112
145 120 96
112 96 79
84 84 62
59 65 33
52 60 26
56 60 30
75 79 50
60 63 35
92 95 67
105 106 74
97 99 62
95 100 59
89 95 53
87 93 50
77 85 46
81 89 51
90 96 57
80 88 49
80 86 48
81 84 45
75 83 41
60 78 31
54 77 27
55 75 29
52 72 25
46 68 18
42 64 14
38 61 8
41 63 8
40 61 5
35 55 0
31 54 0
35 57 0
39 64 4
38 61 3
41 64 5
42 65 9
41 65 5
36 61 0
38 63 0
39 65 0
39 67 4
43 73 8
34 62 0
31 57 0
31 55 0
31 55 0
30 56 0
30 57 0
30 55 0
31 55 0
33 56 0
33 58 0
34 55 2
29 66 17
21 99 89
23 102 96
16 43 78
0 13 72
0 0 66
0 0 60
0 0 57
0 0 53
0 0 48
0 0 45
0 0 43
0 0 43
0 0 43
0 0 42
0 0 43
0 0 46
0 0 48
0 0 50
0 0 48
0 0 47
0 0 45
0 0 45
0 0 45
0 0 44
0 0 44
0 0 45
0 0 46
0 0 46
0 0 45
0 0 45
0 0 46
0 0 46
0 0 46
0 0 50
0 0 57
0 0 54
0 0 49
0 0 51
0 0 53
0 0 53
0 0 54
0 0 52
0 0 51
0 0 51
0 0 48
0 0 48
0 0 50
0 0 52
0 0 48
0 0 48
0 0 49
0 0 52
0 0 55
0 0 55
0 0 57
157 169 189
216 232 254
216 232 254
216 232 254
216 232 254
216 232 254
216 232 254
216 232 254
216 232 254
216 232 254
216 232 254
216 232 254
216 232 254
216 232 254
216 232 254
216 232 254
216 232 254
216 232 254
216 232 254
216 232 254
216 232 254
216 232 254
216 232 254
216 232 254
216 232 254
216 232 254
216 232 254
216 232 254
216 232 254
216 232 254
216 232 254
216 232 254
216 232 254
216 232 254
216 232 254
216 232 254
216 232 254
216 232 254
216 232 254
216 232 254
216 232 254
216 232 254
216 232 254
216 232 254
216 232 254
216 232 254
216 232 254
216 232 254
216 232 254
216 232 254
216 232 254
216 232 254
216 232 254
216 232 254
216 232 254
216 232 254
216 232 254
216 232 254
216 232 254
216 232 254
216 232 254
216 232 254
216 232 254
216 232 254
216 232 254
216 232 254
216 232 254
216 232 254
216 232 254
216 232 254
216 232 254
216 232 254
216 232 254
216 232 254
216 232 254
216 232 254
216 232 254
216 232 254
216 232 254
216 232 254
216 232 254
216 232 254
216 232 254
216 232 254
216 232 254
216 232 254
216 232 254
216 232 254
216 232 254
216 232 254
216 232 254
216 232 254
216 232 254
216 232 254
216 232 254
216 232 254
216 232 254
216 232 254
216 232 254
216 232 254
216 232 254
216 232 254
216 232 254
216 232 254
216 232 254
216 232 254
216 232 254
216 232 254
216 232 254
216 232 254
216 232 254
216 232 254
216 232 254
216 232 254
216 232 254
216 232 254
216 232 254
216 232 254
216 232 254
216 232 254
216 232 254
216 232 254
216 232 254
216 232 254
216 232 254
216 232 254
216 232 254
216 232 254
216 232 254
216 232 254
216 232 254
216 232 254
216 232 254
216 232 254
216 232 254
216 232 254
216 232 254
216 232 254
216 232 254
216 232 254
216 232 254
216 232 254
216 232 254
216 232 254
216 232 254
216 232 254
216 232 254
216 232 254
216 232 254
216 232 254
216 232 254
216 232 254
216 232 254
216 232 254
216 232 254
216 232 254
216 232 254
216 232 254
216 232 254
216 232 254
216 232 254
216 232 254
216 232 254
216 232 254
216 232 254
216 232 254
216 232 254
216 232 254
216 232 254
216 232 254
216 232 254
216 232 254
216 232 254
216 232 254
216 232 254
216 232 254
216 232 254
216 232 254
216 232 254
216 232 254
216 232 254
216 232 254
216 232 254
216 232 254
216 232 254
216 232 254
216 232 254
216 232 254
216 232 254
216 232 254
216 232 254
216 232 254
216 232 254
216 232 254
216 232 254
216 232 254
216 232 254
216 232 254
216 232 254
216 232 254
216 232 254
216 232 254
216 232 254
216 232 254
216 232 254
216 232 254
216 232 254
216 232 254
216 232 254
216 232 254
216 232 254
216 232 254
216 232 254
216 232 254
216 232 254
216 232 254
216 232 254
216 232 254
216 232 254
216 232 254
216 232 254
216 232 254
216 232 254
216 232 254
216 232 254
216 232 254
216 232 254
216 232 254
216 232 254
216 232 254
216 232 254
216 232 254
216 232 254
216 232 254
216 232 254
216 232 254
216 232 254
216 232 254
216 232 254
216 232 254
216 232 254
216 232 254
216 232 254
216 232 254
163 175 195
0 0 48
0 0 46
0 0 48
0 0 50
0 0 48
0 0 49
0 0 50
0 0 45
0 0 46
0 0 46
0 0 49
0 0 51
0 0 51
0 0 45
0 0 45
0 0 46
0 0 46
0 0 45
0 0 46
0 0 48
0 0 49
0 0 51
0 0 51
0 0 51
0 0 55
0 0 62
17 29 68
64 69 40
85 84 46
92 85 49
45 51 17
83 82 59
101 99 76
126 120 95
140 133 106
130 122 94
124 117 90
122 110 84
105 100 78
101 93 66
96 90 66
88 86 62
114 107 78
155 126 107
154 122 107
121 105 83
117 102 81
67 68 40
48 58 23
45 53 21
52 57 27
84 87 60
63 65 40
80 82 55
102 105 74
90 92 57
94 98 59
92 96 54
81 85 44
81 86 48
84 91 50
85 93 49
81 88 45
79 86 42
83 87 42
77 85 39
58 81 30
54 78 27
59 76 27
55 75 26
47 70 23
47 70 23
42 65 15
44 65 14
41 63 10
35 57 0
30 53 0
33 58 8
43 69 15
40 66 10
40 64 9
36 59 0
40 64 7
40 64 5
40 66 1
39 65 0
36 64 0
37 66 0
34 62 0
34 62 0
32 60 0
33 60 0
30 57 0
30 58 0
31 56 0
32 56 0
32 57 0
30 54 0
31 55 6
32 56 6
25 74 48
13 94 112
3 32 81
0 8 59
0 0 58
0 0 53
0 0 50
0 0 46
0 0 45
0 0 42
0 0 42
0 0 42
0 0 42
0 0 42
0 0 44
0 0 47
0 0 48
0 0 47
0 0 45
0 0 43
0 0 42
0 0 43
0 0 45
0 0 45
0 0 43
0 0 45
0 0 48
0 0 50
0 0 49
0 0 48
0 0 47
0 0 47
0 0 47
0 0 48
0 0 50
0 0 52
0 0 51
0 0 50
0 0 50
0 0 49
0 0 49
0 0 52
0 0 51
0 0 50
0 0 47
0 0 46
0 0 44
0 0 44
0 0 47
0 0 47
0 0 46
0 0 48
0 0 51
0 0 52
0 0 53
0 0 54
157 169 190
216 232 254
216 232 254
216 232 254
216 232 254
216 232 254
216 232 254
216 232 254
216 232 254
216 232 254
216 232 254
216 232 254
216 232 254
216 232 254
216 232 254
216 232 254
216 232 254
216 232 254
216 232 254
216 232 254
216 232 254
216 232 254
216 232 254
216 232 254
216 232 254
216 232 254
216 232 254
216 232 254
216 232 254
216 232 254
216 232 254
216 232 254
216 232 254
216 232 254
216 232 254
216 232 254
216 232 254
216 232 254
216 232 254
216 232 254
216 232 254
216 232 254
216 232 254
216 232 254
216 232 254
216 232 254
216 232 254
216 232 254
216 232 254
216 232 254
216 232 254
216 232 254
216 232 254
216 232 254
216 232 254
216 232 254
216 232 254
216 232 254
216 232 254
216 232 254
216 232 254
216 232 254
216 232 254
216 232 254
216 232 254
216 232 254
216 232 254
216 232 254
216 232 254
216 232 254
216 232 254
216 232 254
216 232 254
216 232 254
216 232 254
216 232 254
216 232 254
216 232 254
216 232 254
216 232 254
216 232 254
216 232 254
216 232 254
216 232 254
216 232 254
216 232 254
216 232 254
216 232 254
216 232 254
216 232 254
216 232 254
216 232 254
216 232 254
216 232 254
216 232 254
216 232 254
216 232 254
216 232 254
216 232 254
216 232 254
216 232 254
216 232 254
216 232 254
216 232 254
216 232 254
216 232 254
216 232 254
216 232 254
216 232 254
216 232 254
216 232 254
216 232 254
216 232 254
216 232 254
216 232 254
216 232 254
216 232 254
216 232 254
216 232 254
216 232 254
216 232 254
216 232 254
216 232 254
216 232 254
216 232 254
216 232 254
216 232 254
216 232 254
216 232 254
216 232 254
216 232 254
216 232 254
216 232 254
216 232 254
216 232 254
216 232 254
216 232 254
216 232 254
216 232 254
216 232 254
216 232 254
216 232 254
216 232 254
216 232 254
216 232 254
216 232 254
216 232 254
216 232 254
216 232 254
216 232 254
216 232 254
216 232 254
216 232 254
216 232 254
216 232 254
216 232 254
216 232 254
216 232 254
216 232 254
216 232 254
216 232 254
216 232 254
216 232 254
216 232 254
216 232 254
216 232 254
216 232 254
216 232 254
216 232 254
216 232 254
216 232 254
216 232 254
216 232 254
216 232 254
216 232 254
216 232 254
216 232 254
216 232 254
216 232 254
216 232 254
216 232 254
216 232 254
216 232 254
216 232 254
216 232 254
216 232 254
216 232 254
216 232 254
216 232 254
216 232 254
216 232 254
216 232 254
216 232 254
216 232 254
216 232 254
216 232 254
216 232 254
216 232 254
216 232 254
216 232 254
216 232 254
216 232 254
216 232 254
216 232 254
216 232 254
216 232 254
216 232 254
216 232 254
216 232 254
216 232 254
216 232 254
216 232 254
216 232 254
216 232 254
216 232 254
216 232 254
216 232 254
216 232 254
216 232 254
216 232 254
216 232 254
216 232 254
216 232 254
216 232 254
216 232 254
216 232 254
216 232 254
216 232 254
216 232 254
216 232 254
216 232 254
216 232 254
216 232 254
216 232 254
216 232 254
216 232 254
216 232 254
216 232 254
216 232 254
216 232 254
216 232 254
216 232 254
182 196 216
0 0 47
0 0 46
0 0 47
0 0 48
0 0 46
0 0 46
0 0 46
0 0 42
0 0 45
0 0 46
0 0 49
0 0 50
0 0 48
0 0 45
0 0 45
0 0 45
0 0 45
0 0 45
0 0 45
0 0 46
0 0 47
0 0 47
0 0 48
0 0 50
0 0 54
0 2 59
0 15 71
2 44 102
66 72 44
90 87 52
90 90 51
67 63 32
70 71 46
116 110 86
119 113 87
128 117 90
125 112 84
130 120 95
124 111 86
125 111 84
121 105 85
122 104 81
121 101 77
161 133 111
139 114 92
173 132 111
177 137 113
167 152 129
125 117 89
92 95 66
64 69 41
61 65 34
79 78 52
56 58 32
74 78 53
88 90 63
93 96 64
91 96 59
89 94 57
87 90 54
94 96 60
91 95 56
86 91 46
83 90 42
80 87 34
80 86 33
72 83 32
58 80 27
52 75 21
54 73 23
48 68 17
43 65 10
40 61 10
38 60 0
40 59 0
44 64 15
41 61 9
40 61 11
47 72 21
50 75 25
41 64 12
41 66 11
31 56 0
36 62 7
41 66 10
39 64 1
37 63 0
32 59 0
30 56 0
35 60 0
36 63 0
38 67 0
35 64 0
31 58 0
34 61 0
34 59 0
35 58 0
34 58 0
31 56 0
30 58 0
36 60 0
32 62 21
29 67 58
0 25 71
0 0 60
0 0 53
0 0 49
0 0 44
0 0 42
0 0 42
0 0 41
0 0 40
0 0 41
0 0 44
0 0 45
0 0 45
0 0 46
0 0 44
0 0 43
0 0 42
0 0 42
0 0 43
0 0 44
0 0 45
0 0 45
0 0 43
0 0 44
0 0 46
0 0 52
0 0 52
0 0 49
0 0 47
0 0 47
0 0 49
0 0 50
0 0 51
0 0 52
0 0 50
0 0 48
0 0 48
0 0 48
0 0 47
0 0 49
0 0 50
0 0 50
0 0 47
0 0 45
0 0 43
0 0 43
0 0 44
0 0 46
0 0 47
0 0 44
0 0 45
0 0 49
0 0 52
0 0 51
21 23 58
171 184 205
216 232 254
216 232 254
216 232 254
216 232 254
216 232 254
216 232 254
216 232 254
216 232 254
216 232 254
216 232 254
216 232 254
216 232 254
216 232 254
216 232 254
216 232 254
216 232 254
216 232 254
216 232 254
216 232 254
216 232 254
216 232 254
216 232 254
216 232 254
216 232 254
216 232 254
216 232 254
216 232 254
216 232 254
216 232 254
216 232 254
216 232 254
216 232 254
216 232 254
216 232 254
216 232 254
216 232 254
216 232 254
216 232 254
216 232 254
216 232 254
216 232 254
216 232 254
216 232 254
216 232 254
216 232 254
216 232 254
216 232 254
216 232 254
216 232 254
216 232 254
216 232 254
216 232 254
216 232 254
216 232 254
216 232 254
216 232 254
216 232 254
216 232 254
216 232 254
216 232 254
216 232 254
216 232 254
216 232 254
216 232 254
216 232 254
216 232 254
216 232 254
216 232 254
216 232 254
216 232 254
216 232 254
216 232 254
216 232 254
216 232 254
216 232 254
216 232 254
216 232 254
216 232 254
216 232 254
216 232 254
216 232 254
216 232 254
216 232 254
216 232 254
216 232 254
216 232 254
216 232 254
216 232 254
216 232 254
216 232 254
216 232 254
216 232 254
216 232 254
216 232 254
216 232 254
216 232 254
216 232 254
216 232 254
216 232 254
216 232 254
216 232 254
216 232 254
216 232 254
216 232 254
216 232 254
216 232 254
216 232 254
216 232 254
216 232 254
216 232 254
216 232 254
216 232 254
216 232 254
216 232 254
216 232 254
216 232 254
216 232 254
216 232 254
216 232 254
216 232 254
216 232 254
216 232 254
216 232 254
216 232 254
216 232 254
216 232 254
216 232 254
216 232 254
216 232 254
216 232 254
216 232 254
216 232 254
216 232 254
216 232 254
216 232 254
216 232 254
216 232 254
216 232 254
216 232 254
216 232 254
216 232 254
216 232 254
216 232 254
216 232 254
216 232 254
216 232 254
216 232 254
216 232 254
216 232 254
216 232 254
216 232 254
216 232 254
216 232 254
216 232 254
216 232 254
216 232 254
216 232 254
216 232 254
216 232 254
216 232 254
216 232 254
216 232 254
216 232 254
216 232 254
216 232 254
216 232 254
216 232 254
216 232 254
216 232 254
216 232 254
216 232 254
216 232 254
216 232 254
216 232 254
216 232 254
216 232 254
216 232 254
216 232 254
216 232 254
216 232 254
216 232 254
216 232 254
216 232 254
216 232 254
216 232 254
216 232 254
216 232 254
216 232 254
216 232 254
216 232 254
216 232 254
216 232 254
216 232 254
216 232 254
216 232 254
216 232 254
216 232 254
216 232 254
216 232 254
216 232 254
216 232 254
216 232 254
216 232 254
216 232 254
216 232 254
216 232 254
216 232 254
216 232 254
216 232 254
216 232 254
216 232 254
216 232 254
216 232 254
216 232 254
216 232 254
216 232 254
216 232 254
216 232 254
216 232 254
216 232 254
216 232 254
216 232 254
216 232 254
216 232 254
216 232 254
216 232 254
216 232 254
216 232 254
216 232 254
216 232 254
216 232 254
216 232 254
216 232 254
216 232 254
216 232 254
216 232 254
216 232 254
216 232 254
216 232 254
185 198 219
43 46 68
0 0 46
0 0 48
0 0 46
0 0 45
0 0 44
0 0 42
0 0 42
0 0 43
0 0 45
0 0 50
0 0 51
0 0 48
0 0 45
0 0 46
0 0 46
0 0 45
0 0 45
0 0 45
0 0 45
0 0 45
0 0 47
0 0 49
0 0 49
0 0 51
0 0 56
0 6 62
0 15 75
2 20 77
61 65 47
97 91 58
88 94 54
87 87 59
72 75 44
121 118 91
132 124 100
137 127 105
132 121 97
131 121 96
141 129 102
125 110 82
121 104 84
108 96 77
117 103 76
180 140 117
142 124 97
133 116 90
127 102 87
147 140 111
152 145 112
127 117 91
73 75 49
83 82 57
55 55 29
70 75 48
93 93 71
105 102 77
96 98 65
87 90 52
88 94 54
85 91 52
88 92 51
84 89 49
80 86 40
79 85 34
82 88 37
79 87 37
64 76 29
54 70 23
52 72 21
52 72 22
43 62 0
42 63 13
34 55 0
33 53 0
37 57 0
35 54 1
46 67 19
53 75 27
52 76 27
51 73 22
50 73 21
41 64 6
30 54 0
33 59 0
38 64 0
39 65 0
37 62 0
34 60 0
33 60 0
36 63 0
32 61 0
32 60 0
28 54 0
34 57 0
37 61 0
40 64 0
40 64 0
35 57 0
39 58 0
35 65 4
39 67 7
35 63 11
28 78 51
12 65 85
0 8 59
0 0 51
0 0 45
0 0 41
0 0 42
0 0 42
0 0 42
0 0 42
0 0 44
0 0 44
0 0 45
0 0 45
0 0 43
0 0 42
0 0 41
0 0 42
0 0 43
0 0 46
0 0 46
0 0 47
0 0 45
0 0 45
0 0 45
0 0 45
0 0 47
0 0 50
0 0 47
0 0 46
0 0 48
0 0 50
0 0 50
0 0 52
0 0 54
0 0 51
0 0 48
0 0 47
0 0 47
0 0 47
0 0 49
0 0 48
0 0 49
0 0 47
0 0 45
0 0 43
0 0 42
0 0 42
0 0 45
0 0 46
0 0 45
0 0 45
0 0 45
0 0 49
0 0 50
0 0 47
30 32 62
188 202 223
216 232 254
216 232 254
216 232 254
216 232 254
216 232 254
216 232 254
216 232 254
216 232 254
216 232 254
216 232 254
216 232 254
216 232 254
216 232 254
216 232 254
216 232 254
216 232 254
216 232 254
216 232 254
216 232 254
216 232 254
216 232 254
216 232 254
216 232 254
216 232 254
216 232 254
216 232 254
216 232 254
216 232 254
216 232 254
216 232 254
216 232 254
216 232 254
216 232 254
216 232 254
216 232 254
216 232 254
216 232 254
216 232 254
216 232 254
216 232 254
216 232 254
216 232 254
216 232 254
216 232 254
216 232 254
216 232 254
216 232 254
216 232 254
216 232 254
216 232 254
216 232 254
216 232 254
216 232 254
216 232 254
216 232 254
216 232 254
216 232 254
216 232 254
216 232 254
216 232 254
216 232 254
216 232 254
216 232 254
216 232 254
216 232 254
216 232 254
216 232 254
216 232 254
216 232 254
216 232 254
216 232 254
216 232 254
216 232 254
216 232 254
216 232 254
216 232 254
216 232 254
216 232 254
216 232 254
216 232 254
216 232 254
216 232 254
216 232 254
216 232 254
216 232 254
216 232 254
216 232 254
216 232 254
216 232 254
216 232 254
216 232 254
216 232 254
216 232 254
216 232 254
216 232 254
216 232 254
216 232 254
216 232 254
216 232 254
216 232 254
216 232 254
216 232 254
216 232 254
216 232 254
216 232 254
216 232 254
216 232 254
216 232 254
216 232 254
216 232 254
216 232 254
216 232 254
216 232 254
216 232 254
216 232 254
216 232 254
216 232 254
216 232 254
216 232 254
216 232 254
216 232 254
216 232 254
216 232 254
216 232 254
216 232 254
216 232 254
216 232 254
216 232 254
216 232 254
216 232 254
216 232 254
216 232 254
216 232 254
216 232 254
216 232 254
216 232 254
216 232 254
216 232 254
216 232 254
216 232 254
216 232 254
216 232 254
216 232 254
216 232 254
216 232 254
216 232 254
216 232 254
216 232 254
216 232 254
216 232 254
216 232 254
216 232 254
216 232 254
216 232 254
216 232 254
216 232 254
216 232 254
216 232 254
216 232 254
216 232 254
216 232 254
216 232 254
216 232 254
216 232 254
216 232 254
216 232 254
216 232 254
216 232 254
216 232 254
216 232 254
216 232 254
216 232 254
216 232 254
216 232 254
216 232 254
216 232 254
216 232 254
216 232 254
216 232 254
216 232 254
216 232 254
216 232 254
216 232 254
216 232 254
216 232 254
216 232 254
216 232 254
216 232 254
216 232 254
216 232 254
216 232 254
216 232 254
216 232 254
216 232 254
216 232 254
216 232 254
216 232 254
216 232 254
216 232 254
216 232 254
216 232 254
216 232 254
216 232 254
216 232 254
216 232 254
216 232 254
216 232 254
216 232 254
216 232 254
216 232 254
216 232 254
216 232 254
216 232 254
216 232 254
216 232 254
216 232 254
216 232 254
216 232 254
216 232 254
216 232 254
216 232 254
216 232 254
216 232 254
216 232 254
216 232 254
216 232 254
216 232 254
216 232 254
216 232 254
216 232 254
216 232 254
216 232 254
216 232 254
216 232 254
216 232 254
216 232 254
216 232 254
195 209 230
43 46 69
0 0 47
0 0 48
0 0 45
0 0 42
0 0 42
0 0 42
0 0 42
0 0 42
0 0 43
0 0 46
0 0 48
0 0 47
0 0 45
0 0 45
0 0 46
0 0 45
0 0 45
0 0 45
0 0 45
0 0 44
0 0 47
0 0 49
0 0 50
0 0 46
0 0 48
0 0 52
0 0 64
0 9 71
6 10 61
67 67 46
97 88 61
94 98 63
90 97 59
73 70 45
137 129 99
136 125 98
142 132 107
136 128 101
134 120 93
131 118 91
111 98 73
103 92 71
113 102 85
104 93 71
172 140 119
153 135 107
130 110 91
98 93 70
120 115 89
134 125 95
126 122 92
108 105 79
100 96 73
69 66 42
88 86 65
98 92 76
110 104 81
106 106 74
92 96 56
90 97 54
83 87 45
86 90 49
85 89 46
82 86 41
81 85 37
78 84 35
77 87 38
58 73 26
54 73 24
50 69 18
49 67 16
51 70 19
48 69 16
40 60 5
38 59 7
40 61 9
46 67 18
49 71 22
50 72 19
50 71 18
48 69 16
42 62 8
36 58 0
34 58 0
36 62 8
41 67 0
38 64 0
35 60 0
36 61 0
35 61 0
29 57 0
28 57 0
29 56 0
34 56 0
40 61 0
43 62 3
43 64 10
36 57 0
38 59 5
42 67 15
43 68 15
41 68 12
31 57 6
22 97 76
12 104 114
0 25 64
0 0 44
0 0 42
0 0 39
0 0 42
0 0 42
0 0 42
0 0 42
0 0 42
0 0 42
0 0 42
0 0 43
0 0 42
0 0 42
0 0 42
0 0 42
0 0 42
0 0 47
0 0 46
0 0 47
0 0 46
0 0 47
0 0 47
0 0 47
0 0 47
0 0 47
0 0 47
0 0 46
0 0 46
0 0 48
0 0 49
0 0 49
0 0 53
0 0 53
0 0 48
0 0 47
0 0 47
0 0 47
0 0 48
0 0 48
0 0 47
0 0 46
0 0 45
0 0 45
0 0 43
0 0 42
0 0 43
0 0 45
0 0 44
0 0 42
0 0 44
0 0 45
0 0 44
0 0 49
0 0 45
37 40 66
195 209 230
216 232 254
216 232 254
216 232 254
216 232 254
216 232 254
216 232 254
216 232 254
216 232 254
216 232 254
216 232 254
216 232 254
216 232 254
216 232 254
216 232 254
216 232 254
216 232 254
216 232 254
216 232 254
216 232 254
216 232 254
216 232 254
216 232 254
216 232 254
216 232 254
216 232 254
216 232 254
216 232 254
216 232 254
216 232 254
216 232 254
216 232 254
216 232 254
216 232 254
216 232 254
216 232 254
216 232 254
216 232 254
216 232 254
216 232 254
216 232 254
216 232 254
216 232 254
216 232 254
216 232 254
216 232 254
216 232 254
216 232 254
216 232 254
216 232 254
216 232 254
216 232 254
216 232 254
216 232 254
216 232 254
216 232 254
216 232 254
216 232 254
216 232 254
216 232 254
216 232 254
216 232 254
216 232 254
216 232 254
216 232 254
216 232 254
216 232 254
216 232 254
216 232 254
216 232 254
216 232 254
216 232 254
216 232 254
216 232 254
216 232 254
216 232 254
216 232 254
216 232 254
216 232 254
216 232 254
216 232 254
216 232 254
216 232 254
216 232 254
216 232 254
216 232 254
216 232 254
216 232 254
216 232 254
216 232 254
216 232 254
216 232 254
216 232 254
216 232 254
216 232 254
216 232 254
216 232 254
216 232 254
216 232 254
216 232 254
216 232 254
216 232 254
216 232 254
216 232 254
216 232 254
216 232 254
216 232 254
216 232 254
216 232 254
216 232 254
216 232 254
216 232 254
216 232 254
216 232 254
216 232 254
216 232 254
216 232 254
216 232 254
216 232 254
216 232 254
216 232 254
216 232 254
216 232 254
216 232 254
216 232 254
216 232 254
216 232 254
216 232 254
216 232 254
216 232 254
216 232 254
216 232 254
216 232 254
216 232 254
216 232 254
216 232 254
216 232 254
216 232 254
216 232 254
216 232 254
216 232 254
216 232 254
216 232 254
216 232 254
216 232 254
216 232 254
216 232 254
216 232 254
216 232 254
216 232 254
216 232 254
216 232 254
216 232 254
216 232 254
216 232 254
216 232 254
216 232 254
216 232 254
216 232 254
216 232 254
216 232 254
216 232 254
216 232 254
216 232 254
216 232 254
216 232 254
216 232 254
216 232 254
216 232 254
216 232 254
216 232 254
216 232 254
216 232 254
216 232 254
216 232 254
216 232 254
216 232 254
216 232 254
216 232 254
216 232 254
216 232 254
216 232 254
216 232 254
216 232 254
216 232 254
216 232 254
216 232 254
216 232 254
216 232 254
216 232 254
216 232 254
216 232 254
216 232 254
216 232 254
216 232 254
216 232 254
216 232 254
216 232 254
216 232 254
216 232 254
216 232 254
216 232 254
216 232 254
216 232 254
216 232 254
216 232 254
216 232 254
216 232 254
216 232 254
216 232 254
216 232 254
216 232 254
216 232 254
216 232 254
216 232 254
216 232 254
216 232 254
216 232 254
216 232 254
216 232 254
216 232 254
216 232 254
216 232 254
216 232 254
216 232 254
216 232 254
216 232 254
216 232 254
216 232 254
216 232 254
216 232 254
216 232 254
216 232 254
216 232 254
216 232 254
216 232 254
201 215 237
61 65 87
0 0 49
0 0 48
0 0 44
0 0 41
0 0 42
0 0 42
0 0 42
0 0 42
0 0 42
0 0 42
0 0 42
0 0 45
0 0 45
0 0 46
0 0 45
0 0 45
0 0 45
0 0 45
0 0 45
0 0 45
0 0 45
0 0 47
0 0 48
0 0 48
0 0 45
0 0 45
0 0 50
0 0 58
0 0 60
4 6 64
49 56 54
105 94 59
117 107 77
104 100 72
133 120 90
165 150 117
162 146 117
161 149 120
141 130 101
136 122 95
128 115 88
112 102 78
101 93 71
77 72 50
77 71 49
152 126 105
160 131 114
149 126 111
118 104 81
89 85 61
108 98 75
138 119 98
107 97 73
115 109 87
103 96 77
108 99 81
105 98 78
103 98 74
94 94 60
85 89 52
83 88 50
82 83 47
88 87 52
87 88 49
88 88 47
86 86 44
81 85 40
72 82 35
60 77 27
55 74 19
49 68 15
43 60 9
39 57 6
38 58 6
35 55 0
33 54 0
37 56 3
45 68 18
44 68 16
48 71 18
46 69 15
42 64 12
37 59 2
37 59 0
36 59 0
40 65 11
42 69 0
38 65 0
37 61 0
38 61 0
33 56 0
33 58 0
33 57 0
33 58 0
42 64 10
36 56 0
38 57 0
40 60 7
39 60 3
44 67 11
40 66 8
35 60 0
34 60 0
23 45 25
17 54 66
0 31 59
0 0 42
0 0 39
0 0 41
0 0 41
0 0 41
0 0 42
0 0 42
0 0 42
0 0 42
0 0 42
0 0 42
0 0 42
0 0 42
0 0 42
0 0 42
0 0 42
0 0 42
0 0 44
0 0 45
0 0 45
0 0 45
0 0 44
0 0 45
0 0 45
0 0 45
0 0 45
0 0 47
0 0 47
0 0 47
0 0 50
0 0 50
0 0 50
0 0 51
0 0 52
0 0 49
0 0 47
0 0 47
0 0 47
0 0 48
0 0 47
0 0 46
0 0 46
0 0 45
0 0 45
0 0 42
0 0 41
0 0 42
0 0 42
0 0 45
0 0 43
0 0 41
0 0 42
0 0 42
0 0 43
0 0 45
0 0 45
43 46 69
201 215 237
216 232 254
216 232 254
216 232 254
216 232 254
216 232 254
216 232 254
216 232 254
216 232 254
216 232 254
216 232 254
216 232 254
216 232 254
216 232 254
216 232 254
216 232 254
216 232 254
216 232 254
216 232 254
216 232 254
216 232 254
216 232 254
216 232 254
216 232 254
216 232 254
216 232 254
216 232 254
216 232 254
216 232 254
216 232 254
216 232 254
216 232 254
216 232 254
216 232 254
216 232 254
216 232 254
216 232 254
216 232 254
216 232 254
216 232 254
216 232 254
216 232 254
216 232 254
216 232 254
216 232 254
216 232 254
216 232 254
216 232 254
216 232 254
216 232 254
216 232 254
216 232 254
216 232 254
216 232 254
216 232 254
216 232 254
216 232 254
216 232 254
216 232 254
216 232 254
216 232 254
216 232 254
216 232 254
216 232 254
216 232 254
216 232 254
216 232 254
216 232 254
216 232 254
216 232 254
216 232 254
216 232 254
216 232 254
216 232 254
216 232 254
216 232 254
216 232 254
216 232 254
216 232 254
216 232 254
216 232 254
216 232 254
216 232 254
216 232 254
216 232 254
216 232 254
216 232 254
216 232 254
216 232 254
216 232 254
216 232 254
216 232 254
216 232 254
216 232 254
216 232 254
216 232 254
216 232 254
216 232 254
216 232 254
216 232 254
216 232 254
216 232 254
216 232 254
216 232 254
216 232 254
216 232 254
216 232 254
216 232 254
216 232 254
216 232 254
216 232 254
216 232 254
216 232 254
216 232 254
216 232 254
216 232 254
216 232 254
216 232 254
217 232 254
217 232 254
217 232 254
217 232 254
217 232 254
217 232 254
217 232 254
217 232 254
217 232 254
217 232 254
217 232 254
217 232 254
217 232 254
217 232 254
217 232 254
216 232 254
216 232 254
216 232 254
216 232 254
216 232 254
216 232 254
216 232 254
216 232 254
216 232 254
216 232 254
216 232 254
216 232 254
216 232 254
216 232 254
216 232 254
216 232 254
216 232 254
216 232 254
216 232 254
216 232 254
216 232 254
216 232 254
216 232 254
216 232 254
216 232 254
216 232 254
216 232 254
216 232 254
216 232 254
216 232 254
216 232 254
216 232 254
216 232 254
216 232 254
216 232 254
216 232 254
216 232 254
216 232 254
216 232 254
216 232 254
216 232 254
216 232 254
216 232 254
216 232 254
216 232 254
216 232 254
216 232 254
216 232 254
216 232 254
216 232 254
216 232 254
216 232 254
216 232 254
216 232 254
216 232 254
216 232 254
216 232 254
216 232 254
216 232 254
216 232 254
216 232 254
216 232 254
216 232 254
216 232 254
216 232 254
216 232 254
216 232 254
216 232 254
216 232 254
216 232 254
216 232 254
216 232 254
216 232 254
216 232 254
216 232 254
216 232 254
216 232 254
216 232 254
216 232 254
216 232 254
216 232 254
216 232 254
216 232 254
216 232 254
216 232 254
216 232 254
216 232 254
216 232 254
216 232 254
216 232 254
216 232 254
216 232 254
216 232 254
216 232 254
216 232 254
216 232 254
216 232 254
216 232 254
216 232 254
216 232 254
216 232 254
210 225 247
78 83 103
0 0 48
0 0 47
0 0 43
0 0 42
0 0 42
0 0 42
0 0 42
0 0 42
0 0 42
0 0 42
0 0 42
0 0 44
0 0 45
0 0 46
0 0 47
0 0 45
0 0 45
0 0 45
0 0 45
0 0 45
0 0 44
0 0 46
0 0 47
0 0 47
0 0 44
0 0 43
0 0 44
0 0 50
0 0 56
0 0 51
0 8 67
41 53 81
75 73 41
99 96 61
109 101 69
168 154 119
169 153 121
166 151 123
164 151 122
162 154 129
139 127 99
135 122 94
113 101 74
90 80 56
81 82 55
64 67 39
92 78 56
111 98 79
117 102 80
109 104 81
95 93 69
107 100 80
128 110 90
116 105 82
107 100 80
115 105 87
121 111 88
114 105 84
110 101 79
104 98 69
97 93 66
98 94 68
94 90 65
96 92 64
96 94 60
101 97 60
101 96 59
92 91 54
76 83 41
59 75 26
55 74 25
51 71 22
45 66 13
39 59 5
38 58 2
37 58 0
33 54 0
31 49 0
36 57 8
40 66 12
43 70 11
45 72 17
37 61 0
38 63 0
40 66 3
38 62 3
40 64 0
39 65 0
38 65 0
39 63 0
36 59 0
38 60 0
42 61 0
40 60 0
36 57 0
30 53 0
34 56 0
37 56 0
39 59 4
46 69 14
40 63 3
40 64 0
29 50 23
17 33 39
0 4 42
0 2 43
0 0 42
0 0 45
0 0 39
0 0 43
0 0 42
0 0 39
0 0 42
0 0 42
0 0 42
0 0 42
0 0 42
0 0 42
0 0 42
0 0 42
0 0 42
0 0 42
0 0 42
0 0 42
0 0 43
0 0 44
0 0 44
0 0 45
0 0 43
0 0 45
0 0 45
0 0 45
0 0 45
0 0 45
0 0 45
0 0 47
0 0 49
0 0 50
0 0 50
0 0 50
0 0 52
0 0 50
0 0 47
0 0 46
0 0 46
0 0 47
0 0 47
0 0 47
0 0 47
0 0 45
0 0 45
0 0 43
0 0 42
0 0 42
0 0 42
0 0 43
0 0 42
0 0 42
0 0 40
0 0 41
0 0 41
0 0 44
0 4 46
0 0 45
104 111 128
208 223 244
216 232 254
216 232 254
216 232 254
216 232 254
216 232 254
216 232 254
216 232 254
216 232 254
216 232 254
216 232 254
216 232 254
216 232 254
216 232 254
216 232 254
216 232 254
216 232 254
216 232 254
216 232 254
216 232 254
216 232 254
216 232 254
216 232 254
216 232 254
216 232 254
216 232 254
216 232 254
216 232 254
216 232 254
216 232 254
216 232 254
216 232 254
216 232 254
216 232 254
216 232 254
216 232 254
216 232 254
216 232 254
216 232 254
216 232 254
216 232 254
216 232 254
216 232 254
216 232 254
216 232 254
216 232 254
216 232 254
216 232 254
216 232 254
216 232 254
216 232 254
216 232 254
216 232 254
216 232 254
216 232 254
216 232 254
216 232 254
216 232 254
216 232 254
216 232 254
216 232 254
216 232 254
216 232 254
216 232 254
216 232 254
216 232 254
216 232 254
216 232 254
216 232 254
216 232 254
216 232 254
216 232 254
216 232 254
216 232 254
216 232 254
216 232 254
216 232 254
216 232 254
216 232 254
216 232 254
216 232 254
216 232 254
216 232 254
216 232 254
216 232 254
216 232 254
216 232 254
216 232 254
216 232 254
216 232 254
216 232 254
216 232 254
216 232 254
216 232 254
216 232 254
216 232 254
216 232 254
216 232 254
216 232 254
216 232 254
216 232 254
217 232 254
217 232 254
217 232 254
217 232 254
217 232 254
217 232 254
217 232 254
217 232 254
217 232 254
217 232 254
217 232 254
217 232 254
217 232 254
217 232 254
217 232 254
217 232 254
217 232 254
217 232 254
217 232 254
217 232 254
217 232 254
217 232 254
217 232 254
217 232 254
217 232 254
217 232 254
217 232 254
217 232 254
217 232 254
217 232 254
217 232 254
217 232 254
217 232 254
217 232 254
217 232 254
217 232 254
217 232 254
217 232 254
217 232 254
217 232 254
217 232 254
217 232 254
217 232 254
217 232 254
217 232 254
217 232 254
217 232 254
217 232 254
217 232 254
217 232 254
217 232 254
217 232 254
217 232 254
217 232 254
217 232 254
217 232 254
217 232 254
217 232 254
217 232 254
217 232 254
217 232 254
217 232 254
217 232 254
217 232 254
217 232 254
217 232 254
217 232 254
217 232 254
217 232 254
216 232 254
216 232 254
216 232 254
216 232 254
216 232 254
216 232 254
216 232 254
216 232 254
216 232 254
216 232 254
216 232 254
216 232 254
216 232 254
216 232 254
216 232 254
216 232 254
216 232 254
216 232 254
216 232 254
216 232 254
216 232 254
216 232 254
216 232 254
216 232 254
216 232 254
216 232 254
216 232 254
216 232 254
216 232 254
216 232 254
216 232 254
216 232 254
216 232 254
216 232 254
216 232 254
216 232 254
216 232 254
216 232 254
216 232 254
216 232 254
216 232 254
216 232 254
216 232 254
216 232 254
216 232 254
216 232 254
216 232 254
216 232 254
216 232 254
216 232 254
216 232 254
216 232 254
216 232 254
216 232 254
216 232 254
216 232 254
216 232 254
216 232 254
216 232 254
216 232 254
216 232 254
216 232 254
215 231 253
116 125 143
0 0 47
0 0 45
0 0 42
0 0 42
0 0 41
0 0 42
0 0 42
0 0 42
0 0 42
0 0 42
0 0 42
0 0 44
0 0 45
0 0 45
0 0 45
0 0 45
0 0 45
0 0 45
0 0 45
0 0 44
0 0 43
0 0 42
0 0 44
0 0 46
0 0 45
0 0 42
0 0 42
0 0 44
0 0 46
0 0 49
0 2 58
0 10 64
20 26 74
29 31 56
49 57 47
76 81 59
92 90 57
103 95 65
159 152 126
173 168 140
169 165 142
152 141 114
148 132 104
138 123 98
112 100 75
100 92 62
78 76 48
72 71 48
52 55 25
53 58 29
61 63 35
91 89 65
105 97 71
133 115 92
116 106 82
91 89 64
125 113 93
124 113 89
116 107 83
109 100 81
113 100 79
118 103 81
114 100 80
102 95 70
98 89 66
105 97 67
96 93 52
89 89 48
78 86 40
75 85 38
71 84 35
66 82 34
58 74 26
49 70 15
43 63 5
41 62 8
39 60 9
28 48 0
27 47 0
29 48 5
43 67 13
45 73 9
41 71 10
37 60 0
36 60 0
40 67 10
33 59 5
33 58 0
38 61 0
37 61 0
34 59 0
36 59 0
39 60 0
42 62 0
36 57 0
31 51 0
36 57 0
41 61 0
45 64 12
41 63 14
36 56 5
36 58 4
21 46 46
6 14 50
3 8 48
0 0 42
0 0 41
0 0 41
0 0 43
0 0 39
0 0 41
0 0 44
0 0 42
0 0 42
0 0 42
0 0 42
0 0 42
0 0 42
0 0 42
0 0 42
0 0 42
0 0 42
0 0 42
0 0 42
0 0 42
0 0 42
0 0 42
0 0 42
0 0 42
0 0 42
0 0 44
0 0 45
0 0 45
0 0 45
0 0 44
0 0 44
0 0 43
0 0 45
0 0 49
0 0 48
0 0 48
0 0 49
0 0 50
0 0 47
0 0 45
0 0 44
0 0 44
0 0 44
0 0 45
0 0 45
0 0 44
0 0 44
0 0 43
0 0 42
0 0 42
0 0 42
0 0 42
0 0 42
0 0 42
0 0 42
0 0 41
0 0 41
0 0 41
0 0 42
0 0 43
0 0 44
120 129 146
216 232 254
216 232 254
216 232 254
216 232 254
216 232 254
216 232 254
216 232 254
216 232 254
216 232 254
216 232 254
216 232 254
216 232 254
216 232 254
216 232 254
216 232 254
216 232 254
216 232 254
216 232 254
216 232 254
216 232 254
216 232 254
216 232 254
216 232 254
216 232 254
216 232 254
216 232 254
216 232 254
216 232 254
216 232 254
216 232 254
216 232 254
216 232 254
216 232 254
216 232 254
216 232 254
216 232 254
216 232 254
216 232 254
216 232 254
216 232 254
216 232 254
216 232 254
216 232 254
216 232 254
216 232 254
216 232 254
216 232 254
216 232 254
216 232 254
216 232 254
216 232 254
216 232 254
216 232 254
216 232 254
216 232 254
216 232 254
216 232 254
216 232 254
216 232 254
216 232 254
216 232 254
216 232 254
217 232 254
216 232 254
217 232 254
217 232 254
217 232 254
217 232 254
217 232 254
217 232 254
217 232 254
217 232 254
217 232 254
217 232 254
217 232 254
217 232 254
217 232 254
217 232 254
217 232 254
217 232 254
217 232 254
217 232 254
217 232 254
217 232 254
217 232 254
217 232 254
217 232 254
217 232 254
217 232 254
217 232 254
217 232 254
217 232 254
217 232 254
217 232 254
217 232 254
217 232 254
217 232 254
217 232 254
217 232 254
217 232 254
217 232 254
217 232 254
217 232 254
217 232 254
217 232 254
217 232 254
217 232 254
217 232 254
217 232 254
217 232 254
217 232 254
217 232 254
217 232 254
217 232 254
217 232 254
217 232 254
217 233 254
217 233 254
217 233 254
217 233 254
217 233 254
217 233 254
217 233 254
217 233 254
217 233 254
217 233 254
217 233 254
217 233 254
217 233 254
217 233 254
217 233 254
217 233 254
217 233 254
217 233 254
217 233 254
217 233 254
217 233 254
217 233 254
217 233 254
217 232 254
217 232 254
217 232 254
217 232 254
217 232 254
217 232 254
217 232 254
217 232 254
217 232 254
217 232 254
217 232 254
217 232 254
217 232 254
217 232 254
217 232 254
217 232 254
217 232 254
217 232 254
217 232 254
217 232 254
217 232 254
217 232 254
217 232 254
217 232 254
217 232 254
217 232 254
217 232 254
217 232 254
217 232 254
217 232 254
217 232 254
217 232 254
217 232 254
217 232 254
217 232 254
217 232 254
217 232 254
217 232 254
217 232 254
217 232 254
217 232 254
217 232 254
217 232 254
217 232 254
217 232 254
217 232 254
217 232 254
217 232 254
217 232 254
217 232 254
217 232 254
217 232 254
217 232 254
217 232 254
217 232 254
217 232 254
217 232 254
217 232 254
217 232 254
217 232 254
217 232 254
217 232 254
217 232 254
217 232 254
217 232 254
217 232 254
217 232 254
217 232 254
217 232 254
217 232 254
217 232 254
217 232 254
217 232 254
217 232 254
217 232 254
217 232 254
217 232 254
217 232 254
217 232 254
217 232 254
217 232 254
216 232 254
216 232 254
216 232 254
216 232 254
217 232 254
216 232 254
216 232 254
216 232 254
216 232 254
216 232 254
216 232 254
153 164 183
0 0 44
0 0 44
0 0 42
0 0 42
0 0 42
0 0 42
0 0 42
0 0 42
0 0 42
0 0 42
0 0 40
0 0 43
0 0 45
0 0 45
0 0 45
0 0 45
0 0 45
0 0 45
0 0 45
0 0 45
0 0 42
0 0 43
0 0 45
0 0 45
0 0 45
0 0 43
0 0 41
0 0 42
0 0 47
0 0 45
0 0 48
0 0 52
0 0 58
0 5 63
0 5 54
10 6 46
42 46 58
79 76 48
98 97 68
132 128 111
143 140 113
143 131 111
140 123 104
146 130 104
145 131 102
138 128 95
129 116 85
98 90 59
93 89 62
89 83 58
82 77 51
69 70 41
69 67 38
131 113 89
148 134 113
147 135 115
72 70 45
135 124 101
141 124 100
124 111 88
118 106 86
122 106 83
122 104 82
113 100 79
109 98 77
101 91 69
103 97 67
88 88 47
78 82 37
76 84 41
79 89 42
80 93 45
67 82 36
55 71 27
46 65 19
39 58 8
34 52 1
36 54 7
28 49 0
29 50 0
39 61 12
46 70 15
39 65 5
39 65 7
37 60 0
35 58 0
34 59 2
31 55 2
33 58 0
36 58 0
39 62 0
34 57 0
36 59 0
36 56 0
38 56 2
39 57 5
39 59 0
41 62 1
43 62 12
39 57 6
33 55 5
32 53 16
25 46 39
9 19 54
0 0 46
0 0 43
0 0 42
0 0 42
0 0 42
0 0 42
0 0 42
0 0 42
0 0 42
0 0 42
0 0 42
0 0 42
0 0 42
0 0 42
0 0 42
0 0 42
0 0 42
0 0 42
0 0 42
0 0 42
0 0 42
0 0 42
0 0 42
0 0 42
0 0 42
0 0 42
0 0 42
0 0 42
0 0 43
0 0 43
0 0 43
0 0 42
0 0 42
0 0 42
0 0 42
0 0 43
0 0 43
0 0 45
0 0 46
0 0 48
0 0 48
0 0 44
0 0 42
0 0 42
0 0 42
0 0 42
0 0 43
0 0 43
0 0 42
0 0 42
0 0 42
0 0 42
0 0 42
0 0 42
0 0 42
0 0 42
0 0 42
0 0 42
0 0 42
0 0 42
0 0 42
0 0 42
0 0 42
0 0 42
145 156 173
216 232 254
216 232 254
216 232 254
216 232 254
216 232 254
216 232 254
216 232 254
216 232 254
216 232 254
216 232 254
217 232 254
216 232 254
217 232 254
217 232 254
217 232 254
217 232 254
217 232 254
217 232 254
217 232 254
217 232 254
217 232 254
217 232 254
217 232 254
217 232 254
217 232 254
217 232 254
217 232 254
217 232 254
217 232 254
217 232 254
217 232 254
217 232 254
217 232 254
217 232 254
217 232 254
217 232 254
217 232 254
217 232 254
217 232 254
217 232 254
217 232 254
217 232 254
217 232 254
217 232 254
217 232 254
217 232 254
217 232 254
217 232 254
217 232 254
217 232 254
217 232 254
217 232 254
217 232 254
217 232 254
217 232 254
217 232 254
217 232 254
217 232 254
217 232 254
217 232 254
217 232 254
217 232 254
217 232 254
217 232 254
217 232 254
217 232 254
217 232 254
217 232 254
217 232 254
217 232 254
217 232 254
217 232 254
217 232 254
217 232 254
217 232 254
217 232 254
217 232 254
217 232 254
217 232 254
217 232 254
217 232 254
217 232 254
217 232 254
217 232 254
217 232 254
217 232 254
217 232 254
217 232 254
217 232 254
217 232 254
217 232 254
217 233 254
217 233 254
217 233 254
217 233 254
217 233 254
217 233 254
217 233 254
217 233 254
217 233 254
217 233 254
217 233 254
217 233 254
217 233 254
217 233 254
217 233 254
217 233 254
217 233 254
217 233 254
217 233 254
217 233 254
217 233 254
217 233 254
217 233 254
217 233 254
217 233 254
217 233 254
217 233 254
217 233 254
217 233 254
217 233 254
217 233 254
217 233 254
217 233 254
217 233 254
217 233 254
217 233 254
217 233 254
217 233 254
217 233 254
217 233 254
217 233 254
217 233 254
217 233 254
217 233 254
217 233 254
217 233 254
217 233 254
217 233 254
217 233 254
217 233 254
217 233 254
217 233 254
217 233 254
217 233 254
217 233 254
217 233 254
217 233 254
217 233 254
217 233 254
217 233 254
217 233 254
217 233 254
217 233 254
217 233 254
217 233 254
217 233 254
217 233 254
217 233 254
217 233 254
217 233 254
217 233 254
217 233 254
217 233 254
217 233 254
217 233 254
217 233 254
217 233 254
217 233 254
217 233 254
217 233 254
217 233 254
217 233 254
217 233 254
217 233 254
217 233 254
217 233 254
217 233 254
217 233 254
217 233 254
217 233 254
217 232 254
217 232 254
217 232 254
217 232 254
217 232 254
217 232 254
217 232 254
217 232 254
217 232 254
217 232 254
217 232 254
217 232 254
217 232 254
217 232 254
217 232 254
217 232 254
217 232 254
217 232 254
217 232 254
217 232 254
217 232 254
217 232 254
217 232 254
217 232 254
217 232 254
217 232 254
217 232 254
217 232 254
217 232 254
217 232 254
217 232 254
217 232 254
217 232 254
217 232 254
217 232 254
217 232 254
217 232 254
217 232 254
217 232 254
217 232 254
217 232 254
217 232 254
217 232 254
217 232 254
217 232 254
217 232 254
217 232 254
217 232 254
186 200 220
0 0 46
0 0 43
0 0 42
0 0 42
0 0 42
0 0 42
0 0 42
0 0 42
0 0 42
0 0 42
0 0 42
0 0 42
0 0 45
0 0 45
0 0 45
0 0 45
0 0 45
0 0 44
0 0 45
0 0 45
0 0 44
0 0 43
0 0 43
0 0 42
0 0 42
0 0 42
0 0 42
0 0 42
0 0 44
0 0 44
0 0 43
0 0 45
0 0 54
0 0 52
0 0 51
0 0 56
0 0 47
5 4 44
69 66 59
114 113 87
157 161 132
153 147 111
153 142 112
169 153 122
180 151 132
142 128 96
149 131 102
136 123 96
101 93 63
103 93 64
119 108 81
130 113 89
124 108 85
128 113 88
141 124 98
157 138 114
151 131 109
137 127 98
135 123 90
153 131 102
134 115 92
128 109 89
125 105 83
129 109 87
114 100 81
112 99 80
101 92 70
91 90 58
82 89 48
80 89 47
79 87 46
75 85 38
74 87 37
59 74 28
52 68 22
46 64 14
40 58 7
35 53 3
39 58 12
28 48 0
27 47 0
42 64 15
41 65 15
32 54 3
36 59 6
31 52 0
30 52 0
30 53 0
28 50 0
34 59 0
38 62 0
42 66 0
36 59 0
37 58 0
39 58 2
44 62 12
49 68 16
43 63 5
39 58 0
44 62 11
38 57 11
32 53 25
15 33 56
0 9 49
0 0 43
0 0 42
0 0 39
0 0 42
0 0 42
0 0 42
0 0 42
0 0 42
0 0 42
0 0 42
0 0 42
0 0 42
0 0 42
0 0 42
0 0 42
0 0 42
0 0 42
0 0 42
0 0 42
0 0 42
0 0 42
0 0 42
0 0 42
0 0 42
0 0 42
0 0 42
0 0 42
0 0 42
0 0 42
0 0 42
0 0 42
0 0 42
0 0 42
0 0 42
0 0 42
0 0 42
0 0 42
0 0 42
0 0 42
0 0 42
0 0 42
0 0 42
0 0 42
0 0 42
0 0 42
0 0 42
0 0 42
0 0 42
0 0 42
0 0 42
0 0 42
0 0 42
0 0 42
0 0 42
0 0 42
0 0 42
0 0 42
0 0 42
0 0 42
0 0 42
0 0 42
0 0 42
0 0 42
0 0 42
0 0 42
30 32 55
177 190 210
217 232 254
217 232 254
217 232 254
217 232 254
217 232 254
217 232 254
217 232 254
217 232 254
217 232 254
217 232 254
217 232 254
217 232 254
217 232 254
217 232 254
217 232 254
217 232 254
217 232 254
217 232 254
217 232 254
217 232 254
217 232 254
217 232 254
217 232 254
217 232 254
217 232 254
217 232 254
217 232 254
217 232 254
217 232 254
217 232 254
217 232 254
217 232 254
217 232 254
217 232 254
217 232 254
217 232 254
217 232 254
217 232 254
217 232 254
217 232 254
217 232 254
217 232 254
217 232 254
217 232 254
217 232 254
217 232 254
217 232 254
217 232 254
217 232 254
217 233 254
217 233 254
217 233 254
217 233 254
217 233 254
217 233 254
217 233 254
217 233 254
217 233 254
217 233 254
217 233 254
217 233 254
217 233 254
217 233 254
217 233 254
217 233 254
217 233 254
217 233 254
217 233 254
217 233 254
217 233 254
217 233 254
217 233 254
217 233 254
217 233 254
217 233 254
217 233 254
217 233 254
217 233 254
217 233 254
217 233 254
217 233 254
217 233 254
217 233 254
217 233 254
217 233 254
217 233 254
217 233 254
217 233 254
217 233 254
217 233 254
217 233 254
217 233 254
217 233 254
217 233 254
217 233 254
217 233 254
217 233 254
217 233 254
217 233 254
217 233 254
217 233 254
217 233 254
217 233 254
217 233 254
217 233 254
217 233 254
217 233 254
217 233 254
217 233 254
217 233 254
217 233 254
217 233 254
217 233 254
217 233 254
217 233 254
217 233 254
217 233 254
217 233 254
217 233 254
217 233 254
217 233 254
217 233 254
217 233 254
217 233 254
217 233 254
217 233 254
217 233 254
217 233 254
217 233 254
217 233 254
217 233 254
217 233 254
217 233 254
217 233 254
217 233 254
217 233 254
217 233 254
217 233 254
217 233 254
217 233 254
217 233 254
217 233 254
217 233 254
217 233 254
217 233 254
217 233 254
217 233 254
217 233 254
217 233 254
217 233 254
217 233 254
217 233 254
217 233 254
217 233 254
217 233 254
217 233 254
217 233 254
217 233 254
217 233 254
217 233 254
217 233 254
217 233 254
217 233 254
217 233 254
217 233 254
217 233 254
217 233 254
217 233 254
217 233 254
217 233 254
217 233 254
217 233 254
217 233 254
217 233 254
217 233 254
217 233 254
217 233 254
217 233 254
217 233 254
217 233 254
217 233 254
217 233 254
217 233 254
217 233 254
217 233 254
217 233 254
217 233 254
217 233 254
217 233 254
217 233 254
217 233 254
217 233 254
217 233 254
217 233 254
217 233 254
217 233 254
217 233 254
217 233 254
217 233 254
217 233 254
217 233 254
217 233 254
217 233 254
217 233 254
217 233 254
217 233 254
217 233 254
217 233 254
217 233 254
217 233 254
217 233 254
217 233 254
217 233 254
217 233 254
217 233 254
217 233 254
217 233 254
217 233 254
217 233 254
217 233 254
217 233 254
217 233 254
217 233 254
217 233 254
217 233 254
217 233 254
217 233 254
203 218 239
48 52 71
0 0 42
0 0 42
0 0 42
0 0 42
0 0 42
0 0 42
0 0 42
0 0 42
0 0 42
0 0 42
0 0 42
0 0 44
0 0 45
0 0 45
0 0 45
0 0 45
0 0 44
0 0 44
0 0 45
0 0 45
0 0 45
0 0 44
0 0 42
0 0 42
0 0 42
0 0 42
0 0 42
0 0 42
0 0 45
0 0 42
0 0 43
0 0 48
0 0 50
0 0 47
0 0 51
0 0 55
0 0 48
7 5 49
76 72 59
98 93 70
169 160 142
153 144 111
193 187 152
171 165 134
160 138 115
146 128 104
133 115 89
121 114 88
103 98 69
117 107 80
107 97 68
140 125 100
142 125 99
157 137 114
170 141 117
166 140 112
163 139 111
164 147 117
144 132 95
174 154 124
158 138 113
148 127 103
145 125 99
148 131 106
124 112 86
107 99 75
104 101 75
89 92 56
78 85 45
81 90 52
82 88 46
75 82 33
73 84 32
57 71 21
46 64 14
38 56 0
35 52 0
28 47 0
23 44 0
29 51 0
28 48 0
35 59 0
31 55 0
27 50 0
28 50 0
31 52 0
31 52 0
27 50 0
25 47 0
32 56 0
33 57 0
35 58 0
39 61 5
42 62 11
45 64 13
47 66 14
48 70 15
45 66 7
41 62 0
39 59 0
31 53 15
12 33 69
0 6 59
0 0 45
0 0 40
0 0 43
0 0 40
0 0 42
0 0 42
0 0 42
0 0 41
0 0 42
0 0 42
0 0 42
0 0 42
0 0 42
0 0 42
0 0 42
0 0 42
0 0 42
0 0 42
0 0 42
0 0 42
0 0 42
0 0 42
0 0 42
0 0 42
0 0 42
0 0 42
0 0 42
0 0 42
0 0 42
0 0 42
0 0 42
0 0 42
0 0 42
0 0 42
0 0 42
0 0 42
0 0 42
0 0 42
0 0 42
0 0 42
0 0 42
0 0 42
0 0 42
0 0 42
0 0 42
0 0 42
0 0 42
0 0 42
0 0 42
0 0 42
0 0 42
0 0 42
0 0 42
0 0 42
0 0 42
0 0 42
0 0 42
0 0 42
0 0 42
0 0 42
0 0 42
0 0 42
0 0 42
0 0 42
0 0 42
0 0 42
0 0 42
48 52 70
200 214 235
217 233 254
217 233 254
217 233 254
217 233 254
217 233 254
217 233 254
217 233 254
217 233 254
217 233 254
217 233 254
217 233 254
217 233 254
217 233 254
217 233 254
217 233 254
217 233 254
217 233 254
217 233 254
217 233 254
217 233 254
217 233 254
217 233 254
217 233 254
217 233 254
217 233 254
217 233 254
217 233 254
217 233 254
217 233 254
217 233 254
217 233 254
217 233 254
217 233 254
217 233 254
217 233 254
217 233 254
217 233 254
217 233 254
217 233 254
217 233 254
217 233 254
217 233 254
217 233 254
217 233 254
217 233 254
217 233 254
217 233 254
217 233 254
217 233 254
217 233 254
217 233 254
217 233 254
217 233 254
217 233 254
217 233 254
217 233 254
217 233 254
217 233 254
217 233 254
217 233 254
217 233 254
217 233 254
217 233 254
217 233 254
217 233 254
217 233 254
217 233 254
217 233 254
217 233 254
217 233 254
217 233 254
217 233 254
217 233 254
217 233 254
217 233 254
217 233 254
217 233 254
217 233 254
217 233 254
217 233 254
217 233 254
217 233 254
217 233 254
217 233 254
217 233 254
217 233 254
217 233 254
217 233 254
217 233 254
217 233 254
217 233 254
217 233 254
217 233 254
217 233 254
217 233 254
217 233 254
217 233 254
217 233 254
217 233 254
217 233 254
217 233 254
217 233 254
217 233 254
217 233 254
217 233 254
217 233 254
217 233 254
217 233 254
217 233 254
217 233 254
217 233 254
217 233 254
217 233 254
217 233 254
217 233 254
217 233 254
217 233 254
217 233 254
217 233 254
217 233 254
217 233 254
217 233 254
217 233 254
217 233 254
217 233 254
217 233 254
217 233 254
217 233 254
217 233 254
217 233 254
217 233 254
217 233 254
217 233 254
217 233 254
217 233 254
217 233 254
217 233 254
217 233 254
217 233 254
217 233 254
217 233 254
217 233 254
217 233 254
217 233 254
217 233 254
217 233 254
217 233 254
217 233 254
217 233 254
217 233 254
217 233 254
217 233 254
217 233 254
217 233 254
217 233 254
217 233 254
217 233 254
217 233 254
217 233 254
217 233 254
217 233 254
217 233 254
217 233 254
217 233 254
217 233 254
217 233 254
217 233 254
217 233 254
217 233 254
217 233 254
217 233 254
217 233 254
217 233 254
217 233 254
217 233 254
217 233 254
217 233 254
217 233 254
217 233 254
217 233 254
217 233 254
217 233 254
217 233 254
217 233 254
217 233 254
217 233 254
217 233 254
217 233 254
217 233 254
217 233 254
217 233 254
217 233 254
217 233 254
217 233 254
217 233 254
217 233 254
217 233 254
217 233 254
217 233 254
217 233 254
217 233 254
217 233 254
217 233 254
217 233 254
217 233 254
217 233 254
217 233 254
217 233 254
217 233 254
217 233 254
217 233 254
217 233 254
217 233 254
217 233 254
217 233 254
217 233 254
217 233 254
217 233 254
217 233 254
217 233 254
217 233 254
217 233 254
217 233 254
217 233 254
217 233 254
214 230 252
101 109 125
0 0 42
0 0 42
0 0 42
0 0 42
0 0 42
0 0 42
0 0 42
0 0 42
0 0 42
0 0 42
0 0 42
0 0 42
0 0 45
0 0 45
0 0 45
0 0 45
0 0 45
0 0 45
0 0 45
0 0 44
0 0 44
0 0 44
0 0 42
0 0 42
0 0 42
0 0 42
0 0 42
0 0 42
0 0 42
0 0 42
0 0 40
0 0 44
0 0 45
0 0 44
0 0 42
0 0 47
0 0 50
0 0 46
0 0 46
49 48 53
100 93 67
148 135 110
108 108 113
122 133 120
160 151 127
168 152 118
137 120 96
112 103 79
84 84 56
84 83 51
110 103 75
101 94 68
122 111 86
138 125 97
165 149 122
195 179 153
157 150 117
146 132 104
159 136 111
157 141 111
168 147 114
175 156 122
165 147 114
167 148 112
151 137 102
118 110 75
103 100 69
98 97 66
84 87 51
76 81 44
76 82 43
81 87 44
78 88 39
69 81 31
55 67 20
46 66 13
33 51 6
29 48 0
26 44 0
30 48 0
25 48 0
34 57 0
36 63 0
31 56 0
30 55 0
35 55 0
31 52 0
34 52 0
31 51 0
30 54 5
33 58 0
34 59 2
41 63 9
45 66 13
49 69 18
49 69 16
46 66 10
46 68 10
40 62 6
36 56 0
38 56 0
25 55 40
6 29 73
0 0 44
0 0 46
0 0 47
0 0 39
0 0 41
0 0 43
0 0 42
0 0 42
0 0 40
0 0 42
0 0 42
0 0 42
0 0 42
0 0 42
0 0 42
0 0 42
0 0 42
0 0 42
0 0 42
0 0 42
0 0 42
0 0 42
0 0 42
0 0 42
0 0 42
0 0 42
0 0 42
0 0 42
0 0 42
0 0 42
0 0 42
0 0 42
0 0 42
0 0 42
0 0 42
0 0 42
0 0 42
0 0 42
0 0 42
0 0 42
0 0 42
0 0 42
0 0 42
0 0 42
0 0 42
0 0 42
0 0 42
0 0 42
0 0 42
0 0 42
0 0 42
0 0 42
0 0 42
0 0 42
0 0 42
0 0 42
0 0 42
0 0 42
0 0 42
0 0 42
0 0 42
0 0 42
0 0 42
0 0 42
0 0 42
0 0 42
0 0 42
0 0 42
0 0 42
101 109 125
214 230 252
217 233 254
217 233 254
217 233 254
217 233 254
217 233 254
217 233 254
217 233 254
217 233 254
217 233 254
217 233 254
217 233 254
217 233 254
217 233 254
217 233 254
217 233 254
217 233 254
217 233 254
217 233 254
217 233 254
217 233 254
217 233 254
217 233 254
217 233 254
217 233 254
217 233 254
217 233 254
217 233 254
217 233 254
217 233 254
217 233 254
217 233 254
217 233 254
217 233 254
217 233 254
217 233 254
217 233 254
217 233 254
217 233 254
217 233 254
217 233 254
217 233 254
217 233 254
217 233 254
217 233 254
217 233 254
217 233 254
217 233 254
217 233 254
217 233 254
217 233 254
217 233 254
217 233 254
217 233 254
217 233 254
217 233 254
217 233 254
217 233 254
217 233 254
217 233 254
217 233 254
217 233 254
217 233 254
217 233 254
217 233 254
217 233 254
217 233 254
217 233 254
217 233 254
217 233 254
217 233 254
217 233 254
217 233 254
217 233 254
217 233 254
217 233 254
217 233 254
217 233 254
217 233 254
217 233 254
217 233 254
217 233 254
217 233 254
217 233 254
217 233 254
217 233 254
217 233 254
217 233 254
217 233 254
217 233 254
217 233 254
217 233 254
217 233 254
217 233 254
217 233 254
217 233 254
217 233 254
217 233 254
217 233 254
217 233 254
217 233 254
217 233 254
217 233 254
217 233 254
217 233 254
217 233 254
217 233 254
217 233 254
217 233 254
217 233 254
217 233 254
217 233 254
217 233 254
217 233 254
217 233 254
217 233 254
217 233 254
217 233 254
217 233 254
217 233 254
217 233 254
217 233 254
217 233 254
217 233 254
217 233 254
217 233 254
217 233 254
217 233 254
217 233 254
217 233 254
217 233 254
217 233 254
217 233 254
217 233 254
217 233 254
217 233 254
217 233 254
217 233 254
217 233 254
217 233 254
217 233 254
217 233 254
217 233 254
217 233 254
217 233 254
217 233 254
217 233 254
217 233 254
217 233 254
217 233 254
217 233 254
217 233 254
217 233 254
217 233 254
217 233 254
217 233 254
217 233 254
217 233 254
217 233 254
217 233 254
217 233 254
217 233 254
217 233 254
217 233 254
217 233 254
217 233 254
217 233 254
217 233 254
217 233 254
217 233 254
217 233 254
217 233 254
217 233 254
217 233 254
217 233 254
217 233 254
217 233 254
217 233 254
217 233 254
217 233 254
217 233 254
217 233 254
217 233 254
217 233 254
217 233 254
217 233 254
217 233 254
217 233 254
217 233 254
217 233 254
217 233 254
217 233 254
217 233 254
217 233 254
217 233 254
217 233 254
217 233 254
217 233 254
217 233 254
217 233 254
217 233 254
217 233 254
217 233 254
217 233 254
217 233 254
217 233 254
217 233 254
217 233 254
217 233 254
217 233 254
217 233 254
217 233 254
217 233 254
217 233 254
217 233 254
217 233 254
217 233 254
217 233 254
217 233 254
217 233 254
217 233 254
217 233 254
217 233 254
217 233 254
217 233 254
150 161 179
0 0 42
0 0 42
0 0 42
0 0 42
0 0 42
0 0 42
0 0 42
0 0 42
0 0 42
0 0 42
0 0 42
0 0 42
0 0 42
0 0 44
0 0 43
0 0 43
0 0 44
0 0 45
0 0 45
0 0 43
0 0 42
0 0 42
0 0 42
0 0 42
0 0 42
0 0 42
0 0 42
0 0 42
0 0 42
0 0 41
0 0 40
0 0 42
0 0 42
0 0 41
0 0 42
0 0 42
0 0 45
0 0 43
0 0 43
0 0 54
40 40 60
100 92 72
145 140 118
47 50 87
5 6 51
78 71 86
153 137 114
125 113 89
103 96 73
79 88 59
77 81 42
90 94 63
87 86 57
112 104 78
124 111 83
141 125 100
163 151 123
150 133 106
135 121 96
133 121 97
132 118 95
105 93 69
141 127 96
144 130 95
130 120 86
110 107 75
100 97 64
96 93 61
90 88 55
77 80 46
72 78 42
72 77 35
73 78 39
66 83 32
62 75 18
57 70 22
37 59 0
36 50 10
32 51 0
31 53 1
34 52 0
40 65 10
49 73 18
44 66 6
38 66 14
34 62 2
28 74 39
32 64 27
31 86 51
27 79 65
35 102 73
36 72 40
31 51 34
33 50 43
38 57 21
42 63 9
39 60 9
33 58 0
35 59 6
40 61 8
33 53 3
37 56 0
34 55 39
7 24 60
0 0 45
0 0 43
0 0 41
0 0 42
0 0 42
0 0 42
0 0 42
0 0 42
0 0 42
0 0 42
0 0 42
0 0 42
0 0 42
0 0 42
0 0 42
0 0 42
0 0 42
0 0 42
0 0 42
0 0 42
0 0 42
0 0 42
0 0 42
0 0 42
0 0 42
0 0 42
0 0 42
0 0 42
0 0 42
0 0 42
0 0 42
0 0 42
0 0 42
0 0 42
0 0 42
0 0 42
0 0 42
0 0 42
0 0 42
0 0 42
0 0 42
0 0 42
0 0 42
0 0 42
0 0 42
0 0 42
0 0 42
0 0 42
0 0 42
0 0 42
0 0 42
0 0 42
0 0 42
0 0 42
0 0 42
0 0 42
0 0 42
0 0 42
0 0 42
0 0 42
0 0 42
0 0 42
0 0 42
0 0 42
0 0 42
0 0 42
0 0 42
0 0 42
0 0 42
0 0 42
140 151 168
217 233 254
217 233 254
217 233 254
217 233 254
217 233 254
217 233 254
217 233 254
217 233 254
217 233 254
217 233 254
217 233 254
217 233 254
217 233 254
217 233 254
217 233 254
217 233 254
217 233 254
217 233 254
217 233 254
217 233 254
217 233 254
217 233 254
217 233 254
217 233 254
217 233 254
217 233 254
217 233 254
217 233 254
217 233 254
217 233 254
217 233 254
217 233 254
217 233 254
217 233 254
217 233 254
217 233 254
217 233 254
217 233 254
217 233 254
217 233 254
217 233 254
217 233 254
217 233 254
217 233 254
217 233 254
217 233 254
217 233 254
217 233 254
217 233 254
217 233 254
217 233 254
217 233 254
217 233 254
217 233 254
217 233 254
217 233 254
217 233 254
217 233 254
217 233 254
217 233 254
217 233 254
217 233 254
217 233 254
217 233 254
217 233 254
217 233 254
217 233 254
217 233 254
217 233 254
217 233 254
217 233 254
217 233 254
217 233 254
217 233 254
217 233 254
217 233 254
217 233 254
217 233 254
217 233 254
217 233 254
217 233 254
217 233 254
217 233 254
217 233 254
217 233 254
217 233 254
217 233 254
217 233 254
217 233 254
217 233 254
217 233 254
217 233 254
217 233 254
217 233 254
217 233 254
217 233 254
217 233 254
217 233 254
217 233 254
217 233 254
217 233 254
217 233 254
217 233 254
217 233 254
217 233 254
217 233 254
217 233 254
217 233 254
217 233 254
217 233 254
217 233 254
217 233 254
217 233 254
217 233 254
217 233 254
217 233 254
217 233 254
217 233 254
217 233 254
217 233 254
217 233 254
217 233 254
217 233 254
217 233 254
217 233 254
217 233 254
217 233 254
217 233 254
217 233 254
217 233 254
217 233 254
217 233 254
217 233 254
217 233 254
217 233 254
217 233 254
217 233 254
217 233 254
217 233 254
217 233 254
217 233 254
217 233 254
217 233 254
217 233 254
217 233 254
217 233 254
217 233 254
217 233 254
217 233 254
217 233 254
217 233 254
217 233 254
217 233 254
217 233 254
217 233 254
217 233 254
217 233 254
217 233 254
217 233 254
217 233 254
217 233 254
217 233 254
217 233 254
217 233 254
217 233 254
217 233 254
217 233 254
217 233 254
217 233 254
217 233 254
217 233 254
217 233 254
217 233 254
217 233 254
217 233 254
217 233 254
217 233 254
217 233 254
217 233 254
217 233 254
217 233 254
217 233 254
217 233 254
217 233 254
217 233 254
217 233 254
217 233 254
217 233 254
217 233 254
217 233 254
217 233 254
217 233 254
217 233 254
217 233 254
217 233 254
217 233 254
217 233 254
217 233 254
217 233 254
217 233 254
217 233 254
217 233 254
217 233 254
217 233 254
217 233 254
217 233 254
217 233 254
217 233 254
217 233 254
217 233 254
217 233 254
217 233 254
217 233 254
217 233 254
217 233 254
217 233 254
217 233 254
217 233 254
217 233 254
217 233 254
217 233 254
217 233 254
217 233 254
184 197 217
0 0 42
0 0 42
0 0 42
0 0 42
0 0 42
0 0 42
0 0 42
0 0 42
0 0 42
0 0 42
0 0 42
0 0 42
0 0 42
0 0 42
0 0 42
0 0 42
0 0 42
0 0 45
0 0 45
0 0 44
0 0 42
0 0 42
0 0 42
0 0 42
0 0 42
0 0 42
0 0 42
0 0 42
0 0 42
0 0 42
0 0 42
0 0 42
0 0 42
0 0 41
0 0 42
0 0 43
0 0 45
0 0 43
0 0 46
0 0 50
0 0 45
22 21 55
93 85 68
129 121 104
36 35 69
0 0 55
57 55 75
139 128 98
123 115 87
111 110 77
78 83 48
64 79 30
71 78 39
64 67 33
73 72 42
109 103 80
131 116 94
130 114 89
131 118 92
149 133 108
132 125 95
119 107 81
123 111 86
130 118 83
129 118 83
131 122 90
120 114 81
98 95 65
89 91 59
78 85 49
69 78 38
69 78 38
69 78 36
69 80 27
60 74 23
61 72 26
57 69 19
61 79 25
49 65 22
41 61 17
39 72 39
33 69 56
44 70 36
46 72 22
39 79 43
41 58 16
36 62 7
35 86 63
28 88 64
11 142 159
0 73 124
0 30 80
0 7 60
0 0 53
0 0 43
3 6 56
18 37 44
23 51 32
14 45 57
21 52 64
41 61 26
46 70 19
39 62 5
40 55 18
17 34 45
0 0 47
0 0 43
0 0 42
0 0 40
0 0 42
0 0 42
0 0 42
0 0 42
0 0 42
0 0 42
0 0 42
0 0 42
0 0 42
0 0 42
0 0 42
0 0 42
0 0 42
0 0 42
0 0 42
0 0 42
0 0 42
0 0 42
0 0 42
0 0 42
0 0 42
0 0 42
0 0 42
0 0 42
0 0 42
0 0 42
0 0 42
0 0 42
0 0 42
0 0 42
0 0 42
0 0 42
0 0 42
0 0 42
0 0 42
0 0 42
0 0 42
0 0 42
0 0 42
0 0 42
0 0 42
0 0 42
0 0 42
0 0 42
0 0 42
0 0 42
0 0 42
0 0 42
0 0 42
0 0 42
0 0 42
0 0 42
0 0 42
0 0 42
0 0 42
0 0 42
0 0 42
0 0 42
0 0 42
0 0 42
0 0 42
0 0 42
0 0 42
0 0 42
0 0 42
0 0 42
21 23 49
180 193 213
217 233 254
217 233 254
217 233 254
217 233 254
217 233 254
217 233 254
217 233 254
217 233 254
217 233 254
217 233 254
217 233 254
217 233 254
217 233 254
217 233 254
217 233 254
217 233 254
217 233 254
217 233 254
217 233 254
217 233 254
217 233 254
217 233 254
217 233 254
217 233 254
217 233 254
217 233 254
217 233 254
217 233 254
217 233 254
217 233 254
217 233 254
217 233 254
217 233 254
217 233 254
217 233 254
217 233 254
217 233 254
217 233 254
217 233 254
217 233 254
217 233 254
217 233 254
217 233 254
217 233 254
217 233 254
217 233 254
217 233 254
217 233 254
217 233 254
217 233 254
217 233 254
217 233 254
217 233 254
217 233 254
217 233 254
217 233 254
217 233 254
217 233 254
217 233 254
217 233 254
217 233 254
217 233 254
217 233 254
217 233 254
217 233 254
217 233 254
217 233 254
217 233 254
217 233 254
217 233 254
217 233 254
217 233 254
217 233 254
217 233 254
217 233 254
217 233 254
217 233 254
217 233 254
217 233 254
217 233 254
217 233 254
217 233 254
217 233 254
217 233 254
217 233 254
217 233 254
217 233 254
217 233 254
217 233 254
217 233 254
217 233 254
217 233 254
217 233 254
217 233 254
217 233 254
217 233 254
217 233 254
217 233 254
217 233 254
217 233 254
217 233 254
217 233 254
217 233 254
217 233 254
217 233 254
217 233 254
217 233 254
217 233 254
217 233 254
217 233 254
217 233 254
217 233 254
217 233 254
217 233 254
217 233 254
217 233 254
217 233 254
217 233 254
217 233 254
217 233 254
217 233 254
217 233 254
217 233 254
217 233 254
217 233 254
217 233 254
217 233 254
217 233 254
217 233 254
217 233 254
217 233 254
217 233 254
217 233 254
217 233 254
217 233 254
217 233 254
217 233 254
217 233 254
217 233 254
217 233 254
217 233 254
217 233 254
217 233 254
217 233 254
217 233 254
217 233 254
217 233 254
217 233 254
217 233 254
217 233 254
217 233 254
217 233 254
217 233 254
217 233 254
217 233 254
217 233 254
217 233 254
217 233 254
217 233 254
217 233 254
217 233 254
217 233 254
217 233 254
217 233 254
217 233 254
217 233 254
217 233 254
217 233 254
217 233 254
217 233 254
217 233 254
217 233 254
217 233 254
217 233 254
217 233 254
217 233 254
217 233 254
217 233 254
217 233 254
217 233 254
217 233 254
217 233 254
217 233 254
217 233 254
217 233 254
217 233 254
217 233 254
217 233 254
217 233 254
217 233 254
217 233 254
217 233 254
217 233 254
217 233 254
217 233 254
217 233 254
217 233 254
217 233 254
217 233 254
217 233 254
217 233 254
217 233 254
217 233 254
217 233 254
217 233 254
217 233 254
217 233 254
217 233 254
217 233 254
217 233 254
217 233 254
217 233 254
217 233 254
217 233 254
217 233 254
217 233 254
217 233 254
217 233 254
217 233 254
217 233 254
217 233 254
203 218 239
65 69 86
0 0 42
0 0 42
0 0 42
0 0 42
0 0 42
0 0 42
0 0 42
0 0 42
0 0 42
0 0 42
0 0 42
0 0 42
0 0 42
0 0 42
0 0 42
0 0 42
0 0 43
0 0 45
0 0 44
0 0 42
0 0 42
0 0 42
0 0 42
0 0 42
0 0 42
0 0 42
0 0 42
0 0 42
0 0 42
0 0 42
0 0 42
0 0 42
0 0 42
0 0 42
0 0 41
0 0 41
0 0 43
0 0 41
0 0 44
0 0 49
0 0 49
16 13 59
105 101 78
133 117 93
49 48 75
0 7 60
31 36 73
128 119 98
120 115 91
106 102 75
75 85 43
60 79 38
60 73 31
51 63 23
49 55 23
81 79 53
96 86 64
104 93 73
134 122 94
130 118 84
131 122 92
125 114 88
138 125 96
127 119 87
114 107 74
115 109 79
121 115 83
104 102 74
84 89 56
69 80 42
64 75 34
72 81 38
75 86 40
72 78 31
70 77 41
56 75 24
52 72 14
54 70 18
40 73 62
17 53 87
11 50 85
3 47 86
13 43 90
14 95 119
17 129 139
18 92 104
31 66 49
22 66 62
22 91 90
20 122 124
0 57 104
0 4 60
0 0 47
0 0 52
0 0 46
0 0 37
3 9 45
6 17 52
0 7 48
3 19 59
19 57 73
40 63 41
49 69 18
35 55 9
24 39 31
6 9 44
0 0 41
0 0 43
0 0 39
0 0 42
0 0 42
0 0 42
0 0 42
0 0 42
0 0 42
0 0 42
0 0 42
0 0 42
0 0 42
0 0 42
0 0 42
0 0 42
0 0 42
0 0 42
0 0 42
0 0 42
0 0 42
0 0 42
0 0 42
0 0 42
0 0 42
0 0 42
0 0 42
0 0 42
0 0 42
0 0 42
0 0 42
0 0 42
0 0 42
0 0 42
0 0 42
0 0 42
0 0 42
0 0 42
0 0 42
0 0 42
0 0 42
0 0 42
0 0 42
0 0 42
0 0 42
0 0 42
0 0 42
0 0 42
0 0 42
0 0 42
0 0 42
0 0 42
0 0 42
0 0 42
0 0 42
0 0 42
0 0 42
0 0 42
0 0 42
0 0 42
0 0 42
0 0 42
0 0 42
0 0 42
0 0 42
0 0 42
0 0 42
0 0 42
0 0 42
0 0 42
68 73 89
209 224 246
217 233 254
217 233 254
217 233 254
217 233 254
217 233 254
217 233 254
217 233 254
217 233 254
217 233 254
217 233 254
217 233 254
217 233 254
217 233 254
217 233 254
217 233 254
217 233 254
217 233 254
217 233 254
217 233 254
217 233 254
217 233 254
217 233 254
217 233 254
217 233 254
217 233 254
217 233 254
217 233 254
217 233 254
217 233 254
217 233 254
217 233 254
217 233 254
217 233 254
217 233 254
217 233 254
217 233 254
217 233 254
217 233 254
217 233 254
217 233 254
217 233 254
217 233 254
217 233 254
217 233 254
217 233 254
217 233 254
217 233 254
217 233 254
217 233 254
217 233 254
217 233 254
217 233 254
217 233 254
217 233 254
217 233 254
217 233 254
217 233 254
217 233 254
217 233 254
217 233 254
217 233 254
217 233 254
217 233 254
217 233 254
217 233 254
217 233 254
217 233 254
217 233 254
217 233 254
217 233 254
217 233 254
217 233 254
217 233 254
217 233 254
217 233 254
217 233 254
217 233 254
217 233 254
217 233 254
217 233 254
217 233 254
217 233 254
217 233 254
217 233 254
217 233 254
217 233 254
217 233 254
217 233 254
217 233 254
217 233 254
217 233 254
217 233 254
217 233 254
217 233 254
217 233 254
217 233 254
217 233 254
217 233 254
217 233 254
217 233 254
217 233 254
217 233 254
217 233 254
217 233 254
217 233 254
217 233 254
217 233 254
217 233 254
217 233 254
217 233 254
217 233 254
217 233 254
217 233 254
217 233 254
217 233 254
217 233 254
217 233 254
217 233 254
217 233 254
217 233 254
217 233 254
217 233 254
217 233 254
217 233 254
217 233 254
217 233 254
217 233 254
217 233 254
217 233 254
217 233 254
217 233 254
217 233 254
217 233 254
217 233 254
217 233 254
217 233 254
217 233 254
217 233 254
217 233 254
217 233 254
217 233 254
217 233 254
217 233 254
217 233 254
217 233 254
217 233 254
217 233 254
217 233 254
217 233 254
217 233 254
217 233 254
217 233 254
217 233 254
217 233 254
217 233 254
217 233 254
217 233 254
217 233 254
217 233 254
217 233 254
217 233 254
217 233 254
217 233 254
217 233 254
217 233 254
217 233 254
217 233 254
217 233 254
217 233 254
217 233 254
217 233 254
217 233 254
217 233 254
217 233 254
217 233 254
217 233 254
217 233 254
217 233 254
217 233 254
217 233 254
217 233 254
217 233 254
217 233 254
217 233 254
217 233 254
217 233 254
217 233 254
217 233 254
217 233 254
217 233 254
217 233 254
217 233 254
217 233 254
217 233 254
217 233 254
217 233 254
217 233 254
217 233 254
217 233 254
217 233 254
217 233 254
217 233 254
217 233 254
217 233 254
217 233 254
217 233 254
217 233 254
217 233 254
217 233 254
217 233 254
217 233 254
217 233 254
217 233 254
217 233 254
217 233 254
217 233 254
217 233 254
217 233 254
217 233 254
217 233 254
156 168 186
0 0 42
0 0 42
0 0 42
0 0 42
0 0 42
0 0 42
0 0 42
0 0 42
0 0 42
0 0 42
0 0 42
0 0 42
0 0 42
0 0 42
0 0 42
0 0 44
0 0 45
0 0 45
0 0 44
0 0 42
0 0 42
0 0 42
0 0 42
0 0 42
0 0 42
0 0 42
0 0 42
0 0 42
0 0 42
0 0 42
0 0 42
0 0 42
0 0 42
0 0 42
0 0 42
0 0 41
0 0 40
0 0 40
0 0 42
0 0 44
0 0 41
0 0 44
5 0 58
45 48 78
101 100 87
130 112 95
48 51 85
7 42 106
114 113 111
160 146 119
119 116 85
91 101 56
55 76 27
51 70 21
49 64 24
55 62 31
74 75 48
84 82 55
100 88 64
138 128 101
131 121 90
140 126 101
119 105 78
126 112 83
125 118 85
99 96 66
84 81 53
89 86 57
107 106 75
102 103 71
88 92 57
81 86 47
84 90 51
83 89 53
69 84 38
63 75 30
57 82 42
43 73 51
35 69 60
6 37 75
0 18 71
0 0 57
0 0 50
0 0 39
0 7 50
0 44 82
0 72 105
4 64 99
6 66 104
0 67 104
6 66 101
0 46 91
0 7 49
0 0 45
0 0 40
0 0 40
0 0 39
0 0 42
0 0 46
0 0 46
0 0 55
0 17 64
14 60 86
55 72 31
51 68 24
46 62 10
24 36 40
0 0 42
0 0 43
0 0 40
0 0 41
0 0 42
0 0 42
0 0 42
0 0 42
0 0 42
0 0 42
0 0 42
0 0 42
0 0 42
0 0 42
0 0 42
0 0 42
0 0 42
0 0 42
0 0 42
0 0 42
0 0 42
0 0 42
0 0 42
0 0 42
0 0 42
0 0 42
0 0 42
0 0 42
0 0 42
0 0 42
0 0 42
0 0 42
0 0 42
0 0 42
0 0 42
0 0 42
0 0 42
0 0 42
0 0 42
0 0 42
0 0 42
0 0 42
0 0 42
0 0 42
0 0 42
0 0 42
0 0 42
0 0 42
0 0 42
0 0 42
0 0 42
0 0 42
0 0 42
0 0 42
0 0 42
0 0 42
0 0 42
0 0 42
0 0 42
0 0 42
0 0 42
0 0 42
0 0 42
0 0 42
0 0 42
0 0 42
0 0 42
0 0 42
0 0 42
0 0 42
0 0 42
134 143 160
217 233 254
217 233 254
217 233 254
217 233 254
217 233 254
217 233 254
217 233 254
217 233 254
217 233 254
217 233 254
217 233 254
217 233 254
217 233 254
217 233 254
217 233 254
217 233 254
217 233 254
217 233 254
217 233 254
217 233 254
217 233 254
217 233 254
217 233 254
217 233 254
217 233 254
217 233 254
217 233 254
217 233 254
217 233 254
217 233 254
217 233 254
217 233 254
217 233 254
217 233 254
217 233 254
217 233 254
217 233 254
217 233 254
217 233 254
217 233 254
217 233 254
217 233 254
217 233 254
217 233 254
217 233 254
217 233 254
217 233 254
217 233 254
217 233 254
217 233 254
217 233 254
217 233 254
217 233 254
217 233 254
217 233 254
217 233 254
217 233 254
217 233 254
217 233 254
217 233 254
217 233 254
217 233 254
217 233 254
217 233 254
217 233 254
217 233 254
217 233 254
217 233 254
217 233 254
217 233 254
217 233 254
217 233 254
217 233 254
217 233 254
217 233 254
217 233 254
217 233 254
217 233 254
217 233 254
217 233 254
217 233 254
217 233 254
217 233 254
217 233 254
217 233 254
217 233 254
217 233 254
217 233 254
217 233 254
217 233 254
217 233 254
217 233 254
217 233 254
217 233 254
217 233 254
217 233 254
217 233 254
217 233 254
217 233 254
217 233 254
217 233 254
217 233 254
217 233 254
217 233 254
217 233 254
217 233 254
217 233 254
217 233 254
217 233 254
217 233 254
217 233 254
217 233 254
217 233 254
217 233 254
217 233 254
217 233 254
217 233 254
217 233 254
217 233 254
217 233 254
217 233 254
217 233 254
217 233 254
217 233 254
217 233 254
217 233 254
217 233 254
217 233 254
217 233 254
217 233 254
217 233 254
217 233 254
217 233 254
217 233 254
217 233 254
217 233 254
217 233 254
217 233 254
217 233 254
217 233 254
217 233 254
217 233 254
217 233 254
217 233 254
217 233 254
217 233 254
217 233 254
217 233 254
217 233 254
217 233 254
217 233 254
217 233 254
217 233 254
217 233 254
217 233 254
217 233 254
217 233 254
217 233 254
217 233 254
217 233 254
217 233 254
217 233 254
217 233 254
217 233 254
217 233 254
217 233 254
217 233 254
217 233 254
217 233 254
217 233 254
217 233 254
217 233 254
217 233 254
217 233 254
217 233 254
217 233 254
217 233 254
217 233 254
217 233 254
217 233 254
217 233 254
217 233 254
217 233 254
217 233 254
217 233 254
217 233 254
217 233 254
217 233 254
217 233 254
217 233 254
217 233 254
217 233 254
217 233 254
217 233 254
217 233 254
217 233 254
217 233 254
217 233 254
217 233 254
217 233 254
217 233 254
217 233 254
217 233 254
217 233 254
217 233 254
217 233 254
217 233 254
217 233 254
217 233 254
217 233 254
217 233 254
217 233 254
217 233 254
217 233 254
217 233 254
217 233 254
217 233 254
217 233 254
217 233 254
185 199 218
21 23 49
0 0 42
0 0 42
0 0 42
0 0 42
0 0 42
0 0 42
0 0 42
0 0 42
0 0 42
0 0 42
0 0 42
0 0 42
0 0 42
0 0 42
0 0 42
0 0 44
0 0 45
0 0 44
0 0 42
0 0 42
0 0 42
0 0 42
0 0 42
0 0 42
0 0 42
0 0 42
0 0 42
0 0 42
0 0 42
0 0 42
0 0 42
0 0 42
0 0 42
0 0 42
0 0 40
0 0 40
0 0 41
0 0 42
0 0 46
0 0 39
0 0 42
0 0 44
0 0 58
0 10 73
48 49 73
119 102 86
77 82 86
14 36 81
65 67 91
142 134 109
126 113 91
87 93 52
50 73 18
48 67 15
49 58 18
56 58 29
73 74 45
78 79 47
91 87 57
124 109 81
126 110 84
128 112 87
131 112 89
124 109 79
127 118 85
104 101 71
75 76 52
89 92 67
119 114 81
115 111 80
107 104 72
94 94 59
90 92 57
84 90 54
75 84 41
56 75 50
28 60 69
13 34 80
6 22 66
0 3 49
0 0 40
0 0 46
0 0 43
0 0 44
0 0 45
0 0 39
0 0 46
0 0 47
0 0 37
0 4 44
0 11 47
0 1 47
0 2 42
0 0 44
0 0 42
0 0 44
0 0 43
0 0 41
0 0 40
0 0 34
0 0 45
0 0 50
10 49 78
56 79 40
53 70 13
53 70 15
35 57 32
4 7 51
0 0 41
0 0 45
0 0 40
0 0 42
0 0 42
0 0 42
0 0 42
0 0 42
0 0 42
0 0 42
0 0 42
0 0 42
0 0 42
0 0 42
0 0 42
0 0 42
0 0 42
0 0 42
0 0 42
0 0 42
0 0 42
0 0 42
0 0 42
0 0 42
0 0 42
0 0 42
0 0 42
0 0 42
0 0 42
0 0 42
0 0 42
0 0 42
0 0 42
0 0 42
0 0 42
0 0 42
0 0 42
0 0 42
0 0 42
0 0 42
0 0 42
0 0 42
0 0 42
0 0 42
0 0 42
0 0 42
0 0 42
0 0 42
0 0 42
0 0 42
0 0 42
0 0 42
0 0 42
0 0 42
0 0 42
0 0 42
0 0 42
0 0 42
0 0 42
0 0 42
0 0 42
0 0 42
0 0 42
0 0 42
0 0 42
0 0 42
0 0 42
0 0 42
0 0 42
0 0 42
0 0 41
192 205 226
217 233 254
217 233 254
217 233 254
217 233 254
217 233 254
217 233 254
217 233 254
217 233 254
217 233 254
217 233 254
217 233 254
217 233 254
217 233 254
217 233 254
217 233 254
217 233 254
217 233 254
217 233 254
217 233 254
217 233 254
217 233 254
217 233 254
217 233 254
217 233 254
217 233 254
217 233 254
217 233 254
217 233 254
217 233 254
217 233 254
217 233 254
217 233 254
217 233 254
217 233 254
217 233 254
217 233 254
217 233 254
217 233 254
217 233 254
217 233 254
217 233 254
217 233 254
217 233 254
217 233 254
217 233 254
217 233 254
217 233 254
217 233 254
217 233 254
217 233 254
217 233 254
217 233 254
217 233 254
217 233 254
217 233 254
217 233 254
217 233 254
217 233 254
217 233 254
217 233 254
217 233 254
217 233 254
217 233 254
217 233 254
217 233 254
217 233 254
217 233 254
217 233 254
217 233 254
217 233 254
217 233 254
217 233 254
217 233 254
217 233 254
217 233 254
217 233 254
217 233 254
217 233 254
217 233 254
217 233 254
217 233 254
217 233 254
217 233 254
217 233 254
217 233 254
217 233 254
217 233 254
217 233 254
217 233 254
217 233 254
217 233 254
217 233 254
217 233 254
217 233 254
217 233 254
217 233 254
217 233 254
217 233 254
217 233 254
217 233 254
217 233 254
217 233 254
217 233 254
217 233 254
217 233 254
217 233 254
217 233 254
217 233 254
217 233 254
217 233 254
217 233 254
217 233 254
217 233 254
217 233 254
217 233 254
217 233 254
217 233 254
217 233 254
217 233 254
217 233 254
217 233 254
217 233 254
217 233 254
217 233 254
217 233 254
217 233 254
217 233 254
217 233 254
217 233 254
217 233 254
217 233 254
217 233 254
217 233 254
217 233 254
217 233 254
217 233 254
217 233 254
217 233 254
217 233 254
217 233 254
217 233 254
217 233 254
217 233 254
217 233 254
217 233 254
217 233 254
217 233 254
217 233 254
217 233 254
217 233 254
217 233 254
217 233 254
217 233 254
217 233 254
217 233 254
217 233 254
217 233 254
217 233 254
217 233 254
217 233 254
217 233 254
217 233 254
217 233 254
217 233 254
217 233 254
217 233 254
217 233 254
217 233 254
217 233 254
217 233 254
217 233 254
217 233 254
217 233 254
217 233 254
217 233 254
217 233 254
217 233 254
217 233 254
217 233 254
217 233 254
217 233 254
217 233 254
217 233 254
217 233 254
217 233 254
217 233 254
217 233 254
217 233 254
217 233 254
217 233 254
217 233 254
217 233 254
217 233 254
217 233 254
217 233 254
217 233 254
217 233 254
217 233 254
217 233 254
217 233 254
217 233 254
217 233 254
217 233 254
217 233 254
217 233 254
217 233 254
217 233 254
217 233 254
217 233 254
217 233 254
217 233 254
217 233 254
217 233 254
217 233 254
217 233 254
217 233 254
217 233 254
212 227 248
81 87 103
0 0 42
0 0 42
0 0 42
0 0 42
0 0 42
0 0 42
0 0 42
0 0 42
0 0 42
0 0 42
0 0 42
0 0 42
0 0 42
0 0 42
0 0 42
0 0 42
0 0 42
0 0 42
0 0 42
0 0 42
0 0 42
0 0 42
0 0 42
0 0 42
0 0 42
0 0 42
0 0 42
0 0 42
0 0 42
0 0 42
0 0 42
0 0 42
0 0 42
0 0 42
0 0 42
0 0 40
0 0 42
0 0 41
0 0 39
0 0 42
0 0 39
0 0 48
0 0 51
0 5 55
7 12 60
60 61 84
142 126 103
119 105 91
15 18 78
9 13 65
69 61 79
104 106 90
84 88 54
51 72 23
45 62 8
50 61 22
54 54 25
64 66 38
83 81 54
96 91 64
112 105 78
123 113 87
119 106 79
129 116 83
145 133 107
144 136 104
116 111 79
89 84 57
116 110 78
119 112 79
116 113 81
111 108 74
106 103 70
96 97 67
88 93 57
78 89 52
25 55 82
0 14 64
0 0 47
0 0 47
0 0 47
0 0 46
0 0 43
0 0 42
0 0 41
0 0 42
0 0 42
0 0 42
0 0 42
0 0 42
0 0 42
0 0 42
0 0 42
0 0 42
0 0 42
0 0 42
0 0 42
0 0 42
0 0 42
0 0 42
0 0 41
0 0 40
0 0 46
11 31 56
51 72 51
59 76 22
52 67 19
43 70 13
20 31 45
0 0 44
0 0 37
0 0 44
0 0 42
0 0 45
0 0 40
0 0 43
0 0 43
0 0 42
0 0 42
0 0 42
0 0 42
0 0 42
0 0 42
0 0 42
0 0 42
0 0 42
0 0 42
0 0 42
0 0 42
0 0 42
0 0 42
0 0 42
0 0 42
0 0 42
0 0 42
0 0 42
0 0 42
0 0 42
0 0 42
0 0 42
0 0 42
0 0 42
0 0 42
0 0 42
0 0 42
0 0 42
0 0 42
0 0 42
0 0 42
0 0 42
0 0 42
0 0 42
0 0 42
0 0 42
0 0 42
0 0 42
0 0 42
0 0 42
0 0 42
0 0 42
0 0 42
0 0 42
0 0 42
0 0 42
0 0 42
0 0 42
0 0 42
0 0 42
0 0 42
0 0 42
0 0 42
0 0 42
0 0 42
0 0 42
0 0 42
0 0 42
0 0 42
0 0 42
0 0 42
0 0 42
65 69 86
210 226 247
217 233 254
217 233 254
217 233 254
217 233 254
217 233 254
217 233 254
217 233 254
217 233 254
217 233 254
217 233 254
217 233 254
217 233 254
217 233 254
217 233 254
217 233 254
217 233 254
217 233 254
217 233 254
217 233 254
217 233 254
217 233 254
217 233 254
217 233 254
217 233 254
217 233 254
217 233 254
217 233 254
217 233 254
217 233 254
217 233 254
217 233 254
217 233 254
217 233 254
217 233 254
217 233 254
217 233 254
217 233 254
217 233 254
217 233 254
217 233 254
217 233 254
217 233 254
217 233 254
217 233 254
217 233 254
217 233 254
217 233 254
217 233 254
217 233 254
217 233 254
217 233 254
217 233 254
217 233 254
217 233 254
217 233 254
217 233 254
217 233 254
217 233 254
217 233 254
217 233 254
217 233 254
217 233 254
217 233 254
217 233 254
217 233 254
217 233 254
217 233 254
217 233 254
217 233 254
217 233 254
217 233 254
217 233 254
217 233 254
217 233 254
217 233 254
217 233 254
217 233 254
217 233 254
217 233 254
217 233 254
217 233 254
217 233 254
217 233 254
217 233 254
217 233 254
217 233 254
217 233 254
217 233 254
217 233 254
217 233 254
217 233 254
217 233 254
217 233 254
217 233 254
217 233 254
217 233 254
217 233 254
217 233 254
217 233 254
217 233 254
217 233 254
217 233 254
217 233 254
217 233 254
217 233 254
217 233 254
217 233 254
217 233 254
217 233 254
217 233 254
217 233 254
217 233 254
217 233 254
217 233 254
217 233 254
217 233 254
217 233 254
217 233 254
217 233 254
217 233 254
217 233 254
217 233 254
217 233 254
217 233 254
217 233 254
217 233 254
217 233 254
217 233 254
217 233 254
217 233 254
217 233 254
217 233 254
217 233 254
217 233 254
217 233 254
217 233 254
217 233 254
217 233 254
217 233 254
217 233 254
217 233 254
217 233 254
217 233 254
217 233 254
217 233 254
217 233 254
217 233 254
217 233 254
217 233 254
217 233 254
217 233 254
217 233 254
217 233 254
217 233 254
217 233 254
217 233 254
217 233 254
217 233 254
217 233 254
217 233 254
217 233 254
217 233 254
217 233 254
217 233 254
217 233 254
217 233 254
217 233 254
217 233 254
217 233 254
217 233 254
217 233 254
217 233 254
217 233 254
217 233 254
217 233 254
217 233 254
217 233 254
217 233 254
217 233 254
217 233 254
217 233 254
217 233 254
217 233 254
217 233 254
217 233 254
217 233 254
217 233 254
217 233 254
217 233 254
217 233 254
217 233 254
217 233 254
217 233 254
217 233 254
217 233 254
217 233 254
217 233 254
217 233 254
217 233 254
217 233 254
217 233 254
217 233 254
217 233 254
217 233 254
217 233 254
217 233 254
217 233 254
217 233 254
217 233 254
217 233 254
217 233 254
217 233 254
217 233 254
217 233 254
217 233 254
217 233 254
145 156 173
0 0 42
0 0 42
0 0 42
0 0 42
0 0 42
0 0 42
0 0 42
0 0 42
0 0 42
0 0 42
0 0 42
0 0 42
0 0 42
0 0 42
0 0 42
0 0 42
0 0 42
0 0 42
0 0 42
0 0 42
0 0 42
0 0 42
0 0 42
0 0 42
0 0 42
0 0 42
0 0 42
0 0 42
0 0 42
0 0 42
0 0 42
0 0 42
0 0 42
0 0 42
0 0 42
0 0 41
0 0 40
0 0 42
0 0 42
0 0 42
0 0 42
0 0 43
0 0 48
0 0 55
0 5 59
72 82 87
133 140 129
178 167 142
114 97 83
58 57 78
0 11 65
11 17 74
58 82 96
109 103 72
59 80 35
45 66 17
43 62 14
57 57 32
66 67 37
85 82 56
95 92 65
113 106 76
125 116 88
120 108 78
142 127 90
152 136 106
134 126 91
123 119 83
116 114 75
131 128 86
118 114 78
117 116 84
129 123 89
126 116 84
115 107 78
97 96 64
65 74 66
4 17 63
0 0 53
0 0 52
0 0 48
0 0 47
0 0 47
0 0 45
0 0 40
0 0 40
0 0 42
0 0 42
0 0 42
0 0 42
0 0 42
0 0 42
0 0 42
0 0 42
0 0 42
0 0 42
0 0 42
0 0 42
0 0 42
0 0 42
0 0 42
0 0 41
0 0 40
0 0 44
0 4 49
31 47 45
53 73 15
55 71 20
46 67 16
40 56 28
6 7 36
0 0 44
0 4 49
0 5 55
0 0 45
0 0 44
0 0 37
0 0 43
0 0 42
0 0 42
0 0 42
0 0 42
0 0 42
0 0 42
0 0 42
0 0 42
0 0 42
0 0 42
0 0 42
0 0 42
0 0 42
0 0 42
0 0 42
0 0 42
0 0 42
0 0 42
0 0 42
0 0 42
0 0 42
0 0 42
0 0 42
0 0 42
0 0 42
0 0 42
0 0 42
0 0 42
0 0 42
0 0 42
0 0 42
0 0 42
0 0 42
0 0 42
0 0 42
0 0 42
0 0 42
0 0 42
0 0 42
0 0 42
0 0 42
0 0 42
0 0 42
0 0 42
0 0 42
0 0 42
0 0 42
0 0 42
0 0 42
0 0 42
0 0 42
0 0 42
0 0 42
0 0 42
0 0 42
0 0 42
0 0 42
0 0 42
0 0 42
0 0 42
0 0 42
0 0 42
0 0 42
0 0 42
155 166 184
217 233 254
217 233 254
217 233 254
217 233 254
217 233 254
217 233 254
217 233 254
217 233 254
217 233 254
217 233 254
217 233 254
217 233 254
217 233 254
217 233 254
217 233 254
217 233 254
217 233 254
217 233 254
217 233 254
217 233 254
217 233 254
217 233 254
217 233 254
217 233 254
217 233 254
217 233 254
217 233 254
217 233 254
217 233 254
217 233 254
217 233 254
217 233 254
217 233 254
217 233 254
217 233 254
217 233 254
217 233 254
217 233 254
217 233 254
217 233 254
217 233 254
217 233 254
217 233 254
217 233 254
217 233 254
217 233 254
217 233 254
217 233 254
217 233 254
217 233 254
217 233 254
217 233 254
217 233 254
217 233 254
217 233 254
217 233 254
217 233 254
217 233 254
217 233 254
217 233 254
217 233 254
217 233 254
217 233 254
217 233 254
217 233 254
217 233 254
217 233 254
217 233 254
217 233 254
217 233 254
217 233 254
217 233 254
217 233 254
217 233 254
217 233 254
217 233 254
217 233 254
217 233 254
217 233 254
217 233 254
217 233 254
217 233 254
217 233 254
217 233 254
217 233 254
217 233 254
217 233 254
217 233 254
217 233 254
217 233 254
217 233 254
217 233 254
217 233 254
217 233 254
217 233 254
217 233 254
217 233 254
217 233 254
217 233 254
217 233 254
217 233 254
217 233 254
217 233 254
217 233 254
217 233 254
217 233 254
217 233 254
217 233 254
217 233 254
217 233 254
217 233 254
217 233 254
217 233 254
217 233 254
217 233 254
217 233 254
217 233 254
217 233 254
217 233 254
217 233 254
217 233 254
217 233 254
217 233 254
217 233 254
217 233 254
217 233 254
217 233 254
217 233 254
217 233 254
217 233 254
217 233 254
217 233 254
217 233 254
217 233 254
217 233 254
217 233 254
217 233 254
217 233 254
217 233 254
217 233 254
217 233 254
217 233 254
217 233 254
217 233 254
217 233 254
217 233 254
217 233 254
217 233 254
217 233 254
217 233 254
217 233 254
217 233 254
217 233 254
217 233 254
217 233 254
217 233 254
217 233 254
217 233 254
217 233 254
217 233 254
217 233 254
217 233 254
217 233 254
217 233 254
217 233 254
217 233 254
217 233 254
217 233 254
217 233 254
217 233 254
217 233 254
217 233 254
217 233 254
217 233 254
217 233 254
217 233 254
217 233 254
217 233 254
217 233 254
217 233 254
217 233 254
217 233 254
217 233 254
217 233 254
217 233 254
217 233 254
217 233 254
217 233 254
217 233 254
217 233 254
217 233 254
217 233 254
217 233 254
217 233 254
217 233 254
217 233 254
217 233 254
217 233 254
217 233 254
217 233 254
217 233 254
217 233 254
217 233 254
217 233 254
217 233 254
217 233 254
217 233 254
217 233 254
217 233 254
217 233 254
217 233 254
217 233 254
217 233 254
217 233 254
217 233 254
204 218 239
21 23 49
0 0 42
0 0 42
0 0 42
0 0 42
0 0 42
0 0 42
0 0 42
0 0 42
0 0 42
0 0 42
0 0 42
0 0 42
0 0 42
0 0 42
0 0 41
0 0 42
0 0 42
0 0 42
0 0 42
0 0 42
0 0 42
0 0 42
0 0 42
0 0 42
0 0 42
0 0 42
0 0 42
0 0 42
0 0 42
0 0 42
0 0 42
0 0 42
0 0 42
0 0 42
0 0 42
0 0 41
0 0 42
0 0 42
0 0 42
0 0 41
0 0 41
0 0 44
0 0 47
0 0 46
0 4 57
25 36 82
130 127 120
152 152 126
123 108 91
78 76 72
20 23 70
0 6 58
34 74 109
82 117 114
88 95 58
44 70 12
39 62 6
48 55 21
55 60 30
76 78 52
83 81 55
102 97 66
125 116 84
149 137 104
174 159 120
160 146 112
125 115 83
128 121 88
112 107 67
126 117 79
123 117 85
105 101 67
128 123 88
132 123 89
115 110 75
103 102 61
66 85 69
0 14 60
0 0 60
0 0 52
0 0 44
0 0 45
0 0 47
0 0 45
0 0 42
0 0 42
0 0 42
0 0 42
0 0 42
0 0 42
0 0 42
0 0 42
0 0 42
0 0 42
0 0 42
0 0 42
0 0 42
0 0 42
0 0 42
0 0 42
0 0 42
0 0 42
0 0 42
0 0 41
0 0 41
5 12 51
38 65 48
55 75 17
43 61 23
52 62 15
24 23 46
0 0 44
4 11 53
5 15 56
0 0 54
8 9 51
0 0 38
0 0 42
0 0 42
0 0 42
0 0 42
0 0 42
0 0 42
0 0 42
0 0 42
0 0 42
0 0 42
0 0 42
0 0 42
0 0 42
0 0 42
0 0 42
0 0 42
0 0 42
0 0 42
0 0 42
0 0 42
0 0 42
0 0 42
0 0 42
0 0 42
0 0 42
0 0 42
0 0 42
0 0 42
0 0 42
0 0 42
0 0 42
0 0 42
0 0 42
0 0 42
0 0 42
0 0 42
0 0 42
0 0 42
0 0 42
0 0 42
0 0 42
0 0 42
0 0 42
0 0 42
0 0 42
0 0 42
0 0 42
0 0 42
0 0 42
0 0 42
0 0 42
0 0 42
0 0 42
0 0 42
0 0 42
0 0 42
0 0 42
0 0 42
0 0 42
0 0 42
0 0 42
0 0 42
0 0 42
0 0 42
0 0 42
21 23 48
195 209 230
217 233 254
217 233 254
217 233 254
217 233 254
217 233 254
217 233 254
217 233 254
217 233 254
217 233 254
217 233 254
217 233 254
217 233 254
217 233 254
217 233 254
217 233 254
217 233 254
217 233 254
217 233 254
217 233 254
217 233 254
217 233 254
217 233 254
217 233 254
217 233 254
217 233 254
217 233 254
217 233 254
217 233 254
217 233 254
217 233 254
217 233 254
217 233 254
217 233 254
217 233 254
217 233 254
217 233 254
217 233 254
217 233 254
217 233 254
217 233 254
217 233 254
217 233 254
217 233 254
217 233 254
217 233 254
217 233 254
217 233 254
217 233 254
217 233 254
217 233 254
217 233 254
217 233 254
217 233 254
217 233 254
217 233 254
217 233 254
217 233 254
217 233 254
217 233 254
217 233 254
217 233 254
217 233 254
217 233 254
217 233 254
217 233 254
217 233 254
217 233 254
217 233 254
217 233 254
217 233 254
217 233 254
217 233 254
217 233 254
217 233 254
217 233 254
217 233 254
217 233 254
217 233 254
217 233 254
217 233 254
217 233 254
217 233 254
217 233 254
217 233 254
217 233 254
217 233 254
217 233 254
217 233 254
217 233 254
217 233 254
217 233 254
217 233 254
217 233 254
217 233 254
217 233 254
217 233 254
217 233 254
217 233 254
217 233 254
217 233 254
217 233 254
217 233 254
217 233 254
217 233 254
217 233 254
217 233 254
217 233 254
217 233 254
217 233 254
217 233 254
217 233 254
217 233 254
217 233 254
217 233 254
217 233 254
217 233 254
217 233 254
217 233 254
217 233 254
217 233 254
217 233 254
217 233 254
217 233 254
217 233 254
217 233 254
217 233 254
217 233 254
217 233 254
217 233 254
217 233 254
217 233 254
217 233 254
217 233 254
217 233 254
217 233 254
217 233 254
217 233 254
217 233 254
217 233 254
217 233 254
217 233 254
217 233 254
217 233 254
217 233 254
217 233 254
217 233 254
217 233 254
217 233 254
217 233 254
217 233 254
217 233 254
217 233 254
217 233 254
217 233 254
217 233 254
217 233 254
217 233 254
217 233 254
217 233 254
217 233 254
217 233 254
217 233 254
217 233 254
217 233 254
217 233 254
217 233 254
217 233 254
217 233 254
217 233 254
217 233 254
217 233 254
217 233 254
217 233 254
217 233 254
217 233 254
217 233 254
217 233 254
217 233 254
217 233 254
217 233 254
217 233 254
217 233 254
217 233 254
217 233 254
217 233 254
217 233 254
217 233 254
217 233 254
217 233 254
217 233 254
217 233 254
217 233 254
217 233 254
217 233 254
217 233 254
217 233 254
217 233 254
217 233 254
217 233 254
217 233 254
217 233 254
217 233 254
217 233 254
217 233 254
217 233 254
217 233 254
217 233 254
217 233 254
217 233 254
217 233 254
217 233 254
217 233 254
217 233 254
217 233 254
113 121 137
0 0 42
0 0 42
0 0 42
0 0 42
0 0 42
0 0 42
0 0 42
0 0 42
0 0 42
0 0 42
0 0 42
0 0 42
0 0 42
0 0 42
0 0 42
0 0 42
0 0 42
0 0 42
0 0 42
0 0 42
0 0 42
0 0 42
0 0 42
0 0 42
0 0 42
0 0 42
0 0 42
0 0 42
0 0 42
0 0 42
0 0 42
0 0 42
0 0 42
0 0 42
0 0 42
0 0 42
0 0 42
0 0 42
0 0 42
0 0 42
0 0 42
0 0 42
0 0 42
0 0 44
0 0 44
0 0 45
0 6 53
18 27 72
50 85 110
94 98 98
99 83 56
67 60 76
5 10 63
0 0 62
23 98 126
78 130 107
54 71 27
40 63 12
43 58 15
49 53 19
51 54 24
77 77 50
98 95 64
121 113 81
156 146 113
182 171 133
159 151 117
132 124 102
123 115 87
121 113 84
144 134 104
122 118 88
89 89 57
110 109 75
132 130 94
117 115 78
98 103 60
82 97 67
21 29 63
0 0 59
0 0 43
0 0 42
0 0 44
0 0 45
0 0 44
0 0 41
0 0 40
0 0 42
0 0 42
0 0 42
0 0 42
0 0 42
0 0 42
0 0 42
0 0 42
0 0 42
0 0 42
0 0 42
0 0 42
0 0 42
0 0 42
0 0 42
0 0 42
0 0 42
0 0 37
0 0 44
0 0 58
16 39 73
35 62 48
40 59 11
57 66 21
32 32 43
0 0 45
2 3 43
3 6 40
0 0 43
10 13 54
4 5 42
0 0 44
0 0 42
0 0 42
0 0 42
0 0 42
0 0 42
0 0 42
0 0 42
0 0 42
0 0 42
0 0 42
0 0 42
0 0 42
0 0 42
0 0 42
0 0 42
0 0 42
0 0 42
0 0 42
0 0 42
0 0 42
0 0 42
0 0 42
0 0 42
0 0 42
0 0 42
0 0 42
0 0 42
0 0 42
0 0 42
0 0 42
0 0 42
0 0 42
0 0 42
0 0 42
0 0 42
0 0 42
0 0 42
0 0 42
0 0 42
0 0 42
0 0 42
0 0 42
0 0 42
0 0 42
0 0 42
0 0 42
0 0 42
0 0 42
0 0 42
0 0 42
0 0 42
0 0 42
0 0 42
0 0 42
0 0 42
0 0 42
0 0 42
0 0 42
0 0 42
0 0 42
0 0 42
0 0 42
0 0 42
0 0 42
0 0 42
72 77 93
217 233 254
217 233 254
217 233 254
217 233 254
217 233 254
217 233 254
217 233 254
217 233 254
217 233 254
217 233 254
217 233 254
217 233 254
217 233 254
217 233 254
217 233 254
217 233 254
217 233 254
217 233 254
217 233 254
217 233 254
217 233 254
217 233 254
217 233 254
217 233 254
217 233 254
217 233 254
217 233 254
217 233 254
217 233 254
217 233 254
217 233 254
217 233 254
217 233 254
217 233 254
217 233 254
217 233 254
217 233 254
217 233 254
217 233 254
217 233 254
217 233 254
217 233 254
217 233 254
217 233 254
217 233 254
217 233 254
217 233 254
217 233 254
217 233 254
217 233 254
217 233 254
217 233 254
217 233 254
217 233 254
217 233 254
217 233 254
217 233 254
217 233 254
217 233 254
217 233 254
217 233 254
217 233 254
217 233 254
217 233 254
217 233 254
217 233 254
217 233 254
217 233 254
217 233 254
217 233 254
217 233 254
217 233 254
217 233 254
217 233 254
217 233 254
217 233 254
217 233 254
217 233 254
217 233 254
217 233 254
217 233 254
217 233 254
217 233 254
217 233 254
217 233 254
217 233 254
217 233 254
217 233 254
217 233 254
217 233 254
217 233 254
217 233 254
217 233 254
217 233 254
217 233 254
217 233 254
217 233 254
217 233 254
217 233 254
217 233 254
217 233 254
217 233 254
217 233 254
217 233 254
217 233 254
217 233 254
217 233 254
217 233 254
217 233 254
217 233 254
217 233 254
217 233 254
217 233 254
217 233 254
217 233 254
217 233 254
217 233 254
217 233 254
217 233 254
217 233 254
217 233 254
217 233 254
217 233 254
217 233 254
217 233 254
217 233 254
217 233 254
217 233 254
217 233 254
217 233 254
217 233 254
217 233 254
217 233 254
217 233 254
217 233 254
217 233 254
217 233 254
217 233 254
217 233 254
217 233 254
217 233 254
217 233 254
217 233 254
217 233 254
217 233 254
217 233 254
217 233 254
217 233 254
217 233 254
217 233 254
217 233 254
217 233 254
217 233 254
217 233 254
217 233 254
217 233 254
217 233 254
217 233 254
217 233 254
217 233 254
217 233 254
217 233 254
217 233 254
217 233 254
217 233 254
217 233 254
217 233 254
217 233 254
217 233 254
217 233 254
217 233 254
217 233 254
217 233 254
217 233 254
217 233 254
217 233 254
217 233 254
217 233 254
217 233 254
217 233 254
217 233 254
217 233 254
217 233 254
217 233 254
217 233 254
217 233 254
217 233 254
217 233 254
217 233 254
217 233 254
217 233 254
217 233 254
217 233 254
217 233 254
217 233 254
217 233 254
217 233 254
217 233 254
217 233 254
217 233 254
217 233 254
217 233 254
217 233 254
217 233 254
217 233 254
217 233 254
217 233 254
217 233 254
217 233 254
217 233 254
217 233 254
217 233 254
217 233 254
179 192 211
0 0 42
0 0 42
0 0 42
0 0 42
0 0 42
0 0 42
0 0 42
0 0 42
0 0 42
0 0 42
0 0 42
0 0 42
0 0 42
0 0 42
0 0 42
0 0 42
0 0 42
0 0 42
0 0 42
0 0 42
0 0 42
0 0 42
0 0 42
0 0 42
0 0 42
0 0 42
0 0 42
0 0 42
0 0 42
0 0 42
0 0 42
0 0 42
0 0 42
0 0 42
0 0 42
0 0 42
0 0 42
0 0 42
0 0 42
0 0 42
0 0 42
0 0 41
0 0 42
0 0 42
0 0 45
0 0 46
0 0 43
0 0 47
0 0 59
0 20 80
34 66 114
108 112 88
66 66 71
4 7 72
0 0 55
11 78 99
83 105 79
82 86 42
52 79 15
36 63 11
43 53 12
50 56 22
69 72 42
95 92 61
103 97 65
113 104 73
137 128 93
154 151 120
174 171 152
163 159 131
136 128 101
119 113 84
86 87 57
91 96 64
111 113 77
126 123 88
111 108 76
103 106 63
85 89 70
20 22 51
0 0 44
0 0 44
0 0 41
0 0 43
0 0 42
0 0 42
0 0 42
0 0 41
0 0 42
0 0 42
0 0 42
0 0 42
0 0 42
0 0 42
0 0 42
0 0 42
0 0 42
0 0 42
0 0 42
0 0 42
0 0 42
0 0 42
0 0 42
0 0 42
0 0 40
0 0 42
0 0 43
0 0 40
0 12 60
10 32 72
37 47 33
58 70 37
29 38 52
0 0 42
0 0 56
0 0 59
0 0 52
0 0 41
0 0 39
0 0 39
0 0 42
0 0 42
0 0 42
0 0 42
0 0 42
0 0 42
0 0 42
0 0 42
0 0 42
0 0 42
0 0 42
0 0 42
0 0 42
0 0 42
0 0 42
0 0 42
0 0 42
0 0 42
0 0 42
0 0 42
0 0 42
0 0 42
0 0 42
0 0 42
0 0 42
0 0 42
0 0 42
0 0 42
0 0 42
0 0 42
0 0 42
0 0 42
0 0 42
0 0 42
0 0 42
0 0 42
0 0 42
0 0 42
0 0 42
0 0 42
0 0 42
0 0 42
0 0 42
0 0 42
0 0 42
0 0 42
0 0 42
0 0 42
0 0 42
0 0 42
0 0 42
0 0 42
0 0 42
0 0 42
0 0 42
0 0 42
0 0 42
0 0 42
0 0 42
0 0 42
0 0 42
0 0 42
0 0 42
0 0 42
0 0 42
0 0 42
164 176 194
217 233 254
217 233 254
217 233 254
217 233 254
217 233 254
217 233 254
217 233 254
217 233 254
217 233 254
217 233 254
217 233 254
217 233 254
217 233 254
217 233 254
217 233 254
217 233 254
217 233 254
217 233 254
217 233 254
217 233 254
217 233 254
217 233 254
217 233 254
217 233 254
217 233 254
217 233 254
217 233 254
217 233 254
217 233 254
217 233 254
217 233 254
217 233 254
217 233 254
217 233 254
217 233 254
217 233 254
217 233 254
217 233 254
217 233 254
217 233 254
217 233 254
217 233 254
217 233 254
217 233 254
217 233 254
217 233 254
217 233 254
217 233 254
217 233 254
217 233 254
217 233 254
217 233 254
217 233 254
217 233 254
217 233 254
217 233 254
217 233 254
217 233 254
217 233 254
217 233 254
217 233 254
217 233 254
217 233 254
217 233 254
217 233 254
217 233 254
217 233 254
217 233 254
217 233 254
217 233 254
217 233 254
217 233 254
217 233 254
217 233 254
217 233 254
217 233 254
217 233 254
217 233 254
217 233 254
217 233 254
217 233 254
217 233 254
217 233 254
217 233 254
217 233 254
217 233 254
217 233 254
217 233 254
217 233 254
217 233 254
217 233 254
217 233 254
217 233 254
217 233 254
217 233 254
217 233 254
217 233 254
217 233 254
217 233 254
217 233 254
217 233 254
217 233 254
217 233 254
217 233 254
217 233 254
217 233 254
217 233 254
217 233 254
217 233 254
217 233 254
217 233 254
217 233 254
217 233 254
217 233 254
217 233 254
217 233 254
217 233 254
217 233 254
217 233 254
217 233 254
217 233 254
217 233 254
217 233 254
217 233 254
217 233 254
217 233 254
217 233 254
217 233 254
217 233 254
217 233 254
217 233 254
217 233 254
217 233 254
217 233 254
217 233 254
217 233 254
217 233 254
217 233 254
217 233 254
217 233 254
217 233 254
217 233 254
217 233 254
217 233 254
217 233 254
217 233 254
217 233 254
217 233 254
217 233 254
217 233 254
217 233 254
217 233 254
217 233 254
217 233 254
217 233 254
217 233 254
217 233 254
217 233 254
217 233 254
217 233 254
217 233 254
217 233 254
217 233 254
217 233 254
217 233 254
217 233 254
217 233 254
217 233 254
217 233 254
217 233 254
217 233 254
217 233 254
217 233 254
217 233 254
217 233 254
217 233 254
217 233 254
217 233 254
217 233 254
217 233 254
217 233 254
217 233 254
217 233 254
217 233 254
217 233 254
217 233 254
217 233 254
217 233 254
217 233 254
217 233 254
217 233 254
217 233 254
217 233 254
217 233 254
217 233 254
217 233 254
217 233 254
217 233 254
217 233 254
217 233 254
217 233 254
217 233 254
217 233 254
217 233 254
217 233 254
217 233 254
217 233 254
217 233 254
217 233 254
217 233 254
217 233 254
210 225 246
84 90 106
0 0 42
0 0 42
0 0 42
0 0 42
0 0 42
0 0 42
0 0 42
0 0 42
0 0 42
0 0 42
0 0 42
0 0 42
0 0 42
0 0 42
0 0 42
0 0 42
0 0 42
0 0 42
0 0 42
0 0 42
0 0 42
0 0 42
0 0 42
0 0 42
0 0 42
0 0 42
0 0 42
0 0 42
0 0 42
0 0 42
0 0 42
0 0 42
0 0 42
0 0 42
0 0 42
0 0 42
0 0 42
0 0 42
0 0 42
0 0 42
0 0 42
0 0 39
0 0 43
0 0 44
0 0 45
0 0 48
0 0 39
0 0 45
0 0 54
0 3 62
39 56 100
135 129 112
85 76 68
22 32 73
0 0 47
8 44 76
31 120 131
66 109 104
61 79 35
38 64 0
40 63 9
46 50 17
68 74 39
81 85 52
97 90 62
111 100 74
116 107 77
130 122 92
138 132 103
116 108 76
109 101 72
106 105 73
91 85 56
63 74 40
89 97 65
104 106 75
98 99 67
85 92 69
22 23 57
4 4 52
0 0 38
0 0 43
0 0 42
0 0 42
0 0 42
0 0 42
0 0 42
0 0 42
0 0 42
0 0 42
0 0 42
0 0 42
0 0 42
0 0 42
0 0 42
0 0 42
0 0 42
0 0 42
0 0 42
0 0 42
0 0 42
0 0 42
0 0 42
0 0 42
0 0 41
0 0 41
0 0 44
0 0 45
0 1 48
0 7 56
11 33 69
22 40 59
4 8 47
0 0 37
0 0 58
7 11 56
13 20 47
6 10 42
0 0 46
0 0 43
0 0 39
0 0 42
0 0 41
0 0 41
0 0 42
0 0 41
0 0 42
0 0 42
0 0 42
0 0 42
0 0 42
0 0 42
0 0 42
0 0 42
0 0 42
0 0 42
0 0 42
0 0 42
0 0 42
0 0 42
0 0 42
0 0 42
0 0 42
0 0 42
0 0 42
0 0 42
0 0 42
0 0 42
0 0 42
0 0 42
0 0 42
0 0 42
0 0 42
0 0 42
0 0 42
0 0 42
0 0 42
0 0 42
0 0 42
0 0 42
0 0 42
0 0 42
0 0 42
0 0 42
0 0 42
0 0 42
0 0 42
0 0 42
0 0 42
0 0 42
0 0 42
0 0 42
0 0 42
0 0 42
0 0 42
0 0 42
0 0 42
0 0 42
0 0 42
0 0 42
0 0 42
0 0 42
0 0 42
0 0 42
0 0 42
0 0 41
73 78 93
214 229 251
217 233 254
217 233 254
217 233 254
217 233 254
217 233 254
217 233 254
217 233 254
217 233 254
217 233 254
217 233 254
217 233 254
217 233 254
217 233 254
217 233 254
217 233 254
217 233 254
217 233 254
217 233 254
217 233 254
217 233 254
217 233 254
217 233 254
217 233 254
217 233 254
217 233 254
217 233 254
217 233 254
217 233 254
217 233 254
217 233 254
217 233 254
217 233 254
217 233 254
217 233 254
217 233 254
217 233 254
217 233 254
217 233 254
217 233 254
217 233 254
217 233 254
217 233 254
217 233 254
217 233 254
217 233 254
217 233 254
217 233 254
217 233 254
217 233 254
217 233 254
217 233 254
217 233 254
217 233 254
217 233 254
217 233 254
217 233 254
217 233 254
217 233 254
217 233 254
217 233 254
217 233 254
217 233 254
217 233 254
217 233 254
217 233 254
217 233 254
217 233 254
217 233 254
217 233 254
217 233 254
217 233 254
217 233 254
217 233 254
217 233 254
217 233 254
217 233 254
217 233 254
217 233 254
217 233 254
217 233 254
217 233 254
217 233 254
217 233 254
217 233 254
217 233 254
217 233 254
217 233 254
217 233 254
217 233 254
217 233 254
217 233 254
217 233 254
217 233 254
217 233 254
217 233 254
217 233 254
217 233 254
217 233 254
217 233 254
217 233 254
217 233 254
217 233 254
217 233 254
217 233 254
217 233 254
217 233 254
217 233 254
217 233 254
217 233 254
217 233 254
217 233 254
217 233 254
217 233 254
217 233 254
217 233 254
217 233 254
217 233 254
217 233 254
217 233 254
217 233 254
217 233 254
217 233 254
217 233 254
217 233 254
217 233 254
217 233 254
217 233 254
217 233 254
217 233 254
217 233 254
217 233 254
217 233 254
217 233 254
217 233 254
217 233 254
217 233 254
217 233 254
217 233 254
217 233 254
217 233 254
217 233 254
217 233 254
217 233 254
217 233 254
217 233 254
217 233 254
217 233 254
217 233 254
217 233 254
217 233 254
217 233 254
217 233 254
217 233 254
217 233 254
217 233 254
217 233 254
217 233 254
217 233 254
217 233 254
217 233 254
217 233 254
217 233 254
217 233 254
217 233 254
217 233 254
217 233 254
217 233 254
217 233 254
217 233 254
217 233 254
217 233 254
217 233 254
217 233 254
217 233 254
217 233 254
217 233 254
217 233 254
217 233 254
217 233 254
217 233 254
217 233 254
217 233 254
217 233 254
217 233 254
217 233 254
217 233 254
217 233 254
217 233 254
217 233 254
217 233 254
217 233 254
217 233 254
217 233 254
217 233 254
217 233 254
217 233 254
217 233 254
217 233 254
217 233 254
217 233 254
217 233 254
217 233 254
217 233 254
217 233 254
217 233 254
217 233 254
217 233 254
217 233 254
217 233 254
217 233 254
171 183 202
0 0 42
0 0 42
0 0 42
0 0 42
0 0 42
0 0 42
0 0 42
0 0 42
0 0 42
0 0 42
0 0 42
0 0 42
0 0 42
0 0 42
0 0 42
0 0 42
0 0 42
0 0 42
0 0 42
0 0 42
0 0 42
0 0 42
0 0 42
0 0 42
0 0 42
0 0 42
0 0 42
0 0 42
0 0 42
0 0 42
0 0 42
0 0 42
0 0 42
0 0 42
0 0 42
0 0 42
0 0 42
0 0 42
0 0 42
0 0 42
0 0 42
0 0 42
0 0 42
0 0 42
0 0 42
0 0 42
0 0 42
0 0 43
0 0 47
0 0 55
0 0 62
65 91 108
152 144 127
124 109 81
35 41 66
0 3 58
0 9 49
0 33 65
17 83 115
66 108 90
54 77 22
37 61 0
42 53 0
56 56 25
70 77 49
89 91 56
100 87 60
112 99 75
129 115 86
141 129 99
124 113 83
123 115 85
131 121 87
127 121 90
68 76 38
73 85 48
66 75 35
81 90 53
59 69 51
6 7 51
0 0 48
0 0 37
0 0 44
0 0 42
0 0 42
0 0 42
0 0 42
0 0 42
0 0 42
0 0 42
0 0 42
0 0 42
0 0 42
0 0 42
0 0 42
0 0 42
0 0 42
0 0 42
0 0 42
0 0 42
0 0 42
0 0 42
0 0 42
0 0 42
0 0 42
0 0 40
0 0 38
0 0 41
0 0 43
0 0 47
0 8 57
0 12 60
0 2 49
0 0 38
0 0 43
0 0 54
19 28 53
43 65 48
13 20 48
0 0 55
0 0 49
0 0 43
0 0 44
0 0 39
0 0 41
0 0 41
0 0 41
0 0 42
0 0 42
0 0 42
0 0 42
0 0 42
0 0 42
0 0 42
0 0 42
0 0 42
0 0 42
0 0 42
0 0 42
0 0 42
0 0 42
0 0 42
0 0 42
0 0 42
0 0 42
0 0 42
0 0 42
0 0 42
0 0 42
0 0 42
0 0 42
0 0 42
0 0 42
0 0 42
0 0 42
0 0 42
0 0 42
0 0 42
0 0 42
0 0 42
0 0 42
0 0 42
0 0 42
0 0 42
0 0 42
0 0 42
0 0 42
0 0 42
0 0 42
0 0 42
0 0 42
0 0 42
0 0 42
0 0 42
0 0 42
0 0 42
0 0 42
0 0 42
0 0 42
0 0 42
0 0 42
0 0 42
0 0 42
0 0 42
0 0 42
0 0 42
0 0 42
7 7 43
148 158 174
217 233 254
217 233 254
217 233 254
217 233 254
217 233 254
217 233 254
217 233 254
217 233 254
217 233 254
217 233 254
217 233 254
217 233 254
217 233 254
217 233 254
217 233 254
217 233 254
217 233 254
217 233 254
217 233 254
217 233 254
217 233 254
217 233 254
217 233 254
217 233 254
217 233 254
217 233 254
217 233 254
217 233 254
217 233 254
217 233 254
217 233 254
217 233 254
217 233 254
217 233 254
217 233 254
217 233 254
217 233 254
217 233 254
217 233 254
217 233 254
217 233 254
217 233 254
217 233 254
217 233 254
217 233 254
217 233 254
217 233 254
217 233 254
217 233 254
217 233 254
217 233 254
217 233 254
217 233 254
217 233 254
217 233 254
217 233 254
217 233 254
217 233 254
217 233 254
217 233 254
217 233 254
217 233 254
217 233 254
217 233 254
217 233 254
217 233 254
217 233 254
217 233 254
217 233 254
217 233 254
217 233 254
217 233 254
217 233 254
217 233 254
217 233 254
217 233 254
217 233 254
217 233 254
217 233 254
217 233 254
217 233 254
217 233 254
217 233 254
217 233 254
217 233 254
217 233 254
217 233 254
217 233 254
217 233 254
217 233 254
217 233 254
217 233 254
217 233 254
217 233 254
217 233 254
217 233 254
217 233 254
217 233 254
217 233 254
217 233 254
217 233 254
217 233 254
217 233 254
217 233 254
217 233 254
218 233 254
218 233 254
218 233 254
218 233 254
218 233 254
218 233 254
218 233 254
218 233 254
218 233 254
218 233 254
218 233 254
218 233 254
218 233 254
218 233 254
218 233 254
218 233 254
218 233 254
217 233 254
217 233 254
217 233 254
217 233 254
217 233 254
217 233 254
217 233 254
217 233 254
217 233 254
217 233 254
217 233 254
217 233 254
217 233 254
217 233 254
217 233 254
217 233 254
217 233 254
217 233 254
217 233 254
217 233 254
217 233 254
217 233 254
217 233 254
217 233 254
217 233 254
217 233 254
217 233 254
217 233 254
217 233 254
217 233 254
217 233 254
217 233 254
217 233 254
217 233 254
217 233 254
217 233 254
217 233 254
217 233 254
217 233 254
217 233 254
217 233 254
217 233 254
217 233 254
217 233 254
217 233 254
217 233 254
217 233 254
217 233 254
217 233 254
217 233 254
217 233 254
217 233 254
217 233 254
217 233 254
217 233 254
217 233 254
217 233 254
217 233 254
217 233 254
217 233 254
217 233 254
217 233 254
217 233 254
217 233 254
217 233 254
217 233 254
217 233 254
217 233 254
217 233 254
217 233 254
217 233 254
217 233 254
217 233 254
217 233 254
217 233 254
217 233 254
217 233 254
217 233 254
217 233 254
217 233 254
217 233 254
217 233 254
217 233 254
217 233 254
217 233 254
217 233 254
217 233 254
210 225 246
75 80 96
0 0 42
0 0 42
0 0 42
0 0 42
0 0 42
0 0 42
0 0 42
0 0 42
0 0 42
0 0 42
0 0 42
0 0 42
0 0 42
0 0 42
0 0 42
0 0 42
0 0 42
0 0 42
0 0 42
0 0 42
0 0 42
0 0 42
0 0 42
0 0 42
0 0 42
0 0 42
0 0 42
0 0 42
0 0 42
0 0 42
0 0 42
0 0 42
0 0 42
0 0 42
0 0 42
0 0 42
0 0 42
0 0 42
0 0 42
0 0 42
0 0 42
0 0 42
0 0 42
0 0 42
0 0 42
0 0 42
0 0 42
0 0 44
0 0 46
0 0 51
0 3 62
0 30 76
74 82 101
132 115 100
71 67 87
34 39 61
0 0 49
0 0 43
0 63 96
35 151 155
56 111 91
40 65 10
34 58 9
52 54 20
69 68 38
82 87 57
97 86 59
115 97 72
122 104 79
132 117 92
134 120 94
129 117 88
133 122 89
117 114 82
71 76 42
65 80 41
77 92 51
69 87 46
48 63 48
0 0 47
0 0 45
0 0 40
0 0 41
0 0 42
0 0 42
0 0 42
0 0 42
0 0 42
0 0 42
0 0 42
0 0 42
0 0 42
0 0 42
0 0 42
0 0 42
0 0 42
0 0 42
0 0 42
0 0 42
0 0 42
0 0 42
0 0 42
0 0 42
0 0 42
0 0 42
0 0 46
0 0 45
0 0 42
0 0 37
0 0 39
0 0 42
0 0 41
0 0 39
0 0 40
0 0 45
0 0 44
6 10 47
35 53 64
27 47 53
1 2 61
0 0 58
0 0 47
0 0 44
0 0 40
0 0 44
0 0 40
0 0 43
0 0 42
0 0 42
0 0 42
0 0 42
0 0 42
0 0 42
0 0 42
0 0 42
0 0 42
0 0 42
0 0 42
0 0 42
0 0 42
0 0 42
0 0 42
0 0 42
0 0 42
0 0 42
0 0 42
0 0 42
0 0 42
0 0 42
0 0 42
0 0 42
0 0 42
0 0 42
0 0 42
0 0 42
0 0 42
0 0 42
0 0 42
0 0 42
0 0 42
0 0 42
0 0 42
0 0 42
0 0 42
0 0 42
0 0 42
0 0 42
0 0 42
0 0 42
0 0 42
0 0 42
0 0 42
0 0 42
0 0 42
0 0 42
0 0 42
0 0 42
0 0 42
0 0 42
0 0 42
0 0 42
0 0 42
0 0 42
0 0 42
0 0 42
0 0 42
0 0 42
0 0 42
62 66 76
212 227 246
217 233 254
217 233 254
217 233 254
217 233 254
217 233 254
217 233 254
217 233 254
217 233 254
217 233 254
217 233 254
217 233 254
217 233 254
217 233 254
217 233 254
217 233 254
217 233 254
217 233 254
217 233 254
217 233 254
217 233 254
217 233 254
217 233 254
217 233 254
217 233 254
217 233 254
217 233 254
217 233 254
217 233 254
217 233 254
217 233 254
217 233 254
217 233 254
217 233 254
217 233 254
217 233 254
217 233 254
217 233 254
217 233 254
217 233 254
217 233 254
217 233 254
217 233 254
217 233 254
217 233 254
217 233 254
217 233 254
217 233 254
217 233 254
217 233 254
217 233 254
217 233 254
217 233 254
217 233 254
217 233 254
217 233 254
217 233 254
217 233 254
217 233 254
217 233 254
217 233 254
217 233 254
217 233 254
217 233 254
217 233 254
217 233 254
217 233 254
217 233 254
217 233 254
217 233 254
217 233 254
217 233 254
217 233 254
217 233 254
217 233 254
217 233 254
217 233 254
217 233 254
217 233 254
217 233 254
217 233 254
217 233 254
217 233 254
217 233 254
217 233 254
217 233 254
217 233 254
217 233 254
217 233 254
217 233 254
218 233 254
218 233 254
218 233 254
218 233 254
218 233 254
218 233 254
218 233 254
218 233 254
218 233 254
218 233 254
218 233 254
218 233 254
218 233 254
218 233 254
218 233 254
218 233 254
218 233 254
218 233 254
218 233 254
218 233 254
218 233 254
218 233 254
218 233 254
218 233 254
218 233 254
218 233 254
218 233 254
218 233 254
218 233 254
218 233 254
218 233 254
218 233 254
218 233 254
218 233 254
218 233 254
218 233 254
218 233 254
218 233 254
218 233 254
218 233 254
218 233 254
218 233 254
218 233 254
218 233 254
218 233 254
218 233 254
218 233 254
218 233 254
218 233 254
218 233 254
218 233 254
218 233 254
218 233 254
218 233 254
218 233 254
218 233 254
218 233 254
218 233 254
218 233 254
218 233 254
218 233 254
218 233 254
218 233 254
218 233 254
218 233 254
218 233 254
218 233 254
218 233 254
218 233 254
218 233 254
218 233 254
218 233 254
218 233 254
218 233 254
218 233 254
218 233 254
218 233 254
218 233 254
218 233 254
218 233 254
218 233 254
218 233 254
218 233 254
218 233 254
218 233 254
217 233 254
218 233 254
217 233 254
217 233 254
217 233 254
217 233 254
217 233 254
217 233 254
217 233 254
217 233 254
217 233 254
217 233 254
217 233 254
217 233 254
217 233 254
217 233 254
217 233 254
217 233 254
217 233 254
217 233 254
217 233 254
217 233 254
217 233 254
217 233 254
217 233 254
217 233 254
217 233 254
217 233 254
217 233 254
217 233 254
217 233 254
217 233 254
217 233 254
217 233 254
134 143 160
0 0 42
0 0 42
0 0 42
0 0 42
0 0 42
0 0 42
0 0 42
0 0 42
0 0 42
0 0 42
0 0 42
0 0 42
0 0 42
0 0 42
0 0 42
0 0 42
0 0 42
0 0 42
0 0 42
0 0 42
0 0 42
0 0 42
0 0 42
0 0 42
0 0 42
0 0 42
0 0 42
0 0 42
0 0 42
0 0 42
0 0 42
0 0 42
0 0 42
0 0 42
0 0 42
0 0 42
0 0 42
0 0 42
0 0 42
0 0 42
0 0 42
0 0 42
0 0 42
0 0 42
0 0 42
0 0 42
0 0 42
0 0 40
0 0 41
0 0 44
0 0 48
0 0 59
0 0 55
0 25 84
42 54 97
106 100 90
74 76 59
9 12 48
0 0 47
0 6 43
6 47 73
13 70 100
34 74 48
38 63 7
42 57 16
54 56 28
79 78 51
94 87 58
112 99 76
128 109 86
128 108 82
131 115 89
137 123 95
108 103 74
101 101 72
69 73 40
56 72 32
66 79 39
54 71 30
41 55 47
0 0 45
0 0 43
0 0 41
0 0 42
0 0 42
0 0 42
0 0 42
0 0 42
0 0 42
0 0 42
0 0 42
0 0 42
0 0 42
0 0 42
0 0 42
0 0 42
0 0 42
0 0 42
0 0 42
0 0 42
0 0 42
0 0 42
0 0 42
0 0 42
0 0 42
0 0 42
0 0 39
0 0 41
0 0 44
0 0 46
0 0 45
0 0 45
0 0 45
0 0 46
0 0 47
0 0 41
0 0 46
0 0 55
8 17 57
10 21 51
2 4 50
0 0 42
0 0 48
0 0 48
0 0 42
0 0 42
0 0 41
0 0 40
0 0 42
0 0 42
0 0 42
0 0 42
0 0 42
0 0 42
0 0 42
0 0 42
0 0 42
0 0 42
0 0 42
0 0 42
0 0 42
0 0 42
0 0 42
0 0 42
0 0 42
0 0 42
0 0 42
0 0 42
0 0 42
0 0 42
0 0 42
0 0 42
0 0 42
0 0 42
0 0 42
0 0 42
0 0 42
0 0 42
0 0 42
0 0 42
0 0 42
0 0 42
0 0 42
0 0 42
0 0 42
0 0 42
0 0 42
0 0 42
0 0 42
0 0 42
0 0 42
0 0 42
0 0 42
0 0 42
0 0 42
0 0 42
0 0 42
0 0 42
0 0 42
0 0 42
0 0 42
0 0 42
0 0 42
0 0 42
0 0 42
0 0 42
0 0 42
0 0 42
0 0 42
0 0 42
162 173 188
217 233 254
217 233 254
217 233 254
217 233 254
217 233 254
217 233 254
217 233 254
217 233 254
217 233 254
217 233 254
217 233 254
217 233 254
217 233 254
217 233 254
217 233 254
217 233 254
217 233 254
217 233 254
217 233 254
217 233 254
217 233 254
217 233 254
217 233 254
217 233 254
217 233 254
217 233 254
217 233 254
217 233 254
217 233 254
217 233 254
217 233 254
217 233 254
217 233 254
217 233 254
218 233 254
218 233 254
218 233 254
218 233 254
218 233 254
218 233 254
218 233 254
218 233 254
218 233 254
218 233 254
218 233 254
218 233 254
218 233 254
218 233 254
218 233 254
218 233 254
218 233 254
218 233 254
218 233 254
218 233 254
218 233 254
218 233 254
218 233 254
218 233 254
218 233 254
218 233 254
218 233 254
218 233 254
218 233 254
218 233 254
218 233 254
218 233 254
218 233 254
218 233 254
218 233 254
218 233 254
218 233 254
218 233 254
218 233 254
218 233 254
218 233 254
218 233 254
218 233 254
218 233 254
218 233 254
218 233 254
218 233 254
218 233 254
218 233 254
218 233 254
218 233 254
218 233 254
218 233 254
218 233 254
218 233 254
218 233 254
218 233 254
218 233 254
218 233 254
218 233 254
218 233 254
218 233 254
218 233 254
218 233 254
218 233 254
218 233 254
218 233 254
218 233 254
218 233 254
218 233 254
218 233 254
218 233 254
218 233 254
218 233 254
218 233 254
218 233 254
218 233 254
218 233 254
218 233 254
218 233 254
218 233 254
218 233 254
218 233 254
218 233 254
218 233 254
218 233 254
218 233 254
218 233 254
218 233 254
218 233 254
218 233 254
218 233 254
218 233 254
218 233 254
218 233 254
218 233 254
218 233 254
218 233 254
218 233 254
218 233 254
218 233 254
218 233 254
218 233 254
218 233 254
218 233 254
218 233 254
218 233 254
218 233 254
218 233 254
218 233 254
218 233 254
218 233 254
218 233 254
218 233 254
218 233 254
218 233 254
218 233 254
218 233 254
218 233 254
218 233 254
218 233 254
218 233 254
218 233 254
218 233 254
218 233 254
218 233 254
218 233 254
218 233 254
218 233 254
218 233 254
218 233 254
218 233 254
218 233 254
218 233 254
218 233 254
218 233 254
218 233 254
218 233 254
218 233 254
218 233 254
218 233 254
218 233 254
218 233 254
218 233 254
218 233 254
218 233 254
218 233 254
218 233 254
218 233 254
218 233 254
218 233 254
218 233 254
218 233 254
218 233 254
218 233 254
218 233 254
218 233 254
218 233 254
218 233 254
218 233 254
218 233 254
218 233 254
218 233 254
218 233 254
218 233 254
218 233 254
218 233 254
218 233 254
218 233 254
218 233 254
218 233 254
218 233 254
218 233 254
207 222 243
0 0 42
0 0 42
0 0 42
0 0 42
0 0 42
0 0 42
0 0 42
0 0 42
0 0 42
0 0 42
0 0 42
0 0 42
0 0 42
0 0 42
0 0 42
0 0 42
0 0 42
0 0 42
0 0 42
0 0 42
0 0 42
0 0 42
0 0 42
0 0 42
0 0 42
0 0 42
0 0 42
0 0 42
0 0 42
0 0 42
0 0 42
0 0 42
0 0 42
0 0 42
0 0 42
0 0 42
0 0 42
0 0 42
0 0 42
0 0 42
0 0 42
0 0 42
0 0 42
0 0 42
0 0 42
0 0 42
0 0 42
0 0 42
0 0 40
0 0 40
0 0 42
0 0 44
0 0 51
0 0 48
0 0 49
0 24 89
49 60 88
85 75 69
32 28 50
0 0 39
0 0 46
0 0 55
4 21 58
28 62 87
44 73 27
36 60 0
47 60 16
65 63 45
75 73 46
97 90 64
119 101 78
131 112 88
141 124 99
129 116 90
97 95 69
90 92 63
80 86 51
44 63 18
65 81 30
60 74 28
33 43 46
0 0 44
0 0 40
0 0 40
0 0 44
0 0 42
0 0 42
0 0 42
0 0 42
0 0 42
0 0 42
0 0 42
0 0 42
0 0 42
0 0 42
0 0 42
0 0 45
0 0 45
0 0 44
0 0 45
0 0 45
0 0 44
0 0 42
0 0 42
0 0 42
0 0 42
0 0 42
0 0 41
15 26 43
19 35 40
28 47 35
41 62 38
40 66 34
36 59 31
34 57 43
23 38 40
13 23 48
4 12 45
0 0 44
0 0 54
0 0 54
0 0 55
0 0 54
0 0 52
0 0 48
0 0 50
0 0 39
0 0 39
0 0 40
0 0 42
0 0 42
0 0 42
0 0 42
0 0 42
0 0 42
0 0 42
0 0 42
0 0 42
0 0 42
0 0 42
0 0 42
0 0 42
0 0 42
0 0 42
0 0 42
0 0 42
0 0 42
0 0 42
0 0 42
0 0 42
0 0 42
0 0 42
0 0 42
0 0 42
0 0 42
0 0 42
0 0 42
0 0 42
0 0 42
0 0 42
0 0 42
0 0 42
0 0 42
0 0 42
0 0 42
0 0 42
0 0 42
0 0 42
0 0 42
0 0 42
0 0 42
0 0 42
0 0 42
0 0 42
0 0 42
0 0 42
0 0 42
0 0 42
0 0 42
0 0 42
0 0 42
0 0 42
0 0 42
0 0 42
0 0 42
0 0 42
0 0 42
0 0 42
0 0 42
0 0 42
0 0 42
64 66 77
214 229 248
218 233 254
218 233 254
218 233 254
218 233 254
218 233 254
218 233 254
218 233 254
218 233 254
218 233 254
218 233 254
218 233 254
218 233 254
218 233 254
218 233 254
218 233 254
218 233 254
218 233 254
218 233 254
218 233 254
218 233 254
218 233 254
218 233 254
218 233 254
218 233 254
218 233 254
218 233 254
218 233 254
218 233 254
218 233 254
218 233 254
218 233 254
218 233 254
218 233 254
218 233 254
218 233 254
218 233 254
218 233 254
218 233 254
218 233 254
218 233 254
218 233 254
218 233 254
218 233 254
218 233 254
218 233 254
218 233 254
218 233 254
218 233 254
218 233 254
218 233 254
218 233 254
218 233 254
218 233 254
218 233 254
218 233 254
218 233 254
218 233 254
218 233 254
218 233 254
218 233 254
218 233 254
218 233 254
218 233 254
218 233 254
218 233 254
218 233 254
218 233 254
218 233 254
218 233 254
218 233 254
218 233 254
218 233 254
218 233 254
218 233 254
218 233 254
218 233 254
218 233 254
218 233 254
218 233 254
218 233 254
218 233 254
218 233 254
218 233 254
218 233 254
218 233 254
218 233 254
218 233 254
218 233 254
218 233 254
218 233 254
218 233 254
218 233 254
218 233 254
218 233 254
218 233 254
218 233 254
218 233 254
218 233 254
218 233 254
218 233 254
218 233 254
218 233 254
218 233 254
218 233 254
218 233 254
218 233 254
218 233 254
218 233 254
218 233 254
218 233 254
218 233 254
218 233 254
218 233 254
218 233 254
218 233 254
218 233 254
218 233 254
218 233 254
218 233 254
218 233 254
218 233 254
218 233 254
218 233 254
218 233 254
218 233 254
218 233 254
218 233 254
218 233 254
218 233 254
218 233 254
218 233 254
218 233 254
218 233 254
218 233 254
218 233 254
218 233 254
218 233 254
218 233 254
218 233 254
218 233 254
218 233 254
218 233 254
218 233 254
218 233 254
218 233 254
218 233 254
218 233 254
218 233 254
218 233 254
218 233 254
218 233 254
218 233 254
218 233 254
218 233 254
218 233 254
218 233 254
218 233 254
218 233 254
218 233 254
218 233 254
218 233 254
218 233 254
218 233 254
218 233 254
218 233 254
218 233 254
218 233 254
218 233 254
218 233 254
218 233 254
218 233 254
218 233 254
218 233 254
218 233 254
218 233 254
218 233 254
218 233 254
218 233 254
218 233 254
218 233 254
218 233 254
218 233 254
218 233 254
218 233 254
218 233 254
218 233 254
218 233 254
218 233 254
218 233 254
218 233 254
218 233 254
218 233 254
218 233 254
218 233 254
218 233 254
218 233 254
218 233 254
218 233 254
218 233 254
218 233 254
218 233 254
218 233 254
218 233 254
218 233 254
218 233 254
218 233 254
143 153 170
0 0 42
0 0 42
0 0 42
0 0 42
0 0 42
0 0 42
0 0 42
0 0 42
0 0 42
0 0 42
0 0 42
0 0 42
0 0 42
0 0 42
0 0 42
0 0 42
0 0 42
0 0 42
0 0 42
0 0 42
0 0 42
0 0 42
0 0 42
0 0 42
0 0 42
0 0 42
0 0 42
0 0 42
0 0 42
0 0 42
0 0 42
0 0 42
0 0 42
0 0 42
0 0 42
0 0 42
0 0 42
0 0 42
0 0 42
0 0 42
0 0 42
0 0 42
0 0 42
0 0 42
0 0 42
0 0 42
0 0 42
0 0 41
0 0 42
0 0 40
0 0 40
0 0 43
0 0 49
0 0 45
0 0 49
0 9 64
9 17 70
26 25 59
2 2 45
0 0 47
0 0 46
0 0 43
0 2 49
3 18 74
19 52 69
45 69 20
49 59 21
55 69 26
71 79 46
79 79 48
106 95 69
124 108 83
133 116 91
123 107 83
88 89 61
81 85 52
79 86 47
48 70 20
75 88 37
78 88 39
31 37 39
0 0 41
0 0 42
0 0 40
0 0 47
0 0 42
0 0 42
0 0 42
0 0 42
0 0 42
0 0 40
0 0 39
0 0 44
0 0 41
0 0 45
0 0 39
0 0 42
0 0 42
0 0 43
0 0 47
0 0 46
0 0 43
0 0 41
0 0 46
0 0 42
0 0 42
0 0 43
24 35 39
38 62 21
39 68 34
26 56 56
23 63 79
23 73 60
46 62 11
51 73 19
56 83 12
47 78 32
31 53 54
20 37 60
15 37 53
0 6 45
0 0 46
0 0 43
0 0 55
0 0 47
0 0 41
0 0 37
0 9 48
0 2 41
0 0 40
0 0 41
0 0 42
0 0 42
0 0 42
0 0 41
0 0 42
0 0 42
0 0 42
0 0 42
0 0 42
0 0 42
0 0 42
0 0 42
0 0 42
0 0 42
0 0 42
0 0 42
0 0 42
0 0 42
0 0 42
0 0 42
0 0 42
0 0 42
0 0 42
0 0 42
0 0 42
0 0 42
0 0 42
0 0 42
0 0 42
0 0 42
0 0 42
0 0 42
0 0 42
0 0 42
0 0 42
0 0 42
0 0 42
0 0 42
0 0 42
0 0 42
0 0 42
0 0 42
0 0 42
0 0 42
0 0 42
0 0 42
0 0 42
0 0 42
0 0 42
0 0 42
0 0 42
0 0 42
0 0 42
0 0 42
0 0 42
0 0 42
0 0 42
0 0 42
0 0 42
0 0 42
0 0 41
174 183 185
218 233 254
218 233 254
218 233 254
218 233 254
218 233 254
218 233 254
218 233 254
218 233 254
218 233 254
218 233 254
218 233 254
218 233 254
218 233 254
218 233 254
218 233 254
218 233 254
218 233 254
218 233 254
218 233 254
218 233 254
218 233 254
218 233 254
218 233 254
218 233 254
218 233 254
218 233 254
218 233 254
218 233 254
218 233 254
218 233 254
218 233 254
218 233 254
218 233 254
218 233 254
218 233 254
218 233 254
218 233 254
218 233 254
218 233 254
218 233 254
218 233 254
218 233 254
218 233 254
218 233 254
218 233 254
218 233 254
218 233 254
218 233 254
218 233 254
218 233 254
218 233 254
218 233 254
218 233 254
218 233 254
218 233 254
218 233 254
218 233 254
218 233 254
218 233 254
218 233 254
218 233 254
218 233 254
218 233 254
218 233 254
218 233 254
218 233 254
218 233 254
218 233 254
218 233 254
218 233 254
218 233 254
218 233 254
218 233 254
218 233 254
218 233 254
218 233 254
218 233 254
218 233 254
218 233 254
218 233 254
218 233 254
218 233 254
218 233 254
218 233 254
218 233 254
218 233 254
218 233 254
218 233 254
218 233 254
218 233 254
218 233 254
218 233 254
218 233 254
218 233 254
218 233 254
218 233 254
218 233 254
218 233 254
218 233 254
218 233 254
218 233 254
218 233 254
218 233 254
218 233 254
218 233 254
218 233 254
218 233 254
218 233 254
218 233 254
218 233 254
218 233 254
218 233 254
218 233 254
218 233 254
218 233 254
218 233 254
218 233 254
218 233 254
218 233 254
218 233 254
218 233 254
218 233 254
218 233 254
218 233 254
218 233 254
218 233 254
218 233 254
218 233 254
218 233 254
218 233 254
218 233 254
218 233 254
218 233 254
218 233 254
218 233 254
218 233 254
218 233 254
218 233 254
218 233 254
218 233 254
218 233 254
218 233 254
218 233 254
218 233 254
218 233 254
218 233 254
218 233 254
218 233 254
218 233 254
218 233 254
218 233 254
218 233 254
218 233 254
218 233 254
218 233 254
218 233 254
218 233 254
218 233 254
218 233 254
218 233 254
218 233 254
218 233 254
218 233 254
218 233 254
218 233 254
218 233 254
218 233 254
218 233 254
218 233 254
218 233 254
218 233 254
218 233 254
218 233 254
218 233 254
218 233 254
218 233 254
218 233 254
218 233 254
218 233 254
218 233 254
218 233 254
218 233 254
218 233 254
218 233 254
218 233 254
218 233 254
218 233 254
218 233 254
218 233 254
218 233 254
218 233 254
218 233 254
218 233 254
218 233 254
218 233 254
218 233 254
218 233 254
218 233 254
218 233 254
218 233 254
218 233 254
218 233 254
218 233 254
218 233 254
218 233 254
208 222 243
48 52 70
0 0 42
0 0 42
0 0 42
0 0 42
0 0 42
0 0 42
0 0 42
0 0 42
0 0 42
0 0 42
0 0 42
0 0 42
0 0 42
0 0 42
0 0 42
0 0 42
0 0 42
0 0 42
0 0 42
0 0 42
0 0 42
0 0 42
0 0 42
0 0 42
0 0 42
0 0 42
0 0 42
0 0 42
0 0 42
0 0 42
0 0 42
0 0 42
0 0 42
0 0 42
0 0 42
0 0 42
0 0 42
0 0 42
0 0 42
0 0 42
0 0 42
0 0 42
0 0 42
0 0 42
0 0 42
0 0 42
0 0 42
0 0 41
0 0 42
0 0 41
0 0 42
0 0 42
0 0 47
0 0 46
0 0 51
0 0 52
0 0 50
0 0 53
0 0 51
0 0 45
0 0 46
0 0 49
0 0 51
0 0 70
10 31 65
43 72 11
41 58 14
47 63 18
61 73 32
65 76 37
78 82 46
104 101 70
125 112 84
120 104 82
77 80 50
76 80 45
75 82 42
43 68 12
68 85 31
65 80 27
29 40 51
0 0 44
0 0 42
0 0 41
0 0 40
0 0 42
0 0 42
0 0 42
0 0 42
0 0 42
0 0 44
0 0 45
0 0 43
0 0 45
0 0 42
0 0 47
0 0 52
0 0 52
1 6 56
6 15 57
5 16 56
0 9 51
0 6 46
0 0 45
0 0 37
0 0 39
0 0 43
22 30 36
20 33 50
11 20 65
13 26 61
2 11 65
6 29 59
14 22 34
20 30 31
26 43 19
40 66 11
50 80 17
47 79 31
41 68 39
33 50 61
0 12 49
0 0 41
0 0 45
0 0 46
0 0 43
0 0 42
0 0 45
0 0 46
0 0 42
0 0 39
0 0 46
0 0 45
0 0 40
0 0 41
0 0 42
0 0 42
0 0 42
0 0 42
0 0 42
0 0 42
0 0 42
0 0 42
0 0 42
0 0 42
0 0 42
0 0 42
0 0 42
0 0 42
0 0 42
0 0 42
0 0 42
0 0 42
0 0 42
0 0 42
0 0 42
0 0 42
0 0 42
0 0 42
0 0 42
0 0 42
0 0 42
0 0 42
0 0 42
0 0 42
0 0 42
0 0 42
0 0 42
0 0 42
0 0 42
0 0 42
0 0 42
0 0 42
0 0 42
0 0 42
0 0 42
0 0 42
0 0 42
0 0 42
0 0 42
0 0 42
0 0 42
0 0 42
0 0 42
0 0 42
0 0 42
0 0 42
0 0 42
0 0 42
0 0 42
0 0 42
0 0 41
103 104 105
218 232 252
218 233 254
218 233 254
218 233 254
218 233 254
218 233 254
218 233 254
218 233 254
218 233 254
218 233 254
218 233 254
218 233 254
218 233 254
218 233 254
218 233 254
218 233 254
218 233 254
218 233 254
218 233 254
218 233 254
218 233 254
218 233 254
218 233 254
218 233 254
218 233 254
218 233 254
218 233 254
218 233 254
218 233 254
218 233 254
218 233 254
218 233 254
218 233 254
218 233 254
218 233 254
218 233 254
218 233 254
218 233 254
218 233 254
218 233 254
218 233 254
218 233 254
218 233 254
218 233 254
218 233 254
218 233 254
218 233 254
218 233 254
218 233 254
218 233 254
218 233 254
218 233 254
218 233 254
218 233 254
218 233 254
218 233 254
218 233 254
218 233 254
218 233 254
218 233 254
218 233 254
218 233 254
218 233 254
218 233 254
218 233 254
218 233 254
218 233 254
218 233 254
218 233 254
218 233 254
218 233 254
218 233 254
218 233 254
218 233 254
218 233 254
218 233 254
218 233 254
218 233 254
218 233 254
218 233 254
218 233 254
218 233 254
218 233 254
218 233 254
218 233 254
218 233 254
218 233 254
218 233 254
218 233 254
218 233 254
218 233 254
218 233 254
218 233 254
218 233 254
218 233 254
218 233 254
218 233 254
218 233 254
218 233 254
218 233 254
218 233 254
218 233 254
218 233 254
218 233 254
218 233 254
218 233 254
218 233 254
218 233 254
218 233 254
218 233 254
218 233 254
218 233 254
218 233 254
218 233 254
218 233 254
218 233 254
218 233 254
218 233 254
218 233 254
218 233 254
218 233 254
218 233 254
218 233 254
218 233 254
218 233 254
218 233 254
218 233 254
218 233 254
218 233 254
218 233 254
218 233 254
218 233 254
218 233 254
218 233 254
218 233 254
218 233 254
218 233 254
218 233 254
218 233 254
218 233 254
218 233 254
218 233 254
218 233 254
218 233 254
218 233 254
218 233 254
218 233 254
218 233 254
218 233 254
218 233 254
218 233 254
218 233 254
218 233 254
218 233 254
218 233 254
218 233 254
218 233 254
218 233 254
218 233 254
218 233 254
218 233 254
218 233 254
218 233 254
218 233 254
218 233 254
218 233 254
218 233 254
218 233 254
218 233 254
218 233 254
218 233 254
218 233 254
218 233 254
218 233 254
218 233 254
218 233 254
218 233 254
218 233 254
218 233 254
218 233 254
218 233 254
218 233 254
218 233 254
218 233 254
218 233 254
218 233 254
218 233 254
218 233 254
218 233 254
218 233 254
218 233 254
218 233 254
218 233 254
218 233 254
218 233 254
218 233 254
218 233 254
218 233 254
218 233 254
218 233 254
218 233 254
218 233 254
218 233 254
218 233 254
218 233 254
132 142 158
0 0 42
0 0 42
0 0 42
0 0 42
0 0 42
0 0 42
0 0 42
0 0 42
0 0 42
0 0 42
0 0 42
0 0 42
0 0 42
0 0 42
0 0 42
0 0 42
0 0 42
0 0 42
0 0 42
0 0 42
0 0 42
0 0 42
0 0 42
0 0 42
0 0 42
0 0 42
0 0 42
0 0 42
0 0 42
0 0 42
0 0 42
0 0 42
0 0 42
0 0 42
0 0 42
0 0 42
0 0 42
0 0 42
0 0 42
0 0 42
0 0 42
0 0 42
0 0 42
0 0 42
0 0 42
0 0 42
0 0 42
0 0 42
0 0 42
0 0 42
0 0 42
0 0 42
0 0 42
0 0 45
0 0 43
0 0 48
0 0 49
0 0 48
0 0 48
0 0 47
0 0 45
0 0 49
0 0 53
0 9 55
0 4 61
3 24 84
28 63 35
36 65 9
50 68 17
51 70 25
53 72 22
64 80 30
77 86 43
91 94 57
102 94 67
95 96 66
75 75 46
58 66 24
36 68 5
45 73 6
50 77 14
38 63 42
0 0 47
0 0 40
0 0 42
0 0 39
0 0 42
0 0 42
0 0 42
0 0 42
0 0 42
0 0 39
0 0 40
0 0 39
0 0 47
0 0 49
0 0 55
18 32 45
20 35 46
26 48 43
32 62 35
28 58 43
24 49 46
17 29 41
0 0 44
0 0 42
0 0 40
0 0 36
0 0 41
0 0 45
0 6 41
24 40 31
3 11 50
0 0 49
0 0 45
0 0 45
0 0 44
8 13 39
17 25 41
24 35 41
47 67 21
43 69 14
39 63 30
25 38 37
14 20 46
0 0 38
0 0 43
0 0 41
0 0 41
0 0 45
7 9 38
0 0 39
5 6 44
11 12 48
1 2 36
0 0 39
0 0 42
0 0 42
0 0 42
0 0 42
0 0 42
0 0 42
0 0 42
0 0 42
0 0 42
0 0 42
0 0 42
0 0 42
0 0 42
0 0 42
0 0 42
0 0 42
0 0 42
0 0 42
0 0 42
0 0 42
0 0 42
0 0 42
0 0 42
0 0 42
0 0 42
0 0 42
0 0 42
0 0 42
0 0 42
0 0 42
0 0 42
0 0 42
0 0 42
0 0 42
0 0 42
0 0 42
0 0 42
0 0 42
0 0 42
0 0 42
0 0 42
0 0 42
0 0 42
0 0 42
0 0 42
0 0 42
0 0 42
0 0 42
0 0 42
0 0 42
0 0 42
0 0 42
0 0 42
0 0 42
0 0 42
0 0 42
0 0 42
0 0 45
180 189 198
218 233 254
218 233 254
218 233 254
218 233 254
218 233 254
218 233 254
218 233 254
218 233 254
218 233 254
218 233 254
218 233 254
218 233 254
218 233 254
218 233 254
218 233 254
218 233 254
218 233 254
218 233 254
218 233 254
218 233 254
218 233 254
218 233 254
218 233 254
218 233 254
218 233 254
218 233 254
218 233 254
218 233 254
218 233 254
218 233 254
218 233 254
218 233 254
218 233 254
218 233 254
218 233 254
218 233 254
218 233 254
218 233 254
218 233 254
218 233 254
218 233 254
218 233 254
218 233 254
218 233 254
218 233 254
218 233 254
218 233 254
218 233 254
218 233 254
218 233 254
218 233 254
218 233 254
218 233 254
218 233 254
218 233 254
218 233 254
218 233 254
218 233 254
218 233 254
218 233 254
218 233 254
218 233 254
218 233 254
218 233 254
218 233 254
218 233 254
218 233 254
218 233 254
218 233 254
218 233 254
218 233 254
218 233 254
218 233 254
218 233 254
218 233 254
218 233 254
218 233 254
218 233 254
218 233 254
218 233 254
218 233 254
218 233 254
218 233 254
218 233 254
218 233 254
218 233 254
218 233 254
218 233 254
218 233 254
218 233 254
218 233 254
218 233 254
218 233 254
218 233 254
218 233 254
218 233 254
218 233 254
218 233 254
218 233 254
218 233 254
218 233 254
218 233 254
218 233 254
218 233 254
218 233 254
218 233 254
218 233 254
218 233 254
218 233 254
218 233 254
218 233 254
218 233 254
218 233 254
218 233 254
218 233 254
218 233 254
218 233 254
218 233 254
218 233 254
218 233 254
218 233 254
218 233 254
218 233 254
218 233 254
218 233 254
218 233 254
218 233 254
218 233 254
218 233 254
218 233 254
218 233 254
218 233 254
218 233 254
218 233 254
218 233 254
218 233 254
218 233 254
218 233 254
218 233 254
218 233 254
218 233 254
218 233 254
218 233 254
218 233 254
218 233 254
218 233 254
218 233 254
218 233 254
218 233 254
218 233 254
218 233 254
218 233 254
218 233 254
218 233 254
218 233 254
218 233 254
218 233 254
218 233 254
218 233 254
218 233 254
218 233 254
218 233 254
218 233 254
218 233 254
218 233 254
218 233 254
218 233 254
218 233 254
218 233 254
218 233 254
218 233 254
218 233 254
218 233 254
218 233 254
218 233 254
218 233 254
218 233 254
218 233 254
218 233 254
218 233 254
218 233 254
218 233 254
218 233 254
218 233 254
218 233 254
218 233 254
218 233 254
218 233 254
218 233 254
218 233 254
218 233 254
218 233 254
218 233 254
218 233 254
218 233 254
218 233 254
218 233 254
218 233 254
218 233 254
218 233 254
218 233 254
218 233 254
218 233 254
217 232 253
43 46 65
0 0 42
0 0 42
0 0 42
0 0 42
0 0 42
0 0 42
0 0 42
0 0 42
0 0 42
0 0 42
0 0 42
0 0 42
0 0 42
0 0 42
0 0 42
0 0 42
0 0 42
0 0 42
0 0 42
0 0 42
0 0 42
0 0 42
0 0 42
0 0 42
0 0 42
0 0 42
0 0 42
0 0 42
0 0 42
0 0 42
0 0 42
0 0 42
0 0 42
0 0 42
0 0 42
0 0 42
0 0 42
0 0 42
0 0 42
0 0 42
0 0 42
0 0 42
0 0 42
0 0 42
0 0 42
0 0 42
0 0 42
0 0 42
0 0 42
0 0 42
0 0 42
0 0 42
0 0 42
0 0 40
0 0 43
0 0 44
0 0 45
0 0 45
0 0 44
0 0 45
0 0 47
0 0 52
0 0 57
0 0 64
0 16 73
5 29 100
29 55 34
41 65 16
45 66 18
50 71 20
48 71 13
52 75 15
59 78 27
64 79 33
86 87 51
85 88 55
82 80 52
66 72 39
47 63 18
45 66 13
42 72 6
44 74 13
12 21 40
0 0 48
0 0 46
0 0 39
0 0 42
0 0 42
0 0 42
0 0 42
0 0 42
0 0 44
0 0 43
0 0 44
0 0 45
0 14 60
25 41 37
42 67 14
40 69 13
38 68 10
36 68 0
34 67 0
31 59 10
24 41 30
0 0 41
0 0 47
0 0 46
0 0 37
0 0 42
0 0 38
0 0 39
0 0 42
0 0 38
0 0 42
0 0 43
0 0 41
0 0 38
0 0 36
0 0 43
2 3 51
27 43 39
45 71 7
53 80 12
53 75 18
52 68 28
36 51 34
7 12 46
0 0 40
0 0 44
6 7 44
23 27 38
0 0 43
0 0 41
0 0 44
0 0 40
0 0 41
0 0 42
0 0 42
0 0 42
0 0 42
0 0 42
0 0 42
0 0 42
0 0 42
0 0 42
0 0 42
0 0 42
0 0 42
0 0 42
0 0 42
0 0 42
0 0 42
0 0 42
0 0 42
0 0 42
0 0 42
0 0 42
0 0 42
0 0 42
0 0 42
0 0 42
0 0 42
0 0 42
0 0 42
0 0 42
0 0 42
0 0 42
0 0 42
0 0 42
0 0 42
0 0 42
0 0 42
0 0 42
0 0 42
0 0 42
0 0 42
0 0 42
0 0 42
0 0 42
0 0 42
0 0 42
0 0 42
0 0 42
0 0 42
0 0 42
0 0 42
0 0 42
0 0 42
0 0 42
0 0 42
0 0 42
0 0 42
0 0 41
0 0 42
132 141 137
218 232 252
218 233 254
218 233 254
218 233 254
218 233 254
218 233 254
218 233 254
218 233 254
218 233 254
218 233 254
218 233 254
218 233 254
218 233 254
218 233 254
218 233 254
218 233 254
218 233 254
218 233 254
218 233 254
218 233 254
218 233 254
218 233 254
218 233 254
218 233 254
218 233 254
218 233 254
218 233 254
218 233 254
218 233 254
218 233 254
218 233 254
218 233 254
218 233 254
218 233 254
218 233 254
218 233 254
218 233 254
218 233 254
218 233 254
218 233 254
218 233 254
218 233 254
218 233 254
218 233 254
218 233 254
218 233 254
218 233 254
218 233 254
218 233 254
218 233 254
218 233 254
218 233 254
218 233 254
218 233 254
218 233 254
218 233 254
218 233 254
218 233 254
218 233 254
218 233 254
218 233 254
218 233 254
218 233 254
218 233 254
218 233 254
218 233 254
218 233 254
218 233 254
218 233 254
218 233 254
218 233 254
218 233 254
218 233 254
218 233 254
218 233 254
218 233 254
218 233 254
218 233 254
218 233 254
218 233 254
218 233 254
218 233 254
218 233 254
218 233 254
218 233 254
218 233 254
218 233 254
218 233 254
218 233 254
218 233 254
218 233 254
218 233 254
218 233 254
218 233 254
218 233 254
218 233 254
218 233 254
218 233 254
218 233 254
218 233 254
218 233 254
218 233 254
218 233 254
218 233 254
218 233 254
218 233 254
218 233 254
218 233 254
218 233 254
218 233 254
218 233 254
218 233 254
218 233 254
218 233 254
218 233 254
218 233 254
218 233 254
218 233 254
218 233 254
218 233 254
218 233 254
218 233 254
218 233 254
218 233 254
218 233 254
218 233 254
218 233 254
218 233 254
218 233 254
218 233 254
218 233 254
218 233 254
218 233 254
218 233 254
218 233 254
218 233 254
218 233 254
218 233 254
218 233 254
218 233 254
218 233 254
218 233 254
218 233 254
218 233 254
218 233 254
218 233 254
218 233 254
218 233 254
218 233 254
218 233 254
218 233 254
218 233 254
218 233 254
218 233 254
218 233 254
218 233 254
218 233 254
218 233 254
218 233 254
218 233 254
218 233 254
218 233 254
218 233 254
218 233 254
218 233 254
218 233 254
218 233 254
218 233 254
218 233 254
218 233 254
218 233 254
218 233 254
218 233 254
218 233 254
218 233 254
218 233 254
218 233 254
218 233 254
218 233 254
218 233 254
218 233 254
218 233 254
218 233 254
218 233 254
218 233 254
218 233 254
218 233 254
218 233 254
218 233 254
218 233 254
218 233 254
218 233 254
218 233 254
218 233 254
218 233 254
218 233 254
218 233 254
218 233 254
218 233 254
218 233 254
218 233 254
218 233 254
218 233 254
157 168 186
0 0 42
0 0 42
0 0 42
0 0 42
0 0 42
0 0 42
0 0 42
0 0 42
0 0 42
0 0 42
0 0 42
0 0 42
0 0 42
0 0 42
0 0 42
0 0 42
0 0 42
0 0 42
0 0 42
0 0 42
0 0 42
0 0 42
0 0 42
0 0 42
0 0 42
0 0 42
0 0 42
0 0 42
0 0 42
0 0 42
0 0 42
0 0 42
0 0 42
0 0 42
0 0 42
0 0 42
0 0 42
0 0 42
0 0 42
0 0 42
0 0 42
0 0 42
0 0 42
0 0 42
0 0 42
0 0 42
0 0 42
0 0 42
0 0 42
0 0 42
0 0 42
0 0 42
0 0 42
0 0 40
0 0 40
0 0 42
0 0 42
0 0 45
0 0 44
0 0 44
0 0 45
0 0 49
0 0 54
0 0 58
0 0 59
0 21 80
12 44 79
34 53 17
43 63 9
43 65 12
52 75 19
49 74 16
44 67 3
50 73 14
49 70 14
58 73 22
62 74 27
76 81 46
87 91 58
78 84 50
60 69 30
48 69 10
51 75 12
33 50 24
11 18 36
0 0 48
0 0 41
0 0 42
0 0 42
0 0 42
0 0 42
0 0 42
0 0 41
0 0 41
0 0 45
0 0 46
6 36 77
37 64 45
35 59 0
35 61 0
32 61 0
31 59 0
32 60 0
19 38 24
7 11 37
0 0 37
0 0 34
0 0 40
0 0 45
0 0 39
0 0 42
0 0 46
0 0 41
0 0 38
0 0 45
0 0 45
0 0 45
0 0 45
0 0 44
0 0 42
0 0 40
0 0 47
4 12 42
17 29 52
44 68 27
59 77 25
52 71 17
35 57 20
27 42 17
10 17 34
3 3 43
13 16 44
0 0 43
0 0 34
0 0 38
0 0 49
0 0 43
0 0 41
0 0 42
0 0 42
0 0 42
0 0 42
0 0 42
0 0 42
0 0 42
0 0 42
0 0 42
0 0 42
0 0 42
0 0 42
0 0 42
0 0 42
0 0 42
0 0 42
0 0 42
0 0 42
0 0 42
0 0 42
0 0 42
0 0 42
0 0 42
0 0 42
0 0 42
0 0 42
0 0 42
0 0 42
0 0 42
0 0 42
0 0 42
0 0 42
0 0 42
0 0 42
0 0 42
0 0 42
0 0 42
0 0 42
0 0 42
0 0 42
0 0 42
0 0 42
0 0 42
0 0 42
0 0 42
0 0 42
0 0 42
0 0 42
0 0 42
0 0 42
0 0 42
0 0 42
0 0 42
0 0 42
0 0 42
0 0 42
0 0 41
35 43 68
211 222 226
218 233 254
218 233 254
218 233 254
218 233 254
218 233 254
218 233 254
218 233 254
218 233 254
218 233 254
218 233 254
218 233 254
218 233 254
218 233 254
218 233 254
218 233 254
218 233 254
218 233 254
218 233 254
218 233 254
218 233 254
218 233 254
218 233 254
218 233 254
218 233 254
218 233 254
218 233 254
218 233 254
218 233 254
218 233 254
218 233 254
218 233 254
218 233 254
218 233 254
218 233 254
218 233 254
218 233 254
218 233 254
218 233 254
218 233 254
218 233 254
218 233 254
218 233 254
218 233 254
218 233 254
218 233 254
218 233 254
218 233 254
218 233 254
218 233 254
218 233 254
218 233 254
218 233 254
218 233 254
218 233 254
218 233 254
218 233 254
218 233 254
218 233 254
218 233 254
218 233 254
218 233 254
218 233 254
218 233 254
218 233 254
218 233 254
218 233 254
218 233 254
218 233 254
218 233 254
218 233 254
218 233 254
218 233 254
218 233 254
218 233 254
218 233 254
218 233 254
218 233 254
218 233 254
218 233 254
218 233 254
218 233 254
218 233 254
218 233 254
218 233 254
218 233 254
218 233 254
218 233 254
218 233 254
218 233 254
218 233 254
218 233 254
218 233 254
218 233 254
218 233 254
218 233 254
218 233 254
218 233 254
218 233 254
218 233 254
218 233 254
218 233 254
218 233 254
218 233 254
218 233 254
218 233 254
218 233 254
218 233 254
218 233 254
218 233 254
218 233 254
218 233 254
218 233 254
218 233 254
218 233 254
218 233 254
218 233 254
218 233 254
218 233 254
218 233 254
218 233 254
218 233 254
218 233 254
218 233 254
218 233 254
218 233 254
218 233 254
218 233 254
218 233 254
218 233 254
218 233 254
218 233 254
218 233 254
218 233 254
218 233 254
218 233 254
218 233 254
218 233 254
218 233 254
218 233 254
218 233 254
218 233 254
218 233 254
218 233 254
218 233 254
218 233 254
218 233 254
218 233 254
218 233 254
218 233 254
218 233 254
218 233 254
218 233 254
218 233 254
218 233 254
218 233 254
218 233 254
218 233 254
218 233 254
218 233 254
218 233 254
218 233 254
218 233 254
218 233 254
218 233 254
218 233 254
218 233 254
218 233 254
218 233 254
218 233 254
218 233 254
218 233 254
218 233 254
218 233 254
218 233 254
218 233 254
218 233 254
218 233 254
218 233 254
218 233 254
218 233 254
218 233 254
218 233 254
218 233 254
218 233 254
218 233 254
218 233 254
218 233 254
218 233 254
218 233 254
218 233 254
218 233 254
218 233 254
218 233 254
218 233 254
218 233 254
218 233 254
218 233 254
218 233 254
218 233 254
218 233 254
218 233 254
217 232 253
72 77 93
3 6 41
0 0 40
0 0 42
0 0 42
0 0 42
0 0 42
0 0 42
0 0 42
0 0 42
0 0 42
0 0 42
0 0 42
0 0 42
0 0 42
0 0 42
0 0 42
0 0 42
0 0 42
0 0 42
0 0 42
0 0 42
0 0 42
0 0 42
0 0 42
0 0 42
0 0 42
0 0 42
0 0 42
0 0 42
0 0 42
0 0 42
0 0 42
0 0 42
0 0 42
0 0 42
0 0 42
0 0 42
0 0 42
0 0 42
0 0 42
0 0 42
0 0 42
0 0 42
0 0 42
0 0 42
0 0 42
0 0 42
0 0 42
0 0 42
0 0 42
0 0 42
0 0 42
0 0 42
0 0 40
0 0 42
0 0 42
0 0 43
0 0 45
0 0 45
0 0 45
0 0 45
0 0 47
0 0 53
0 0 56
0 0 57
1 11 72
21 52 61
40 61 19
42 67 11
49 72 15
49 70 14
45 67 14
43 66 4
42 63 0
44 67 9
46 68 0
52 69 13
57 71 23
66 74 31
83 90 50
73 83 40
57 69 29
47 66 12
45 70 14
23 40 33
0 0 47
0 0 39
0 0 42
0 0 42
0 0 42
0 0 42
0 0 42
0 0 42
0 0 47
0 0 45
0 5 48
13 54 71
35 67 38
32 60 0
34 63 0
32 61 0
30 58 0
32 59 10
6 17 35
0 0 42
0 0 45
0 0 38
0 0 42
0 0 37
0 0 43
0 0 45
0 0 36
0 0 39
0 0 43
0 0 43
0 0 40
0 0 39
0 0 40
0 0 43
0 0 41
0 0 37
0 0 43
0 0 43
18 30 39
30 50 23
35 53 17
38 55 28
39 60 20
36 52 31
22 35 29
3 5 39
8 8 37
27 35 34
12 14 39
4 6 41
12 18 38
11 16 40
0 0 41
0 0 42
0 0 42
0 0 42
0 0 42
0 0 42
0 0 42
0 0 42
0 0 42
0 0 42
0 0 42
0 0 42
0 0 42
0 0 42
0 0 42
0 0 42
0 0 42
0 0 42
0 0 42
0 0 42
0 0 42
0 0 42
0 0 42
0 0 42
0 0 42
0 0 42
0 0 42
0 0 42
0 0 42
0 0 42
0 0 42
0 0 42
0 0 42
0 0 42
0 0 42
0 0 42
0 0 42
0 0 42
0 0 42
0 0 42
0 0 42
0 0 42
0 0 42
0 0 42
0 0 42
0 0 42
0 0 42
0 0 42
0 0 42
0 0 42
0 0 42
0 0 42
0 0 42
0 0 42
0 0 42
0 0 42
0 0 42
0 0 41
0 0 48
162 165 156
218 233 254
218 233 254
218 233 254
218 233 254
218 233 254
218 233 254
218 233 254
218 233 254
218 233 254
218 233 254
218 233 254
218 233 254
218 233 254
218 233 254
218 233 254
218 233 254
218 233 254
218 233 254
218 233 254
218 233 254
218 233 254
218 233 254
218 233 254
218 233 254
218 233 254
218 233 254
218 233 254
218 233 254
218 233 254
218 233 254
218 233 254
218 233 254
218 233 254
218 233 254
218 233 254
218 233 254
218 233 254
218 233 254
218 233 254
218 233 254
218 233 254
218 233 254
218 233 254
218 233 254
218 233 254
218 233 254
218 233 254
218 233 254
218 233 254
218 233 254
218 233 254
218 233 254
218 233 254
218 233 254
218 233 254
218 233 254
218 233 254
218 233 254
218 233 254
218 233 254
218 233 254
218 233 254
218 233 254
218 233 254
218 233 254
218 233 254
218 233 254
218 233 254
218 233 254
218 233 254
218 233 254
218 233 254
218 233 254
218 233 254
218 233 254
218 233 254
218 233 254
218 233 254
218 233 254
218 233 254
218 233 254
218 233 254
218 233 254
218 233 254
218 233 254
218 233 254
218 233 254
218 233 254
218 233 254
218 233 254
218 233 254
218 233 254
218 233 254
218 233 254
218 233 254
218 233 254
218 233 254
218 233 254
218 233 254
218 233 254
218 233 254
218 233 254
218 233 254
218 233 254
218 233 254
218 233 254
218 233 254
218 233 254
218 233 254
218 233 254
218 233 254
218 233 254
218 233 254
218 233 254
218 233 254
218 233 254
218 233 254
218 233 254
218 233 254
218 233 254
218 233 254
218 233 254
218 233 254
218 233 254
218 233 254
218 233 254
218 233 254
218 233 254
218 233 254
218 233 254
218 233 254
218 233 254
218 233 254
218 233 254
218 233 254
218 233 254
218 233 254
218 233 254
218 233 254
218 233 254
218 233 254
218 233 254
218 233 254
218 233 254
218 233 254
218 233 254
218 233 254
218 233 254
218 233 254
218 233 254
218 233 254
218 233 254
218 233 254
218 233 254
218 233 254
218 233 254
218 233 254
218 233 254
218 233 254
218 233 254
218 233 254
218 233 254
218 233 254
218 233 254
218 233 254
218 233 254
218 233 254
218 233 254
218 233 254
218 233 254
218 233 254
218 233 254
218 233 254
218 233 254
218 233 254
218 233 254
218 233 254
218 233 254
218 233 254
218 233 254
218 233 254
218 233 254
218 233 254
218 233 254
218 233 254
218 233 254
218 233 254
218 233 254
218 233 254
218 233 254
218 233 254
218 233 254
218 233 254
218 233 254
218 233 254
218 233 254
218 233 254
218 233 254
218 233 254
218 233 254
218 233 254
163 174 192
0 0 42
12 16 43
0 0 41
0 0 41
0 0 42
0 0 42
0 0 42
0 0 42
0 0 42
0 0 42
0 0 42
0 0 42
0 0 42
0 0 42
0 0 42
0 0 42
0 0 42
0 0 42
0 0 42
0 0 42
0 0 42
0 0 42
0 0 42
0 0 42
0 0 42
0 0 42
0 0 42
0 0 42
0 0 42
0 0 42
0 0 42
0 0 42
0 0 42
0 0 42
0 0 42
0 0 42
0 0 42
0 0 42
0 0 42
0 0 42
0 0 42
0 0 42
0 0 42
0 0 42
0 0 42
0 0 42
0 0 42
0 0 42
0 0 42
0 0 42
0 0 42
0 0 42
0 0 42
0 0 42
0 0 41
0 0 43
0 0 44
0 0 44
0 0 43
0 0 43
0 0 44
0 0 45
0 0 46
0 0 48
0 0 46
0 0 48
0 2 56
12 26 64
34 64 36
43 74 11
47 71 17
45 67 3
45 65 9
43 61 12
41 59 0
46 68 11
39 63 0
42 61 5
48 66 14
51 64 16
75 88 45
61 75 29
62 72 33
81 86 52
52 69 22
35 60 32
9 17 45
0 0 40
0 0 45
0 0 44
0 0 43
0 0 42
0 0 39
0 0 48
0 0 47
0 0 45
5 13 59
23 51 45
36 63 7
33 59 0
33 58 0
31 60 0
32 64 0
35 60 25
8 12 35
0 0 42
0 0 42
0 0 42
0 0 42
0 0 41
0 0 42
0 0 42
0 0 41
0 0 42
0 0 42
0 0 42
0 0 43
0 0 41
0 0 41
0 0 42
0 0 42
0 0 42
0 0 42
0 0 40
9 13 38
7 10 42
0 7 39
0 3 40
10 14 38
8 9 42
0 0 36
0 0 37
9 12 42
41 50 44
52 67 30
40 56 30
44 63 29
46 63 25
31 48 24
13 28 34
0 0 42
0 0 43
0 0 43
0 0 38
0 0 44
0 0 42
0 0 43
0 0 42
0 0 41
0 0 42
0 0 42
0 0 42
0 0 42
0 0 42
0 0 42
0 0 42
0 0 42
0 0 42
0 0 42
0 0 42
0 0 42
0 0 42
0 0 42
0 0 42
0 0 42
0 0 42
0 0 42
0 0 42
0 0 42
0 0 42
0 0 42
0 0 42
0 0 42
0 0 42
0 0 42
0 0 42
0 0 42
0 0 42
0 0 42
0 0 42
0 0 42
0 0 42
0 0 42
0 0 42
0 0 42
0 0 42
0 0 42
0 0 42
0 0 42
0 0 42
0 0 42
0 0 42
0 0 42
0 0 42
0 0 42
0 0 42
0 0 45
98 104 109
216 222 231
218 233 254
218 233 254
218 233 254
218 233 254
218 233 254
218 233 254
218 233 254
218 233 254
218 233 254
218 233 254
218 233 254
218 233 254
218 233 254
218 233 254
218 233 254
218 233 254
218 233 254
218 233 254
218 233 254
218 233 254
218 233 254
218 233 254
218 233 254
218 233 254
218 233 254
218 233 254
218 233 254
218 233 254
218 233 254
218 233 254
218 233 254
218 233 254
218 233 254
218 233 254
218 233 254
218 233 254
218 233 254
218 233 254
218 233 254
218 233 254
218 233 254
218 233 254
218 233 254
218 233 254
218 233 254
218 233 254
218 233 254
218 233 254
218 233 254
218 233 254
218 233 254
218 233 254
218 233 254
218 233 254
218 233 254
218 233 254
218 233 254
218 233 254
218 233 254
218 233 254
218 233 254
218 233 254
218 233 254
218 233 254
218 233 254
218 233 254
218 233 254
218 233 254
218 233 254
218 233 254
218 233 254
218 233 254
218 233 254
218 233 254
218 233 254
218 233 254
218 233 254
218 233 254
218 233 254
218 233 254
218 233 254
218 233 254
218 233 254
218 233 254
218 233 254
218 233 254
218 233 254
218 233 254
218 233 254
218 233 254
218 233 254
218 233 254
218 233 254
218 233 254
218 233 254
218 233 254
218 233 254
218 233 254
218 233 254
218 233 254
218 233 254
218 233 254
218 233 254
218 233 254
218 233 254
218 233 254
218 233 254
218 233 254
218 233 254
218 233 254
218 233 254
218 233 254
218 233 254
218 233 254
218 233 254
218 233 254
218 233 254
218 233 254
218 233 254
218 233 254
218 233 254
218 233 254
218 233 254
218 233 254
218 233 254
218 233 254
218 233 254
218 233 254
218 233 254
218 233 254
218 233 254
218 233 254
218 233 254
218 233 254
218 233 254
218 233 254
218 233 254
218 233 254
218 233 254
218 233 254
218 233 254
218 233 254
218 233 254
218 233 254
218 233 254
218 233 254
218 233 254
218 233 254
218 233 254
218 233 254
218 233 254
218 233 254
218 233 254
218 233 254
218 233 254
218 233 254
218 233 254
218 233 254
218 233 254
218 233 254
218 233 254
218 233 254
218 233 254
218 233 254
218 233 254
218 233 254
218 233 254
218 233 254
218 233 254
218 233 254
218 233 254
218 233 254
218 233 254
218 233 254
218 233 254
218 233 254
218 233 254
218 233 254
218 233 254
218 233 254
218 233 254
218 233 254
218 233 254
218 233 254
218 233 254
218 233 254
218 233 254
218 233 254
218 233 254
218 233 254
218 233 254
218 233 254
218 233 254
218 233 254
218 233 254
218 233 254
218 233 254
218 233 254
218 233 254
218 233 254
117 125 141
0 0 43
10 13 43
5 6 41
0 0 42
0 0 42
0 0 42
0 0 42
0 0 42
0 0 42
0 0 42
0 0 42
0 0 42
0 0 42
0 0 42
0 0 42
0 0 42
0 0 42
0 0 42
0 0 42
0 0 42
0 0 42
0 0 42
0 0 42
0 0 42
0 0 42
0 0 42
0 0 42
0 0 42
0 0 42
0 0 42
0 0 42
0 0 42
0 0 42
0 0 42
0 0 42
0 0 42
0 0 42
0 0 42
0 0 42
0 0 42
0 0 42
0 0 42
0 0 42
0 0 42
0 0 42
0 0 42
0 0 42
0 0 42
0 0 42
0 0 42
0 0 42
0 0 42
0 0 42
0 0 42
0 0 42
0 0 44
0 0 45
0 0 44
0 0 42
0 0 42
0 0 43
0 0 45
0 0 45
0 0 45
0 0 45
0 0 51
0 0 43
0 0 49
10 23 79
27 47 60
39 70 27
41 73 15
44 71 24
47 71 9
47 67 16
45 66 3
38 66 0
37 61 2
42 63 9
41 59 9
47 67 14
50 66 22
69 78 36
68 75 32
48 62 13
43 73 21
27 49 27
7 12 40
0 0 43
0 0 41
0 0 47
0 0 54
0 0 58
0 13 70
0 10 55
0 14 63
16 40 43
36 64 17
38 65 0
30 62 0
32 61 0
30 64 3
33 66 16
29 55 19
9 19 43
0 0 42
0 0 42
0 0 42
0 0 42
0 0 42
0 0 42
0 0 42
0 0 42
0 0 42
0 0 42
0 0 42
0 0 42
0 0 42
0 0 42
0 0 42
0 0 42
0 0 42
0 0 40
0 0 43
0 0 45
0 0 42
0 0 42
0 0 43
0 0 44
0 0 40
0 0 40
0 0 47
0 1 40
6 7 43
51 65 34
59 77 29
50 69 14
45 62 17
49 70 17
42 69 16
22 35 40
12 16 41
1 2 40
0 0 45
0 0 39
0 0 37
0 0 42
0 0 42
0 0 42
0 0 42
0 0 42
0 0 42
0 0 42
0 0 42
0 0 43
0 0 41
0 0 41
0 0 42
0 0 42
0 0 42
0 0 42
0 0 42
0 0 42
0 0 42
0 0 42
0 0 42
0 0 42
0 0 42
0 0 42
0 0 42
0 0 42
0 0 42
0 0 42
0 0 42
0 0 42
0 0 42
0 0 42
0 0 42
0 0 42
0 0 42
0 0 42
0 0 42
0 0 42
0 0 42
0 0 42
0 0 42
0 0 42
0 0 42
0 0 42
0 0 42
0 0 42
0 0 42
0 0 42
0 0 42
0 0 42
0 0 42
0 0 43
38 43 73
206 209 200
218 233 254
218 233 254
218 233 254
218 233 254
218 233 254
218 233 254
218 233 254
218 233 254
218 233 254
218 233 254
218 233 254
218 233 254
218 233 254
218 233 254
218 233 254
218 233 254
218 233 254
218 233 254
218 233 254
218 233 254
218 233 254
218 233 254
218 233 254
218 233 254
218 233 254
218 233 254
218 233 254
218 233 254
218 233 254
218 233 254
218 233 254
218 233 254
218 233 254
218 233 254
218 233 254
218 233 254
218 233 254
218 233 254
218 233 254
218 233 254
218 233 254
218 233 254
218 233 254
218 233 254
218 233 254
218 233 254
218 233 254
218 233 254
218 233 254
218 233 254
218 233 254
218 233 254
218 233 254
218 233 254
218 233 254
218 233 254
218 233 254
218 233 254
218 233 254
218 233 254
218 233 254
218 233 254
218 233 254
218 233 254
218 233 254
218 233 254
218 233 254
218 233 254
218 233 254
218 233 254
218 233 254
218 233 254
218 233 254
218 233 254
218 233 254
218 233 254
218 233 254
218 233 254
218 233 254
218 233 254
218 233 254
218 233 254
218 233 254
218 233 254
218 233 254
218 233 254
218 233 254
218 233 254
218 233 254
218 233 254
218 233 254
218 233 254
218 233 254
218 233 254
218 233 254
218 233 254
218 233 254
218 233 254
218 233 254
218 233 254
218 233 254
218 233 254
218 233 254
218 233 254
218 233 254
218 233 254
218 233 254
218 233 254
218 233 254
218 233 254
218 233 254
218 233 254
218 233 254
218 233 254
218 233 254
218 233 254
218 233 254
218 233 254
218 233 254
218 233 254
218 233 254
218 233 254
218 233 254
218 233 254
218 233 254
218 233 254
218 233 254
218 233 254
218 233 254
218 233 254
218 233 254
218 233 254
218 233 254
218 233 254
218 233 254
218 233 254
218 233 254
218 233 254
218 233 254
218 233 254
218 233 254
218 233 254
218 233 254
218 233 254
218 233 254
218 233 254
218 233 254
218 233 254
218 233 254
218 233 254
218 233 254
218 233 254
218 233 254
218 233 254
218 233 254
218 233 254
218 233 254
218 233 254
218 233 254
218 233 254
218 233 254
218 233 254
218 233 254
218 233 254
218 233 254
218 233 254
218 233 254
218 233 254
218 233 254
218 233 254
218 233 254
218 233 254
218 233 254
218 233 254
218 233 254
218 233 254
218 233 254
218 233 254
218 233 254
218 233 254
218 233 254
218 233 254
218 233 254
218 233 254
218 233 254
218 233 254
218 233 254
218 233 254
218 233 254
218 233 254
218 233 254
218 233 254
218 233 254
218 233 254
218 233 254
218 233 254
218 233 254
218 233 254
218 233 254
196 210 230
0 0 42
0 0 42
10 12 43
0 0 43
0 0 42
0 0 42
0 0 42
0 0 42
0 0 42
0 0 42
0 0 42
0 0 42
0 0 42
0 0 42
0 0 42
0 0 42
0 0 42
0 0 42
0 0 42
0 0 42
0 0 42
0 0 42
0 0 42
0 0 42
0 0 42
0 0 42
0 0 42
0 0 42
0 0 42
0 0 42
0 0 42
0 0 42
0 0 42
0 0 42
0 0 42
0 0 42
0 0 42
0 0 42
0 0 42
0 0 42
0 0 42
0 0 42
0 0 42
0 0 42
0 0 42
0 0 42
0 0 42
0 0 42
0 0 42
0 0 42
0 0 42
0 0 42
0 0 42
0 0 42
0 0 42
0 0 42
0 0 42
0 0 42
0 0 42
0 0 42
0 0 42
0 0 43
0 0 45
0 0 45
0 0 45
0 0 47
0 0 48
0 0 44
0 0 45
0 0 55
0 6 69
21 40 52
35 62 20
42 69 11
44 64 0
50 68 15
50 70 15
44 75 0
44 72 1
43 69 2
43 67 4
44 68 9
53 71 21
74 81 42
82 88 55
52 70 20
40 71 8
39 69 19
47 71 19
30 49 23
13 25 37
11 20 50
9 21 41
20 40 36
24 51 42
27 56 25
29 54 44
33 66 25
37 70 0
31 61 0
33 65 0
35 66 0
37 71 5
34 64 32
21 42 38
2 7 41
0 0 42
0 0 42
0 0 42
0 0 42
0 0 42
0 0 42
0 0 42
0 0 42
0 0 42
0 0 42
0 0 42
0 0 42
0 0 42
0 0 41
0 0 39
0 0 41
0 0 42
0 0 39
7 16 34
17 28 28
11 18 31
0 0 40
0 0 43
0 0 45
0 0 42
9 13 39
30 43 37
29 41 33
19 31 32
34 46 36
64 80 32
63 77 29
61 77 33
47 66 11
42 68 12
50 74 21
55 76 25
26 35 34
0 0 43
5 8 43
10 17 38
12 18 38
6 8 41
0 0 43
0 0 42
0 0 42
0 0 42
0 0 42
0 0 42
0 0 40
0 0 41
0 0 42
0 0 42
0 0 42
0 0 42
0 0 42
0 0 42
0 0 42
0 0 42
0 0 42
0 0 42
0 0 42
0 0 42
0 0 42
0 0 42
0 0 42
0 0 42
0 0 42
0 0 42
0 0 42
0 0 42
0 0 42
0 0 42
0 0 42
0 0 42
0 0 42
0 0 42
0 0 42
0 0 42
0 0 42
0 0 42
0 0 42
0 0 42
0 0 42
0 0 42
0 0 42
0 0 42
0 0 42
0 0 42
0 0 42
0 0 42
0 0 44
0 3 55
150 158 144
215 226 238
218 233 254
218 233 254
218 233 254
218 233 254
218 233 254
218 233 254
218 233 254
218 233 254
218 233 254
218 233 254
218 233 254
218 233 254
218 233 254
218 233 254
218 233 254
218 233 254
218 233 254
218 233 254
218 233 254
218 233 254
218 233 254
218 233 254
218 233 254
218 233 254
218 233 254
218 233 254
218 233 254
218 233 254
218 233 254
218 233 254
218 233 254
218 233 254
218 233 254
218 233 254
218 233 254
218 233 254
218 233 254
218 233 254
218 233 254
218 233 254
218 233 254
218 233 254
218 233 254
218 233 254
218 233 254
218 233 254
218 233 254
218 233 254
218 233 254
218 233 254
218 233 254
218 233 254
218 233 254
218 233 254
218 233 254
218 233 254
218 233 254
218 233 254
218 233 254
218 233 254
218 233 254
218 233 254
218 233 254
218 233 254
218 233 254
218 233 254
218 233 254
218 233 254
218 233 254
218 233 254
218 233 254
218 233 254
218 233 254
218 233 254
218 233 254
218 233 254
218 233 254
218 233 254
218 233 254
218 233 254
218 233 254
218 233 254
218 233 254
218 233 254
218 233 254
218 233 254
218 233 254
218 233 254
218 233 254
218 233 254
218 233 254
218 233 254
218 233 254
218 233 254
218 233 254
218 233 254
218 233 254
218 233 254
218 233 254
218 233 254
218 233 254
218 233 254
218 233 254
218 233 254
218 233 254
218 233 254
218 233 254
218 233 254
218 233 254
218 233 254
218 233 254
218 233 254
218 233 254
218 233 254
218 233 254
218 233 254
218 233 254
218 233 254
218 233 254
218 233 254
218 233 254
218 233 254
218 233 254
218 233 254
218 233 254
218 233 254
218 233 254
218 233 254
218 233 254
218 233 254
218 233 254
218 233 254
218 233 254
218 233 254
218 233 254
218 233 254
218 233 254
218 233 254
218 233 254
218 233 254
218 233 254
218 233 254
218 233 254
218 233 254
218 233 254
218 233 254
218 233 254
218 233 254
218 233 254
218 233 254
218 233 254
218 233 254
218 233 254
218 233 254
218 233 254
218 233 254
218 233 254
218 233 254
218 233 254
218 233 254
218 233 254
218 233 254
218 233 254
218 233 254
218 233 254
218 233 254
218 233 254
218 233 254
218 233 254
218 233 254
218 233 254
218 233 254
218 233 254
218 233 254
218 233 254
218 233 254
218 233 254
218 233 254
218 233 254
218 233 254
218 233 254
218 233 254
218 233 254
218 233 254
218 233 254
218 233 254
218 233 254
218 233 254
218 233 254
218 233 254
218 233 254
218 233 254
218 233 254
218 233 254
218 233 254
218 233 254
218 233 254
218 233 254
146 156 173
0 0 42
0 0 41
22 29 37
0 0 42
0 0 42
0 0 42
0 0 42
0 0 42
0 0 42
0 0 42
0 0 42
0 0 42
0 0 42
0 0 42
0 0 42
0 0 42
0 0 42
0 0 42
0 0 42
0 0 42
0 0 42
0 0 42
0 0 42
0 0 42
0 0 42
0 0 42
0 0 42
0 0 42
0 0 42
0 0 42
0 0 42
0 0 42
0 0 42
0 0 42
0 0 42
0 0 42
0 0 42
0 0 42
0 0 42
0 0 42
0 0 42
0 0 42
0 0 42
0 0 42
0 0 42
0 0 42
0 0 42
0 0 42
0 0 42
0 0 42
0 0 42
0 0 42
0 0 42
0 0 42
0 0 42
0 0 42
0 0 42
0 0 42
0 0 42
0 0 42
0 0 42
0 0 44
0 0 45
0 0 45
0 0 45
0 0 51
0 0 43
0 0 39
0 0 45
0 0 47
0 0 52
4 7 59
10 19 57
22 36 41
34 53 36
38 61 34
40 68 3
40 65 0
42 66 5
44 66 14
49 71 19
48 69 13
53 69 17
71 81 35
78 87 48
60 74 30
35 63 6
38 71 8
51 79 21
47 77 15
42 72 16
39 68 16
41 73 0
43 75 12
49 70 13
43 71 9
47 73 9
47 71 13
36 66 7
33 58 0
35 64 0
38 64 0
42 70 11
32 59 27
9 17 43
0 0 41
0 0 42
0 0 42
0 0 42
0 0 42
0 0 42
0 0 42
0 0 42
0 0 42
0 0 42
0 0 42
0 0 42
0 0 42
0 0 42
0 0 40
0 0 41
0 0 42
0 0 42
0 0 40
9 18 36
30 48 25
46 71 20
30 48 24
11 18 35
0 0 40
0 0 44
5 7 36
17 24 33
23 32 34
11 22 37
20 29 39
34 42 35
58 70 30
46 57 36
22 31 43
24 36 31
17 23 46
34 47 35
22 29 41
0 0 45
9 14 41
36 54 16
39 58 22
26 38 31
0 4 45
0 0 41
0 0 42
0 0 42
0 0 42
0 0 42
0 0 40
0 0 40
0 0 42
0 0 40
0 0 42
0 0 42
0 0 42
0 0 42
0 0 42
0 0 42
0 0 42
0 0 42
0 0 42
0 0 42
0 0 42
0 0 42
0 0 42
0 0 42
0 0 42
0 0 42
0 0 42
0 0 42
0 0 42
0 0 42
0 0 42
0 0 42
0 0 42
0 0 42
0 0 42
0 0 42
0 0 42
0 0 42
0 0 42
0 0 42
0 0 42
0 0 42
0 0 42
0 0 42
0 0 42
0 0 42
0 0 42
0 0 42
0 0 42
0 0 56
62 78 102
206 213 195
218 233 254
218 233 254
218 233 254
218 233 254
218 233 254
218 233 254
218 233 254
218 233 254
218 233 254
218 233 254
218 233 254
218 233 254
218 233 254
218 233 254
218 233 254
218 233 254
218 233 254
218 233 254
218 233 254
218 233 254
218 233 254
218 233 254
218 233 254
218 233 254
218 233 254
218 233 254
218 233 254
218 233 254
218 233 254
218 233 254
218 233 254
218 233 254
218 233 254
218 233 254
218 233 254
218 233 254
218 233 254
218 233 254
218 233 254
218 233 254
218 233 254
218 233 254
218 233 254
218 233 254
218 233 254
218 233 254
218 233 254
218 233 254
218 233 254
218 233 254
218 233 254
218 233 254
218 233 254
218 233 254
218 233 254
218 233 254
218 233 254
218 233 254
218 233 254
218 233 254
218 233 254
218 233 254
218 233 254
218 233 254
218 233 254
218 233 254
218 233 254
218 233 254
218 233 254
218 233 254
218 233 254
218 233 254
218 233 254
218 233 254
218 233 254
218 233 254
218 233 254
218 233 254
218 233 254
218 233 254
218 233 254
218 233 254
218 233 254
218 233 254
218 233 254
218 233 254
218 233 254
218 233 254
218 233 254
218 233 254
218 233 254
218 233 254
218 233 254
218 233 254
218 233 254
218 233 254
218 233 254
218 233 254
218 233 254
218 233 254
218 233 254
218 233 254
218 233 254
218 233 254
218 233 254
218 233 254
218 233 254
218 233 254
218 233 254
218 233 254
218 233 254
218 233 254
218 233 254
218 233 254
218 233 254
218 233 254
218 233 254
218 233 254
218 233 254
218 233 254
218 233 254
218 233 254
218 233 254
218 233 254
218 233 254
218 233 254
218 233 254
218 233 254
218 233 254
218 233 254
218 233 254
218 233 254
218 233 254
218 233 254
218 233 254
218 233 254
218 233 254
218 233 254
218 233 254
218 233 254
218 233 254
218 233 254
218 233 254
218 233 254
218 233 254
218 233 254
218 233 254
218 233 254
218 233 254
218 233 254
218 233 254
218 233 254
218 233 254
218 233 254
218 233 254
218 233 254
218 233 254
218 233 254
218 233 254
218 233 254
218 233 254
218 233 254
218 233 254
218 233 254
218 233 254
218 233 254
218 233 254
218 233 254
218 233 254
218 233 254
218 233 254
218 233 254
218 233 254
218 233 254
218 233 254
218 233 254
218 233 254
218 233 254
218 233 254
218 233 254
218 233 254
218 233 254
218 233 254
218 233 254
218 233 254
218 233 254
218 233 254
218 233 254
218 233 254
218 233 254
218 233 254
218 233 254
218 233 254
218 233 254
218 233 254
218 233 254
218 233 254
215 230 251
57 61 78
0 0 41
0 0 42
32 38 31
0 0 42
0 0 42
0 0 42
0 0 42
0 0 42
0 0 42
0 0 42
0 0 42
0 0 42
0 0 42
0 0 42
0 0 42
0 0 42
0 0 42
0 0 42
0 0 42
0 0 42
0 0 42
0 0 42
0 0 42
0 0 42
0 0 42
0 0 42
0 0 42
0 0 42
0 0 42
0 0 42
0 0 42
0 0 42
0 0 42
0 0 42
0 0 42
0 0 42
0 0 42
0 0 42
0 0 42
0 0 42
0 0 42
0 0 42
0 0 42
0 0 42
0 0 42
0 0 42
0 0 42
0 0 42
0 0 42
0 0 42
0 0 42
0 0 42
0 0 42
0 0 42
0 0 42
0 0 42
0 0 42
0 0 42
0 0 42
0 0 42
0 0 42
0 0 44
0 0 45
0 0 45
0 0 45
0 0 45
0 0 43
0 0 44
0 0 46
0 0 47
0 0 48
0 0 47
0 0 51
0 0 64
0 7 59
11 28 53
32 58 30
38 60 12
38 61 0
39 61 6
45 65 10
49 68 16
51 68 13
62 74 28
72 83 34
61 74 30
30 50 1
37 63 0
41 70 8
43 75 15
45 78 11
44 78 0
40 69 0
39 68 8
42 67 3
35 66 8
39 69 10
41 71 11
36 69 8
29 63 0
33 61 0
35 61 0
39 66 0
30 54 29
0 5 53
0 0 37
0 0 42
0 0 42
0 0 42
0 0 42
0 0 42
0 0 42
0 0 42
0 0 42
0 0 42
0 0 42
0 0 42
0 0 42
0 0 42
0 0 42
0 0 42
0 0 42
0 0 42
0 0 43
0 0 42
0 6 39
0 10 45
0 0 46
0 0 43
0 0 40
0 0 38
0 0 41
0 0 45
0 0 45
0 0 49
0 0 45
0 0 40
19 23 39
6 13 42
0 0 38
0 0 46
0 0 44
0 0 42
0 0 46
0 0 37
4 6 40
21 31 39
25 36 46
15 24 40
0 3 40
0 0 44
0 0 41
0 0 40
0 0 42
0 0 42
0 0 40
0 0 39
0 0 41
0 0 41
0 0 41
0 0 42
0 0 42
0 0 42
0 0 42
0 0 42
0 0 42
0 0 42
0 0 42
0 0 42
0 0 42
0 0 42
0 0 42
0 0 42
0 0 42
0 0 42
0 0 42
0 0 42
0 0 42
0 0 42
0 0 42
0 0 42
0 0 42
0 0 42
0 0 42
0 0 42
0 0 42
0 0 42
0 0 42
0 0 42
0 0 42
0 0 42
0 0 42
0 0 42
0 0 42
0 0 42
0 0 42
0 0 42
0 0 43
0 0 50
0 23 81
160 167 155
218 233 254
218 233 254
218 233 254
218 233 254
218 233 254
218 233 254
218 233 254
218 233 254
218 233 254
218 233 254
218 233 254
218 233 254
218 233 254
218 233 254
218 233 254
218 233 254
218 233 254
218 233 254
218 233 254
218 233 254
218 233 254
218 233 254
218 233 254
218 233 254
218 233 254
218 233 254
218 233 254
218 233 254
218 233 254
218 233 254
218 233 254
218 233 254
218 233 254
218 233 254
218 233 254
218 233 254
218 233 254
218 233 254
218 233 254
218 233 254
218 233 254
218 233 254
218 233 254
218 233 254
218 233 254
218 233 254
218 233 254
218 233 254
218 233 254
218 233 254
218 233 254
218 233 254
218 233 254
218 233 254
218 233 254
218 233 254
218 233 254
218 233 254
218 233 254
218 233 254
218 233 254
218 233 254
218 233 254
218 233 254
218 233 254
218 233 254
218 233 254
218 233 254
218 233 254
218 233 254
218 233 254
218 233 254
218 233 254
218 233 254
218 233 254
218 233 254
218 233 254
218 233 254
218 233 254
218 233 254
218 233 254
218 233 254
218 233 254
218 233 254
218 233 254
218 233 254
218 233 254
218 233 254
218 233 254
218 233 254
218 233 254
218 233 254
218 233 254
218 233 254
218 233 254
218 233 254
218 233 254
218 233 254
218 233 254
218 233 254
218 233 254
218 233 254
218 233 254
218 233 254
218 233 254
218 233 254
218 233 254
218 233 254
218 233 254
218 233 254
218 233 254
218 233 254
218 233 254
218 233 254
218 233 254
218 233 254
218 233 254
218 233 254
218 233 254
218 233 254
218 233 254
218 233 254
218 233 254
218 233 254
218 233 254
218 233 254
218 233 254
218 233 254
218 233 254
218 233 254
218 233 254
218 233 254
218 233 254
218 233 254
218 233 254
218 233 254
218 233 254
218 233 254
218 233 254
218 233 254
218 233 254
218 233 254
218 233 254
218 233 254
218 233 254
218 233 254
218 233 254
218 233 254
218 233 254
218 233 254
218 233 254
218 233 254
218 233 254
218 233 254
218 233 254
218 233 254
218 233 254
218 233 254
218 233 254
218 233 254
218 233 254
218 233 254
218 233 254
218 233 254
218 233 254
218 233 254
218 233 254
218 233 254
218 233 254
218 233 254
218 233 254
218 233 254
218 233 254
218 233 254
218 233 254
218 233 254
218 233 254
218 233 254
218 233 254
218 233 254
218 233 254
218 233 254
218 233 254
218 233 254
218 233 254
218 233 254
218 233 254
218 233 254
218 233 254
218 233 254
218 233 254
218 233 254
218 233 254
218 233 254
218 233 254
218 233 254
218 233 254
179 191 210
0 0 42
0 0 42
4 3 41
11 11 40
0 0 42
0 0 42
0 0 42
0 0 42
0 0 42
0 0 42
0 0 42
0 0 42
0 0 42
0 0 42
0 0 42
0 0 42
0 0 42
0 0 42
0 0 42
0 0 42
0 0 42
0 0 42
0 0 42
0 0 42
0 0 42
0 0 42
0 0 42
0 0 42
0 0 42
0 0 42
0 0 42
0 0 42
0 0 42
0 0 42
0 0 42
0 0 42
0 0 42
0 0 42
0 0 42
0 0 42
0 0 42
0 0 42
0 0 42
0 0 42
0 0 42
0 0 42
0 0 42
0 0 42
0 0 42
0 0 42
0 0 42
0 0 42
0 0 42
0 0 42
0 0 42
0 0 42
0 0 42
0 0 42
0 0 42
0 0 42
0 0 42
0 0 42
0 0 44
0 0 45
0 0 45
0 0 44
0 0 38
0 0 44
0 0 42
0 0 40
0 0 43
0 0 45
0 0 41
0 0 46
0 0 39
0 0 49
0 2 51
11 18 50
13 27 52
25 43 29
37 60 20
42 64 13
43 62 13
41 61 14
48 65 13
58 70 21
64 73 29
53 69 24
41 60 7
32 58 3
37 63 7
30 58 3
31 59 3
39 65 11
42 67 9
40 65 7
35 58 0
29 58 0
32 55 0
47 67 0
42 72 0
37 67 0
35 63 0
33 62 3
29 52 26
0 0 48
0 0 46
0 0 40
0 0 41
0 0 42
0 0 42
0 0 42
0 0 42
0 0 40
0 0 41
0 0 42
0 0 42
0 0 41
0 0 42
0 0 42
0 0 42
0 0 42
0 0 42
0 0 42
0 0 41
0 0 42
0 0 41
0 0 41
0 0 38
0 0 41
0 0 39
0 0 43
0 0 39
0 0 40
0 0 43
0 0 39
0 0 39
0 0 45
0 0 40
0 0 48
0 0 42
0 0 40
0 0 35
0 0 43
0 0 42
0 0 39
0 0 40
0 0 40
0 0 39
0 0 47
0 0 45
0 0 39
0 0 40
0 0 39
0 0 41
0 0 42
0 0 42
0 0 40
0 0 41
0 0 43
0 0 39
0 0 41
0 0 42
0 0 42
0 0 42
0 0 42
0 0 42
0 0 42
0 0 42
0 0 42
0 0 42
0 0 42
0 0 42
0 0 42
0 0 42
0 0 42
0 0 42
0 0 42
0 0 42
0 0 42
0 0 42
0 0 42
0 0 42
0 0 42
0 0 42
0 0 42
0 0 42
0 0 42
0 0 42
0 0 42
0 0 42
0 0 42
0 0 42
0 0 42
0 0 42
0 0 42
0 0 42
0 0 41
0 0 41
0 0 44
0 10 67
106 113 121
213 216 217
218 233 254
218 233 254
218 233 254
218 233 254
218 233 254
218 233 254
218 233 254
218 233 254
218 233 254
218 233 254
218 233 254
218 233 254
218 233 254
218 233 254
218 233 254
218 233 254
218 233 254
218 233 254
218 233 254
218 233 254
218 233 254
218 233 254
218 233 254
218 233 254
218 233 254
218 233 254
218 233 254
218 233 254
218 233 254
218 233 254
218 233 254
218 233 254
218 233 254
218 233 254
218 233 254
218 233 254
218 233 254
218 233 254
218 233 254
218 233 254
218 233 254
218 233 254
218 233 254
218 233 254
218 233 254
218 233 254
218 233 254
218 233 254
218 233 254
218 233 254
218 233 254
218 233 254
218 233 254
218 233 254
218 233 254
218 233 254
218 233 254
218 233 254
218 233 254
218 233 254
218 233 254
218 233 254
218 233 254
218 233 254
218 233 254
218 233 254
218 233 254
218 233 254
218 233 254
218 233 254
218 233 254
218 233 254
218 233 254
218 233 254
218 233 254
218 233 254
218 233 254
218 233 254
218 233 254
218 233 254
218 233 254
218 233 254
218 233 254
218 233 254
218 233 254
218 233 254
218 233 254
218 233 254
218 233 254
218 233 254
218 233 254
218 233 254
218 233 254
218 233 254
218 233 254
218 233 254
218 233 254
218 233 254
218 233 254
218 233 254
218 233 254
218 233 254
218 233 254
218 233 254
218 233 254
218 233 254
218 233 254
218 233 254
218 233 254
218 233 254
218 233 254
218 233 254
218 233 254
218 233 254
218 233 254
218 233 254
218 233 254
218 233 254
218 233 254
218 233 254
218 233 254
218 233 254
218 233 254
218 233 254
218 233 254
218 233 254
218 233 254
218 233 254
218 233 254
218 233 254
218 233 254
218 233 254
218 233 254
218 233 254
218 233 254
218 233 254
218 233 254
218 233 254
218 233 254
218 233 254
218 233 254
218 233 254
218 233 254
218 233 254
218 233 254
218 233 254
218 233 254
218 233 254
218 233 254
218 233 254
218 233 254
218 233 254
218 233 254
218 233 254
218 233 254
218 233 254
218 233 254
218 233 254
218 233 254
218 233 254
218 233 254
218 233 254
218 233 254
218 233 254
218 233 254
218 233 254
218 233 254
218 233 254
218 233 254
218 233 254
218 233 254
218 233 254
218 233 254
218 233 254
218 233 254
218 233 254
218 233 254
218 233 254
218 233 254
218 233 254
218 233 254
218 233 254
218 233 254
218 233 254
218 233 254
218 233 254
218 233 254
218 233 254
218 233 254
218 233 254
218 233 254
218 233 254
218 233 254
218 233 254
218 233 254
218 233 254
115 123 139
0 0 42
0 0 42
0 0 39
0 0 42
0 0 42
0 0 42
0 0 42
0 0 42
0 0 42
0 0 42
0 0 42
0 0 42
0 0 42
0 0 42
0 0 42
0 0 42
0 0 42
0 0 42
0 0 42
0 0 42
0 0 42
0 0 42
0 0 42
0 0 42
0 0 42
0 0 42
0 0 42
0 0 42
0 0 42
0 0 42
0 0 42
0 0 42
0 0 42
0 0 42
0 0 42
0 0 42
0 0 42
0 0 42
0 0 42
0 0 42
0 0 42
0 0 42
0 0 42
0 0 42
0 0 42
0 0 42
0 0 42
0 0 42
0 0 42
0 0 42
0 0 43
0 0 44
0 0 43
0 0 42
0 0 42
0 0 42
0 0 42
0 0 42
0 0 42
0 0 42
0 0 42
0 0 42
0 0 42
0 0 42
0 0 42
0 0 42
0 0 41
0 0 42
0 0 42
0 0 42
0 0 42
0 0 42
0 0 44
0 0 45
0 0 45
0 0 45
0 0 45
0 0 44
0 0 47
0 0 50
11 21 55
23 41 40
32 57 43
39 67 30
41 68 0
41 61 0
58 72 28
66 78 35
49 65 19
46 66 10
48 72 31
39 66 22
46 72 9
47 70 18
48 72 19
47 67 11
40 59 13
30 53 7
27 53 0
35 65 0
41 72 0
40 70 0
38 68 0
34 60 4
25 38 33
0 0 48
0 0 39
0 0 43
0 0 44
0 0 43
0 0 44
0 0 44
0 0 43
0 0 41
0 0 36
0 0 44
0 0 42
0 0 40
0 0 42
0 0 42
0 0 42
0 0 42
0 0 42
0 0 42
0 0 42
0 0 42
0 0 42
0 0 42
0 0 42
0 0 42
0 0 42
0 0 42
0 0 42
0 0 41
0 0 42
0 0 42
0 0 42
0 0 42
0 0 42
0 0 41
0 0 41
0 0 42
0 0 41
0 0 43
0 0 41
0 0 42
0 0 44
0 0 45
0 0 41
0 0 41
0 0 42
0 0 41
0 0 41
0 0 40
0 0 41
0 0 44
0 0 42
0 0 41
0 0 42
0 0 43
0 0 40
0 0 40
0 0 42
0 0 42
0 0 41
0 0 42
0 0 42
0 0 42
0 0 42
0 0 42
0 0 42
0 0 42
0 0 42
0 0 42
0 0 42
0 0 42
0 0 42
0 0 42
0 0 42
0 0 42
0 0 42
0 0 42
0 0 42
0 0 42
0 0 42
0 0 42
0 0 42
0 0 42
0 0 42
0 0 42
0 0 42
0 0 42
0 0 42
0 0 42
0 0 42
0 0 42
0 0 42
0 0 41
0 0 41
0 0 42
0 0 56
48 63 99
201 203 186
218 233 254
218 233 254
218 233 254
218 233 254
218 233 254
218 233 254
218 233 254
218 233 254
218 233 254
218 233 254
218 233 254
218 233 254
218 233 254
218 233 254
218 233 254
218 233 254
218 233 254
218 233 254
218 233 254
218 233 254
218 233 254
218 233 254
218 233 254
218 233 254
218 233 254
218 233 254
218 233 254
218 233 254
218 233 254
218 233 254
218 233 254
218 233 254
218 233 254
218 233 254
218 233 254
218 233 254
218 233 254
218 233 254
218 233 254
218 233 254
218 233 254
218 233 254
218 233 254
218 233 254
218 233 254
218 233 254
218 233 254
218 233 254
218 233 254
218 233 254
218 233 254
218 233 254
218 233 254
218 233 254
218 233 254
218 233 254
218 233 254
218 233 254
218 233 254
218 233 254
218 233 254
218 233 254
218 233 254
218 233 254
218 233 254
218 233 254
218 233 254
218 233 254
218 233 254
218 233 254
218 233 254
218 233 254
218 233 254
218 233 254
218 233 254
218 233 254
218 233 254
218 233 254
218 233 254
218 233 254
218 233 254
218 233 254
218 233 254
218 233 254
218 233 254
218 233 254
218 233 254
218 233 254
218 233 254
218 233 254
218 233 254
218 233 254
218 233 254
218 233 254
218 233 254
218 233 254
218 233 254
218 233 254
218 234 254
218 234 254
218 234 254
218 234 254
218 234 254
218 234 254
218 234 254
218 234 254
218 234 254
218 234 254
218 234 254
218 234 254
218 234 254
218 234 254
218 234 254
218 234 254
218 234 254
218 234 254
218 234 254
218 234 254
218 234 254
218 234 254
218 234 254
218 233 254
218 233 254
218 233 254
218 233 254
218 233 254
218 233 254
218 233 254
218 233 254
218 233 254
218 233 254
218 233 254
218 233 254
218 233 254
218 233 254
218 233 254
218 233 254
218 233 254
218 233 254
218 233 254
218 233 254
218 233 254
218 233 254
218 233 254
218 233 254
218 233 254
218 233 254
218 233 254
218 233 254
218 233 254
218 233 254
218 233 254
218 233 254
218 233 254
218 233 254
218 233 254
218 233 254
218 233 254
218 233 254
218 233 254
218 233 254
218 233 254
218 233 254
218 233 254
218 233 254
218 233 254
218 233 254
218 233 254
218 233 254
218 233 254
218 233 254
218 233 254
218 233 254
218 233 254
218 233 254
218 233 254
218 233 254
218 233 254
218 233 254
218 233 254
218 233 254
218 233 254
218 233 254
218 233 254
218 233 254
218 233 254
218 233 254
218 233 254
218 233 254
218 233 254
218 233 254
218 233 254
218 233 254
218 233 254
218 233 254
214 229 249
48 52 70
0 0 42
0 0 42
0 0 40
0 0 42
0 0 42
0 0 42
0 0 42
0 0 42
0 0 42
0 0 42
0 0 42
0 0 42
0 0 42
0 0 42
0 0 42
0 0 42
0 0 42
0 0 42
0 0 42
0 0 42
0 0 42
0 0 42
0 0 42
0 0 42
0 0 42
0 0 42
0 0 42
0 0 42
0 0 42
0 0 42
0 0 42
0 0 42
0 0 42
0 0 42
0 0 42
0 0 42
0 0 42
0 0 42
0 0 42
0 0 42
0 0 42
0 0 42
0 0 42
0 0 42
0 0 42
0 0 42
0 0 42
0 0 42
0 0 42
0 0 42
0 0 45
0 0 45
0 0 43
0 0 42
0 0 42
0 0 42
0 0 42
0 0 42
0 0 42
0 0 42
0 0 42
0 0 42
0 0 42
0 0 42
0 0 42
0 0 42
0 0 42
0 0 42
0 0 42
0 0 42
0 0 42
0 0 42
0 0 42
0 0 43
0 0 44
0 0 45
0 0 45
0 0 44
0 0 47
0 0 48
0 0 49
0 0 46
9 14 52
24 40 61
28 52 31
34 57 10
44 63 19
45 66 14
36 59 20
27 59 51
22 46 80
19 34 66
29 51 25
37 61 9
38 64 11
40 64 8
44 67 21
39 60 12
30 52 0
32 61 0
37 69 0
38 69 11
34 66 0
21 44 28
6 13 42
5 9 41
5 9 43
3 5 43
3 5 39
3 12 40
2 11 34
0 8 38
0 4 40
0 0 52
0 0 33
0 0 52
0 0 43
0 0 43
0 0 39
0 0 42
0 0 42
0 0 42
0 0 42
0 0 42
0 0 42
0 0 42
0 0 42
0 0 42
0 0 42
0 0 42
0 0 42
0 0 42
0 0 42
0 0 42
0 0 42
0 0 42
0 0 42
0 0 42
0 0 42
0 0 42
0 0 42
0 0 42
0 0 42
0 0 42
0 0 42
0 0 42
0 0 42
0 0 42
0 0 42
0 0 42
0 0 42
0 0 42
0 0 42
0 0 42
0 0 42
0 0 42
0 0 42
11 19 37
4 6 46
0 0 43
0 0 38
0 0 38
0 0 41
0 0 42
0 0 40
0 0 41
0 0 41
0 0 40
0 0 42
0 0 42
0 0 42
0 0 42
0 0 42
0 0 42
0 0 42
0 0 42
0 0 42
0 0 42
0 0 42
0 0 42
0 0 42
0 0 42
0 0 42
0 0 42
0 0 42
0 0 42
0 0 42
0 0 42
0 0 42
0 0 42
0 0 42
0 0 42
0 0 42
0 0 42
0 0 42
0 0 42
0 0 42
0 0 42
0 0 42
0 0 42
0 0 50
0 14 64
156 157 138
218 231 248
218 233 254
218 233 254
218 233 254
218 233 254
218 233 254
218 233 254
218 233 254
218 233 254
218 233 254
218 233 254
218 233 254
218 233 254
218 233 254
218 233 254
218 233 254
218 233 254
218 233 254
218 233 254
218 233 254
218 233 254
218 233 254
218 233 254
218 233 254
218 233 254
218 233 254
218 233 254
218 233 254
218 233 254
218 233 254
218 233 254
218 233 254
218 233 254
218 233 254
218 233 254
218 233 254
218 233 254
218 233 254
218 233 254
218 233 254
218 233 254
218 233 254
218 233 254
218 233 254
218 233 254
218 233 254
218 233 254
218 233 254
218 233 254
218 233 254
218 233 254
218 233 254
218 233 254
218 233 254
218 233 254
218 233 254
218 233 254
218 233 254
218 233 254
218 233 254
218 233 254
218 233 254
218 233 254
218 233 254
218 233 254
218 233 254
218 233 254
218 233 254
218 233 254
218 234 254
218 233 254
218 233 254
218 234 254
218 233 254
218 234 254
218 234 254
218 234 254
218 234 254
218 234 254
218 234 254
218 234 254
218 234 254
218 234 254
218 234 254
218 234 254
218 234 254
218 234 254
218 234 254
218 234 254
218 234 254
218 234 254
218 234 254
218 234 254
218 234 254
218 234 254
218 234 254
218 234 254
218 234 254
218 234 254
218 234 254
218 234 254
218 234 254
218 234 254
218 234 254
218 234 254
218 234 254
218 234 254
218 234 254
218 234 254
218 234 254
218 234 254
218 234 254
218 234 254
218 234 254
218 234 254
218 234 254
218 234 254
218 234 254
218 234 254
218 234 254
218 234 254
218 234 254
218 234 254
218 234 254
218 234 254
218 234 254
218 234 254
218 234 254
218 234 254
218 234 254
218 234 254
218 234 254
218 234 254
218 234 254
218 234 254
218 234 254
218 234 254
218 234 254
218 234 254
218 234 254
218 234 254
218 234 254
218 234 254
218 234 254
218 234 254
218 234 254
218 234 254
218 234 254
218 234 254
218 234 254
218 234 254
218 234 254
218 234 254
218 234 254
218 234 254
218 234 254
218 234 254
218 234 254
218 234 254
218 234 254
218 234 254
218 234 254
218 234 254
218 234 254
218 234 254
218 234 254
218 234 254
218 234 254
218 234 254
218 234 254
218 234 254
218 234 254
218 234 254
218 234 254
218 234 254
218 234 254
218 234 254
218 234 254
218 234 254
218 234 254
218 234 254
218 234 254
218 234 254
218 234 254
218 234 254
218 234 254
218 234 254
218 234 254
218 234 254
218 234 254
218 234 254
218 234 254
218 234 254
218 234 254
218 234 254
170 182 200
0 0 42
0 0 42
0 0 43
0 0 42
0 0 42
0 0 42
0 0 42
0 0 42
0 0 42
0 0 42
0 0 42
0 0 42
0 0 42
0 0 42
0 0 42
0 0 42
0 0 42
0 0 42
0 0 42
0 0 42
0 0 42
0 0 42
0 0 42
0 0 42
0 0 42
0 0 42
0 0 42
0 0 42
0 0 42
0 0 42
0 0 42
0 0 42
0 0 42
0 0 42
0 0 42
0 0 42
0 0 42
0 0 42
0 0 42
0 0 42
0 0 42
0 0 42
0 0 42
0 0 42
0 0 42
0 0 42
0 0 42
0 0 42
0 0 42
0 0 42
0 0 42
0 0 45
0 0 45
0 0 43
0 0 42
0 0 42
0 0 42
0 0 42
0 0 42
0 0 42
0 0 42
0 0 42
0 0 42
0 0 42
0 0 42
0 0 42
0 0 42
0 0 42
0 0 42
0 0 42
0 0 42
0 0 42
0 0 42
0 0 42
0 0 42
0 0 42
0 0 42
0 0 44
0 0 46
0 0 44
0 0 42
0 0 45
0 0 46
0 0 47
0 0 41
3 8 54
5 8 62
13 21 52
14 27 38
0 14 64
0 25 95
0 26 86
0 10 62
0 0 59
11 23 44
31 56 24
33 59 0
38 59 8
45 63 6
44 62 8
38 59 6
40 66 0
36 64 0
30 55 0
32 57 12
34 60 0
39 64 10
35 58 6
38 56 17
36 58 8
39 64 0
35 62 0
31 57 0
33 58 5
25 39 31
12 16 48
3 5 40
0 0 39
0 0 45
0 0 46
0 0 42
0 0 42
0 0 42
0 0 42
0 0 42
0 0 42
0 0 42
0 0 42
0 0 42
0 0 42
0 0 42
0 0 42
0 0 42
0 0 42
0 0 42
0 0 42
0 0 42
0 0 42
0 0 42
0 0 42
0 0 42
0 0 42
0 0 42
0 0 42
0 0 42
0 0 42
0 0 42
0 0 42
0 0 42
0 0 42
0 0 42
0 0 42
0 0 42
0 0 42
0 0 42
0 0 41
0 0 41
0 0 42
2 9 40
1 2 36
0 0 38
0 0 41
0 0 41
0 0 42
0 0 42
0 0 42
0 0 42
0 0 42
0 0 42
0 0 42
0 0 42
0 0 42
0 0 42
0 0 42
0 0 42
0 0 42
0 0 42
0 0 42
0 0 42
0 0 42
0 0 42
0 0 42
0 0 42
0 0 42
0 0 42
0 0 42
0 0 42
0 0 42
0 0 42
0 0 42
0 0 42
0 0 42
0 0 42
0 0 42
0 0 42
0 0 42
0 0 42
0 0 42
0 0 42
0 0 41
9 9 43
0 0 46
0 0 51
90 93 105
216 219 222
218 234 254
218 234 254
218 234 254
218 234 254
218 234 254
218 234 254
218 234 254
218 234 254
218 234 254
218 234 254
218 234 254
218 234 254
218 234 254
218 234 254
218 234 254
218 234 254
218 234 254
218 234 254
218 234 254
218 234 254
218 234 254
218 234 254
218 234 254
218 234 254
218 234 254
218 234 254
218 234 254
218 234 254
218 234 254
218 234 254
218 234 254
218 234 254
218 234 254
218 234 254
218 234 254
218 234 254
218 234 254
218 234 254
218 234 254
218 234 254
218 234 254
218 234 254
218 234 254
218 234 254
218 234 254
218 234 254
218 234 254
218 234 254
218 234 254
218 234 254
218 234 254
218 234 254
218 234 254
218 234 254
218 234 254
218 234 254
218 234 254
218 234 254
218 234 254
218 234 254
218 234 254
218 234 254
218 234 254
218 234 254
218 234 254
218 234 254
218 234 254
218 234 254
218 234 254
218 234 254
218 234 254
218 234 254
218 234 254
218 234 254
218 234 254
218 234 254
218 234 254
218 234 254
218 234 254
218 234 254
218 234 254
218 234 254
218 234 254
218 234 254
218 234 254
218 234 254
218 234 254
218 234 254
218 234 254
218 234 254
218 234 254
218 234 254
218 234 254
218 234 254
218 234 254
218 234 254
218 234 254
219 234 254
219 234 254
219 234 254
219 234 254
219 234 254
219 234 254
219 234 254
219 234 254
219 234 254
219 234 254
219 234 254
219 234 254
219 234 254
219 234 254
219 234 254
219 234 254
219 234 254
219 234 254
219 234 254
218 234 254
218 234 254
218 234 254
218 234 254
218 234 254
219 234 254
218 234 254
218 234 254
218 234 254
218 234 254
218 234 254
218 234 254
218 234 254
218 234 254
218 234 254
218 234 254
218 234 254
218 234 254
218 234 254
218 234 254
218 234 254
218 234 254
218 234 254
218 234 254
218 234 254
218 234 254
218 234 254
218 234 254
218 234 254
218 234 254
218 234 254
218 234 254
218 234 254
218 234 254
218 234 254
218 234 254
218 234 254
218 234 254
218 234 254
218 234 254
218 234 254
218 234 254
218 234 254
218 234 254
218 234 254
218 234 254
218 234 254
218 234 254
218 234 254
218 234 254
218 234 254
218 234 254
218 234 254
218 234 254
218 234 254
218 234 254
218 234 254
218 234 254
218 234 254
218 234 254
218 234 254
218 234 254
218 234 254
218 234 254
218 234 254
218 234 254
218 234 254
218 234 254
218 234 254
218 234 254
218 234 254
218 234 254
218 234 254
218 234 254
218 234 254
218 234 254
218 234 254
218 234 254
113 121 137
0 0 42
0 0 42
0 0 39
0 0 41
0 0 42
0 0 42
0 0 42
0 0 42
0 0 42
0 0 42
0 0 42
0 0 42
0 0 42
0 0 42
0 0 42
0 0 42
0 0 42
0 0 42
0 0 42
0 0 42
0 0 42
0 0 42
0 0 42
0 0 42
0 0 42
0 0 42
0 0 42
0 0 42
0 0 42
0 0 42
0 0 42
0 0 42
0 0 42
0 0 42
0 0 42
0 0 42
0 0 42
0 0 42
0 0 42
0 0 42
0 0 42
0 0 42
0 0 42
0 0 42
0 0 42
0 0 42
0 0 42
0 0 42
0 0 42
0 0 42
0 0 42
0 0 45
0 0 45
0 0 43
0 0 42
0 0 42
0 0 42
0 0 42
0 0 42
0 0 42
0 0 42
0 0 42
0 0 42
0 0 42
0 0 42
0 0 42
0 0 42
0 0 42
0 0 42
0 0 42
0 0 42
0 0 42
0 0 42
0 0 42
0 0 42
0 0 42
0 0 42
0 0 43
0 0 40
0 0 43
0 0 45
0 0 47
0 0 43
0 0 43
0 0 45
0 0 46
0 0 44
0 0 46
0 0 51
0 0 60
0 12 67
0 9 64
0 5 58
0 0 55
0 0 48
8 20 40
32 52 21
38 58 7
45 61 0
43 58 10
43 60 8
41 62 0
44 67 10
44 66 8
45 68 9
42 65 10
41 63 0
45 64 0
47 64 0
44 65 7
44 65 14
40 64 16
34 58 0
38 63 0
41 62 18
40 56 33
18 28 47
0 0 52
0 0 46
0 0 40
0 0 42
0 0 42
0 0 42
0 0 42
0 0 42
0 0 42
0 0 42
0 0 42
0 0 42
0 0 42
0 0 42
0 0 42
0 0 42
0 0 42
0 0 42
0 0 42
0 0 42
0 0 42
0 0 42
0 0 42
0 0 42
0 0 42
0 0 42
0 0 42
0 0 42
0 0 42
0 0 42
0 0 42
0 0 42
0 0 42
0 0 42
0 0 42
0 0 42
0 0 42
0 0 42
0 0 41
0 0 40
0 0 42
2 2 39
6 7 46
0 0 44
0 0 43
0 0 39
0 0 42
0 0 44
0 0 45
0 0 43
0 0 40
0 0 42
0 0 42
0 0 42
0 0 42
0 0 42
0 0 42
0 0 42
0 0 42
0 0 42
0 0 42
0 0 42
0 0 42
0 0 42
0 0 42
0 0 42
0 0 42
0 0 42
0 0 42
0 0 42
0 0 42
0 0 42
0 0 42
0 0 42
0 0 42
0 0 42
0 0 42
0 0 42
0 0 42
0 0 42
0 0 42
0 0 42
0 0 42
6 6 44
0 0 42
0 0 48
4 40 83
198 190 183
218 234 254
218 234 254
218 234 254
218 234 254
218 234 254
218 234 254
218 234 254
218 234 254
218 234 254
218 234 254
218 234 254
218 234 254
218 234 254
218 234 254
218 234 254
218 234 254
218 234 254
218 234 254
218 234 254
218 234 254
218 234 254
218 234 254
218 234 254
218 234 254
218 234 254
218 234 254
218 234 254
218 234 254
218 234 254
218 234 254
218 234 254
218 234 254
218 234 254
218 234 254
218 234 254
218 234 254
218 234 254
218 234 254
218 234 254
218 234 254
218 234 254
218 234 254
218 234 254
218 234 254
218 234 254
218 234 254
218 234 254
218 234 254
218 234 254
218 234 254
218 234 254
218 234 254
218 234 254
218 234 254
218 234 254
218 234 254
218 234 254
218 234 254
218 234 254
218 234 254
218 234 254
218 234 254
218 234 254
218 234 254
218 234 254
218 234 254
218 234 254
218 234 254
218 234 254
218 234 254
218 234 254
218 234 254
218 234 254
218 234 254
218 234 254
218 234 254
218 234 254
219 234 254
219 234 254
219 234 254
218 234 254
219 234 254
219 234 254
219 234 254
219 234 254
219 234 254
219 234 254
219 234 254
219 234 254
219 234 254
219 234 254
219 234 254
219 234 254
219 234 254
219 234 254
219 234 254
219 234 254
219 234 254
219 234 254
219 234 254
219 234 254
219 234 254
219 234 254
219 234 254
219 234 254
219 234 254
219 234 254
219 234 254
219 234 254
219 234 254
219 234 254
219 234 254
219 234 254
219 234 254
219 234 254
219 234 254
219 234 254
219 234 254
219 234 254
219 234 254
219 234 254
219 234 254
219 234 254
219 234 254
219 234 254
219 234 254
219 234 254
219 234 254
219 234 254
219 234 254
219 234 254
219 234 254
219 234 254
219 234 254
219 234 254
219 234 254
219 234 254
219 234 254
219 234 254
219 234 254
219 234 254
219 234 254
219 234 254
219 234 254
219 234 254
219 234 254
219 234 254
219 234 254
219 234 254
219 234 254
219 234 254
219 234 254
219 234 254
219 234 254
219 234 254
219 234 254
219 234 254
219 234 254
219 234 254
219 234 254
219 234 254
219 234 254
219 234 254
219 234 254
219 234 254
219 234 254
219 234 254
219 234 254
219 234 254
219 234 254
219 234 254
219 234 254
219 234 254
219 234 254
219 234 254
219 234 254
219 234 254
219 234 254
219 234 254
219 234 254
219 234 254
219 234 254
219 234 254
219 234 254
219 234 254
219 234 254
219 234 254
219 234 254
219 234 254
219 234 254
219 234 254
219 234 254
219 234 254
216 231 252
30 33 55
0 0 42
0 0 42
0 0 42
0 0 42
0 0 42
0 0 42
0 0 42
0 0 42
0 0 42
0 0 42
0 0 42
0 0 42
0 0 42
0 0 42
0 0 42
0 0 42
0 0 42
0 0 42
0 0 42
0 0 42
0 0 42
0 0 43
0 0 43
0 0 42
0 0 42
0 0 42
0 0 42
0 0 42
0 0 42
0 0 42
0 0 42
0 0 42
0 0 42
0 0 42
0 0 42
0 0 42
0 0 42
0 0 42
0 0 42
0 0 42
0 0 42
0 0 42
0 0 42
0 0 42
0 0 42
0 0 42
0 0 42
0 0 42
0 0 42
0 0 42
0 0 43
0 0 45
0 0 45
0 0 42
0 0 42
0 0 42
0 0 42
0 0 42
0 0 42
0 0 42
0 0 42
0 0 42
0 0 42
0 0 42
0 0 42
0 0 42
0 0 42
0 0 42
0 0 42
0 0 42
0 0 42
0 0 42
0 0 42
0 0 42
0 0 42
0 0 42
0 0 42
0 0 42
0 0 39
0 0 41
0 0 45
0 0 43
0 0 43
0 0 44
0 0 49
0 0 42
0 0 41
0 0 45
0 0 44
0 0 45
0 0 47
0 0 57
0 0 51
0 0 52
0 0 54
0 0 39
15 23 49
35 54 22
43 64 7
34 56 0
41 62 0
43 64 0
52 73 15
47 68 14
44 64 9
42 60 8
43 59 13
49 65 8
55 70 19
53 72 11
50 75 15
43 70 12
33 58 0
37 60 11
46 69 7
50 71 15
21 30 44
0 0 48
0 0 47
0 0 40
0 0 42
0 0 42
0 0 42
0 0 42
0 0 42
0 0 42
0 0 42
0 0 42
0 0 42
0 0 42
0 0 42
0 0 42
0 0 42
0 0 42
0 0 42
0 0 42
0 0 42
0 0 42
0 0 42
0 0 42
0 0 42
0 0 42
0 0 42
0 0 42
0 0 42
0 0 42
0 0 42
0 0 42
0 0 42
0 0 42
0 0 42
0 0 42
0 0 42
0 0 42
0 0 42
0 0 42
0 0 42
0 0 42
0 0 32
4 4 40
4 6 38
0 0 39
0 0 40
0 0 42
0 0 46
0 0 48
0 0 44
0 0 41
0 0 42
0 0 42
0 0 40
0 0 39
0 0 41
0 0 42
0 0 42
0 0 42
0 0 42
0 0 42
0 0 42
0 0 42
0 0 42
0 0 42
0 0 42
0 0 42
0 0 42
0 0 42
0 0 42
0 0 42
0 0 42
0 0 42
0 0 42
0 0 42
0 0 42
0 0 42
0 0 42
0 0 42
0 0 42
0 0 42
0 0 42
0 0 42
0 0 42
0 0 46
4 4 49
0 5 63
148 139 129
217 231 251
219 234 254
219 234 254
219 234 254
219 234 254
219 234 254
219 234 254
219 234 254
219 234 254
219 234 254
219 234 254
219 234 254
219 234 254
219 234 254
219 234 254
219 234 254
219 234 254
219 234 254
219 234 254
219 234 254
219 234 254
219 234 254
219 234 254
219 234 254
219 234 254
219 234 254
219 234 254
219 234 254
219 234 254
219 234 254
219 234 254
219 234 254
219 234 254
219 234 254
219 234 254
219 234 254
219 234 254
219 234 254
219 234 254
219 234 254
219 234 254
219 234 254
219 234 254
219 234 254
219 234 254
219 234 254
219 234 254
219 234 254
219 234 254
219 234 254
219 234 254
219 234 254
219 234 254
219 234 254
219 234 254
219 234 254
219 234 254
219 234 254
219 234 254
219 234 254
219 234 254
219 234 254
219 234 254
219 234 254
219 234 254
219 234 254
219 234 254
219 234 254
219 234 254
219 234 254
219 234 254
219 234 254
219 234 254
219 234 254
219 234 254
219 234 254
219 234 254
219 234 254
219 234 254
219 234 254
219 234 254
219 234 254
219 234 254
219 234 254
219 234 254
219 234 254
219 234 254
219 234 254
219 234 254
219 234 254
219 234 254
219 234 254
219 234 254
219 234 254
219 234 254
219 234 254
219 234 254
219 234 254
219 234 254
219 234 254
219 234 254
219 234 254
219 234 254
219 234 254
219 234 254
219 234 254
219 234 254
219 234 254
219 234 254
219 234 254
219 234 254
219 234 254
219 234 254
219 234 254
219 234 254
219 234 254
219 234 254
219 234 254
219 234 254
219 234 254
219 234 254
219 234 254
219 234 254
219 234 254
219 234 254
219 234 254
219 234 254
219 234 254
219 234 254
219 234 254
219 234 254
219 234 254
219 234 254
219 234 254
219 234 254
219 234 254
219 234 254
219 234 254
219 234 254
219 234 254
219 234 254
219 234 254
219 234 254
219 234 254
219 234 254
219 234 254
219 234 254
219 234 254
219 234 254
219 234 254
219 234 254
219 234 254
219 234 254
219 234 254
219 234 254
219 234 254
219 234 254
219 234 254
219 234 254
219 234 254
219 234 254
219 234 254
219 234 254
219 234 254
219 234 254
219 234 254
219 234 254
219 234 254
219 234 254
219 234 254
219 234 254
219 234 254
219 234 254
219 234 254
219 234 254
219 234 254
219 234 254
219 234 254
219 234 254
219 234 254
219 234 254
219 234 254
219 234 254
219 234 254
219 234 254
219 234 254
219 234 254
219 234 254
219 234 254
219 234 254
219 234 254
219 234 254
219 234 254
193 206 226
0 0 42
0 0 42
0 0 42
0 0 42
0 0 42
0 0 42
0 0 42
0 0 42
0 0 42
0 0 42
0 0 42
0 0 42
0 0 42
0 0 42
0 0 42
0 0 42
0 0 42
0 0 42
0 0 42
0 0 42
0 0 42
0 0 42
0 0 45
0 0 43
0 0 42
0 0 42
0 0 42
0 0 42
0 0 42
0 0 42
0 0 42
0 0 42
0 0 42
0 0 42
0 0 42
0 0 42
0 0 42
0 0 42
0 0 42
0 0 42
0 0 42
0 0 42
0 0 42
0 0 42
0 0 42
0 0 42
0 0 42
0 0 42
0 0 42
0 0 42
0 0 42
0 0 43
0 0 45
0 0 45
0 0 42
0 0 42
0 0 42
0 0 42
0 0 42
0 0 42
0 0 42
0 0 42
0 0 42
0 0 42
0 0 42
0 0 42
0 0 42
0 0 42
0 0 42
0 0 42
0 0 42
0 0 42
0 0 42
0 0 42
0 0 42
0 0 42
0 0 42
0 0 42
0 0 42
0 0 46
0 0 42
0 0 39
0 0 40
0 0 42
0 0 44
0 0 47
0 0 37
0 0 45
0 0 50
0 0 42
0 0 46
0 0 53
0 0 59
0 0 53
0 0 49
0 0 49
0 0 48
0 0 45
7 15 47
30 50 36
37 65 21
37 62 13
39 64 14
45 66 15
42 65 0
39 62 0
40 61 0
46 62 10
51 63 20
54 71 14
50 70 17
50 76 13
42 73 9
36 67 7
38 67 0
43 64 9
45 65 20
22 33 33
0 2 46
0 0 37
0 0 44
0 0 42
0 0 42
0 0 42
0 0 42
0 0 42
0 0 42
0 0 42
0 0 42
0 0 42
0 0 42
0 0 42
0 0 42
0 0 42
0 0 42
0 0 42
0 0 42
0 0 42
0 0 42
0 0 42
0 0 42
0 0 42
0 0 42
0 0 42
0 0 42
0 0 42
0 0 42
0 0 42
0 0 42
0 0 42
0 0 42
0 0 42
0 0 42
0 0 42
0 0 42
0 0 42
0 0 42
0 0 42
0 0 42
0 0 42
7 9 40
12 15 37
0 0 41
0 0 46
0 0 42
0 0 47
0 0 51
0 0 46
0 0 43
0 0 44
0 0 44
0 0 42
0 0 40
0 0 40
0 0 42
0 0 42
0 0 42
0 0 42
0 0 42
0 0 42
0 0 42
0 0 42
0 0 42
0 0 42
0 0 42
0 0 42
0 0 42
0 0 42
0 0 42
0 0 42
0 0 42
0 0 42
0 0 42
0 0 42
0 0 42
0 0 42
0 0 42
0 0 42
0 0 42
0 0 42
0 0 42
0 0 42
0 0 41
11 12 48
0 5 57
99 111 114
207 213 223
219 234 254
219 234 254
219 234 254
219 234 254
219 234 254
219 234 254
219 234 254
219 234 254
219 234 254
219 234 254
219 234 254
219 234 254
219 234 254
219 234 254
219 234 254
219 234 254
219 234 254
219 234 254
219 234 254
219 234 254
219 234 254
219 234 254
219 234 254
219 234 254
219 234 254
219 234 254
219 234 254
219 234 254
219 234 254
219 234 254
219 234 254
219 234 254
219 234 254
219 234 254
219 234 254
219 234 254
219 234 254
219 234 254
219 234 254
219 234 254
219 234 254
219 234 254
219 234 254
219 234 254
219 234 254
219 234 254
219 234 254
219 234 254
219 234 254
219 234 254
219 234 254
219 234 254
219 234 254
219 234 254
219 234 254
219 234 254
219 234 254
219 234 254
219 234 254
219 234 254
219 234 254
219 234 254
219 234 254
219 234 254
219 234 254
219 234 254
219 234 254
219 234 254
219 234 254
219 234 254
219 234 254
219 234 254
219 234 254
219 234 254
219 234 254
219 234 254
219 234 254
219 234 254
219 234 254
219 234 254
219 234 254
219 234 254
219 234 254
219 234 254
219 234 254
219 234 254
219 234 254
219 234 254
219 234 254
219 234 254
219 234 254
219 234 254
219 234 254
219 234 254
219 234 254
219 234 254
219 234 254
219 234 254
219 234 254
219 234 254
219 234 254
219 234 254
219 234 254
219 234 254
219 234 254
219 234 254
219 234 254
219 234 254
219 234 254
219 234 254
219 234 254
219 234 254
219 234 254
219 234 254
219 234 254
219 234 254
219 234 254
219 234 254
219 234 254
219 234 254
219 234 254
219 234 254
219 234 254
219 234 254
219 234 254
219 234 254
219 234 254
219 234 254
219 234 254
219 234 254
219 234 254
219 234 254
219 234 254
219 234 254
219 234 254
219 234 254
219 234 254
219 234 254
219 234 254
219 234 254
219 234 254
219 234 254
219 234 254
219 234 254
219 234 254
219 234 254
219 234 254
219 234 254
219 234 254
219 234 254
219 234 254
219 234 254
219 234 254
219 234 254
219 234 254
219 234 254
219 234 254
219 234 254
219 234 254
219 234 254
219 234 254
219 234 254
219 234 254
219 234 254
219 234 254
219 234 254
219 234 254
219 234 254
219 234 254
219 234 254
219 234 254
219 234 254
219 234 254
219 234 254
219 234 254
219 234 254
219 234 254
219 234 254
219 234 254
219 234 254
219 234 254
219 234 254
219 234 254
219 234 254
219 234 254
219 234 254
219 234 254
219 234 254
219 234 254
219 234 254
219 234 254
219 234 254
146 157 173
0 0 42
0 0 42
0 0 42
0 0 42
0 0 42
0 0 42
0 0 42
0 0 42
0 0 42
0 0 42
0 0 42
0 0 42
0 0 42
0 0 42
0 0 42
0 0 42
0 0 42
0 0 42
0 0 42
0 0 42
0 0 42
0 0 42
0 0 45
0 0 43
0 0 42
0 0 42
0 0 42
0 0 42
0 0 42
0 0 42
0 0 42
0 0 42
0 0 42
0 0 42
0 0 42
0 0 42
0 0 42
0 0 43
0 0 43
0 0 42
0 0 42
0 0 42
0 0 43
0 0 43
0 0 42
0 0 42
0 0 42
0 0 42
0 0 42
0 0 42
0 0 42
0 0 44
0 0 45
0 0 44
0 0 42
0 0 42
0 0 43
0 0 44
0 0 44
0 0 42
0 0 42
0 0 42
0 0 42
0 0 42
0 0 41
0 0 39
0 0 39
0 0 40
0 0 42
0 0 42
0 0 42
0 0 42
0 0 42
0 0 42
0 0 42
0 0 42
0 0 42
0 0 42
0 0 42
0 0 40
0 0 42
0 0 42
0 0 44
0 0 42
0 0 42
0 0 45
0 0 45
0 0 45
0 0 45
0 0 45
0 0 45
0 0 50
0 0 54
0 0 53
0 0 51
0 0 49
0 0 46
0 0 43
0 0 46
0 0 50
9 15 52
9 20 47
18 33 46
31 49 26
34 60 8
36 66 0
38 74 7
45 69 21
44 69 19
55 72 22
55 73 23
48 75 11
48 81 18
45 79 14
50 81 11
46 70 2
36 57 24
8 15 37
0 0 48
0 0 44
0 0 38
0 0 41
0 0 42
0 0 42
0 0 42
0 0 42
0 0 42
0 0 42
0 0 42
0 0 42
0 0 42
0 0 42
0 0 42
0 0 43
0 0 42
0 0 42
0 0 42
0 0 41
0 0 39
0 0 42
0 0 38
0 0 42
0 0 42
0 0 41
0 0 43
0 0 45
0 0 42
0 0 38
0 0 44
0 0 46
0 0 44
0 0 42
0 0 42
0 0 42
0 0 42
0 0 42
0 0 42
0 0 40
0 0 41
0 0 43
0 2 42
0 8 45
0 0 42
0 0 44
0 0 42
0 0 45
0 0 49
0 0 47
0 0 44
0 0 47
0 0 47
0 0 45
0 0 44
0 0 41
0 0 42
0 0 42
0 0 42
0 0 42
0 0 42
0 0 42
0 0 42
0 0 42
0 0 42
0 0 42
0 0 42
0 0 42
0 0 42
0 0 42
0 0 42
0 0 42
0 0 42
0 0 42
0 0 42
0 0 42
0 0 42
0 0 42
0 0 42
0 0 42
0 0 42
0 0 42
0 0 42
0 0 42
0 0 42
6 8 45
0 0 52
83 85 95
187 189 186
219 234 254
219 234 254
219 234 254
219 234 254
219 234 254
219 234 254
219 234 254
219 234 254
219 234 254
219 234 254
219 234 254
219 234 254
219 234 254
219 234 254
219 234 254
219 234 254
219 234 254
219 234 254
219 234 254
219 234 254
219 234 254
219 234 254
219 234 254
219 234 254
219 234 254
219 234 254
219 234 254
219 234 254
219 234 254
219 234 254
219 234 254
219 234 254
219 234 254
219 234 254
219 234 254
219 234 254
219 234 254
219 234 254
219 234 254
219 234 254
219 234 254
219 234 254
219 234 254
219 234 254
219 234 254
219 234 254
219 234 254
219 234 254
219 234 254
219 234 254
219 234 254
219 234 254
219 234 254
219 234 254
219 234 254
219 234 254
219 234 254
219 234 254
219 234 254
219 234 254
219 234 254
219 234 254
219 234 254
219 234 254
219 234 254
219 234 254
219 234 254
219 234 254
219 234 254
219 234 254
219 234 254
219 234 254
219 234 254
219 234 254
219 234 254
219 234 254
219 234 254
219 234 254
219 234 254
219 234 254
219 234 254
219 234 254
219 234 254
219 234 254
219 234 254
219 234 254
219 234 254
219 234 254
219 234 254
219 234 254
219 234 254
219 234 254
219 234 254
219 234 254
219 234 254
219 234 254
219 234 254
219 234 254
219 234 254
219 234 254
219 234 254
219 234 254
219 234 254
219 234 254
219 234 254
219 234 254
219 234 254
219 234 254
219 234 254
219 234 254
219 234 254
219 234 254
219 234 254
219 234 254
219 234 254
219 234 254
219 234 254
219 234 254
219 234 254
219 234 254
219 234 254
219 234 254
219 234 254
219 234 254
219 234 254
219 234 254
219 234 254
219 234 254
219 234 254
219 234 254
219 234 254
219 234 254
219 234 254
219 234 254
219 234 254
219 234 254
219 234 254
219 234 254
219 234 254
219 234 254
219 234 254
219 234 254
219 234 254
219 234 254
219 234 254
219 234 254
219 234 254
219 234 254
219 234 254
219 234 254
219 234 254
219 234 254
219 234 254
219 234 254
219 234 254
219 234 254
219 234 254
219 234 254
219 234 254
219 234 254
219 234 254
219 234 254
219 234 254
219 234 254
219 234 254
219 234 254
219 234 254
219 234 254
219 234 254
219 234 254
219 234 254
219 234 254
219 234 254
219 234 254
219 234 254
219 234 254
219 234 254
219 234 254
219 234 254
219 234 254
219 234 254
219 234 254
219 234 254
219 234 254
219 234 254
219 234 254
219 234 254
219 234 254
219 234 254
219 234 254
219 234 254
219 234 254
84 90 106
0 0 42
0 0 42
0 0 42
0 0 42
0 0 42
0 0 42
0 0 42
0 0 42
0 0 42
0 0 42
0 0 42
0 0 42
0 0 42
0 0 42
0 0 42
0 0 42
0 0 42
0 0 42
0 0 42
0 0 42
0 0 42
0 0 42
0 0 42
0 0 42
0 0 42
0 0 42
0 0 44
0 0 45
0 0 45
0 0 45
0 0 42
0 0 42
0 0 42
0 0 42
0 0 42
0 0 42
0 0 43
0 0 45
0 0 45
0 0 42
0 0 42
0 0 42
0 0 45
0 0 44
0 0 42
0 0 42
0 0 42
0 0 42
0 0 42
0 0 42
0 0 42
0 0 43
0 0 44
0 0 42
0 0 42
0 0 42
0 0 43
0 0 45
0 0 45
0 0 42
0 0 42
0 0 42
0 0 42
0 0 42
0 0 42
0 0 41
0 0 39
0 0 40
0 0 42
0 0 42
0 0 42
0 0 42
0 0 42
0 0 42
0 0 42
0 0 42
0 0 42
0 0 42
0 0 42
0 0 41
0 0 42
0 0 42
0 0 42
0 0 42
0 0 42
0 0 45
0 0 45
0 0 45
0 0 45
0 0 45
0 0 45
0 0 51
0 0 52
0 0 50
0 0 48
0 0 48
0 0 47
0 0 41
0 0 43
0 0 46
0 0 49
0 0 48
0 0 49
5 12 51
9 18 52
17 28 45
17 37 28
22 47 51
27 66 48
51 71 20
53 71 18
53 73 24
50 81 10
57 92 22
56 89 22
49 78 3
38 60 17
1 9 36
0 0 44
0 0 43
0 0 41
0 0 41
0 0 42
0 0 42
0 0 42
0 0 42
0 0 42
0 0 42
0 0 42
0 0 42
0 0 42
0 0 42
0 0 42
0 0 42
0 0 42
0 0 42
0 0 41
0 0 40
0 0 43
0 0 42
0 0 40
0 0 42
0 0 39
0 0 44
0 0 40
0 0 38
0 0 41
0 0 46
0 0 40
0 0 41
0 0 43
0 0 43
0 0 42
0 0 42
0 0 42
0 0 42
0 0 42
0 0 41
0 0 42
0 0 43
0 0 45
0 4 40
0 0 37
0 0 46
0 0 43
0 0 45
0 0 45
0 0 45
0 0 45
0 0 45
0 0 49
0 0 49
0 0 50
0 0 43
0 0 42
0 0 42
0 0 42
0 0 42
0 0 42
0 0 42
0 0 42
0 0 42
0 0 42
0 0 42
0 0 42
0 0 42
0 0 42
0 0 42
0 0 42
0 0 42
0 0 42
0 0 42
0 0 42
0 0 42
0 0 42
0 0 42
0 0 42
0 0 42
0 0 42
0 0 42
0 0 42
0 0 42
0 0 42
8 12 47
0 0 50
15 28 73
151 155 130
219 234 254
219 234 254
219 234 254
219 234 254
219 234 254
219 234 254
219 234 254
219 234 254
219 234 254
219 234 254
219 234 254
219 234 254
219 234 254
219 234 254
219 234 254
219 234 254
219 234 254
219 234 254
219 234 254
219 234 254
219 234 254
219 234 254
219 234 254
219 234 254
219 234 254
219 234 254
219 234 254
219 234 254
219 234 254
219 234 254
219 234 254
219 234 254
219 234 254
219 234 254
219 234 254
219 234 254
219 234 254
219 234 254
219 234 254
219 234 254
219 234 254
219 234 254
219 234 254
219 234 254
219 234 254
219 234 254
219 234 254
219 234 254
219 234 254
219 234 254
219 234 254
219 234 254
219 234 254
219 234 254
219 234 254
219 234 254
219 234 254
219 234 254
219 234 254
219 234 254
219 234 254
219 234 254
219 234 254
219 234 254
219 234 254
219 234 254
219 234 254
219 234 254
219 234 254
219 234 254
219 234 254
219 234 254
219 234 254
219 234 254
219 234 254
219 234 254
219 234 254
219 234 254
219 234 254
219 234 254
219 234 254
219 234 254
219 234 254
219 234 254
219 234 254
219 234 254
219 234 254
219 234 254
219 234 254
219 234 254
219 234 254
219 234 254
219 234 254
219 234 254
219 234 254
219 234 254
219 234 254
219 234 254
219 234 254
219 234 254
219 234 254
219 234 254
219 234 254
219 234 254
219 234 254
219 234 254
219 234 254
219 234 254
219 234 254
219 234 254
219 234 254
219 234 254
219 234 254
219 234 254
219 234 254
219 234 254
219 234 254
219 234 254
219 234 254
219 234 254
219 234 254
219 234 254
219 234 254
219 234 254
219 234 254
219 234 254
219 234 254
219 234 254
219 234 254
219 234 254
219 234 254
219 234 254
219 234 254
219 234 254
219 234 254
219 234 254
219 234 254
219 234 254
219 234 254
219 234 254
219 234 254
219 234 254
219 234 254
219 234 254
219 234 254
219 234 254
219 234 254
219 234 254
219 234 254
219 234 254
219 234 254
219 234 254
219 234 254
219 234 254
219 234 254
219 234 254
219 234 254
219 234 254
219 234 254
219 234 254
219 234 254
219 234 254
219 234 254
219 234 254
219 234 254
219 234 254
219 234 254
219 234 254
219 234 254
219 234 254
219 234 254
219 234 254
219 234 254
219 234 254
219 234 254
219 234 254
219 234 254
219 234 254
219 234 254
219 234 254
219 234 254
219 234 254
219 234 254
219 234 254
219 234 254
219 234 254
219 234 254
219 234 254
219 234 254
219 234 254
219 234 254
199 213 232
0 0 42
0 0 42
0 0 42
0 0 42
0 0 42
0 0 42
0 0 42
0 0 42
0 0 42
0 0 42
0 0 42
0 0 45
0 0 42
0 0 42
0 0 42
0 0 42
0 0 42
0 0 42
0 0 42
0 0 42
0 0 42
0 0 42
0 0 42
0 0 42
0 0 42
0 0 42
0 0 42
0 0 45
0 0 45
0 0 45
0 0 45
0 0 42
0 0 42
0 0 42
0 0 42
0 0 42
0 0 42
0 0 43
0 0 45
0 0 44
0 0 42
0 0 42
0 0 43
0 0 45
0 0 44
0 0 42
0 0 42
0 0 42
0 0 42
0 0 42
0 0 42
0 0 42
0 0 42
0 0 42
0 0 42
0 0 42
0 0 44
0 0 44
0 0 45
0 0 45
0 0 42
0 0 42
0 0 42
0 0 42
0 0 42
0 0 42
0 0 42
0 0 41
0 0 42
0 0 42
0 0 42
0 0 42
0 0 42
0 0 42
0 0 42
0 0 42
0 0 42
0 0 42
0 0 42
0 0 42
0 0 42
0 0 42
0 0 42
0 0 42
0 0 42
0 0 43
0 0 45
0 0 45
0 0 45
0 0 45
0 0 45
0 0 45
0 0 47
0 0 47
0 0 45
0 0 45
0 0 47
0 0 47
0 0 46
0 0 45
0 0 45
0 0 47
0 0 51
0 0 52
0 0 48
0 0 58
0 0 55
0 0 44
0 7 51
15 37 43
48 70 20
61 80 30
52 71 18
59 87 19
64 99 27
61 96 33
55 90 22
37 60 35
8 15 40
0 0 44
0 0 40
0 0 41
0 0 42
0 0 42
0 0 42
0 0 42
0 0 42
0 0 42
0 0 42
0 0 42
0 0 42
0 0 42
0 0 42
0 0 42
0 0 41
0 0 42
0 0 42
0 0 42
0 0 41
0 0 39
0 0 36
0 1 43
3 4 49
4 4 36
0 0 44
0 0 41
0 0 40
0 0 42
0 0 46
0 0 43
0 0 39
0 0 45
0 0 45
0 0 43
0 0 43
0 0 44
0 0 43
0 0 41
0 0 40
0 0 42
0 0 41
0 0 46
0 0 44
0 0 41
0 0 49
0 0 42
0 0 47
0 0 45
0 0 45
0 0 45
0 0 46
0 0 48
0 0 47
0 0 47
0 0 43
0 0 42
0 0 42
0 0 42
0 0 42
0 0 42
0 0 42
0 0 42
0 0 42
0 0 42
0 0 42
0 0 42
0 0 42
0 0 42
0 0 42
0 0 42
0 0 42
0 0 42
0 0 42
0 0 42
0 0 42
0 0 42
0 0 42
0 0 42
0 0 42
0 0 42
0 0 42
0 0 42
0 0 42
0 0 42
0 0 42
0 0 48
0 4 56
112 123 80
207 221 237
219 234 254
219 234 254
219 234 254
219 234 254
219 234 254
219 234 254
219 234 254
219 234 254
219 234 254
219 234 254
219 234 254
219 234 254
219 234 254
219 234 254
219 234 254
219 234 254
219 234 254
219 234 254
219 234 254
219 234 254
219 234 254
219 234 254
219 234 254
219 234 254
219 234 254
219 234 254
219 234 254
219 234 254
219 234 254
219 234 254
219 234 254
219 234 254
219 234 254
219 234 254
219 234 254
219 234 254
219 234 254
219 234 254
219 234 254
219 234 254
219 234 254
219 234 254
219 234 254
219 234 254
219 234 254
219 234 254
219 234 254
219 234 254
219 234 254
219 234 254
219 234 254
219 234 254
219 234 254
219 234 254
219 234 254
219 234 254
219 234 254
219 234 254
219 234 254
219 234 254
219 234 254
219 234 254
219 234 254
219 234 254
219 234 254
219 234 254
219 234 254
219 234 254
219 234 254
219 234 254
219 234 254
219 234 254
219 234 254
219 234 254
219 234 254
219 234 254
219 234 254
219 234 254
219 234 254
219 234 254
219 234 254
219 234 254
219 234 254
219 234 254
219 234 254
219 234 254
219 234 254
219 234 254
219 234 254
219 234 254
219 234 254
219 234 254
219 234 254
219 234 254
219 234 254
219 234 254
219 234 254
219 234 254
219 234 254
219 234 254
219 234 254
219 234 254
219 234 254
219 234 254
219 234 254
219 234 254
219 234 254
219 234 254
219 234 254
219 234 254
219 234 254
219 234 254
219 234 254
219 234 254
219 234 254
219 234 254
219 234 254
219 234 254
219 234 254
219 234 254
219 234 254
219 234 254
219 234 254
219 234 254
219 234 254
219 234 254
219 234 254
219 234 254
219 234 254
219 234 254
219 234 254
219 234 254
219 234 254
219 234 254
219 234 254
219 234 254
219 234 254
219 234 254
219 234 254
219 234 254
219 234 254
219 234 254
219 234 254
219 234 254
219 234 254
219 234 254
219 234 254
219 234 254
219 234 254
219 234 254
219 234 254
219 234 254
219 234 254
219 234 254
219 234 254
219 234 254
219 234 254
219 234 254
219 234 254
219 234 254
219 234 254
219 234 254
219 234 254
219 234 254
219 234 254
219 234 254
219 234 254
219 234 254
219 234 254
219 234 254
219 234 254
219 234 254
219 234 254
219 234 254
219 234 254
219 234 254
219 234 254
219 234 254
219 234 254
219 234 254
219 234 254
219 234 254
219 234 254
219 234 254
219 234 254
219 234 254
219 234 254
219 234 254
219 234 254
219 234 254
179 191 210
0 0 42
0 0 42
0 0 42
0 0 42
0 0 42
0 0 42
0 0 42
0 0 42
0 0 42
0 0 42
0 0 42
0 0 45
0 0 42
0 0 42
0 0 42
0 0 42
0 0 42
0 0 42
0 0 42
0 0 42
0 0 42
0 0 42
0 0 42
0 0 42
0 0 42
0 0 42
0 0 42
0 0 45
0 0 45
0 0 45
0 0 44
0 0 42
0 0 42
0 0 42
0 0 42
0 0 43
0 0 43
0 0 44
0 0 45
0 0 44
0 0 42
0 0 42
0 0 43
0 0 45
0 0 43
0 0 42
0 0 42
0 0 42
0 0 42
0 0 42
0 0 42
0 0 42
0 0 42
0 0 42
0 0 42
0 0 42
0 0 42
0 0 42
0 0 42
0 0 42
0 0 45
0 0 45
0 0 44
0 0 42
0 0 42
0 0 42
0 0 42
0 0 42
0 0 42
0 0 42
0 0 42
0 0 42
0 0 42
0 0 42
0 0 42
0 0 42
0 0 42
0 0 42
0 0 42
0 0 42
0 0 42
0 0 42
0 0 42
0 0 42
0 0 43
0 0 45
0 0 45
0 0 45
0 0 45
0 0 45
0 0 45
0 0 45
0 0 45
0 0 46
0 0 45
0 0 45
0 0 45
0 0 46
0 0 50
0 0 48
0 0 45
0 0 47
0 0 51
0 0 52
0 6 58
0 21 70
0 15 60
0 0 51
0 0 50
0 0 43
28 39 40
61 82 38
59 82 27
52 82 20
64 100 30
66 102 34
62 97 26
43 67 42
5 10 41
0 0 40
0 0 42
0 0 41
0 0 41
0 0 42
0 0 42
0 0 42
0 0 42
0 0 42
0 0 42
0 0 42
0 0 42
0 0 42
0 0 42
0 0 42
0 0 40
0 0 41
0 0 40
0 0 41
0 0 41
0 0 41
0 0 49
39 37 57
88 81 68
56 55 53
0 0 41
20 21 57
10 9 39
0 0 41
0 6 42
0 0 48
0 0 45
0 0 42
0 0 44
0 0 43
0 0 42
0 0 44
0 0 46
0 0 44
0 0 43
0 0 44
0 0 41
0 0 40
0 0 39
0 0 46
0 0 45
0 0 39
0 0 45
0 0 44
0 0 43
0 0 45
0 0 45
0 0 47
0 0 46
0 0 45
0 0 43
0 0 42
0 0 42
0 0 42
0 0 42
0 0 42
0 0 42
0 0 42
0 0 42
0 0 42
0 0 42
0 0 42
0 0 42
0 0 42
0 0 42
0 0 42
0 0 42
0 0 42
0 0 42
0 0 42
0 0 42
0 0 42
0 0 42
0 0 42
0 0 42
0 0 42
0 0 42
0 0 42
0 0 42
0 0 42
0 0 42
0 0 47
0 0 47
71 86 69
175 190 193
219 234 254
219 234 254
219 234 254
219 234 254
219 234 254
219 234 254
219 234 254
219 234 254
219 234 254
219 234 254
219 234 254
219 234 254
219 234 254
219 234 254
219 234 254
219 234 254
219 234 254
219 234 254
219 234 254
219 234 254
219 234 254
219 234 254
219 234 254
219 234 254
219 234 254
219 234 254
219 234 254
219 234 254
219 234 254
219 234 254
219 234 254
219 234 254
219 234 254
219 234 254
219 234 254
219 234 254
219 234 254
219 234 254
219 234 254
219 234 254
219 234 254
219 234 254
219 234 254
219 234 254
219 234 254
219 234 254
219 234 254
219 234 254
219 234 254
219 234 254
219 234 254
219 234 254
219 234 254
219 234 254
219 234 254
219 234 254
219 234 254
219 234 254
219 234 254
219 234 254
219 234 254
219 234 254
219 234 254
219 234 254
219 234 254
219 234 254
219 234 254
219 234 254
219 234 254
219 234 254
219 234 254
219 234 254
219 234 254
219 234 254
219 234 254
219 234 254
219 234 254
219 234 254
219 234 254
219 234 254
219 234 254
219 234 254
219 234 254
219 234 254
219 234 254
219 234 254
219 234 254
219 234 254
219 234 254
219 234 254
219 234 254
219 234 254
219 234 254
219 234 254
219 234 254
219 234 254
219 234 254
219 234 254
219 234 254
219 234 254
219 234 254
219 234 254
219 234 254
219 234 254
219 234 254
219 234 254
219 234 254
219 234 254
219 234 254
219 234 254
219 234 254
219 234 254
219 234 254
219 234 254
219 234 254
219 234 254
219 234 254
219 234 254
219 234 254
219 234 254
219 234 254
219 234 254
219 234 254
219 234 254
219 234 254
219 234 254
219 234 254
219 234 254
219 234 254
219 234 254
219 234 254
219 234 254
219 234 254
219 234 254
219 234 254
219 234 254
219 234 254
219 234 254
219 234 254
219 234 254
219 234 254
219 234 254
219 234 254
219 234 254
219 234 254
219 234 254
219 234 254
219 234 254
219 234 254
219 234 254
219 234 254
219 234 254
219 234 254
219 234 254
219 234 254
219 234 254
219 234 254
219 234 254
219 234 254
219 234 254
219 234 254
219 234 254
219 234 254
219 234 254
219 234 254
219 234 254
219 234 254
219 234 254
219 234 254
219 234 254
219 234 254
219 234 254
219 234 254
219 234 254
219 234 254
219 234 254
219 234 254
219 234 254
219 234 254
219 234 254
219 234 254
219 234 254
219 234 254
219 234 254
219 234 254
219 234 254
219 234 254
219 234 254
219 234 254
219 234 254
129 138 154
0 0 42
0 0 42
0 0 42
0 0 42
0 0 42
0 0 42
0 0 42
0 0 42
0 0 42
0 0 42
0 0 43
0 0 44
0 0 42
0 0 42
0 0 42
0 0 42
0 0 42
0 0 42
0 0 42
0 0 42
0 0 42
0 0 44
0 0 44
0 0 44
0 0 44
0 0 42
0 0 43
0 0 45
0 0 45
0 0 45
0 0 44
0 0 42
0 0 42
0 0 42
0 0 43
0 0 45
0 0 45
0 0 45
0 0 45
0 0 43
0 0 42
0 0 42
0 0 44
0 0 45
0 0 43
0 0 42
0 0 42
0 0 42
0 0 42
0 0 42
0 0 42
0 0 42
0 0 42
0 0 42
0 0 42
0 0 42
0 0 42
0 0 42
0 0 42
0 0 42
0 0 45
0 0 45
0 0 43
0 0 42
0 0 42
0 0 42
0 0 42
0 0 42
0 0 42
0 0 42
0 0 42
0 0 42
0 0 42
0 0 42
0 0 42
0 0 42
0 0 42
0 0 42
0 0 42
0 0 42
0 0 42
0 0 42
0 0 42
0 0 42
0 0 44
0 0 45
0 0 45
0 0 45
0 0 45
0 0 45
0 0 45
0 0 45
0 0 44
0 0 45
0 0 45
0 0 45
0 0 46
0 0 45
0 0 46
0 0 46
0 0 47
0 0 52
0 0 54
0 0 57
0 10 63
0 35 91
0 26 81
0 0 48
0 0 48
0 0 47
7 9 49
28 42 55
42 67 18
23 46 15
48 83 22
60 95 30
58 93 24
39 59 41
0 0 39
0 0 43
0 0 40
0 0 43
0 0 42
0 0 42
0 0 42
0 0 42
0 0 42
0 0 42
0 0 42
0 0 42
0 0 42
0 0 42
0 0 42
0 0 42
0 0 45
0 0 43
0 0 41
0 0 41
0 0 41
0 0 45
25 27 54
78 78 62
129 119 87
79 75 86
2 2 54
65 68 66
46 47 49
0 0 44
0 9 43
0 0 42
0 0 45
0 0 43
0 0 45
0 0 45
0 0 45
0 0 45
0 0 49
0 0 50
0 0 47
0 0 44
0 0 44
0 0 43
0 0 41
0 0 48
0 0 43
0 0 46
0 0 45
0 0 43
0 0 42
0 0 45
0 0 46
0 0 47
0 0 47
0 0 46
0 0 44
0 0 43
0 0 42
0 0 42
0 0 44
0 0 43
0 0 42
0 0 42
0 0 42
0 0 42
0 0 42
0 0 42
0 0 42
0 0 42
0 0 42
0 0 42
0 0 42
0 0 42
0 0 42
0 0 42
0 0 42
0 0 42
0 0 42
0 0 42
0 0 42
0 0 42
0 0 42
0 0 42
0 0 42
0 0 42
0 0 42
0 0 46
0 0 47
20 45 64
140 159 150
219 234 254
219 234 254
219 234 254
219 234 254
219 234 254
219 234 254
219 234 254
219 234 254
219 234 254
219 234 254
219 234 254
219 234 254
219 234 254
219 234 254
219 234 254
219 234 254
219 234 254
219 234 254
219 234 254
219 234 254
219 234 254
219 234 254
219 234 254
219 234 254
219 234 254
219 234 254
219 234 254
219 234 254
219 234 254
219 234 254
219 234 254
219 234 254
219 234 254
219 234 254
219 234 254
219 234 254
219 234 254
219 234 254
219 234 254
219 234 254
219 234 254
219 234 254
219 234 254
219 234 254
219 234 254
219 234 254
219 234 254
219 234 254
219 234 254
219 234 254
219 234 254
219 234 254
219 234 254
219 234 254
219 234 254
219 234 254
219 234 254
219 234 254
219 234 254
219 234 254
219 234 254
219 234 254
219 234 254
219 234 254
219 234 254
219 234 254
219 234 254
219 234 254
219 234 254
219 234 254
219 234 254
219 234 254
219 234 254
219 234 254
219 234 254
219 234 254
219 234 254
219 234 254
219 234 254
219 234 254
219 234 254
219 234 254
219 234 254
219 234 254
219 234 254
219 234 254
219 234 254
219 234 254
219 234 254
219 234 254
219 234 254
219 234 254
219 234 254
219 234 254
219 234 254
219 234 254
219 234 254
219 234 254
219 234 254
219 234 254
219 234 254
219 234 254
219 234 254
219 234 254
219 234 254
219 234 254
219 234 254
219 234 254
219 234 254
219 234 254
219 234 254
219 234 254
219 234 254
219 234 254
219 234 254
219 234 254
219 234 254
219 234 254
219 234 254
219 234 254
219 234 254
219 234 254
219 234 254
219 234 254
219 234 254
219 234 254
219 234 254
219 234 254
219 234 254
219 234 254
219 234 254
219 234 254
219 234 254
219 234 254
219 234 254
219 234 254
219 234 254
219 234 254
219 234 254
219 234 254
219 234 254
219 234 254
219 234 254
219 234 254
219 234 254
219 234 254
219 234 254
219 234 254
219 234 254
219 234 254
219 234 254
219 234 254
219 234 254
219 234 254
219 234 254
219 234 254
219 234 254
219 234 254
219 234 254
219 234 254
219 234 254
219 234 254
219 234 254
219 234 254
219 234 254
219 234 254
219 234 254
219 234 254
219 234 254
219 234 254
219 234 254
219 234 254
219 234 254
219 234 254
219 234 254
219 234 254
219 234 254
219 234 254
219 234 254
219 234 254
219 234 254
219 234 254
219 234 254
219 234 254
219 234 254
219 234 254
219 234 254
219 234 254
219 234 254
219 234 254
79 84 100
0 0 42
0 0 42
0 0 42
0 0 42
0 0 42
0 0 42
0 0 42
0 0 42
0 0 42
0 0 45
0 0 43
0 0 42
0 0 42
0 0 42
0 0 42
0 0 42
0 0 42
0 0 42
0 0 43
0 0 43
0 0 43
0 0 45
0 0 45
0 0 45
0 0 43
0 0 42
0 0 43
0 0 45
0 0 45
0 0 45
0 0 43
0 0 42
0 0 42
0 0 43
0 0 45
0 0 45
0 0 45
0 0 45
0 0 45
0 0 43
0 0 42
0 0 42
0 0 44
0 0 45
0 0 42
0 0 42
0 0 42
0 0 42
0 0 42
0 0 42
0 0 42
0 0 42
0 0 42
0 0 42
0 0 42
0 0 42
0 0 42
0 0 42
0 0 42
0 0 42
0 0 45
0 0 45
0 0 43
0 0 42
0 0 42
0 0 42
0 0 42
0 0 42
0 0 42
0 0 42
0 0 42
0 0 42
0 0 42
0 0 42
0 0 42
0 0 42
0 0 41
0 0 41
0 0 42
0 0 42
0 0 42
0 0 42
0 0 42
0 0 42
0 0 43
0 0 44
0 0 45
0 0 45
0 0 45
0 0 45
0 0 45
0 0 44
0 0 43
0 0 44
0 0 45
0 0 46
0 0 47
0 0 47
0 0 43
0 0 44
0 0 49
0 0 57
0 0 58
0 0 62
0 22 81
0 32 85
0 18 70
0 0 46
0 0 52
0 0 51
0 0 47
0 0 50
23 44 40
22 50 29
25 46 18
50 79 24
55 87 20
26 41 40
0 0 44
0 0 45
0 0 37
0 0 40
0 0 42
0 0 41
0 0 41
0 0 41
0 0 42
0 0 42
0 0 43
0 0 42
0 0 41
0 0 42
0 0 43
0 0 42
0 0 46
0 3 47
3 7 45
8 15 43
15 22 43
18 27 45
57 71 35
109 103 58
62 59 79
31 32 80
22 24 64
70 71 82
92 98 73
43 49 40
28 34 45
0 0 46
0 0 43
0 0 41
0 0 43
0 0 45
0 0 43
0 0 45
0 0 53
0 0 56
0 0 53
0 0 49
0 0 48
0 0 47
0 0 45
0 0 45
0 0 40
0 0 42
0 0 45
0 0 43
0 0 44
0 0 47
0 0 47
0 0 48
0 0 50
0 0 49
0 0 47
0 0 45
0 0 44
0 0 43
0 0 44
0 0 44
0 0 42
0 0 42
0 0 42
0 0 42
0 0 42
0 0 42
0 0 42
0 0 42
0 0 42
0 0 42
0 0 42
0 0 42
0 0 42
0 0 42
0 0 42
0 0 42
0 0 42
0 0 42
0 0 42
0 0 42
0 0 42
0 0 42
0 0 42
0 0 42
0 0 42
0 0 45
0 0 49
6 29 59
76 103 71
219 234 254
219 234 254
219 234 254
219 234 254
219 234 254
219 234 254
219 234 254
219 234 254
219 234 254
219 234 254
219 234 254
219 234 254
219 234 254
219 234 254
219 234 254
219 234 254
219 234 254
219 234 254
219 234 254
219 234 254
219 234 254
219 234 254
219 234 254
219 234 254
219 234 254
219 234 254
219 234 254
219 234 254
219 234 254
219 234 254
219 234 254
219 234 254
219 234 254
219 234 254
219 234 254
219 234 254
219 234 254
219 234 254
219 234 254
219 234 254
219 234 254
219 234 254
219 234 254
219 234 254
219 234 254
219 234 254
219 234 254
219 234 254
219 234 254
219 234 254
219 234 254
219 234 254
219 234 254
219 234 254
219 234 254
219 234 254
219 234 254
219 234 254
219 234 254
219 234 254
219 234 254
219 234 254
219 234 254
219 234 254
219 234 254
219 234 254
219 234 254
219 234 254
219 234 254
219 234 254
219 234 254
219 234 254
219 234 254
219 234 254
219 234 254
219 234 254
219 234 254
219 234 254
219 234 254
219 234 254
219 234 254
219 234 254
219 234 254
219 234 254
219 234 254
219 234 254
219 234 254
219 234 254
219 234 254
219 234 254
219 234 254
219 234 254
219 234 254
219 234 254
219 234 254
219 234 254
219 234 254
219 234 254
219 234 254
219 234 254
219 234 254
219 234 254
219 234 254
219 234 254
219 234 254
219 234 254
219 234 254
219 234 254
219 234 254
219 234 254
219 234 254
219 234 254
219 234 254
219 234 254
219 234 254
219 234 254
219 234 254
219 234 254
219 234 254
219 234 254
219 234 254
219 234 254
219 234 254
219 234 254
219 234 254
219 234 254
219 234 254
219 234 254
219 234 254
219 234 254
219 234 254
219 234 254
219 234 254
219 234 254
219 234 254
219 234 254
219 234 254
219 234 254
219 234 254
219 234 254
219 234 254
219 234 254
219 234 254
219 234 254
219 234 254
219 234 254
219 234 254
219 234 254
219 234 254
219 234 254
219 234 254
219 234 254
219 234 254
219 234 254
219 234 254
219 234 254
219 234 254
219 234 254
219 234 254
219 234 254
219 234 254
219 234 254
219 234 254
219 234 254
219 234 254
219 234 254
219 234 254
219 234 254
219 234 254
219 234 254
219 234 254
219 234 254
219 234 254
219 234 254
219 234 254
219 234 254
219 234 254
219 234 254
219 234 254
219 234 254
219 234 254
219 234 254
219 234 254
219 234 254
219 234 254
219 234 254
219 234 254
219 234 254
219 234 254
202 216 235
0 0 42
0 0 42
0 0 42
0 0 42
0 0 42
0 0 42
0 0 42
0 0 42
0 0 42
0 0 42
0 0 45
0 0 42
0 0 42
0 0 42
0 0 42
0 0 42
0 0 42
0 0 42
0 0 44
0 0 45
0 0 45
0 0 45
0 0 45
0 0 45
0 0 45
0 0 43
0 0 42
0 0 43
0 0 44
0 0 44
0 0 44
0 0 43
0 0 43
0 0 42
0 0 45
0 0 45
0 0 45
0 0 44
0 0 45
0 0 45
0 0 44
0 0 44
0 0 43
0 0 42
0 0 43
0 0 42
0 0 42
0 0 42
0 0 42
0 0 42
0 0 42
0 0 42
0 0 42
0 0 42
0 0 42
0 0 42
0 0 42
0 0 42
0 0 42
0 0 42
0 0 42
0 0 42
0 0 43
0 0 43
0 0 42
0 0 42
0 0 42
0 0 43
0 0 45
0 0 43
0 0 42
0 0 42
0 0 42
0 0 42
0 0 43
0 0 42
0 0 42
0 0 40
0 0 41
0 0 42
0 0 42
0 0 42
0 0 42
0 0 42
0 0 42
0 0 42
0 0 43
0 0 45
0 0 45
0 0 45
0 0 45
0 0 45
0 0 45
0 0 45
0 0 44
0 0 45
0 0 47
0 0 48
0 0 49
0 0 46
0 0 47
0 0 52
0 0 57
0 0 57
0 0 57
0 31 92
0 40 100
0 14 72
0 0 56
0 0 55
0 0 60
0 0 58
0 0 47
0 0 50
30 52 35
46 73 24
56 81 31
58 84 27
44 62 44
7 10 41
0 0 40
0 0 45
0 0 36
0 0 39
0 0 41
0 0 44
0 0 38
0 0 40
0 0 40
0 0 42
0 0 40
0 0 44
0 0 41
0 0 46
0 0 42
2 3 42
24 34 46
37 56 45
27 49 24
42 62 16
48 65 16
47 72 11
52 69 14
78 90 68
57 80 95
89 98 64
102 98 64
85 87 40
66 79 20
70 86 23
29 42 39
0 0 45
0 0 44
0 4 46
0 2 44
0 0 42
0 0 47
2 3 63
17 26 62
7 14 71
3 4 58
0 0 66
0 0 66
0 0 54
0 0 46
0 0 38
0 0 41
0 0 44
0 0 45
0 0 45
0 0 47
0 0 47
0 0 49
0 0 51
0 0 52
0 0 50
0 0 48
0 0 47
0 0 45
0 0 45
0 0 44
0 0 42
0 0 42
0 0 42
0 0 42
0 0 42
0 0 42
0 0 42
0 0 42
0 0 42
0 0 42
0 0 42
0 0 42
0 0 42
0 0 42
0 0 42
0 0 42
0 0 42
0 0 42
0 0 42
0 0 42
0 0 42
0 0 42
0 0 42
0 0 42
0 0 42
0 0 44
0 0 47
0 0 45
58 78 53
206 222 239
219 234 254
219 234 254
219 234 254
219 234 254
219 234 254
219 234 254
219 234 254
219 234 254
219 234 254
219 234 254
219 234 254
219 234 254
219 234 254
219 234 254
219 234 254
219 234 254
219 234 254
219 234 254
219 234 254
219 234 254
219 234 254
219 234 254
219 234 254
219 234 254
219 234 254
219 234 254
219 234 254
219 234 254
219 234 254
219 234 254
219 234 254
219 234 254
219 234 254
219 234 254
219 234 254
219 234 254
219 234 254
219 234 254
219 234 254
219 234 254
219 234 254
219 234 254
219 234 254
219 234 254
219 234 254
219 234 254
219 234 254
219 234 254
219 234 254
219 234 254
219 234 254
219 234 254
219 234 254
219 234 254
219 234 254
219 234 254
219 234 254
219 234 254
219 234 254
219 234 254
219 234 254
219 234 254
219 234 254
219 234 254
219 234 254
219 234 254
219 234 254
219 234 254
219 234 254
219 234 254
219 234 254
219 234 254
219 234 254
219 234 254
219 234 254
219 234 254
219 234 254
219 234 254
219 234 254
219 234 254
219 234 254
219 234 254
219 234 254
219 234 254
219 234 254
219 234 254
219 234 254
219 234 254
219 234 254
219 234 254
219 234 254
219 234 254
219 234 254
219 234 254
219 234 254
219 234 254
219 234 254
219 234 254
219 234 254
219 234 254
219 234 254
219 234 254
219 234 254
219 234 254
219 234 254
219 234 254
219 234 254
219 234 254
219 234 254
219 234 254
219 234 254
219 234 254
219 234 254
219 234 254
219 234 254
219 234 254
219 234 254
219 234 254
219 234 254
219 234 254
219 234 254
219 234 254
219 234 254
219 234 254
219 234 254
219 234 254
219 234 254
219 234 254
219 234 254
219 234 254
219 234 254
219 234 254
219 234 254
219 234 254
219 234 254
219 234 254
219 234 254
219 234 254
219 234 254
219 234 254
219 234 254
219 234 254
219 234 254
219 234 254
219 234 254
219 234 254
219 234 254
219 234 254
219 234 254
219 234 254
219 234 254
219 234 254
219 234 254
219 234 254
219 234 254
219 234 254
219 234 254
219 234 254
219 234 254
219 234 254
219 234 254
219 234 254
219 234 254
219 234 254
219 234 254
219 234 254
219 234 254
219 234 254
219 234 254
219 234 254
219 234 254
219 234 254
219 234 254
219 234 254
219 234 254
219 234 254
219 234 254
219 234 254
219 234 254
219 234 254
219 234 254
219 234 254
219 234 254
219 234 254
219 234 254
219 234 254
219 234 254
219 234 254
174 186 204
0 0 42
0 0 42
0 0 42
0 0 42
0 0 42
0 0 42
0 0 42
0 0 43
0 0 43
0 0 43
0 0 44
0 0 41
0 0 41
0 0 42
0 0 42
0 0 44
0 0 44
0 0 44
0 0 42
0 0 42
0 0 42
0 0 43
0 0 45
0 0 45
0 0 45
0 0 45
0 0 42
0 0 42
0 0 44
0 0 42
0 0 42
0 0 44
0 0 45
0 0 44
0 0 45
0 0 45
0 0 45
0 0 44
0 0 45
0 0 45
0 0 45
0 0 45
0 0 43
0 0 42
0 0 42
0 0 42
0 0 42
0 0 42
0 0 42
0 0 42
0 0 42
0 0 42
0 0 42
0 0 42
0 0 42
0 0 42
0 0 42
0 0 42
0 0 42
0 0 42
0 0 42
0 0 43
0 0 45
0 0 43
0 0 42
0 0 42
0 0 42
0 0 42
0 0 44
0 0 44
0 0 43
0 0 42
0 0 42
0 0 43
0 0 44
0 0 42
0 0 42
0 0 42
0 0 42
0 0 42
0 0 42
0 0 42
0 0 42
0 0 42
0 0 42
0 0 42
0 0 43
0 0 45
0 0 45
0 0 45
0 0 45
0 0 45
0 0 45
0 0 45
0 0 45
0 0 47
0 0 49
0 0 50
0 0 49
0 0 45
0 0 46
0 0 50
0 0 53
0 0 53
0 0 54
0 16 68
0 32 88
0 24 83
0 13 74
0 18 76
0 14 74
0 5 63
0 0 51
0 0 52
34 57 27
49 80 18
55 87 22
54 81 25
55 80 25
23 37 31
0 0 41
0 0 50
0 0 42
0 0 38
0 0 42
0 0 45
0 0 37
0 0 42
0 0 47
0 0 43
0 0 44
0 0 42
0 0 43
0 0 38
0 0 39
11 15 41
48 67 30
54 80 18
45 70 5
41 58 18
51 70 18
44 67 14
51 73 17
92 112 71
71 118 86
56 76 30
81 75 43
89 84 47
65 75 24
51 73 9
42 60 33
24 34 30
27 38 31
33 51 31
25 37 38
8 13 44
0 0 51
0 0 54
25 42 70
25 46 52
27 53 43
14 65 61
0 13 74
30 44 43
7 22 44
0 0 43
0 0 47
0 0 43
0 0 45
0 0 45
0 0 46
0 0 47
0 0 48
0 0 52
0 0 55
0 0 56
0 0 51
0 0 49
0 0 45
0 0 44
0 0 45
0 0 45
0 0 43
0 0 42
0 0 42
0 0 42
0 0 42
0 0 42
0 0 42
0 0 42
0 0 42
0 0 42
0 0 42
0 0 42
0 0 42
0 0 42
0 0 42
0 0 42
0 0 42
0 0 42
0 0 42
0 0 42
0 0 42
0 0 42
0 0 42
0 0 42
0 0 44
0 0 43
0 0 44
35 54 66
190 204 218
219 234 254
219 234 254
219 234 254
219 234 254
219 234 254
219 234 254
219 234 254
219 234 254
219 234 254
219 234 254
219 234 254
219 234 254
219 234 254
219 234 254
219 234 254
219 234 254
219 234 254
219 234 254
219 234 254
219 234 254
219 234 254
219 234 254
219 234 254
219 234 254
219 234 254
219 234 254
219 234 254
219 234 254
219 234 254
219 234 254
219 234 254
219 234 254
219 234 254
219 234 254
219 234 254
219 234 254
219 234 254
219 234 254
219 234 254
219 234 254
219 234 254
219 234 254
219 234 254
219 234 254
219 234 254
219 234 254
219 234 254
219 234 254
219 234 254
219 234 254
219 234 254
219 234 254
219 234 254
219 234 254
219 234 254
219 234 254
219 234 254
219 234 254
219 234 254
219 234 254
219 234 254
219 234 254
219 234 254
219 234 254
219 234 254
219 234 254
219 234 254
219 234 254
219 234 254
219 234 254
219 234 254
219 234 254
219 234 254
219 234 254
219 234 254
219 234 254
219 234 254
219 234 254
219 234 254
219 234 254
219 234 254
219 234 254
219 234 254
219 234 254
219 234 254
219 234 254
219 234 254
219 234 254
219 234 254
219 234 254
219 234 254
219 234 254
219 234 254
219 234 254
219 234 254
219 234 254
219 234 254
219 234 254
219 234 254
219 234 254
219 234 254
219 234 254
219 234 254
219 234 254
219 234 254
219 234 254
219 234 254
219 234 254
219 234 254
219 234 254
219 234 254
219 234 254
219 234 254
219 234 254
219 234 254
219 234 254
219 234 254
219 234 254
219 234 254
219 234 254
219 234 254
219 234 254
219 234 254
219 234 254
219 234 254
219 234 254
219 234 254
219 234 254
219 234 254
219 234 254
219 234 254
219 234 254
219 234 254
219 234 254
219 234 254
219 234 254
219 234 254
219 234 254
219 234 254
219 234 254
219 234 254
219 234 254
219 234 254
219 234 254
219 234 254
219 234 254
219 234 254
219 234 254
219 234 254
219 234 254
219 234 254
219 234 254
219 234 254
219 234 254
219 234 254
219 234 254
219 234 254
219 234 254
219 234 254
219 234 254
219 234 254
219 234 254
219 234 254
219 234 254
219 234 254
219 234 254
219 234 254
219 234 254
219 234 254
219 234 254
219 234 254
219 234 254
219 234 254
219 234 254
219 234 254
219 234 254
219 234 254
219 234 254
219 234 254
219 234 254
219 234 254
219 234 254
219 234 254
219 234 254
219 234 254
219 234 254
219 234 254
219 234 254
140 150 166
0 0 42
0 0 43
0 0 44
0 0 43
0 0 44
0 0 45
0 0 45
0 0 45
0 0 45
0 0 43
0 0 42
0 0 41
0 0 42
0 0 42
0 0 42
0 0 45
0 0 45
0 0 45
0 0 42
0 0 42
0 0 43
0 0 44
0 0 45
0 0 45
0 0 45
0 0 45
0 0 42
0 0 42
0 0 45
0 0 42
0 0 42
0 0 44
0 0 45
0 0 45
0 0 44
0 0 44
0 0 45
0 0 45
0 0 45
0 0 45
0 0 45
0 0 45
0 0 45
0 0 45
0 0 44
0 0 42
0 0 42
0 0 42
0 0 42
0 0 42
0 0 42
0 0 42
0 0 42
0 0 42
0 0 42
0 0 42
0 0 42
0 0 42
0 0 42
0 0 42
0 0 43
0 0 44
0 0 45
0 0 43
0 0 42
0 0 42
0 0 42
0 0 42
0 0 44
0 0 44
0 0 42
0 0 42
0 0 42
0 0 42
0 0 44
0 0 42
0 0 42
0 0 42
0 0 42
0 0 42
0 0 42
0 0 42
0 0 42
0 0 42
0 0 42
0 0 42
0 0 43
0 0 45
0 0 45
0 0 45
0 0 45
0 0 45
0 0 44
0 0 45
0 0 47
0 0 49
0 0 53
0 0 53
0 0 53
0 0 52
0 0 52
0 0 52
0 0 54
0 0 54
0 0 56
0 6 67
0 21 81
0 23 87
0 13 77
0 12 75
0 7 71
0 0 52
0 0 50
0 0 40
19 33 26
38 66 30
34 62 37
49 78 18
52 76 22
40 63 5
18 29 33
2 3 48
0 0 40
0 0 42
0 0 46
0 0 48
0 0 39
0 4 52
0 0 45
0 0 37
0 0 35
0 0 41
0 0 49
0 0 37
0 0 40
6 9 53
45 68 17
53 75 18
49 68 12
54 73 25
55 76 17
45 61 7
58 80 18
49 83 89
32 92 108
44 74 48
73 77 36
94 92 52
84 95 44
44 75 0
50 75 11
53 74 24
55 76 28
48 73 11
45 72 10
34 56 27
26 45 39
26 46 37
40 55 26
43 68 17
41 70 18
24 89 73
6 51 86
43 65 67
13 26 52
0 0 53
0 0 41
0 0 42
0 0 45
0 0 45
0 0 45
0 0 47
0 0 48
0 0 51
0 0 54
0 0 56
0 0 52
0 0 51
0 0 48
0 0 47
0 0 45
0 0 45
0 0 43
0 0 42
0 0 42
0 0 42
0 0 42
0 0 42
0 0 42
0 0 42
0 0 42
0 0 42
0 0 42
0 0 42
0 0 42
0 0 42
0 0 42
0 0 42
0 0 42
0 0 42
0 0 42
0 0 42
0 0 42
0 0 42
0 0 41
0 0 42
0 0 44
0 0 43
0 0 42
2 26 63
149 163 170
219 234 254
219 234 254
219 234 254
219 234 254
219 234 254
219 234 254
219 234 254
219 234 254
219 234 254
219 234 254
219 234 254
219 234 254
219 234 254
219 234 254
219 234 254
219 234 254
219 234 254
219 234 254
219 234 254
219 234 254
219 234 254
219 234 254
219 234 254
219 234 254
219 234 254
219 234 254
219 234 254
219 234 254
219 234 254
219 234 254
219 234 254
219 234 254
219 234 254
219 234 254
219 234 254
219 234 254
219 234 254
219 234 254
219 234 254
219 234 254
219 234 254
219 234 254
219 234 254
219 234 254
219 234 254
219 234 254
219 234 254
219 234 254
219 234 254
219 234 254
219 234 254
219 234 254
219 234 254
219 234 254
219 234 254
219 234 254
219 234 254
219 234 254
219 234 254
219 234 254
219 234 254
219 234 254
219 234 254
219 234 254
219 234 254
219 234 254
219 234 254
219 234 254
219 234 254
219 234 254
219 234 254
219 234 254
219 234 254
219 234 254
219 234 254
219 234 254
219 234 254
219 234 254
219 234 254
219 234 254
219 234 254
219 234 254
219 234 254
219 234 254
219 234 254
219 234 254
219 234 254
219 234 254
219 234 254
219 234 254
219 234 254
219 234 254
219 234 254
219 234 254
219 234 254
219 234 254
219 234 254
219 234 254
219 234 254
219 234 254
219 234 254
219 234 254
219 234 254
219 234 254
219 234 254
219 234 254
219 234 254
219 234 254
219 234 254
219 234 254
219 234 254
219 234 254
219 234 254
219 234 254
219 234 254
219 234 254
219 234 254
219 234 254
219 234 254
219 234 254
219 234 254
219 234 254
219 234 254
219 234 254
219 234 254
219 234 254
219 234 254
219 234 254
219 234 254
219 234 254
219 234 254
219 234 254
219 234 254
219 234 254
219 234 254
219 234 254
219 234 254
219 234 254
219 234 254
219 234 254
219 234 254
219 234 254
219 234 254
219 234 254
219 234 254
219 234 254
219 234 254
219 234 254
219 234 254
219 234 254
219 234 254
219 234 254
219 234 254
219 234 254
219 234 254
219 234 254
219 234 254
219 234 254
219 234 254
219 234 254
219 234 254
219 234 254
219 234 254
219 234 254
219 234 254
219 234 254
219 234 254
219 234 254
219 234 254
219 234 254
219 234 254
219 234 254
219 234 254
219 234 254
219 234 254
219 234 254
219 234 254
219 234 254
219 234 254
219 234 254
219 234 254
219 234 254
219 234 254
219 234 254
219 234 254
219 234 254
219 234 254
219 234 254
98 104 120
0 0 42
0 0 45
0 0 45
0 0 44
0 0 45
0 0 45
0 0 45
0 0 45
0 0 45
0 0 43
0 0 42
0 0 42
0 0 42
0 0 42
0 0 42
0 0 45
0 0 45
0 0 44
0 0 43
0 0 44
0 0 45
0 0 45
0 0 45
0 0 45
0 0 43
0 0 44
0 0 42
0 0 42
0 0 44
0 0 42
0 0 42
0 0 45
0 0 45
0 0 45
0 0 44
0 0 42
0 0 45
0 0 45
0 0 45
0 0 45
0 0 45
0 0 43
0 0 44
0 0 45
0 0 44
0 0 42
0 0 42
0 0 42
0 0 42
0 0 42
0 0 42
0 0 42
0 0 42
0 0 42
0 0 42
0 0 42
0 0 42
0 0 42
0 0 42
0 0 42
0 0 44
0 0 45
0 0 45
0 0 44
0 0 42
0 0 42
0 0 42
0 0 42
0 0 42
0 0 42
0 0 42
0 0 42
0 0 42
0 0 42
0 0 43
0 0 43
0 0 42
0 0 42
0 0 42
0 0 42
0 0 45
0 0 45
0 0 45
0 0 45
0 0 45
0 0 45
0 0 45
0 0 45
0 0 45
0 0 45
0 0 45
0 0 45
0 0 44
0 0 45
0 0 47
0 0 52
0 0 54
0 0 56
0 0 60
0 0 62
0 0 60
0 0 62
0 0 61
0 0 63
0 0 64
0 11 72
0 18 82
0 24 89
0 14 76
0 7 63
0 0 62
0 0 58
0 0 46
0 0 46
0 0 48
0 14 40
11 23 50
30 47 41
42 64 22
41 66 7
35 58 8
20 33 32
0 0 44
0 0 44
0 0 41
0 0 42
8 14 37
25 42 33
30 50 28
20 34 33
15 20 44
0 0 38
0 0 40
0 0 42
8 9 40
27 38 43
56 81 25
57 82 13
56 77 16
56 77 21
50 72 14
38 54 5
49 79 7
26 64 60
13 78 125
48 94 72
52 70 15
59 69 27
60 78 26
43 75 10
50 74 13
55 77 11
53 78 20
55 80 23
55 84 22
51 80 8
47 78 11
43 74 14
59 81 28
68 87 24
55 80 17
37 64 20
31 65 42
25 71 63
3 62 90
0 7 53
0 0 40
0 0 43
0 0 45
0 0 45
0 0 45
0 0 47
0 0 49
0 0 51
0 0 53
0 0 56
0 0 53
0 0 51
0 0 50
0 0 49
0 0 45
0 0 45
0 0 43
0 0 42
0 0 42
0 0 42
0 0 42
0 0 42
0 0 42
0 0 42
0 0 42
0 0 42
0 0 42
0 0 42
0 0 42
0 0 42
0 0 42
0 0 42
0 0 42
0 0 42
0 0 42
0 0 42
0 0 42
0 0 42
0 0 42
0 0 42
0 0 43
0 0 42
0 0 43
0 14 49
102 119 122
219 234 254
219 234 254
219 234 254
219 234 254
219 234 254
219 234 254
219 234 254
219 234 254
219 234 254
219 234 254
219 234 254
219 234 254
219 234 254
219 234 254
219 234 254
219 234 254
219 234 254
219 234 254
219 234 254
219 234 254
219 234 254
219 234 254
219 234 254
219 234 254
219 234 254
219 234 254
219 234 254
219 234 254
219 234 254
219 234 254
219 234 254
219 234 254
219 234 254
219 234 254
219 234 254
219 234 254
219 234 254
219 234 254
219 234 254
219 234 254
219 234 254
219 234 254
219 234 254
219 234 254
219 234 254
219 234 254
219 234 254
219 234 254
219 234 254
219 234 254
219 234 254
219 234 254
219 234 254
219 234 254
219 234 254
219 234 254
219 234 254
219 234 254
219 234 254
219 234 254
219 234 254
219 234 254
219 234 254
219 234 254
219 234 254
219 234 254
219 234 254
219 234 254
219 234 254
219 234 254
219 234 254
219 234 254
219 234 254
219 234 254
219 234 254
219 234 254
219 234 254
219 234 254
219 234 254
219 234 254
219 234 254
219 234 254
219 234 254
219 234 254
219 234 254
219 234 254
219 234 254
219 234 254
219 234 254
219 234 254
219 234 254
219 234 254
219 234 254
219 234 254
219 234 254
219 234 254
219 234 254
219 234 254
219 234 254
219 234 254
219 234 254
219 234 254
219 234 254
219 234 254
219 234 254
219 234 254
219 234 254
219 234 254
219 234 254
219 234 254
219 234 254
219 234 254
219 234 254
219 234 254
219 234 254
219 234 254
219 234 254
219 234 254
219 234 254
219 234 254
219 234 254
219 234 254
219 234 254
219 234 254
219 234 254
219 234 254
219 234 254
219 234 254
219 234 254
219 234 254
219 234 254
219 234 254
219 234 254
219 234 254
219 234 254
219 234 254
219 234 254
219 234 254
219 234 254
219 234 254
219 234 254
219 234 254
219 234 254
219 234 254
219 234 254
219 234 254
219 234 254
219 234 254
219 234 254
219 234 254
219 234 254
219 234 254
219 234 254
219 234 254
219 234 254
219 234 254
219 234 254
219 234 254
219 234 254
219 234 254
219 234 254
219 234 254
219 234 254
219 234 254
219 234 254
219 234 254
219 234 254
219 234 254
219 234 254
219 234 254
219 234 254
219 234 254
219 234 254
219 234 254
219 234 254
219 234 254
219 234 254
219 234 254
219 234 254
219 234 254
219 234 254
219 234 254
219 234 254
219 234 254
219 234 254
219 234 254
219 234 254
216 230 251
31 33 55
0 0 45
0 0 45
0 0 45
0 0 45
0 0 45
0 0 45
0 0 45
0 0 45
0 0 45
0 0 43
0 0 43
0 0 42
0 0 42
0 0 42
0 0 42
0 0 45
0 0 45
0 0 45
0 0 45
0 0 45
0 0 45
0 0 45
0 0 45
0 0 45
0 0 44
0 0 44
0 0 42
0 0 42
0 0 44
0 0 42
0 0 42
0 0 45
0 0 45
0 0 45
0 0 44
0 0 44
0 0 45
0 0 45
0 0 44
0 0 45
0 0 45
0 0 44
0 0 44
0 0 44
0 0 43
0 0 42
0 0 42
0 0 42
0 0 42
0 0 42
0 0 42
0 0 42
0 0 42
0 0 42
0 0 42
0 0 42
0 0 42
0 0 42
0 0 42
0 0 44
0 0 45
0 0 45
0 0 45
0 0 44
0 0 42
0 0 42
0 0 42
0 0 42
0 0 42
0 0 42
0 0 42
0 0 42
0 0 42
0 0 42
0 0 43
0 0 44
0 0 42
0 0 42
0 0 42
0 0 44
0 0 45
0 0 45
0 0 45
0 0 45
0 0 45
0 0 45
0 0 45
0 0 45
0 0 45
0 0 45
0 0 45
0 0 45
0 0 44
0 0 46
0 0 47
0 0 51
0 0 54
0 0 57
0 0 63
0 0 68
0 8 70
0 11 69
0 0 67
0 0 67
0 0 69
0 20 78
0 20 83
0 24 88
0 19 79
0 6 64
0 0 54
0 0 45
0 0 44
0 0 40
0 0 46
0 0 48
0 0 47
0 0 40
24 38 44
40 63 26
41 67 6
38 60 21
18 31 40
6 14 37
3 7 40
25 42 34
45 71 29
45 72 43
36 63 44
39 68 33
43 66 34
20 28 39
0 0 41
0 6 47
35 47 53
69 90 46
69 94 37
59 85 24
54 79 14
47 72 14
38 57 15
24 44 3
42 67 7
46 74 18
35 113 96
58 88 61
57 72 20
42 67 0
47 74 0
46 77 9
45 73 9
51 77 0
56 80 14
59 83 15
60 84 18
62 86 21
57 83 17
59 80 21
79 91 31
91 92 31
82 90 32
63 69 19
40 64 8
39 58 4
35 89 75
7 75 110
0 0 52
0 0 48
0 0 45
0 0 45
0 0 45
0 0 45
0 0 50
0 0 54
0 0 56
0 0 57
0 0 52
0 0 52
0 0 49
0 0 48
0 0 46
0 0 45
0 0 44
0 0 42
0 0 42
0 0 42
0 0 42
0 0 42
0 0 42
0 0 42
0 0 42
0 0 42
0 0 42
0 0 42
0 0 42
0 0 42
0 0 42
0 0 42
0 0 42
0 0 42
0 0 42
0 0 42
0 0 42
0 0 42
0 0 42
0 0 42
0 0 42
0 0 42
0 0 44
0 0 44
49 67 74
218 233 253
219 234 254
219 234 254
219 234 254
219 234 254
219 234 254
219 234 254
219 234 254
219 234 254
219 234 254
219 234 254
219 234 254
219 234 254
219 234 254
219 234 254
219 234 254
219 234 254
219 234 254
219 234 254
219 234 254
219 234 254
219 234 254
219 234 254
219 234 254
219 234 254
219 234 254
219 234 254
219 234 254
219 234 254
219 234 254
219 234 254
219 234 254
219 234 254
219 234 254
219 234 254
219 234 254
219 234 254
219 234 254
219 234 254
219 234 254
219 234 254
219 234 254
219 234 254
219 234 254
219 234 254
219 234 254
219 234 254
219 234 254
219 234 254
219 234 254
219 234 254
219 234 254
219 234 254
219 234 254
219 234 254
219 234 254
219 234 254
219 234 254
219 234 254
219 234 254
219 234 254
219 234 254
219 234 254
219 234 254
219 234 254
219 234 254
219 234 254
219 234 254
219 234 254
219 234 254
219 234 254
219 234 254
219 234 254
219 234 254
219 234 254
219 234 254
219 234 254
219 234 254
219 234 254
219 234 254
219 234 254
219 234 254
219 234 254
219 234 254
219 234 254
219 234 254
219 234 254
219 234 254
219 234 254
219 234 254
219 234 254
219 234 254
219 234 254
219 234 254
219 234 254
219 234 254
219 234 254
219 234 254
219 234 254
219 234 254
219 234 254
219 234 254
219 234 254
219 234 254
219 234 254
219 234 254
219 234 254
219 234 254
219 234 254
219 234 254
219 234 254
219 234 254
219 234 254
219 234 254
219 234 254
219 234 254
219 234 254
219 234 254
219 234 254
219 234 254
219 234 254
219 234 254
219 234 254
219 234 254
219 234 254
219 234 254
219 234 254
219 234 254
219 234 254
219 234 254
219 234 254
219 234 254
219 234 254
219 234 254
219 234 254
219 234 254
219 234 254
219 234 254
219 234 254
219 234 254
219 234 254
219 234 254
219 234 254
219 234 254
219 234 254
219 234 254
219 234 254
219 234 254
219 234 254
219 234 254
219 234 254
219 234 254
219 234 254
219 234 254
219 234 254
219 234 254
219 234 254
219 234 254
219 234 254
219 234 254
219 234 254
219 234 254
219 234 254
219 234 254
219 234 254
219 234 254
219 234 254
219 234 254
219 234 254
219 234 254
219 234 254
219 234 254
219 234 254
219 234 254
219 234 254
219 234 254
219 234 254
219 234 254
219 234 254
219 234 254
219 234 254
219 234 254
219 234 254
219 234 254
219 234 254
219 234 254
219 234 254
206 219 239
0 0 42
0 0 44
0 0 45
0 0 45
0 0 45
0 0 45
0 0 45
0 0 45
0 0 45
0 0 45
0 0 43
0 0 44
0 0 45
0 0 45
0 0 45
0 0 45
0 0 45
0 0 45
0 0 45
0 0 45
0 0 45
0 0 45
0 0 45
0 0 45
0 0 45
0 0 45
0 0 44
0 0 42
0 0 43
0 0 44
0 0 42
0 0 42
0 0 45
0 0 44
0 0 44
0 0 45
0 0 45
0 0 44
0 0 43
0 0 42
0 0 43
0 0 45
0 0 45
0 0 42
0 0 42
0 0 42
0 0 42
0 0 42
0 0 42
0 0 42
0 0 42
0 0 42
0 0 42
0 0 42
0 0 42
0 0 42
0 0 42
0 0 42
0 0 42
0 0 43
0 0 45
0 0 45
0 0 45
0 0 45
0 0 45
0 0 43
0 0 42
0 0 42
0 0 42
0 0 42
0 0 44
0 0 42
0 0 42
0 0 42
0 0 44
0 0 44
0 0 45
0 0 42
0 0 42
0 0 42
0 0 45
0 0 45
0 0 45
0 0 44
0 0 44
0 0 44
0 0 44
0 0 44
0 0 45
0 0 45
0 0 45
0 0 45
0 0 45
0 0 45
0 0 46
0 0 48
0 0 49
0 0 51
0 0 56
0 0 62
0 8 68
0 15 72
0 13 71
0 0 61
0 0 56
0 0 58
0 7 60
0 13 74
0 13 78
0 12 70
0 0 57
0 0 52
0 0 50
0 0 44
0 0 51
0 0 48
0 0 35
0 0 43
0 0 47
6 11 38
23 40 22
44 69 21
56 86 21
51 81 19
46 71 19
44 67 22
51 79 18
51 81 29
23 42 66
7 16 68
19 43 50
45 75 41
49 77 21
20 39 57
24 51 74
65 99 45
74 101 38
66 91 24
55 82 13
46 74 7
44 72 8
40 63 11
26 51 0
35 70 0
49 79 18
48 68 16
65 71 24
54 71 22
47 75 18
43 76 0
50 75 12
45 76 5
47 81 0
54 77 12
72 90 29
75 92 30
68 85 22
63 80 20
67 83 26
95 98 48
99 97 41
75 76 23
75 78 29
60 75 19
35 62 6
32 71 46
15 95 112
3 27 67
0 14 59
0 0 45
0 0 45
0 0 45
0 0 45
0 0 48
0 0 54
0 0 58
0 0 58
0 0 52
0 0 48
0 0 46
0 0 46
0 0 45
0 0 45
0 0 44
0 0 42
0 0 42
0 0 42
0 0 42
0 0 42
0 0 42
0 0 42
0 0 42
0 0 42
0 0 42
0 0 42
0 0 42
0 0 42
0 0 42
0 0 42
0 0 42
0 0 42
0 0 42
0 0 42
0 0 42
0 0 42
0 0 42
0 0 42
0 0 42
0 0 42
0 0 43
0 0 45
13 34 70
200 215 231
219 234 254
219 234 254
219 234 254
219 234 254
219 234 254
219 234 254
219 234 254
219 234 254
219 234 254
219 234 254
219 234 254
219 234 254
219 234 254
219 234 254
219 234 254
219 234 254
219 234 254
219 234 254
219 234 254
219 234 254
219 234 254
219 234 254
219 234 254
219 234 254
219 234 254
219 234 254
219 234 254
219 234 254
219 234 254
219 234 254
219 234 254
219 234 254
219 234 254
219 234 254
219 234 254
219 234 254
219 234 254
219 234 254
219 234 254
219 234 254
219 234 254
219 234 254
219 234 254
219 234 254
219 234 254
219 234 254
219 234 254
219 234 254
219 234 254
219 234 254
219 234 254
219 234 254
219 234 254
219 234 254
219 234 254
219 234 254
219 234 254
219 234 254
219 234 254
219 234 254
219 234 254
219 234 254
219 234 254
219 234 254
219 234 254
219 234 254
219 234 254
219 234 254
219 234 254
219 234 254
219 234 254
219 234 254
219 234 254
219 234 254
219 234 254
219 234 254
219 234 254
219 234 254
219 234 254
219 234 254
219 234 254
219 234 254
219 234 254
219 234 254
219 234 254
219 234 254
219 234 254
219 234 254
219 234 254
219 234 254
219 234 254
219 234 254
219 234 254
219 234 254
219 234 254
219 234 254
219 234 254
219 234 254
219 234 254
219 234 254
219 234 254
219 234 254
219 234 254
219 234 254
219 234 254
219 234 254
219 234 254
219 234 254
219 234 254
219 234 254
219 234 254
219 234 254
219 234 254
219 234 254
219 234 254
219 234 254
219 234 254
219 234 254
219 234 254
219 234 254
219 234 254
219 234 254
219 234 254
219 234 254
219 234 254
219 234 254
219 234 254
219 234 254
219 234 254
219 234 254
219 234 254
219 234 254
219 234 254
219 234 254
219 234 254
219 234 254
219 234 254
219 234 254
219 234 254
219 234 254
219 234 254
219 234 254
219 234 254
219 234 254
219 234 254
219 234 254
219 234 254
219 234 254
219 234 254
219 234 254
219 234 254
219 234 254
219 234 254
219 234 254
219 234 254
219 234 254
219 234 254
219 234 254
219 234 254
219 234 254
219 234 254
219 234 254
219 234 254
219 234 254
219 234 254
219 234 254
219 234 254
219 234 254
219 234 254
219 234 254
219 234 254
219 234 254
219 234 254
219 234 254
219 234 254
219 234 254
219 234 254
219 234 254
219 234 254
219 234 254
219 234 254
219 234 254
219 234 254
219 234 254
219 234 254
219 234 254
175 187 205
0 0 43
0 0 44
0 0 45
0 0 45
0 0 45
0 0 44
0 0 45
0 0 45
0 0 45
0 0 44
0 0 43
0 0 45
0 0 46
0 0 45
0 0 45
0 0 45
0 0 45
0 0 45
0 0 44
0 0 45
0 0 45
0 0 45
0 0 45
0 0 45
0 0 45
0 0 45
0 0 44
0 0 42
0 0 43
0 0 43
0 0 43
0 0 44
0 0 45
0 0 44
0 0 43
0 0 43
0 0 45
0 0 44
0 0 43
0 0 42
0 0 42
0 0 43
0 0 43
0 0 42
0 0 42
0 0 42
0 0 42
0 0 42
0 0 44
0 0 44
0 0 44
0 0 44
0 0 44
0 0 42
0 0 42
0 0 43
0 0 44
0 0 44
0 0 44
0 0 45
0 0 45
0 0 45
0 0 45
0 0 45
0 0 45
0 0 45
0 0 44
0 0 42
0 0 42
0 0 43
0 0 45
0 0 45
0 0 45
0 0 45
0 0 45
0 0 45
0 0 45
0 0 45
0 0 45
0 0 45
0 0 45
0 0 45
0 0 45
0 0 42
0 0 42
0 0 42
0 0 42
0 0 43
0 0 45
0 0 45
0 0 45
0 0 45
0 0 45
0 0 45
0 0 46
0 0 49
0 0 47
0 0 49
0 0 54
0 0 62
0 0 67
0 0 67
0 0 59
0 0 51
0 0 48
0 0 47
0 0 47
0 0 50
0 0 54
0 0 56
0 0 54
0 0 49
0 0 45
0 0 45
0 0 45
0 0 45
0 0 45
0 0 45
0 0 45
0 0 47
0 6 41
16 25 43
20 34 43
26 43 35
42 72 21
49 83 2
50 81 29
22 32 56
0 0 48
0 4 56
0 8 54
22 61 56
48 81 17
43 69 32
37 115 78
62 100 42
62 93 29
54 87 17
48 76 12
39 65 0
41 66 7
50 70 11
40 55 8
46 63 12
50 70 16
51 69 17
52 72 20
53 78 14
52 81 14
48 78 0
47 79 3
48 81 0
51 82 0
51 78 3
58 74 14
75 81 27
90 91 37
88 90 34
89 96 36
89 88 35
91 91 34
74 81 33
62 75 27
38 57 7
34 56 0
29 53 8
30 58 35
23 50 43
8 47 87
0 8 62
0 0 41
0 0 40
0 0 44
0 0 41
0 0 53
0 0 57
0 0 64
0 0 55
0 0 46
0 0 44
0 0 44
0 0 43
0 0 44
0 0 45
0 0 42
0 0 41
0 0 42
0 0 42
0 0 42
0 0 42
0 0 42
0 0 42
0 0 42
0 0 42
0 0 42
0 0 42
0 0 42
0 0 42
0 0 42
0 0 42
0 0 42
0 0 42
0 0 42
0 0 42
0 0 42
0 0 42
0 0 42
0 0 42
0 0 41
0 0 43
0 0 44
0 6 47
172 186 199
219 234 254
219 234 254
219 234 254
219 234 254
219 234 254
219 234 254
219 234 254
219 234 254
219 234 254
219 234 254
219 234 254
219 234 254
219 234 254
219 234 254
219 234 254
219 234 254
219 234 254
219 234 254
219 234 254
219 234 254
219 234 254
219 234 254
219 234 254
219 234 254
219 234 254
219 234 254
219 234 254
219 234 254
219 234 254
219 234 254
219 234 254
219 234 254
219 234 254
219 234 254
219 234 254
219 234 254
219 234 254
219 234 254
219 234 254
219 234 254
219 234 254
219 234 254
219 234 254
219 234 254
219 234 254
219 234 254
219 234 254
219 234 254
219 234 254
219 234 254
219 234 254
219 234 254
219 234 254
219 234 254
219 234 254
219 234 254
219 234 254
219 234 254
219 234 254
219 234 254
219 234 254
219 234 254
219 234 254
219 234 254
219 234 254
219 234 254
219 234 254
219 234 254
219 234 254
219 234 254
219 234 254
219 234 254
219 234 254
219 234 254
219 234 254
219 234 254
219 234 254
219 234 254
219 234 254
219 234 254
219 234 254
219 234 254
219 234 254
219 234 254
219 234 254
219 234 254
219 234 254
219 234 254
219 234 254
219 234 254
219 234 254
219 234 254
219 234 254
219 234 254
219 234 254
219 234 254
219 234 254
219 234 254
219 234 254
219 234 254
219 234 254
219 234 254
219 234 254
219 234 254
219 234 254
219 234 254
219 234 254
219 234 254
219 234 254
219 234 254
219 234 254
219 234 254
219 234 254
219 234 254
219 234 254
219 234 254
219 234 254
219 234 254
219 234 254
219 234 254
219 234 254
219 234 254
219 234 254
219 234 254
219 234 254
219 234 254
219 234 254
219 234 254
219 234 254
219 234 254
219 234 254
219 234 254
219 234 254
219 234 254
219 234 254
219 234 254
219 234 254
219 234 254
219 234 254
219 234 254
219 234 254
219 234 254
219 234 254
219 234 254
219 234 254
219 234 254
219 234 254
219 234 254
219 234 254
219 234 254
219 234 254
219 234 254
219 234 254
219 234 254
219 234 254
219 234 254
219 234 254
219 234 254
219 234 254
219 234 254
219 234 254
219 234 254
219 234 254
219 234 254
219 234 254
219 234 254
219 234 254
219 234 254
219 234 254
219 234 254
219 234 254
219 234 254
219 234 254
219 234 254
219 234 254
219 234 254
219 234 254
219 234 254
219 234 254
219 234 254
219 234 254
219 234 254
219 234 254
219 234 254
219 234 254
219 234 254
147 157 173
0 0 45
0 0 45
0 0 45
0 0 45
0 0 44
0 0 43
0 0 45
0 0 45
0 0 45
0 0 44
0 0 43
0 0 47
0 0 53
0 0 49
0 0 43
0 0 44
0 0 45
0 0 44
0 0 46
0 0 47
0 0 45
0 0 45
0 0 45
0 0 45
0 0 45
0 0 45
0 0 44
0 0 42
0 0 42
0 0 43
0 0 45
0 0 45
0 0 45
0 0 45
0 0 44
0 0 44
0 0 45
0 0 45
0 0 45
0 0 44
0 0 43
0 0 42
0 0 42
0 0 42
0 0 42
0 0 42
0 0 42
0 0 42
0 0 44
0 0 44
0 0 44
0 0 44
0 0 44
0 0 43
0 0 44
0 0 45
0 0 45
0 0 45
0 0 45
0 0 45
0 0 45
0 0 45
0 0 45
0 0 45
0 0 45
0 0 45
0 0 44
0 0 42
0 0 42
0 0 43
0 0 45
0 0 45
0 0 45
0 0 45
0 0 45
0 0 45
0 0 45
0 0 45
0 0 45
0 0 45
0 0 45
0 0 45
0 0 45
0 0 43
0 0 42
0 0 42
0 0 42
0 0 44
0 0 45
0 0 45
0 0 45
0 0 45
0 0 45
0 0 45
0 0 46
0 0 47
0 0 47
0 0 49
0 0 53
0 0 58
0 0 59
0 0 55
0 0 50
0 0 49
0 0 48
0 0 46
0 0 45
0 0 47
0 0 49
0 0 52
0 0 52
0 0 48
0 0 45
0 0 45
0 0 45
0 0 45
0 0 45
0 0 45
0 0 43
0 0 47
0 0 46
0 0 48
0 0 50
0 0 47
19 34 44
32 53 36
63 96 23
40 58 49
4 7 52
0 0 64
0 0 58
18 36 41
47 72 18
48 68 15
57 108 44
61 89 34
48 74 14
50 78 13
45 70 9
26 51 0
37 63 5
47 68 12
46 61 15
54 71 20
50 70 13
47 71 14
43 70 6
43 72 5
54 76 14
47 69 0
48 75 0
46 78 0
44 75 0
48 80 9
49 79 15
50 68 7
70 79 25
78 81 29
86 87 35
75 85 30
78 84 29
77 82 36
48 57 14
54 73 15
37 60 2
23 51 0
26 53 0
30 53 0
26 58 21
13 66 92
6 37 72
0 0 46
0 0 51
0 0 50
0 0 49
0 0 61
0 1 68
0 0 56
0 0 44
0 0 43
0 0 42
0 0 43
0 0 43
0 0 45
0 0 42
0 0 40
0 0 41
0 0 42
0 0 42
0 0 42
0 0 42
0 0 42
0 0 42
0 0 42
0 0 42
0 0 42
0 0 42
0 0 42
0 0 42
0 0 42
0 0 42
0 0 42
0 0 42
0 0 42
0 0 42
0 0 42
0 0 42
0 0 42
0 0 40
0 0 42
0 0 44
0 0 44
160 172 187
219 234 254
219 234 254
219 234 254
219 234 254
219 234 254
219 234 254
219 234 254
219 234 254
219 234 254
219 234 254
219 234 254
219 234 254
219 234 254
219 234 254
219 234 254
219 234 254
219 234 254
219 234 254
219 234 254
219 234 254
219 234 254
219 234 254
219 234 254
219 234 254
219 234 254
219 234 254
219 234 254
219 234 254
219 234 254
219 234 254
219 234 254
219 234 254
219 234 254
219 234 254
219 234 254
219 234 254
219 234 254
219 234 254
219 234 254
219 234 254
219 234 254
219 234 254
219 234 254
219 234 254
219 234 254
219 234 254
219 234 254
219 234 254
219 234 254
219 234 254
219 234 254
219 234 254
219 234 254
219 234 254
219 234 254
219 234 254
219 234 254
219 234 254
219 234 254
219 234 254
219 234 254
219 234 254
219 234 254
219 234 254
219 234 254
219 234 254
219 234 254
219 234 254
219 234 254
219 234 254
219 234 254
219 234 254
219 234 254
219 234 254
219 234 254
219 234 254
219 234 254
219 234 254
219 234 254
219 234 254
219 234 254
219 234 254
219 234 254
219 234 254
219 234 254
219 234 254
219 234 254
219 234 254
219 234 254
219 234 254
219 234 254
219 234 254
219 234 254
219 234 254
219 234 254
219 234 254
219 234 254
219 234 254
219 234 254
219 234 254
219 234 254
219 234 254
219 234 254
219 234 254
219 234 254
219 234 254
219 234 254
219 234 254
219 234 254
219 234 254
219 234 254
219 234 254
219 234 254
219 234 254
219 234 254
219 234 254
219 234 254
219 234 254
219 234 254
219 234 254
219 234 254
219 234 254
219 234 254
219 234 254
219 234 254
219 234 254
219 234 254
219 234 254
219 234 254
219 234 254
219 234 254
219 234 254
219 234 254
219 234 254
219 234 254
219 234 254
219 234 254
219 234 254
219 234 254
219 234 254
219 234 254
219 234 254
219 234 254
219 234 254
219 234 254
219 234 254
219 234 254
219 234 254
219 234 254
219 234 254
219 234 254
219 234 254
219 234 254
219 234 254
219 234 254
219 234 254
219 234 254
219 234 254
219 234 254
219 234 254
219 234 254
219 234 254
219 234 254
219 234 254
219 234 254
219 234 254
219 234 254
219 234 254
219 234 254
219 234 254
219 234 254
219 234 254
219 234 254
219 234 254
219 234 254
219 234 254
219 234 254
219 234 254
219 234 254
219 234 254
219 234 254
219 234 254
219 234 254
219 234 254
219 234 254
219 234 254
144 153 170
0 0 45
0 0 45
0 0 45
0 0 45
0 0 43
0 0 44
0 0 45
0 0 45
0 0 45
0 0 45
0 0 43
0 0 49
0 0 53
0 0 49
0 0 45
0 0 44
0 0 45
0 0 45
0 0 47
0 0 47
0 0 45
0 0 45
0 0 45
0 0 45
0 0 45
0 0 44
0 0 42
0 0 42
0 0 42
0 0 44
0 0 44
0 0 44
0 0 44
0 0 44
0 0 45
0 0 45
0 0 45
0 0 45
0 0 45
0 0 45
0 0 45
0 0 45
0 0 44
0 0 42
0 0 42
0 0 42
0 0 42
0 0 42
0 0 42
0 0 42
0 0 42
0 0 42
0 0 42
0 0 45
0 0 45
0 0 45
0 0 45
0 0 45
0 0 45
0 0 45
0 0 45
0 0 45
0 0 45
0 0 45
0 0 45
0 0 45
0 0 45
0 0 44
0 0 42
0 0 43
0 0 45
0 0 45
0 0 45
0 0 45
0 0 45
0 0 45
0 0 45
0 0 45
0 0 45
0 0 45
0 0 45
0 0 45
0 0 45
0 0 45
0 0 44
0 0 44
0 0 44
0 0 43
0 0 42
0 0 43
0 0 45
0 0 45
0 0 45
0 0 45
0 0 45
0 0 45
0 0 47
0 0 49
0 0 50
0 0 51
0 0 51
0 0 46
0 0 45
0 0 47
0 0 47
0 0 45
0 0 43
0 0 45
0 0 45
0 0 47
0 0 48
0 0 46
0 0 45
0 0 45
0 0 45
0 0 45
0 0 45
0 0 45
0 0 42
0 0 45
0 0 47
0 0 46
0 0 46
0 0 46
0 3 48
8 14 54
24 41 44
16 27 50
2 4 46
0 0 52
0 0 54
4 7 55
36 57 39
62 88 44
64 99 42
63 89 37
39 61 10
38 58 4
35 56 0
24 48 0
31 58 4
40 62 6
45 57 13
65 79 32
55 73 20
44 70 5
41 73 0
39 72 0
45 71 0
42 66 0
44 66 0
49 68 0
54 70 10
54 71 11
50 71 14
47 65 9
51 70 16
57 71 22
55 66 14
50 71 15
55 66 10
79 85 39
49 54 18
64 78 25
51 67 14
30 57 0
25 54 0
28 49 0
28 49 0
33 68 45
15 73 102
0 0 52
0 0 44
0 0 42
0 0 50
0 0 56
0 8 72
0 9 69
0 8 57
0 0 48
0 0 46
0 0 45
0 0 45
0 0 45
0 0 43
0 0 42
0 0 41
0 0 42
0 0 42
0 0 42
0 0 42
0 0 42
0 0 42
0 0 42
0 0 42
0 0 42
0 0 42
0 0 42
0 0 42
0 0 42
0 0 42
0 0 42
0 0 42
0 0 42
0 0 42
0 0 42
0 0 41
0 0 42
0 0 41
0 0 44
0 0 44
0 0 42
122 133 144
219 234 254
219 234 254
219 234 254
219 234 254
219 234 254
219 234 254
219 234 254
219 234 254
219 234 254
219 234 254
219 234 254
219 234 254
219 234 254
219 234 254
219 234 254
219 234 254
219 234 254
219 234 254
219 234 254
219 234 254
219 234 254
219 234 254
219 234 254
219 234 254
219 234 254
219 234 254
219 234 254
219 234 254
219 234 254
219 234 254
219 234 254
219 234 254
219 234 254
219 234 254
219 234 254
219 234 254
219 234 254
219 234 254
219 234 254
219 234 254
219 234 254
219 234 254
219 234 254
219 234 254
219 234 254
219 234 254
219 234 254
219 234 254
219 234 254
219 234 254
219 234 254
219 234 254
219 234 254
219 234 254
219 234 254
219 234 254
219 234 254
219 234 254
219 234 254
219 234 254
219 234 254
219 234 254
219 234 254
219 234 254
219 234 254
219 234 254
219 234 254
219 234 254
219 234 254
219 234 254
219 234 254
219 234 254
219 234 254
219 234 254
219 234 254
219 234 254
219 234 254
219 234 254
219 234 254
219 234 254
219 234 254
219 234 254
219 234 254
219 234 254
219 234 254
219 234 254
219 234 254
219 234 254
219 234 254
219 234 254
219 234 254
219 234 254
219 234 254
220 234 254
220 234 254
220 234 254
220 234 254
220 234 254
220 234 254
220 234 254
220 234 254
220 234 254
220 234 254
220 234 254
220 234 254
220 234 254
220 234 254
220 234 254
220 234 254
220 234 254
220 234 254
220 234 254
220 234 254
220 234 254
220 234 254
219 234 254
220 234 254
220 234 254
220 234 254
220 234 254
219 234 254
219 234 254
219 234 254
219 234 254
219 234 254
220 234 254
219 234 254
219 234 254
219 234 254
219 234 254
219 234 254
219 234 254
219 234 254
219 234 254
219 234 254
219 234 254
219 234 254
219 234 254
219 234 254
219 234 254
219 234 254
219 234 254
219 234 254
219 234 254
219 234 254
219 234 254
219 234 254
219 234 254
219 234 254
219 234 254
219 234 254
219 234 254
219 234 254
219 234 254
219 234 254
219 234 254
219 234 254
219 234 254
219 234 254
219 234 254
219 234 254
219 234 254
219 234 254
219 234 254
219 234 254
219 234 254
219 234 254
219 234 254
219 234 254
219 234 254
219 234 254
219 234 254
219 234 254
219 234 254
219 234 254
219 234 254
219 234 254
219 234 254
219 234 254
219 234 254
219 234 254
219 234 254
219 234 254
219 234 254
219 234 254
219 234 254
82 87 103
0 0 45
0 0 45
0 0 45
0 0 45
0 0 43
0 0 44
0 0 45
0 0 45
0 0 45
0 0 45
0 0 44
0 0 48
0 0 51
0 0 47
0 0 45
0 0 44
0 0 45
0 0 45
0 0 45
0 0 45
0 0 45
0 0 45
0 0 45
0 0 45
0 0 45
0 0 43
0 0 42
0 0 42
0 0 42
0 0 42
0 0 42
0 0 42
0 0 42
0 0 42
0 0 43
0 0 43
0 0 43
0 0 43
0 0 45
0 0 45
0 0 45
0 0 45
0 0 44
0 0 44
0 0 44
0 0 44
0 0 44
0 0 43
0 0 42
0 0 42
0 0 42
0 0 42
0 0 42
0 0 45
0 0 45
0 0 45
0 0 45
0 0 45
0 0 45
0 0 45
0 0 45
0 0 45
0 0 45
0 0 45
0 0 45
0 0 45
0 0 45
0 0 45
0 0 44
0 0 45
0 0 45
0 0 45
0 0 45
0 0 45
0 0 45
0 0 45
0 0 45
0 0 45
0 0 45
0 0 45
0 0 45
0 0 45
0 0 45
0 0 45
0 0 45
0 0 45
0 0 42
0 0 42
0 0 42
0 0 42
0 0 43
0 0 44
0 0 45
0 0 44
0 0 44
0 0 45
0 0 47
0 0 47
0 0 47
0 0 46
0 0 44
0 0 44
0 0 45
0 0 44
0 0 44
0 0 44
0 0 42
0 0 43
0 0 45
0 0 46
0 0 46
0 0 45
0 0 45
0 0 45
0 0 45
0 0 45
0 0 45
0 0 45
0 0 45
0 0 47
0 0 50
0 0 51
0 0 47
0 0 47
0 0 52
0 0 55
0 0 55
0 0 61
0 0 57
0 0 52
0 0 52
0 0 52
13 19 53
49 75 52
63 86 46
56 87 34
34 56 0
42 60 5
37 56 0
33 57 0
34 60 0
39 60 0
56 65 22
68 74 34
77 89 43
53 75 16
40 69 0
43 67 0
46 66 0
48 65 4
54 68 7
64 72 18
74 78 28
80 80 32
67 72 25
44 58 7
44 67 13
34 58 4
31 55 0
38 66 0
45 65 0
66 78 28
42 54 12
45 66 17
42 60 11
31 54 0
27 53 0
29 52 0
28 55 0
30 57 18
28 85 88
5 57 101
0 11 57
0 0 44
0 0 47
0 0 59
0 10 70
0 15 78
0 9 67
0 2 58
0 0 48
0 0 44
0 0 44
0 0 45
0 0 44
0 0 42
0 0 42
0 0 42
0 0 42
0 0 42
0 0 42
0 0 42
0 0 42
0 0 42
0 0 42
0 0 42
0 0 42
0 0 42
0 0 42
0 0 42
0 0 42
0 0 42
0 0 42
0 0 42
0 0 42
0 0 42
0 0 42
0 0 42
0 0 42
0 0 44
0 0 44
0 0 42
108 117 130
219 234 254
219 234 254
219 234 254
219 234 254
219 234 254
219 234 254
219 234 254
219 234 254
219 234 254
219 234 254
219 234 254
219 234 254
219 234 254
219 234 254
219 234 254
219 234 254
219 234 254
219 234 254
219 234 254
219 234 254
219 234 254
219 234 254
219 234 254
219 234 254
219 234 254
219 234 254
219 234 254
219 234 254
219 234 254
219 234 254
219 234 254
219 234 254
219 234 254
219 234 254
219 234 254
219 234 254
219 234 254
219 234 254
219 234 254
219 234 254
219 234 254
219 234 254
219 234 254
219 234 254
219 234 254
219 234 254
219 234 254
219 234 254
219 234 254
219 234 254
219 234 254
219 234 254
219 234 254
219 234 254
220 234 254
219 234 254
219 234 254
219 234 254
219 234 254
219 234 254
220 234 254
219 234 254
219 234 254
219 234 254
219 234 254
220 234 254
220 234 254
219 234 254
220 234 254
220 234 254
220 234 254
220 234 254
220 234 254
220 234 254
220 234 254
220 234 254
220 234 254
220 234 254
220 234 254
220 234 254
220 234 254
220 234 254
220 234 254
220 234 254
220 234 254
220 234 254
220 234 254
220 234 254
220 234 254
220 234 254
220 234 254
220 234 254
220 234 254
220 234 254
220 234 254
220 234 254
220 234 254
220 234 254
220 234 254
220 234 254
220 234 254
220 234 254
220 234 254
220 234 254
220 234 254
220 234 254
220 234 254
220 234 254
220 234 254
220 234 254
220 234 254
220 234 254
220 234 254
220 234 254
220 234 254
220 234 254
220 234 254
220 234 254
220 234 254
220 234 254
220 234 254
220 234 254
220 234 254
220 234 254
220 234 254
220 234 254
220 234 254
220 234 254
220 234 254
220 234 254
220 234 254
220 234 254
220 234 254
220 234 254
220 234 254
220 234 254
220 234 254
220 234 254
220 234 254
220 234 254
220 234 254
220 234 254
220 234 254
220 234 254
220 234 254
220 234 254
220 234 254
220 234 254
220 234 254
220 234 254
220 234 254
220 234 254
220 234 254
220 234 254
220 234 254
220 234 254
220 234 254
220 234 254
220 234 254
220 234 254
220 234 254
220 234 254
220 234 254
220 234 254
220 234 254
220 234 254
220 234 254
220 234 254
220 234 254
220 234 254
220 234 254
220 234 254
220 234 254
220 234 254
220 234 254
220 234 254
220 234 254
220 234 254
220 234 254
220 234 254
220 234 254
220 234 254
220 234 254
220 234 254
220 234 254
220 234 254
58 62 79
0 0 45
0 0 45
0 0 45
0 0 45
0 0 44
0 0 45
0 0 45
0 0 45
0 0 45
0 0 44
0 0 45
0 0 46
0 0 47
0 0 46
0 0 47
0 0 45
0 0 45
0 0 45
0 0 45
0 0 45
0 0 45
0 0 45
0 0 45
0 0 45
0 0 45
0 0 45
0 0 44
0 0 42
0 0 42
0 0 42
0 0 42
0 0 42
0 0 42
0 0 42
0 0 42
0 0 42
0 0 42
0 0 42
0 0 45
0 0 45
0 0 45
0 0 45
0 0 45
0 0 45
0 0 45
0 0 45
0 0 45
0 0 44
0 0 43
0 0 42
0 0 43
0 0 43
0 0 43
0 0 44
0 0 45
0 0 45
0 0 45
0 0 45
0 0 45
0 0 45
0 0 45
0 0 45
0 0 45
0 0 45
0 0 45
0 0 45
0 0 45
0 0 45
0 0 45
0 0 45
0 0 45
0 0 45
0 0 45
0 0 45
0 0 45
0 0 45
0 0 45
0 0 45
0 0 45
0 0 45
0 0 45
0 0 44
0 0 45
0 0 45
0 0 45
0 0 43
0 0 42
0 0 41
0 0 40
0 0 42
0 0 42
0 0 44
0 0 45
0 0 44
0 0 43
0 0 44
0 0 45
0 0 47
0 0 46
0 0 44
0 0 43
0 0 43
0 0 44
0 0 44
0 0 42
0 0 44
0 0 42
0 0 45
0 0 45
0 0 45
0 0 46
0 0 46
0 0 45
0 0 45
0 0 45
0 0 45
0 0 45
0 0 45
0 0 46
0 0 44
0 0 48
0 0 50
0 0 42
0 0 44
0 0 53
0 0 52
0 0 52
0 0 52
0 0 50
0 0 46
0 0 47
0 0 47
0 0 50
45 62 56
69 90 45
59 89 40
48 61 16
44 61 9
35 53 3
38 63 0
37 65 0
37 58 0
45 55 8
69 75 34
77 86 41
56 78 19
42 66 4
48 61 8
50 57 6
55 64 14
64 74 22
70 80 29
75 83 32
69 77 29
52 67 20
38 56 4
37 58 0
34 53 0
39 57 0
43 68 6
44 67 0
39 58 0
32 53 0
19 45 0
20 51 0
26 51 0
30 49 0
31 51 0
28 49 3
34 52 2
36 60 26
33 89 82
11 70 113
0 15 63
0 12 63
0 32 93
0 35 98
0 34 89
0 26 80
0 7 66
0 0 56
0 0 47
0 0 45
0 0 45
0 0 45
0 0 44
0 0 44
0 0 42
0 0 42
0 0 42
0 0 42
0 0 42
0 0 42
0 0 42
0 0 42
0 0 42
0 0 42
0 0 42
0 0 42
0 0 42
0 0 42
0 0 42
0 0 42
0 0 42
0 0 42
0 0 42
0 0 42
0 0 42
0 0 42
0 0 43
0 0 44
0 0 42
48 55 64
220 234 254
220 234 254
220 234 254
220 234 254
220 234 254
220 234 254
220 234 254
220 234 254
220 234 254
220 234 254
220 234 254
220 234 254
220 234 254
220 234 254
220 234 254
220 234 254
220 234 254
220 234 254
220 234 254
220 234 254
220 234 254
220 234 254
220 234 254
220 234 254
220 234 254
220 234 254
220 234 254
220 234 254
220 234 254
220 234 254
220 234 254
220 234 254
220 234 254
220 234 254
220 234 254
220 234 254
220 234 254
220 234 254
220 234 254
220 234 254
220 234 254
220 234 254
220 234 254
220 234 254
220 234 254
220 234 254
220 234 254
220 234 254
220 234 254
220 234 254
220 234 254
220 234 254
220 234 254
220 234 254
220 234 254
220 234 254
220 234 254
220 234 254
220 234 254
220 234 254
220 234 254
220 234 254
220 234 254
220 234 254
220 234 254
220 234 254
220 234 254
220 234 254
220 234 254
220 234 254
220 234 254
220 234 254
220 234 254
220 234 254
220 234 254
220 234 254
220 234 254
220 234 254
220 234 254
220 234 254
220 234 254
220 234 254
220 234 254
220 234 254
220 234 254
220 234 254
220 234 254
220 234 254
220 234 254
220 234 254
220 234 254
220 234 254
220 234 254
220 234 254
220 234 254
220 234 254
220 234 254
220 234 254
220 234 254
220 234 254
220 234 254
220 234 254
220 234 254
220 234 254
220 234 254
220 234 254
220 234 254
220 234 254
220 234 254
220 234 254
220 234 254
220 234 254
220 234 254
220 234 254
220 234 254
220 234 254
220 234 254
220 234 254
220 234 254
220 234 254
220 234 254
220 234 254
220 234 254
220 234 254
220 234 254
220 234 254
220 234 254
220 234 254
220 234 254
220 234 254
220 234 254
220 234 254
220 234 254
220 234 254
220 234 254
220 234 254
220 234 254
220 234 254
220 234 254
220 234 254
220 234 254
220 234 254
220 234 254
220 234 254
220 234 254
220 234 254
220 234 254
220 234 254
220 234 254
220 234 254
220 234 254
220 234 254
220 234 254
220 234 254
220 234 254
220 234 254
220 234 254
220 234 254
220 234 254
220 234 254
220 234 254
220 234 254
220 234 254
220 234 254
220 234 254
220 234 254
220 234 254
220 234 254
220 234 254
220 234 254
220 234 254
220 234 254
220 234 254
220 234 254
220 234 254
220 234 254
220 234 254
220 234 254
220 234 254
220 234 254
220 234 254
220 234 254
220 234 254
220 234 254
220 234 254
213 227 247
0 0 44
0 0 45
0 0 45
0 0 45
0 0 45
0 0 45
0 0 45
0 0 45
0 0 45
0 0 45
0 0 45
0 0 45
0 0 44
0 0 45
0 0 47
0 0 47
0 0 45
0 0 45
0 0 45
0 0 45
0 0 45
0 0 45
0 0 45
0 0 45
0 0 45
0 0 45
0 0 45
0 0 45
0 0 42
0 0 42
0 0 44
0 0 45
0 0 45
0 0 45
0 0 43
0 0 42
0 0 42
0 0 42
0 0 41
0 0 44
0 0 45
0 0 45
0 0 45
0 0 45
0 0 45
0 0 45
0 0 45
0 0 45
0 0 45
0 0 45
0 0 45
0 0 45
0 0 45
0 0 44
0 0 42
0 0 43
0 0 44
0 0 45
0 0 45
0 0 45
0 0 45
0 0 45
0 0 45
0 0 45
0 0 45
0 0 45
0 0 45
0 0 45
0 0 45
0 0 45
0 0 45
0 0 45
0 0 45
0 0 45
0 0 45
0 0 45
0 0 45
0 0 45
0 0 45
0 0 45
0 0 45
0 0 45
0 0 43
0 0 43
0 0 45
0 0 45
0 0 42
0 0 42
0 0 40
0 0 39
0 0 42
0 0 42
0 0 44
0 0 45
0 0 44
0 0 42
0 0 44
0 0 45
0 0 45
0 0 45
0 0 43
0 0 43
0 0 42
0 0 44
0 0 44
0 0 42
0 0 42
0 0 42
0 0 45
0 0 43
0 0 43
0 0 45
0 0 45
0 0 45
0 0 45
0 0 45
0 0 45
0 0 45
0 0 45
0 0 48
0 0 43
0 0 49
0 0 52
0 0 42
0 0 50
0 0 51
0 0 52
0 0 53
0 0 51
0 0 54
0 0 39
0 0 50
0 0 49
0 0 55
30 45 51
53 83 32
61 101 63
63 76 35
40 56 0
34 53 3
41 66 8
33 60 0
45 65 12
54 68 21
75 86 40
61 72 24
56 80 18
48 73 11
49 59 10
54 67 19
56 71 19
61 75 23
65 76 25
68 76 25
64 73 24
37 58 11
27 48 0
37 59 0
31 52 0
39 57 0
47 69 13
40 61 0
36 56 0
33 53 0
23 44 0
29 45 0
37 52 0
31 49 0
28 51 0
27 49 5
34 53 7
30 61 14
44 64 9
31 94 75
15 56 93
12 56 85
16 75 106
13 75 97
16 69 107
2 49 108
0 26 83
0 5 63
0 0 53
0 0 47
0 0 45
0 0 45
0 0 45
0 0 45
0 0 42
0 0 42
0 0 42
0 0 42
0 0 42
0 0 42
0 0 42
0 0 42
0 0 42
0 0 42
0 0 42
0 0 42
0 0 42
0 0 42
0 0 42
0 0 42
0 0 42
0 0 42
0 0 42
0 0 42
0 0 44
0 0 42
0 0 43
0 0 45
0 0 43
2 3 43
213 227 247
220 234 254
220 234 254
220 234 254
220 234 254
220 234 254
220 234 254
220 234 254
220 234 254
220 234 254
220 234 254
220 234 254
220 234 254
220 234 254
220 234 254
220 234 254
220 234 254
220 234 254
220 234 254
220 234 254
220 234 254
220 234 254
220 234 254
220 234 254
220 234 254
220 234 254
220 234 254
220 234 254
220 234 254
220 234 254
220 234 254
220 234 254
220 234 254
220 234 254
220 234 254
220 234 254
220 234 254
220 234 254
220 234 254
220 234 254
220 234 254
220 234 254
220 234 254
220 234 254
220 234 254
220 234 254
220 234 254
220 234 254
220 234 254
220 234 254
220 234 254
220 234 254
220 234 254
220 234 254
220 234 254
220 234 254
220 234 254
220 234 254
220 234 254
220 234 254
220 234 254
220 234 254
220 234 254
220 234 254
220 234 254
220 234 254
220 234 254
220 234 254
220 234 254
220 234 254
220 234 254
220 234 254
220 234 254
220 234 254
220 234 254
220 234 254
220 234 254
220 234 254
220 234 254
220 234 254
220 234 254
220 234 254
220 234 254
220 234 254
220 234 254
220 234 254
220 234 254
220 234 254
220 234 254
220 234 254
220 234 254
220 234 254
220 234 254
220 234 254
220 234 254
220 234 254
220 234 254
220 234 254
220 234 254
220 234 254
220 234 254
220 234 254
220 234 254
220 234 254
220 234 254
220 234 254
220 234 254
220 234 254
220 234 254
220 234 254
220 234 254
220 234 254
220 234 254
220 234 254
220 234 254
220 234 254
220 234 254
220 234 254
220 234 254
220 234 254
220 234 254
220 234 254
220 234 254
220 234 254
220 234 254
220 234 254
220 234 254
220 234 254
220 234 254
220 234 254
220 234 254
220 234 254
220 234 254
220 234 254
220 234 254
220 234 254
220 234 254
220 234 254
220 234 254
220 234 254
220 234 254
220 234 254
220 234 254
220 234 254
220 234 254
220 234 254
220 234 254
220 234 254
220 234 254
220 234 254
220 234 254
220 234 254
220 234 254
220 234 254
220 234 254
220 234 254
220 234 254
220 234 254
220 234 254
220 234 254
220 234 254
220 234 254
220 234 254
220 234 254
220 234 254
220 234 254
220 234 254
220 234 254
220 234 254
220 234 254
220 234 254
220 234 254
220 234 254
220 234 254
220 234 254
220 234 254
220 234 254
220 234 254
220 234 254
220 234 254
220 234 254
220 234 254
220 234 254
220 234 254
220 234 254
194 207 226
0 0 45
0 0 46
0 0 47
0 0 45
0 0 45
0 0 45
0 0 45
0 0 45
0 0 45
0 0 45
0 0 45
0 0 45
0 0 43
0 0 44
0 0 46
0 0 45
0 0 44
0 0 44
0 0 45
0 0 45
0 0 45
0 0 45
0 0 45
0 0 45
0 0 45
0 0 45
0 0 45
0 0 45
0 0 43
0 0 42
0 0 44
0 0 45
0 0 45
0 0 44
0 0 43
0 0 43
0 0 42
0 0 42
0 0 42
0 0 44
0 0 45
0 0 45
0 0 45
0 0 45
0 0 45
0 0 45
0 0 45
0 0 45
0 0 45
0 0 45
0 0 45
0 0 43
0 0 42
0 0 43
0 0 44
0 0 44
0 0 44
0 0 45
0 0 45
0 0 45
0 0 45
0 0 45
0 0 45
0 0 45
0 0 45
0 0 45
0 0 45
0 0 45
0 0 45
0 0 45
0 0 45
0 0 45
0 0 45
0 0 45
0 0 45
0 0 45
0 0 45
0 0 45
0 0 45
0 0 45
0 0 45
0 0 45
0 0 43
0 0 42
0 0 42
0 0 42
0 0 42
0 0 42
0 0 42
0 0 42
0 0 42
0 0 43
0 0 45
0 0 45
0 0 45
0 0 45
0 0 45
0 0 45
0 0 45
0 0 45
0 0 44
0 0 42
0 0 44
0 0 45
0 0 45
0 0 45
0 0 44
0 0 45
0 0 45
0 0 45
0 0 45
0 0 45
0 0 45
0 0 45
0 0 45
0 0 45
0 0 45
0 0 44
0 0 42
0 0 44
0 0 44
0 0 45
0 0 48
0 0 47
0 0 51
0 0 52
0 0 52
0 0 52
0 0 50
0 0 50
0 0 49
0 0 48
0 0 53
2 6 50
41 62 63
66 97 37
60 97 45
53 80 25
43 62 4
38 54 4
46 66 3
41 64 14
69 82 41
73 83 35
63 80 29
55 76 20
53 76 16
51 72 14
54 69 11
60 74 24
64 76 25
65 74 23
70 78 27
68 73 24
56 62 18
26 46 0
27 49 0
29 52 0
28 51 0
33 55 0
38 60 5
37 59 0
35 56 0
33 52 0
31 47 0
37 46 0
45 56 0
31 49 0
29 53 0
29 52 0
33 54 0
32 54 6
37 56 0
31 57 0
26 56 12
25 57 24
27 52 16
23 49 0
26 66 51
22 62 74
13 59 95
0 27 84
0 7 62
0 0 57
0 0 48
0 0 45
0 0 45
0 0 46
0 0 42
0 0 42
0 0 42
0 0 42
0 0 42
0 0 42
0 0 42
0 0 42
0 0 42
0 0 42
0 0 42
0 0 42
0 0 42
0 0 42
0 0 42
0 0 42
0 0 42
0 0 42
0 0 42
0 0 42
0 0 44
0 0 42
0 0 43
0 0 45
0 0 43
0 0 41
204 218 236
220 234 254
220 234 254
220 234 254
220 234 254
220 234 254
220 234 254
220 234 254
220 234 254
220 234 254
220 234 254
220 234 254
220 234 254
220 234 254
220 234 254
220 234 254
220 234 254
220 234 254
220 234 254
220 234 254
220 234 254
220 234 254
220 234 254
220 234 254
220 234 254
220 234 254
220 234 254
220 234 254
220 234 254
220 234 254
220 234 254
220 234 254
220 234 254
220 234 254
220 234 254
220 234 254
220 234 254
220 234 254
220 234 254
220 234 254
220 234 254
220 234 254
220 234 254
220 234 254
220 234 254
220 234 254
220 234 254
220 234 254
220 234 254
220 234 254
220 234 254
220 234 254
220 234 254
220 234 254
220 234 254
220 234 254
220 234 254
220 234 254
220 234 254
220 234 254
220 234 254
220 234 254
220 234 254
220 234 254
220 234 254
220 234 254
220 234 254
220 234 254
220 234 254
220 234 254
220 234 254
220 234 254
220 234 254
220 234 254
220 234 254
220 234 254
220 234 254
220 234 254
220 234 254
220 234 254
220 234 254
220 234 254
220 234 254
220 234 254
220 234 254
220 234 254
220 234 254
220 234 254
220 234 254
220 234 254
220 234 254
220 234 254
220 234 254
220 234 254
220 234 254
220 234 254
220 234 254
220 234 254
220 234 254
220 234 254
220 234 254
220 234 254
220 234 254
220 234 254
220 234 254
220 234 254
220 234 254
220 234 254
220 234 254
220 234 254
220 234 254
220 234 254
220 234 254
220 234 254
220 234 254
220 234 254
220 234 254
220 234 254
220 234 254
220 234 254
220 234 254
220 234 254
220 234 254
220 234 254
220 234 254
220 234 254
220 234 254
220 234 254
220 234 254
220 234 254
220 234 254
220 234 254
220 234 254
220 234 254
220 234 254
220 234 254
220 234 254
220 234 254
220 234 254
220 234 254
220 234 254
220 234 254
220 234 254
220 234 254
220 234 254
220 234 254
220 234 254
220 234 254
220 234 254
220 234 254
220 234 254
220 234 254
220 234 254
220 234 254
220 234 254
220 234 254
220 234 254
220 234 254
220 234 254
220 234 254
220 234 254
220 234 254
220 234 254
220 234 254
220 234 254
220 234 254
220 234 254
220 234 254
220 234 254
220 234 254
220 234 254
220 234 254
220 234 254
220 234 254
220 234 254
220 234 254
220 234 254
220 234 254
220 234 254
220 234 254
220 234 254
220 234 254
220 234 254
220 234 254
220 234 254
182 194 213
0 0 45
0 0 46
0 0 46
0 0 45
0 0 45
0 0 45
0 0 45
0 0 45
0 0 45
0 0 45
0 0 45
0 0 45
0 0 45
0 0 45
0 0 45
0 0 45
0 0 45
0 0 45
0 0 45
0 0 45
0 0 45
0 0 45
0 0 45
0 0 45
0 0 45
0 0 45
0 0 45
0 0 45
0 0 45
0 0 44
0 0 44
0 0 45
0 0 45
0 0 44
0 0 44
0 0 44
0 0 42
0 0 42
0 0 42
0 0 45
0 0 45
0 0 45
0 0 45
0 0 45
0 0 45
0 0 45
0 0 45
0 0 45
0 0 45
0 0 45
0 0 45
0 0 42
0 0 42
0 0 43
0 0 45
0 0 45
0 0 45
0 0 45
0 0 45
0 0 45
0 0 45
0 0 45
0 0 45
0 0 45
0 0 45
0 0 45
0 0 45
0 0 45
0 0 45
0 0 45
0 0 45
0 0 45
0 0 45
0 0 45
0 0 45
0 0 45
0 0 45
0 0 45
0 0 45
0 0 45
0 0 45
0 0 45
0 0 44
0 0 42
0 0 42
0 0 42
0 0 42
0 0 42
0 0 42
0 0 42
0 0 42
0 0 44
0 0 45
0 0 45
0 0 45
0 0 45
0 0 45
0 0 45
0 0 45
0 0 45
0 0 45
0 0 45
0 0 45
0 0 45
0 0 45
0 0 45
0 0 43
0 0 45
0 0 45
0 0 45
0 0 45
0 0 45
0 0 45
0 0 45
0 0 45
0 0 45
0 0 45
0 0 45
0 0 45
0 0 45
0 0 42
0 0 43
0 0 46
0 0 45
0 0 47
0 0 50
0 0 51
0 0 50
0 0 50
0 0 50
0 0 50
0 0 50
0 0 56
0 6 55
31 54 80
67 97 45
58 88 36
47 73 16
51 69 16
49 67 18
48 67 5
61 78 31
74 89 44
61 76 22
54 75 19
55 75 19
53 72 12
59 75 16
66 78 23
68 79 28
69 79 31
70 81 30
71 83 32
60 72 23
41 55 5
31 52 0
29 50 0
22 44 0
25 45 0
34 55 0
39 59 0
33 53 0
31 51 0
30 49 0
28 44 0
35 47 0
54 61 13
58 62 14
49 55 12
42 57 12
33 53 0
37 57 0
32 52 0
23 48 0
22 45 0
25 47 0
25 45 0
21 39 0
26 46 0
28 52 7
27 58 43
15 92 114
0 32 92
0 5 61
0 0 54
0 0 44
0 0 42
0 0 45
0 0 42
0 0 42
0 0 42
0 0 42
0 0 42
0 0 42
0 0 42
0 0 42
0 0 42
0 0 42
0 0 42
0 0 42
0 0 42
0 0 40
0 0 42
0 0 42
0 0 42
0 0 42
0 0 42
0 0 42
0 0 44
0 0 44
0 0 44
0 0 45
0 0 44
0 0 43
178 190 208
220 234 254
220 234 254
220 234 254
220 234 254
220 234 254
220 234 254
220 234 254
220 234 254
220 234 254
220 234 254
220 234 254
220 234 254
220 234 254
220 234 254
220 234 254
220 234 254
220 234 254
220 234 254
220 234 254
220 234 254
220 234 254
220 234 254
220 234 254
220 234 254
220 234 254
220 234 254
220 234 254
220 234 254
220 234 254
220 234 254
220 234 254
220 234 254
220 234 254
220 234 254
220 234 254
220 234 254
220 234 254
220 234 254
220 234 254
220 234 254
220 234 254
220 234 254
220 234 254
220 234 254
220 234 254
220 234 254
220 234 254
220 234 254
220 234 254
220 234 254
220 234 254
220 234 254
220 234 254
220 234 254
220 234 254
220 234 254
220 234 254
220 234 254
220 234 254
220 234 254
220 234 254
220 234 254
220 234 254
220 234 254
220 234 254
220 234 254
220 234 254
220 234 254
220 234 254
220 234 254
220 234 254
220 234 254
220 234 254
220 234 254
220 234 254
220 234 254
220 234 254
220 234 254
220 234 254
220 234 254
220 234 254
220 234 254
220 234 254
220 234 254
220 234 254
220 234 254
220 234 254
220 234 254
220 234 254
220 234 254
220 234 254
220 234 254
220 234 254
220 234 254
220 234 254
220 234 254
220 234 254
220 234 254
220 234 254
220 234 254
220 234 254
220 234 254
220 234 254
220 234 254
220 234 254
220 234 254
220 234 254
220 234 254
220 234 254
220 234 254
220 234 254
220 234 254
220 234 254
220 234 254
220 234 254
220 234 254
220 234 254
220 234 254
220 234 254
220 234 254
220 234 254
220 234 254
220 234 254
220 234 254
220 234 254
220 234 254
220 234 254
220 234 254
220 234 254
220 234 254
220 234 254
220 234 254
220 234 254
220 234 254
220 234 254
220 234 254
220 234 254
220 234 254
220 234 254
220 234 254
220 234 254
220 234 254
220 234 254
220 234 254
220 234 254
220 234 254
220 234 254
220 234 254
220 234 254
220 234 254
220 234 254
220 234 254
220 234 254
220 234 254
220 234 254
220 234 254
220 234 254
220 234 254
220 234 254
220 234 254
220 234 254
220 234 254
220 234 254
220 234 254
220 234 254
220 234 254
220 234 254
220 234 254
220 234 254
220 234 254
220 234 254
220 234 254
220 234 254
220 234 254
220 234 254
220 234 254
220 234 254
220 234 254
220 234 254
220 234 254
220 234 254
220 234 254
220 234 254
220 234 254
176 187 205
0 0 45
0 0 45
0 0 46
0 0 45
0 0 45
0 0 45
0 0 45
0 0 45
0 0 45
0 0 45
0 0 45
0 0 45
0 0 45
0 0 45
0 0 45
0 0 45
0 0 45
0 0 45
0 0 45
0 0 45
0 0 45
0 0 45
0 0 45
0 0 45
0 0 45
0 0 45
0 0 45
0 0 45
0 0 45
0 0 45
0 0 45
0 0 45
0 0 45
0 0 45
0 0 45
0 0 44
0 0 42
0 0 42
0 0 43
0 0 45
0 0 45
0 0 45
0 0 45
0 0 45
0 0 45
0 0 45
0 0 45
0 0 45
0 0 45
0 0 45
0 0 45
0 0 42
0 0 42
0 0 43
0 0 45
0 0 45
0 0 45
0 0 45
0 0 45
0 0 45
0 0 45
0 0 45
0 0 45
0 0 45
0 0 45
0 0 45
0 0 45
0 0 45
0 0 45
0 0 45
0 0 45
0 0 45
0 0 45
0 0 45
0 0 45
0 0 45
0 0 45
0 0 45
0 0 45
0 0 45
0 0 45
0 0 45
0 0 45
0 0 44
0 0 42
0 0 42
0 0 42
0 0 44
0 0 43
0 0 42
0 0 44
0 0 45
0 0 45
0 0 45
0 0 45
0 0 45
0 0 45
0 0 45
0 0 45
0 0 45
0 0 45
0 0 45
0 0 45
0 0 45
0 0 45
0 0 45
0 0 45
0 0 45
0 0 45
0 0 45
0 0 45
0 0 45
0 0 45
0 0 43
0 0 43
0 0 45
0 0 45
0 0 45
0 0 43
0 0 44
0 0 44
0 0 44
0 0 45
0 0 45
0 0 46
0 0 48
0 0 48
0 0 49
0 0 48
0 0 49
0 0 48
0 0 51
0 0 51
1 6 54
33 67 77
61 95 36
61 83 34
49 72 15
59 76 24
54 74 20
55 69 17
71 81 31
70 85 35
54 78 19
53 75 14
58 74 14
58 72 11
66 79 21
68 82 26
67 80 28
64 75 26
61 74 21
58 73 22
41 60 6
31 51 0
30 50 0
28 48 0
25 44 0
32 51 0
33 52 0
37 54 0
32 50 0
31 50 0
26 47 0
24 43 0
28 49 0
44 55 8
71 72 23
78 81 31
50 64 16
38 63 0
36 58 0
29 51 0
25 48 0
23 45 0
24 47 0
26 47 0
18 37 0
26 49 0
28 51 0
27 49 5
32 66 35
15 100 129
1 44 96
0 0 59
0 0 46
0 0 43
0 0 42
0 0 44
0 0 43
0 0 42
0 0 42
0 0 42
0 0 42
0 0 42
0 0 42
0 0 42
0 0 42
0 0 42
0 0 42
0 0 42
0 0 41
0 0 42
0 0 42
0 0 42
0 0 42
0 0 42
0 0 42
0 0 44
0 0 45
0 0 45
0 0 45
0 0 45
0 0 44
181 193 211
220 234 254
220 234 254
220 234 254
220 234 254
220 234 254
220 234 254
220 234 254
220 234 254
220 234 254
220 234 254
220 234 254
220 234 254
220 234 254
220 234 254
220 234 254
220 234 254
220 234 254
220 234 254
220 234 254
220 234 254
220 234 254
220 234 254
220 234 254
220 234 254
220 234 254
220 234 254
220 234 254
220 234 254
220 234 254
220 234 254
220 234 254
220 234 254
220 234 254
220 234 254
220 234 254
220 234 254
220 234 254
220 234 254
220 234 254
220 234 254
220 234 254
220 234 254
220 234 254
220 234 254
220 234 254
220 234 254
220 234 254
220 234 254
220 234 254
220 234 254
220 234 254
220 234 254
220 234 254
220 234 254
220 234 254
220 234 254
220 234 254
220 234 254
220 234 254
220 234 254
220 234 254
220 234 254
220 234 254
220 234 254
220 234 254
220 234 254
220 234 254
220 234 254
220 234 254
220 234 254
220 234 254
220 234 254
220 234 254
220 234 254
220 234 254
220 234 254
220 234 254
220 234 254
220 234 254
220 234 254
220 234 254
220 234 254
220 234 254
220 234 254
220 234 254
220 234 254
220 234 254
220 234 254
220 234 254
220 234 254
220 234 254
220 234 254
220 234 254
220 234 254
220 234 254
220 234 254
220 234 254
220 234 254
220 234 254
220 234 254
220 234 254
220 234 254
220 234 254
220 234 254
220 234 254
220 234 254
220 234 254
220 234 254
220 234 254
220 234 254
220 234 254
220 234 254
220 234 254
220 234 254
220 234 254
220 234 254
220 234 254
220 234 254
220 234 254
220 234 254
220 234 254
220 234 254
220 234 254
220 234 254
220 234 254
220 234 254
220 234 254
220 234 254
220 234 254
220 234 254
220 234 254
220 234 254
220 234 254
220 234 254
220 234 254
220 234 254
220 234 254
220 234 254
220 234 254
220 234 254
220 234 254
220 234 254
220 234 254
220 234 254
220 234 254
220 234 254
220 234 254
220 234 254
220 234 254
220 234 254
220 234 254
220 234 254
220 234 254
220 234 254
220 234 254
220 234 254
220 234 254
220 234 254
220 234 254
220 234 254
220 234 254
220 234 254
220 234 254
220 234 254
220 234 254
220 234 254
220 234 254
220 234 254
220 234 254
220 234 254
220 234 254
220 234 254
220 234 254
220 234 254
220 234 254
220 234 254
220 234 254
220 234 254
220 234 254
220 234 254
220 234 254
220 234 254
220 234 254
220 234 254
149 159 176
0 0 45
0 0 45
0 0 45
0 0 45
0 0 45
0 0 44
0 0 45
0 0 45
0 0 45
0 0 45
0 0 45
0 0 45
0 0 45
0 0 45
0 0 45
0 0 45
0 0 45
0 0 45
0 0 45
0 0 45
0 0 45
0 0 45
0 0 45
0 0 45
0 0 45
0 0 45
0 0 45
0 0 45
0 0 45
0 0 45
0 0 45
0 0 45
0 0 45
0 0 45
0 0 45
0 0 44
0 0 42
0 0 42
0 0 42
0 0 43
0 0 43
0 0 43
0 0 43
0 0 44
0 0 45
0 0 45
0 0 45
0 0 45
0 0 45
0 0 45
0 0 45
0 0 42
0 0 42
0 0 43
0 0 45
0 0 45
0 0 45
0 0 45
0 0 45
0 0 45
0 0 45
0 0 45
0 0 45
0 0 45
0 0 45
0 0 45
0 0 45
0 0 45
0 0 45
0 0 45
0 0 45
0 0 45
0 0 45
0 0 45
0 0 45
0 0 45
0 0 45
0 0 45
0 0 45
0 0 45
0 0 45
0 0 45
0 0 45
0 0 44
0 0 42
0 0 42
0 0 42
0 0 45
0 0 44
0 0 44
0 0 45
0 0 45
0 0 45
0 0 45
0 0 45
0 0 45
0 0 45
0 0 45
0 0 45
0 0 45
0 0 45
0 0 45
0 0 45
0 0 45
0 0 46
0 0 45
0 0 45
0 0 45
0 0 45
0 0 45
0 0 45
0 0 45
0 0 45
0 0 43
0 0 42
0 0 43
0 0 45
0 0 45
0 0 45
0 0 46
0 0 47
0 0 47
0 0 47
0 0 46
0 0 45
0 0 46
0 0 47
0 0 45
0 0 46
0 0 47
0 0 47
0 0 49
0 0 47
0 0 63
27 61 82
54 85 37
66 83 34
57 75 21
63 77 25
54 73 18
61 74 26
72 80 32
60 78 24
57 81 21
61 78 17
62 76 15
60 72 15
61 76 17
58 78 17
51 70 15
46 62 11
45 63 7
41 59 7
34 53 0
33 51 0
34 52 0
31 50 0
25 42 0
30 49 0
33 51 0
33 50 0
31 50 0
33 52 0
29 49 0
29 51 0
29 51 0
43 59 11
65 72 17
72 78 23
57 72 21
41 63 0
39 63 0
31 54 0
27 49 0
23 45 0
26 48 0
29 49 0
28 49 0
29 52 0
28 50 0
28 46 6
30 51 0
29 80 57
9 89 99
0 7 65
0 0 52
0 0 48
0 0 43
0 0 44
0 0 45
0 0 42
0 0 42
0 0 42
0 0 42
0 0 42
0 0 42
0 0 42
0 0 42
0 0 42
0 0 42
0 0 42
0 0 42
0 0 42
0 0 42
0 0 42
0 0 42
0 0 42
0 0 42
0 0 43
0 0 45
0 0 45
0 0 45
0 0 45
0 0 43
139 148 164
220 234 254
220 234 254
220 234 254
220 234 254
220 234 254
220 234 254
220 234 254
220 234 254
220 234 254
220 234 254
220 234 254
220 234 254
220 234 254
220 234 254
220 234 254
220 234 254
220 234 254
220 234 254
220 234 254
220 234 254
220 234 254
220 234 254
220 234 254
220 234 254
220 234 254
220 234 254
220 234 254
220 234 254
220 234 254
220 234 254
220 234 254
220 234 254
220 234 254
220 234 254
220 234 254
220 234 254
220 234 254
220 234 254
220 234 254
220 234 254
220 234 254
220 234 254
220 234 254
220 234 254
220 234 254
220 234 254
220 234 254
220 234 254
220 234 254
220 234 254
220 234 254
220 234 254
220 234 254
220 234 254
220 234 254
220 234 254
220 234 254
220 234 254
220 234 254
220 234 254
220 234 254
220 234 254
220 234 254
220 234 254
220 234 254
220 234 254
220 234 254
220 234 254
220 234 254
220 234 254
220 234 254
220 234 254
220 234 254
220 234 254
220 234 254
220 234 254
220 234 254
220 234 254
220 234 254
220 234 254
220 234 254
220 234 254
220 234 254
220 234 254
220 234 254
220 234 254
220 234 254
220 234 254
220 234 254
220 234 254
220 234 254
220 234 254
220 234 254
220 234 254
220 234 254
220 234 254
220 234 254
220 234 254
220 234 254
220 234 254
220 234 254
220 234 254
220 234 254
220 234 254
220 234 254
220 234 254
220 234 254
220 234 254
220 234 254
220 234 254
220 234 254
220 234 254
220 234 254
220 234 254
220 234 254
220 234 254
220 234 254
220 234 254
220 234 254
220 234 254
220 234 254
220 234 254
220 234 254
220 234 254
220 234 254
220 234 254
220 234 254
220 234 254
220 234 254
220 234 254
220 234 254
220 234 254
220 234 254
220 234 254
220 234 254
220 234 254
220 234 254
220 234 254
220 234 254
220 234 254
220 234 254
220 234 254
220 234 254
220 234 254
220 234 254
220 234 254
220 234 254
220 234 254
220 234 254
220 234 254
220 234 254
220 234 254
220 234 254
220 234 254
220 234 254
220 234 254
220 234 254
220 234 254
220 234 254
220 234 254
220 234 254
220 234 254
220 234 254
220 234 254
220 234 254
220 234 254
220 234 254
220 234 254
220 234 254
220 234 254
220 234 254
220 234 254
220 234 254
220 234 254
220 234 254
220 234 254
220 234 254
220 234 254
220 234 254
220 234 254
220 234 254
220 234 254
220 234 254
220 234 254
141 150 166
0 0 45
0 0 44
0 0 45
0 0 45
0 0 43
0 0 43
0 0 45
0 0 45
0 0 45
0 0 45
0 0 45
0 0 45
0 0 45
0 0 45
0 0 45
0 0 45
0 0 45
0 0 45
0 0 45
0 0 45
0 0 45
0 0 45
0 0 45
0 0 45
0 0 45
0 0 45
0 0 45
0 0 45
0 0 45
0 0 45
0 0 45
0 0 45
0 0 45
0 0 45
0 0 45
0 0 44
0 0 42
0 0 42
0 0 42
0 0 42
0 0 42
0 0 42
0 0 42
0 0 43
0 0 44
0 0 44
0 0 44
0 0 44
0 0 43
0 0 42
0 0 42
0 0 44
0 0 45
0 0 45
0 0 45
0 0 45
0 0 45
0 0 45
0 0 45
0 0 45
0 0 45
0 0 45
0 0 45
0 0 45
0 0 45
0 0 45
0 0 45
0 0 45
0 0 45
0 0 45
0 0 45
0 0 45
0 0 45
0 0 45
0 0 45
0 0 45
0 0 45
0 0 45
0 0 45
0 0 45
0 0 45
0 0 45
0 0 45
0 0 45
0 0 43
0 0 42
0 0 45
0 0 45
0 0 45
0 0 45
0 0 45
0 0 45
0 0 45
0 0 45
0 0 43
0 0 44
0 0 45
0 0 46
0 0 47
0 0 48
0 0 48
0 0 48
0 0 48
0 0 47
0 0 47
0 0 45
0 0 45
0 0 45
0 0 45
0 0 45
0 0 45
0 0 45
0 0 45
0 0 45
0 0 45
0 0 46
0 0 46
0 0 48
0 0 49
0 0 50
0 0 51
0 0 51
0 0 50
0 0 48
0 0 48
0 0 46
0 0 46
0 0 45
0 0 45
0 0 46
0 0 47
0 0 48
0 0 46
0 0 57
20 42 78
54 78 44
57 77 16
61 73 34
59 70 21
61 73 20
65 78 33
65 82 30
59 79 18
57 76 18
59 73 18
60 74 15
58 72 14
44 64 6
37 60 0
39 61 0
37 57 0
38 60 0
33 53 0
34 52 0
39 54 0
31 51 0
28 47 0
31 50 0
30 49 0
28 46 0
34 53 0
30 50 0
29 50 0
31 53 0
33 56 0
36 56 0
57 70 18
74 79 28
80 83 32
70 79 31
42 58 3
42 65 2
35 57 0
28 51 0
22 45 0
28 47 0
27 47 0
30 52 0
27 50 0
27 48 0
28 49 0
36 51 0
33 49 0
18 70 70
0 26 81
0 11 67
0 0 56
0 0 43
0 0 43
0 0 44
0 0 42
0 0 42
0 0 42
0 0 42
0 0 42
0 0 42
0 0 42
0 0 42
0 0 42
0 0 42
0 0 42
0 0 42
0 0 42
0 0 43
0 0 44
0 0 42
0 0 42
0 0 42
0 0 43
0 0 45
0 0 45
0 0 45
0 0 45
0 0 43
152 162 179
220 234 254
220 234 254
220 234 254
220 234 254
220 234 254
220 234 254
220 234 254
220 234 254
220 234 254
220 234 254
220 234 254
220 234 254
220 234 254
220 234 254
220 234 254
220 234 254
220 234 254
220 234 254
220 234 254
220 234 254
220 234 254
220 234 254
220 234 254
220 234 254
220 234 254
220 234 254
220 234 254
220 234 254
220 234 254
220 234 254
220 234 254
220 234 254
220 234 254
220 234 254
220 234 254
220 234 254
220 234 254
220 234 254
220 234 254
220 234 254
220 234 254
220 234 254
220 234 254
220 234 254
220 234 254
220 234 254
220 234 254
220 234 254
220 234 254
220 234 254
220 234 254
220 234 254
220 234 254
220 234 254
220 234 254
220 234 254
220 234 254
220 234 254
220 234 254
220 234 254
220 234 254
220 234 254
220 234 254
220 234 254
220 234 254
220 234 254
220 234 254
220 234 254
220 234 254
220 234 254
220 234 254
220 234 254
220 234 254
220 234 254
220 234 254
220 234 254
220 234 254
220 234 254
220 234 254
220 234 254
220 234 254
220 234 254
220 234 254
220 234 254
220 234 254
220 234 254
220 234 254
220 234 254
220 234 254
220 234 254
220 234 254
220 234 254
220 234 254
220 234 254
220 234 254
220 234 254
220 234 254
220 234 254
220 234 254
220 234 254
220 234 254
220 234 254
220 234 254
220 234 254
220 234 254
220 234 254
220 234 254
220 234 254
220 234 254
220 234 254
220 234 254
220 234 254
220 234 254
220 234 254
220 234 254
220 234 254
220 234 254
220 234 254
220 234 254
220 234 254
220 234 254
220 234 254
220 234 254
220 234 254
220 234 254
220 234 254
220 234 254
220 234 254
220 234 254
220 234 254
220 234 254
220 234 254
220 234 254
220 234 254
220 234 254
220 234 254
220 234 254
220 234 254
220 234 254
220 234 254
220 234 254
220 234 254
220 234 254
220 234 254
220 234 254
220 234 254
220 234 254
220 234 254
220 234 254
220 234 254
220 234 254
220 234 254
220 234 254
220 234 254
220 234 254
220 234 254
220 234 254
220 234 254
220 234 254
220 234 254
220 234 254
220 234 254
220 234 254
220 234 254
220 234 254
220 234 254
220 234 254
220 234 254
220 234 254
220 234 254
220 234 254
220 234 254
220 234 254
220 234 254
220 234 254
220 234 254
220 234 254
220 234 254
220 234 254
220 234 254
220 234 254
220 234 254
220 234 254
220 234 254
134 142 159
0 0 45
0 0 45
0 0 45
0 0 45
0 0 44
0 0 44
0 0 45
0 0 45
0 0 45
0 0 45
0 0 45
0 0 45
0 0 45
0 0 45
0 0 45
0 0 45
0 0 45
0 0 45
0 0 45
0 0 45
0 0 45
0 0 45
0 0 45
0 0 45
0 0 45
0 0 44
0 0 42
0 0 42
0 0 42
0 0 43
0 0 45
0 0 44
0 0 44
0 0 45
0 0 45
0 0 44
0 0 42
0 0 42
0 0 42
0 0 42
0 0 42
0 0 42
0 0 42
0 0 42
0 0 42
0 0 42
0 0 42
0 0 42
0 0 42
0 0 42
0 0 42
0 0 45
0 0 45
0 0 45
0 0 45
0 0 45
0 0 45
0 0 45
0 0 45
0 0 45
0 0 45
0 0 45
0 0 45
0 0 45
0 0 45
0 0 45
0 0 45
0 0 45
0 0 45
0 0 45
0 0 45
0 0 45
0 0 45
0 0 45
0 0 45
0 0 45
0 0 45
0 0 45
0 0 45
0 0 45
0 0 45
0 0 45
0 0 45
0 0 45
0 0 44
0 0 43
0 0 45
0 0 45
0 0 45
0 0 45
0 0 45
0 0 45
0 0 45
0 0 45
0 0 43
0 0 43
0 0 45
0 0 46
0 0 47
0 0 50
0 0 50
0 0 51
0 0 50
0 0 48
0 0 46
0 0 45
0 0 45
0 0 45
0 0 45
0 0 45
0 0 45
0 0 45
0 0 45
0 0 47
0 0 48
0 0 49
0 0 51
0 0 52
0 0 53
0 0 54
0 0 55
0 0 54
0 0 53
0 0 51
0 0 51
0 0 48
0 0 47
0 0 46
0 0 46
0 0 47
0 0 47
0 0 46
0 0 51
0 16 78
34 62 50
54 80 31
47 69 16
59 68 31
61 72 25
71 80 29
60 73 28
50 71 18
51 74 11
54 71 17
55 73 17
53 73 15
44 65 8
34 54 0
35 55 0
40 58 0
38 56 0
37 57 0
32 53 0
34 54 0
37 57 0
31 49 0
30 50 0
29 50 0
30 49 0
23 41 0
31 51 0
32 52 0
34 54 0
31 52 0
34 57 0
36 59 0
54 71 12
84 89 37
85 86 41
62 70 24
41 61 10
41 61 7
38 58 0
33 53 0
25 45 0
28 47 0
29 48 0
29 50 0
33 53 0
30 50 0
27 49 0
32 48 5
38 53 0
33 83 83
0 88 129
5 71 118
0 20 67
0 0 45
0 0 42
0 0 42
0 0 42
0 0 42
0 0 42
0 0 42
0 0 42
0 0 42
0 0 42
0 0 42
0 0 42
0 0 42
0 0 42
0 0 42
0 0 42
0 0 44
0 0 45
0 0 43
0 0 42
0 0 42
0 0 43
0 0 45
0 0 45
0 0 45
0 0 45
0 0 43
124 132 148
220 234 254
220 234 254
220 234 254
220 234 254
220 234 254
220 234 254
220 234 254
220 234 254
220 234 254
220 234 254
220 234 254
220 234 254
220 234 254
220 234 254
220 234 254
220 234 254
220 234 254
220 234 254
220 234 254
220 234 254
220 234 254
220 234 254
220 234 254
220 234 254
220 234 254
220 234 254
220 234 254
220 234 254
220 234 254
220 234 254
220 234 254
220 234 254
220 234 254
220 234 254
220 234 254
220 234 254
220 234 254
220 234 254
220 234 254
220 234 254
220 234 254
220 234 254
220 234 254
220 234 254
220 234 254
220 234 254
220 234 254
220 234 254
220 234 254
220 234 254
220 234 254
220 234 254
220 234 254
220 234 254
220 234 254
220 234 254
220 234 254
220 234 254
220 234 254
220 234 254
220 234 254
220 234 254
220 234 254
220 234 254
220 234 254
220 234 254
220 234 254
220 234 254
220 234 254
220 234 254
220 234 254
220 234 254
220 234 254
220 234 254
220 234 254
220 234 254
220 234 254
220 234 254
220 234 254
220 234 254
220 234 254
220 234 254
220 234 254
220 234 254
220 234 254
220 234 254
220 234 254
220 234 254
220 234 254
220 234 254
220 234 254
220 234 254
220 234 254
220 234 254
220 234 254
220 234 254
220 234 254
220 234 254
220 234 254
220 234 254
220 234 254
220 234 254
220 234 254
220 234 254
220 234 254
220 234 254
220 234 254
220 234 254
220 234 254
220 234 254
220 234 254
220 234 254
220 234 254
220 234 254
220 234 254
220 234 254
220 234 254
220 234 254
220 234 254
220 234 254
220 234 254
220 234 254
220 234 254
220 234 254
220 234 254
220 234 254
220 234 254
220 234 254
220 234 254
220 234 254
220 234 254
220 234 254
220 234 254
220 234 254
220 234 254
220 234 254
220 234 254
220 234 254
220 234 254
220 234 254
220 234 254
220 234 254
220 234 254
220 234 254
220 234 254
220 234 254
220 234 254
220 234 254
220 234 254
220 234 254
220 234 254
220 234 254
220 234 254
220 234 254
220 234 254
220 234 254
220 234 254
220 234 254
220 234 254
220 234 254
220 234 254
220 234 254
220 234 254
220 234 254
220 234 254
220 234 254
220 234 254
220 234 254
220 234 254
220 234 254
220 234 254
220 234 254
220 234 254
220 234 254
220 234 254
220 234 254
220 234 254
220 234 254
220 234 254
220 234 254
220 234 254
220 234 254
220 234 254
220 234 254
134 142 159
0 0 45
0 0 45
0 0 45
0 0 45
0 0 45
0 0 45
0 0 45
0 0 45
0 0 45
0 0 45
0 0 45
0 0 45
0 0 45
0 0 45
0 0 45
0 0 45
0 0 44
0 0 44
0 0 44
0 0 45
0 0 45
0 0 45
0 0 44
0 0 43
0 0 44
0 0 43
0 0 42
0 0 42
0 0 42
0 0 43
0 0 45
0 0 44
0 0 44
0 0 43
0 0 43
0 0 43
0 0 42
0 0 42
0 0 42
0 0 42
0 0 42
0 0 42
0 0 42
0 0 43
0 0 44
0 0 44
0 0 43
0 0 43
0 0 42
0 0 42
0 0 42
0 0 43
0 0 44
0 0 45
0 0 45
0 0 45
0 0 45
0 0 45
0 0 45
0 0 45
0 0 45
0 0 45
0 0 45
0 0 45
0 0 45
0 0 45
0 0 45
0 0 45
0 0 45
0 0 45
0 0 45
0 0 45
0 0 45
0 0 45
0 0 45
0 0 45
0 0 45
0 0 45
0 0 45
0 0 45
0 0 45
0 0 45
0 0 45
0 0 45
0 0 45
0 0 45
0 0 45
0 0 45
0 0 45
0 0 45
0 0 45
0 0 45
0 0 45
0 0 45
0 0 43
0 0 43
0 0 47
0 0 47
0 0 47
0 0 48
0 0 48
0 0 52
0 0 52
0 0 49
0 0 46
0 0 45
0 0 45
0 0 45
0 0 45
0 0 43
0 0 43
0 0 45
0 0 45
0 0 47
0 0 49
0 0 51
0 0 52
0 0 53
0 0 54
0 0 53
0 0 55
0 0 55
0 0 54
0 0 52
0 0 52
0 0 52
0 0 51
0 0 53
0 0 53
0 0 49
0 0 62
0 7 45
17 38 60
32 63 66
48 77 39
50 70 13
44 60 11
68 76 28
63 76 34
62 75 29
42 61 12
35 57 0
36 58 1
42 61 8
47 68 8
45 67 9
39 60 6
35 56 0
37 55 0
39 56 0
35 54 0
35 54 0
35 55 0
33 53 0
31 53 0
29 50 0
29 51 0
28 51 0
27 47 0
23 42 0
25 46 0
32 52 0
36 54 0
34 52 0
33 55 0
35 60 0
46 70 10
69 84 27
62 69 20
65 75 24
57 71 21
39 57 0
37 56 0
31 49 0
29 48 0
27 44 0
30 47 0
29 47 0
32 52 0
30 50 0
29 51 0
35 53 7
31 53 0
27 69 54
10 112 141
7 120 153
0 54 97
0 11 63
0 0 43
0 0 42
0 0 41
0 0 42
0 0 42
0 0 42
0 0 42
0 0 42
0 0 42
0 0 42
0 0 42
0 0 42
0 0 42
0 0 42
0 0 42
0 0 44
0 0 44
0 0 43
0 0 42
0 0 42
0 0 43
0 0 44
0 0 44
0 0 44
0 0 44
0 0 42
114 122 137
220 234 254
220 234 254
220 234 254
220 234 254
220 234 254
220 234 254
220 234 254
220 234 254
220 234 254
220 234 254
220 234 254
220 234 254
220 234 254
220 234 254
220 234 254
220 234 254
220 234 254
220 234 254
220 234 254
220 234 254
220 234 254
220 234 254
220 234 254
220 234 254
220 234 254
220 234 254
220 234 254
220 234 254
220 234 254
220 234 254
220 234 254
220 234 254
220 234 254
220 234 254
220 234 254
220 234 254
220 234 254
220 234 254
220 234 254
220 234 254
220 234 254
220 234 254
220 234 254
220 234 254
220 234 254
220 234 254
220 234 254
220 234 254
220 234 254
220 234 254
220 234 254
220 234 254
220 234 254
220 234 254
220 234 254
220 234 254
220 234 254
220 234 254
220 234 254
220 234 254
220 234 254
220 234 254
220 234 254
220 234 254
220 234 254
220 234 254
220 234 254
220 234 254
220 234 254
220 234 254
220 234 254
220 234 254
220 234 254
220 234 254
220 234 254
220 234 254
220 234 254
220 234 254
220 234 254
220 234 254
220 234 254
220 234 254
220 234 254
220 234 254
220 234 254
220 234 254
220 234 254
220 234 254
220 234 254
220 234 254
220 234 254
220 234 254
220 234 254
220 234 254
220 234 254
220 234 254
220 234 254
220 234 254
220 234 254
220 234 254
220 234 254
220 234 254
220 234 254
220 234 254
220 234 254
220 234 254
220 234 254
220 234 254
220 234 254
220 234 254
220 234 254
220 234 254
220 234 254
220 234 254
220 234 254
220 234 254
220 234 254
220 234 254
220 234 254
220 234 254
220 234 254
220 234 254
220 234 254
220 234 254
220 234 254
220 234 254
220 234 254
220 234 254
220 234 254
220 234 254
220 234 254
220 234 254
220 234 254
220 234 254
220 234 254
220 234 254
220 234 254
220 234 254
220 234 254
220 234 254
220 234 254
220 234 254
220 234 254
220 234 254
220 234 254
220 234 254
220 234 254
220 234 254
220 234 254
220 234 254
220 234 254
220 234 254
220 234 254
220 234 254
220 234 254
220 234 254
220 234 254
220 234 254
220 234 254
220 234 254
220 234 254
220 234 254
220 234 254
220 234 254
220 234 254
220 234 254
220 234 254
220 234 254
220 234 254
220 234 254
220 234 254
220 234 254
220 234 254
220 234 254
220 234 254
220 234 254
220 234 254
220 234 254
220 234 254
220 234 254
220 234 254
220 234 254
220 234 254
220 234 254
93 99 115
0 0 45
0 0 45
0 0 45
0 0 45
0 0 45
0 0 45
0 0 45
0 0 45
0 0 45
0 0 45
0 0 45
0 0 45
0 0 45
0 0 45
0 0 45
0 0 45
0 0 44
0 0 42
0 0 44
0 0 45
0 0 45
0 0 45
0 0 44
0 0 44
0 0 42
0 0 42
0 0 42
0 0 42
0 0 42
0 0 43
0 0 44
0 0 43
0 0 42
0 0 42
0 0 42
0 0 42
0 0 42
0 0 42
0 0 43
0 0 44
0 0 44
0 0 44
0 0 44
0 0 45
0 0 45
0 0 45
0 0 45
0 0 45
0 0 43
0 0 44
0 0 44
0 0 44
0 0 45
0 0 45
0 0 45
0 0 45
0 0 45
0 0 45
0 0 45
0 0 45
0 0 45
0 0 45
0 0 45
0 0 45
0 0 45
0 0 45
0 0 45
0 0 45
0 0 45
0 0 45
0 0 45
0 0 45
0 0 45
0 0 45
0 0 45
0 0 45
0 0 45
0 0 45
0 0 45
0 0 45
0 0 45
0 0 45
0 0 45
0 0 45
0 0 45
0 0 45
0 0 45
0 0 45
0 0 45
0 0 45
0 0 45
0 0 45
0 0 45
0 0 45
0 0 44
0 0 44
0 0 47
0 0 47
0 0 47
0 0 47
0 0 47
0 0 50
0 0 50
0 0 48
0 0 47
0 0 47
0 0 43
0 0 47
0 0 45
0 0 45
0 0 45
0 0 46
0 0 47
0 0 48
0 0 51
0 0 52
0 0 52
0 0 53
0 0 54
0 0 54
0 0 57
0 0 57
0 0 56
0 0 55
0 0 55
0 0 51
0 0 55
0 0 51
0 0 53
0 0 50
0 0 47
23 35 59
62 95 67
63 99 45
48 73 38
45 60 4
65 73 40
64 77 32
61 76 33
57 74 26
49 69 15
42 63 0
43 65 0
37 57 0
43 64 0
37 59 0
34 55 0
32 52 0
32 53 0
35 55 0
31 49 0
28 47 0
32 52 0
34 55 0
35 55 0
35 55 0
29 49 0
28 48 0
29 48 0
25 43 0
24 43 0
27 47 0
32 50 0
35 54 0
33 54 0
36 57 0
38 61 0
44 65 8
44 61 6
59 71 18
51 63 11
42 60 0
37 55 0
28 46 0
29 47 0
29 45 0
33 49 0
30 50 0
31 52 0
29 51 0
29 53 0
32 52 0
29 50 10
30 56 24
21 109 115
32 177 176
11 101 135
0 25 78
0 0 50
0 0 43
0 0 40
0 0 41
0 0 42
0 0 42
0 0 42
0 0 42
0 0 42
0 0 42
0 0 42
0 0 42
0 0 42
0 0 42
0 0 42
0 0 42
0 0 42
0 0 42
0 0 42
0 0 42
0 0 42
0 0 42
0 0 42
0 0 42
0 0 42
0 0 42
105 112 127
220 234 254
220 234 254
220 234 254
220 234 254
220 234 254
220 234 254
220 234 254
220 234 254
220 234 254
220 234 254
220 234 254
220 234 254
220 234 254
220 234 254
220 234 254
220 234 254
220 234 254
220 234 254
220 234 254
220 234 254
220 234 254
220 234 254
220 234 254
220 234 254
220 234 254
220 234 254
220 234 254
220 234 254
220 234 254
220 234 254
220 234 254
220 234 254
220 234 254
220 234 254
220 234 254
220 234 254
220 234 254
220 234 254
220 234 254
220 234 254
220 234 254
220 234 254
220 234 254
220 234 254
220 234 254
220 234 254
220 234 254
220 234 254
220 234 254
220 234 254
220 234 254
220 234 254
220 234 254
220 234 254
220 234 254
220 234 254
220 234 254
220 234 254
220 234 254
220 234 254
220 234 254
220 234 254
220 234 254
220 234 254
220 234 254
220 234 254
220 234 254
220 234 254
220 234 254
220 234 254
220 234 254
220 234 254
220 234 254
220 234 254
220 234 254
220 234 254
220 234 254
220 234 254
220 234 254
220 234 254
220 234 254
220 234 254
220 234 254
220 234 254
220 234 254
220 234 254
220 234 254
220 234 254
220 234 254
220 234 254
220 234 254
220 234 254
220 234 254
220 234 254
220 234 254
220 234 254
220 234 254
220 234 254
220 234 254
220 234 254
220 234 254
220 234 254
220 234 254
220 234 254
220 234 254
220 234 254
220 234 254
220 234 254
220 234 254
220 234 254
220 234 254
220 234 254
220 234 254
220 234 254
220 234 254
220 234 254
220 234 254
220 234 254
220 234 254
220 234 254
220 234 254
220 234 254
220 234 254
220 234 254
220 234 254
220 234 254
220 234 254
220 234 254
220 234 254
220 234 254
220 234 254
220 234 254
220 234 254
220 234 254
220 234 254
220 234 254
220 234 254
220 234 254
220 234 254
220 234 254
220 234 254
220 234 254
220 234 254
220 234 254
220 234 254
220 234 254
220 234 254
220 234 254
220 234 254
220 234 254
220 234 254
220 234 254
220 234 254
220 234 254
220 234 254
220 234 254
220 234 254
220 234 254
220 234 254
220 234 254
220 234 254
220 234 254
220 234 254
220 234 254
220 234 254
220 234 254
220 234 254
220 234 254
220 234 254
220 234 254
220 234 254
220 234 254
220 234 254
220 234 254
220 234 254
220 234 254
220 234 254
220 234 254
220 234 254
220 234 254
220 234 254
220 234 254
220 234 254
220 234 254
98 105 120
0 0 45
0 0 45
0 0 45
0 0 45
0 0 45
0 0 45
0 0 45
0 0 45
0 0 45
0 0 45
0 0 45
0 0 45
0 0 45
0 0 45
0 0 45
0 0 45
0 0 44
0 0 42
0 0 44
0 0 45
0 0 45
0 0 45
0 0 45
0 0 45
0 0 45
0 0 45
0 0 45
0 0 45
0 0 45
0 0 43
0 0 42
0 0 42
0 0 42
0 0 42
0 0 42
0 0 42
0 0 42
0 0 43
0 0 44
0 0 45
0 0 45
0 0 45
0 0 45
0 0 45
0 0 45
0 0 45
0 0 45
0 0 45
0 0 45
0 0 45
0 0 45
0 0 45
0 0 45
0 0 45
0 0 45
0 0 45
0 0 45
0 0 45
0 0 45
0 0 45
0 0 45
0 0 45
0 0 45
0 0 45
0 0 45
0 0 45
0 0 45
0 0 45
0 0 45
0 0 45
0 0 45
0 0 45
0 0 45
0 0 45
0 0 45
0 0 45
0 0 45
0 0 45
0 0 45
0 0 45
0 0 45
0 0 45
0 0 45
0 0 45
0 0 45
0 0 45
0 0 45
0 0 45
0 0 45
0 0 45
0 0 45
0 0 45
0 0 45
0 0 45
0 0 45
0 0 45
0 0 47
0 0 47
0 0 47
0 0 47
0 0 47
0 0 48
0 0 49
0 0 49
0 0 49
0 0 49
0 0 47
0 0 47
0 0 47
0 0 47
0 0 47
0 0 47
0 0 47
0 0 50
0 0 54
0 0 53
0 0 52
0 0 53
0 0 56
0 0 56
0 0 57
0 0 56
0 0 56
0 0 57
0 0 57
0 0 56
0 0 63
0 0 61
0 5 59
0 7 59
0 0 61
37 61 76
60 92 63
64 89 37
51 70 24
60 70 17
71 77 38
54 71 22
53 71 24
49 69 18
50 73 18
43 65 0
40 60 0
33 53 0
38 58 0
37 58 0
36 57 0
31 52 0
34 54 0
35 55 0
28 49 0
25 45 0
28 48 0
32 53 0
37 56 0
36 55 0
30 50 0
24 43 0
27 46 0
30 50 0
34 52 0
32 52 0
29 52 0
29 54 0
28 52 0
32 53 0
34 56 0
32 55 0
32 55 0
35 55 0
36 54 0
35 54 0
33 52 0
28 46 0
30 48 0
37 54 0
44 61 0
31 50 0
30 49 0
29 49 0
30 52 0
33 53 0
27 49 0
32 49 0
37 66 39
12 121 135
18 161 171
0 67 116
0 9 57
0 0 45
0 0 40
0 0 41
0 0 42
0 0 42
0 0 42
0 0 42
0 0 42
0 0 42
0 0 42
0 0 42
0 0 42
0 0 42
0 0 42
0 0 42
0 0 42
0 0 42
0 0 42
0 0 42
0 0 42
0 0 42
0 0 42
0 0 42
0 0 42
0 0 42
103 110 125
220 234 254
220 234 254
220 234 254
220 234 254
220 234 254
220 234 254
220 234 254
220 234 254
220 234 254
220 234 254
220 234 254
220 234 254
220 234 254
220 234 254
220 234 254
220 234 254
220 234 254
220 234 254
220 234 254
220 234 254
220 234 254
220 234 254
220 234 254
220 234 254
220 234 254
220 234 254
220 234 254
220 234 254
220 234 254
220 234 254
220 234 254
220 234 254
220 234 254
220 234 254
220 234 254
220 234 254
220 234 254
220 234 254
220 234 254
220 234 254
220 234 254
220 234 254
220 234 254
220 234 254
220 234 254
220 234 254
220 234 254
220 234 254
220 234 254
220 234 254
220 234 254
220 234 254
220 234 254
220 234 254
220 234 254
220 234 254
220 234 254
220 234 254
220 234 254
220 234 254
220 234 254
220 234 254
220 234 254
220 234 254
220 234 254
220 234 254
220 234 254
220 234 254
220 234 254
220 234 254
220 234 254
220 234 254
220 234 254
220 234 254
220 234 254
220 234 254
220 234 254
220 234 254
220 234 254
220 234 254
220 234 254
220 234 254
220 234 254
220 234 254
220 234 254
220 234 254
220 234 254
220 234 254
220 234 254
220 234 254
220 234 254
220 234 254
220 235 254
220 235 254
220 235 254
220 235 254
220 235 254
220 235 254
220 235 254
220 235 254
220 235 254
220 235 254
220 235 254
220 235 254
220 235 254
220 235 254
220 235 254
220 235 254
220 235 254
220 235 254
220 235 254
220 235 254
220 235 254
220 235 254
220 235 254
220 235 254
220 235 254
220 235 254
220 235 254
220 235 254
220 235 254
220 235 254
220 235 254
220 235 254
220 235 254
220 235 254
220 235 254
220 235 254
220 235 254
220 235 254
220 235 254
220 235 254
220 235 254
220 235 254
220 235 254
220 235 254
220 235 254
220 235 254
220 235 254
220 235 254
220 235 254
220 235 254
220 235 254
220 235 254
220 235 254
220 235 254
220 235 254
220 235 254
220 235 254
220 235 254
220 235 254
220 235 254
220 235 254
220 235 254
220 235 254
220 235 254
220 235 254
220 235 254
220 235 254
220 235 254
220 235 254
220 235 254
220 235 254
220 235 254
220 235 254
220 235 254
220 235 254
220 235 254
220 235 254
220 235 254
220 235 254
220 235 254
220 235 254
220 235 254
220 235 254
220 235 254
220 235 254
220 235 254
220 235 254
220 235 254
220 235 254
220 235 254
220 235 254
220 235 254
85 91 107
0 0 45
0 0 45
0 0 45
0 0 45
0 0 45
0 0 45
0 0 45
0 0 45
0 0 45
0 0 45
0 0 45
0 0 45
0 0 45
0 0 45
0 0 45
0 0 45
0 0 45
0 0 44
0 0 44
0 0 45
0 0 45
0 0 45
0 0 45
0 0 45
0 0 45
0 0 45
0 0 45
0 0 45
0 0 45
0 0 44
0 0 43
0 0 43
0 0 42
0 0 42
0 0 42
0 0 43
0 0 44
0 0 45
0 0 45
0 0 45
0 0 45
0 0 45
0 0 45
0 0 45
0 0 45
0 0 45
0 0 45
0 0 45
0 0 45
0 0 45
0 0 45
0 0 45
0 0 43
0 0 44
0 0 45
0 0 45
0 0 45
0 0 45
0 0 45
0 0 45
0 0 45
0 0 45
0 0 45
0 0 45
0 0 45
0 0 45
0 0 45
0 0 45
0 0 45
0 0 45
0 0 45
0 0 45
0 0 45
0 0 45
0 0 45
0 0 45
0 0 45
0 0 45
0 0 45
0 0 45
0 0 45
0 0 45
0 0 45
0 0 45
0 0 45
0 0 45
0 0 45
0 0 45
0 0 45
0 0 45
0 0 45
0 0 45
0 0 45
0 0 45
0 0 46
0 0 46
0 0 47
0 0 47
0 0 47
0 0 49
0 0 49
0 0 48
0 0 49
0 0 50
0 0 51
0 0 50
0 0 50
0 0 49
0 0 49
0 0 49
0 0 49
0 0 49
0 0 49
0 0 52
0 0 55
0 0 54
0 0 52
0 0 54
0 0 57
0 0 57
0 0 57
0 0 57
0 0 57
0 0 57
0 0 57
0 0 54
0 8 61
0 6 63
0 10 73
0 18 74
0 24 76
53 89 75
64 94 37
57 79 24
65 74 28
73 82 41
63 75 35
53 70 21
51 70 19
48 69 14
44 64 0
41 62 0
36 55 0
34 52 0
36 55 0
38 59 0
39 60 0
35 54 0
31 52 0
31 51 0
28 49 0
29 49 0
28 49 0
28 51 0
31 52 0
31 51 0
29 49 0
25 43 0
28 45 0
30 50 0
31 49 0
29 48 0
26 51 0
30 56 0
28 52 0
34 53 0
33 51 0
29 50 0
28 50 0
26 50 0
27 48 0
29 48 0
31 51 0
31 50 0
29 47 0
36 52 0
40 56 0
32 51 0
29 48 0
29 48 0
30 48 0
33 49 0
31 49 0
30 53 0
35 52 2
16 98 101
10 129 155
9 98 129
0 24 78
0 0 50
0 0 44
0 0 41
0 0 42
0 0 42
0 0 42
0 0 42
0 0 42
0 0 42
0 0 42
0 0 42
0 0 42
0 0 42
0 0 42
0 0 42
0 0 42
0 0 42
0 0 42
0 0 42
0 0 42
0 0 42
0 0 42
0 0 42
0 0 42
0 0 42
101 107 122
220 235 254
220 235 254
220 235 254
220 235 254
220 235 254
220 235 254
220 235 254
220 235 254
220 235 254
220 235 254
220 235 254
220 235 254
220 235 254
220 235 254
220 235 254
220 235 254
220 235 254
220 235 254
220 235 254
220 235 254
220 235 254
220 235 254
220 235 254
220 235 254
220 235 254
220 235 254
220 235 254
220 235 254
220 235 254
220 235 254
220 235 254
220 235 254
220 235 254
220 235 254
220 235 254
220 235 254
220 235 254
220 235 254
220 235 254
220 235 254
220 235 254
220 235 254
220 235 254
220 235 254
220 235 254
220 235 254
220 235 254
220 235 254
220 235 254
220 235 254
220 235 254
220 235 254
220 235 254
220 235 254
220 235 254
220 235 254
220 235 254
220 235 254
220 235 254
220 235 254
220 235 254
220 235 254
220 235 254
220 235 254
220 235 254
220 235 254
220 235 254
220 235 254
220 235 254
220 235 254
220 235 254
220 235 254
220 235 254
220 235 254
220 235 254
220 235 254
220 235 254
220 235 254
220 235 254
220 235 254
220 235 254
220 235 254
220 235 254
220 235 254
220 235 254
220 235 254
220 235 254
220 235 254
220 235 254
220 235 254
220 235 254
220 235 254
220 235 254
220 235 254
220 235 254
220 235 254
220 235 254
220 235 254
220 235 254
220 235 254
220 235 254
220 235 254
220 235 254
220 235 254
220 235 254
220 235 254
220 235 254
220 235 254
220 235 254
220 235 254
220 235 254
220 235 254
220 235 254
220 235 254
220 235 254
220 235 254
220 235 254
220 235 254
220 235 254
220 235 254
220 235 254
220 235 254
220 235 254
220 235 254
220 235 254
220 235 254
220 235 254
220 235 254
220 235 254
220 235 254
220 235 254
220 235 254
220 235 254
220 235 254
220 235 254
220 235 254
220 235 254
220 235 254
220 235 254
220 235 254
220 235 254
220 235 254
220 235 254
220 235 254
220 235 254
220 235 254
220 235 254
220 235 254
220 235 254
220 235 254
220 235 254
220 235 254
220 235 254
220 235 254
220 235 254
220 235 254
220 235 254
220 235 254
220 235 254
220 235 254
220 235 254
220 235 254
220 235 254
220 235 254
220 235 254
220 235 254
220 235 254
220 235 254
220 235 254
220 235 254
220 235 254
220 235 254
220 235 254
220 235 254
220 235 254
220 235 254
220 235 254
220 235 254
220 235 254
220 235 254
220 235 254
220 235 254
220 235 254
220 235 254
108 115 130
0 0 45
0 0 45
0 0 45
0 0 45
0 0 45
0 0 45
0 0 45
0 0 45
0 0 45
0 0 45
0 0 45
0 0 45
0 0 45
0 0 45
0 0 45
0 0 45
0 0 45
0 0 45
0 0 45
0 0 45
0 0 45
0 0 45
0 0 45
0 0 45
0 0 45
0 0 45
0 0 45
0 0 45
0 0 45
0 0 45
0 0 45
0 0 44
0 0 44
0 0 44
0 0 44
0 0 44
0 0 45
0 0 45
0 0 45
0 0 45
0 0 45
0 0 45
0 0 45
0 0 45
0 0 45
0 0 45
0 0 45
0 0 45
0 0 45
0 0 45
0 0 45
0 0 45
0 0 44
0 0 44
0 0 45
0 0 45
0 0 45
0 0 45
0 0 45
0 0 47
0 0 47
0 0 47
0 0 47
0 0 47
0 0 46
0 0 45
0 0 45
0 0 45
0 0 45
0 0 45
0 0 45
0 0 45
0 0 45
0 0 45
0 0 45
0 0 45
0 0 45
0 0 45
0 0 45
0 0 45
0 0 45
0 0 45
0 0 45
0 0 45
0 0 45
0 0 45
0 0 45
0 0 45
0 0 46
0 0 47
0 0 47
0 0 47
0 0 47
0 0 47
0 0 47
0 0 47
0 0 47
0 0 47
0 0 47
0 0 50
0 0 50
0 0 51
0 0 50
0 0 52
0 0 50
0 0 50
0 0 50
0 0 50
0 0 50
0 0 50
0 0 50
0 0 50
0 0 50
0 0 52
0 0 55
0 0 54
0 0 54
0 0 56
0 0 57
0 0 57
0 0 57
0 0 57
0 0 57
0 0 56
0 0 55
0 2 56
0 5 74
0 18 83
23 36 83
54 85 89
44 82 47
52 94 42
59 79 41
59 75 23
86 90 56
80 93 44
48 68 18
39 55 10
46 65 12
42 61 5
44 65 12
35 55 0
33 53 0
29 47 0
34 53 0
35 53 0
34 55 0
34 54 0
29 51 0
26 48 0
25 47 0
31 51 0
26 48 0
23 46 0
23 46 0
27 47 0
22 41 0
26 45 0
30 49 0
25 44 0
24 42 0
23 44 0
24 48 0
27 48 0
25 45 0
29 45 0
33 49 0
29 48 0
30 51 0
31 51 0
28 47 0
29 48 0
31 49 0
29 48 0
26 45 0
27 45 0
32 49 0
30 49 0
29 48 0
27 46 0
28 47 0
23 45 0
26 48 0
40 51 0
36 58 19
15 87 105
5 103 138
10 110 136
0 34 91
0 8 60
0 0 47
0 0 42
0 0 42
0 0 42
0 0 42
0 0 42
0 0 42
0 0 42
0 0 42
0 0 42
0 0 42
0 0 42
0 0 42
0 0 42
0 0 42
0 0 42
0 0 42
0 0 42
0 0 42
0 0 42
0 0 42
0 0 42
0 0 42
0 0 42
93 99 114
220 235 254
220 235 254
220 235 254
220 235 254
220 235 254
220 235 254
220 235 254
220 235 254
220 235 254
220 235 254
220 235 254
220 235 254
220 235 254
220 235 254
220 235 254
220 235 254
220 235 254
220 235 254
220 235 254
220 235 254
220 235 254
220 235 254
220 235 254
220 235 254
220 235 254
220 235 254
220 235 254
220 235 254
220 235 254
220 235 254
220 235 254
220 235 254
220 235 254
220 235 254
220 235 254
220 235 254
220 235 254
220 235 254
220 235 254
220 235 254
220 235 254
220 235 254
220 235 254
220 235 254
220 235 254
220 235 254
220 235 254
220 235 254
220 235 254
220 235 254
220 235 254
220 235 254
220 235 254
220 235 254
220 235 254
220 235 254
220 235 254
220 235 254
220 235 254
220 235 254
220 235 254
220 235 254
220 235 254
220 235 254
220 235 254
220 235 254
220 235 254
220 235 254
220 235 254
220 235 254
220 235 254
220 235 254
220 235 254
220 235 254
220 235 254
220 235 254
220 235 254
220 235 254
220 235 254
220 235 254
220 235 254
220 235 254
220 235 254
220 235 254
220 235 254
220 235 254
220 235 254
220 235 254
220 235 254
220 235 254
220 235 254
220 235 254
220 235 254
220 235 254
220 235 254
220 235 254
220 235 254
220 235 254
220 235 254
220 235 254
220 235 254
220 235 254
220 235 254
220 235 254
220 235 254
220 235 254
220 235 254
220 235 254
220 235 254
220 235 254
220 235 254
220 235 254
220 235 254
220 235 254
220 235 254
220 235 254
220 235 254
220 235 254
220 235 254
220 235 254
220 235 254
220 235 254
220 235 254
220 235 254
220 235 254
220 235 254
220 235 254
220 235 254
220 235 254
220 235 254
220 235 254
220 235 254
220 235 254
220 235 254
220 235 254
220 235 254
220 235 254
220 235 254
220 235 254
220 235 254
220 235 254
220 235 254
220 235 254
220 235 254
220 235 254
220 235 254
220 235 254
220 235 254
220 235 254
220 235 254
220 235 254
220 235 254
220 235 254
220 235 254
220 235 254
220 235 254
220 235 254
220 235 254
220 235 254
220 235 254
220 235 254
220 235 254
220 235 254
220 235 254
220 235 254
220 235 254
220 235 254
220 235 254
220 235 254
220 235 254
220 235 254
220 235 254
220 235 254
220 235 254
220 235 254
220 235 254
220 235 254
220 235 254
220 235 254
220 235 254
220 235 254
220 235 254
220 235 254
220 235 254
108 115 130
0 0 45
0 0 45
0 0 45
0 0 45
0 0 45
0 0 45
0 0 45
0 0 45
0 0 45
0 0 45
0 0 45
0 0 45
0 0 45
0 0 45
0 0 45
0 0 45
0 0 45
0 0 45
0 0 45
0 0 45
0 0 45
0 0 45
0 0 45
0 0 45
0 0 46
0 0 45
0 0 45
0 0 45
0 0 45
0 0 45
0 0 45
0 0 45
0 0 45
0 0 45
0 0 45
0 0 45
0 0 45
0 0 45
0 0 45
0 0 45
0 0 45
0 0 45
0 0 45
0 0 45
0 0 45
0 0 45
0 0 45
0 0 45
0 0 45
0 0 45
0 0 45
0 0 46
0 0 45
0 0 46
0 0 47
0 0 47
0 0 47
0 0 47
0 0 47
0 0 47
0 0 47
0 0 47
0 0 47
0 0 47
0 0 47
0 0 47
0 0 47
0 0 47
0 0 47
0 0 47
0 0 47
0 0 47
0 0 47
0 0 47
0 0 47
0 0 47
0 0 47
0 0 47
0 0 47
0 0 47
0 0 47
0 0 47
0 0 45
0 0 45
0 0 45
0 0 45
0 0 45
0 0 45
0 0 47
0 0 47
0 0 47
0 0 47
0 0 47
0 0 47
0 0 49
0 0 48
0 0 47
0 0 47
0 0 47
0 0 50
0 0 53
0 0 54
0 0 53
0 0 54
0 0 54
0 0 50
0 0 50
0 0 50
0 0 50
0 0 50
0 0 50
0 0 50
0 0 50
0 0 51
0 0 53
0 0 55
0 0 56
0 0 57
0 0 57
0 0 57
0 0 57
0 0 58
0 0 57
0 0 56
0 0 58
0 6 63
0 10 73
0 3 70
56 68 105
110 138 138
91 122 74
54 77 35
51 63 18
70 76 37
97 104 84
59 74 40
41 61 9
29 47 0
37 52 0
36 55 0
29 49 0
35 56 0
29 49 0
29 48 0
30 48 0
29 47 0
30 50 0
29 49 0
29 51 0
26 48 0
22 43 0
22 43 0
19 41 0
19 41 0
20 42 0
19 42 0
20 42 0
20 41 0
25 45 0
23 42 0
18 41 0
19 43 0
20 40 0
24 39 0
23 40 0
27 43 0
28 46 0
27 45 0
25 45 0
26 47 0
27 46 0
25 45 0
25 44 0
25 44 0
24 44 0
24 42 0
28 47 0
24 45 0
27 48 0
27 46 0
25 45 0
22 42 0
24 48 0
46 57 10
29 71 46
17 78 94
0 94 137
16 150 159
0 99 143
0 18 76
0 0 54
0 0 45
0 0 42
0 0 42
0 0 42
0 0 42
0 0 42
0 0 42
0 0 42
0 0 42
0 0 42
0 0 42
0 0 42
0 0 42
0 0 42
0 0 42
0 0 42
0 0 42
0 0 42
0 0 42
0 0 42
0 0 42
0 0 42
0 0 44
96 102 117
220 235 254
220 235 254
220 235 254
220 235 254
220 235 254
220 235 254
220 235 254
220 235 254
220 235 254
220 235 254
220 235 254
220 235 254
220 235 254
220 235 254
220 235 254
220 235 254
220 235 254
220 235 254
220 235 254
220 235 254
220 235 254
220 235 254
220 235 254
220 235 254
220 235 254
220 235 254
220 235 254
220 235 254
220 235 254
220 235 254
220 235 254
220 235 254
220 235 254
220 235 254
220 235 254
220 235 254
220 235 254
220 235 254
220 235 254
220 235 254
220 235 254
220 235 254
220 235 254
220 235 254
220 235 254
220 235 254
220 235 254
220 235 254
220 235 254
220 235 254
220 235 254
220 235 254
220 235 254
220 235 254
220 235 254
220 235 254
220 235 254
220 235 254
220 235 254
220 235 254
220 235 254
220 235 254
220 235 254
220 235 254
220 235 254
220 235 254
220 235 254
220 235 254
220 235 254
220 235 254
220 235 254
220 235 254
220 235 254
220 235 254
220 235 254
220 235 254
220 235 254
220 235 254
220 235 254
220 235 254
220 235 254
220 235 254
220 235 254
220 235 254
220 235 254
220 235 254
220 235 254
220 235 254
220 235 254
220 235 254
220 235 254
220 235 254
220 235 254
220 235 254
220 235 254
220 235 254
220 235 254
220 235 254
220 235 254
220 235 254
220 235 254
220 235 254
220 235 254
220 235 254
220 235 254
220 235 254
220 235 254
220 235 254
220 235 254
220 235 254
220 235 254
220 235 254
220 235 254
220 235 254
220 235 254
220 235 254
220 235 254
220 235 254
220 235 254
220 235 254
220 235 254
220 235 254
220 235 254
220 235 254
220 235 254
220 235 254
220 235 254
220 235 254
220 235 254
220 235 254
220 235 254
220 235 254
220 235 254
220 235 254
220 235 254
220 235 254
220 235 254
220 235 254
220 235 254
220 235 254
220 235 254
220 235 254
220 235 254
220 235 254
220 235 254
220 235 254
220 235 254
220 235 254
220 235 254
220 235 254
220 235 254
220 235 254
220 235 254
220 235 254
220 235 254
220 235 254
220 235 254
220 235 254
220 235 254
220 235 254
220 235 254
220 235 254
220 235 254
220 235 254
220 235 254
220 235 254
220 235 254
220 235 254
220 235 254
220 235 254
220 235 254
220 235 254
220 235 254
220 235 254
220 235 254
220 235 254
220 235 254
220 235 254
220 235 254
220 235 254
220 235 254
220 235 254
220 235 254
220 235 254
82 87 104
0 0 45
0 0 45
0 0 45
0 0 45
0 0 45
0 0 45
0 0 45
0 0 45
0 0 45
0 0 45
0 0 45
0 0 45
0 0 45
0 0 45
0 0 45
0 0 45
0 0 45
0 0 45
0 0 46
0 0 46
0 0 46
0 0 46
0 0 45
0 0 46
0 0 47
0 0 46
0 0 45
0 0 45
0 0 45
0 0 45
0 0 45
0 0 45
0 0 45
0 0 45
0 0 45
0 0 45
0 0 45
0 0 45
0 0 46
0 0 47
0 0 47
0 0 47
0 0 47
0 0 46
0 0 46
0 0 46
0 0 45
0 0 45
0 0 45
0 0 45
0 0 45
0 0 46
0 0 46
0 0 46
0 0 46
0 0 46
0 0 47
0 0 47
0 0 47
0 0 47
0 0 47
0 0 47
0 0 47
0 0 47
0 0 47
0 0 47
0 0 47
0 0 47
0 0 47
0 0 47
0 0 47
0 0 47
0 0 47
0 0 47
0 0 47
0 0 47
0 0 47
0 0 47
0 0 47
0 0 47
0 0 47
0 0 47
0 0 47
0 0 46
0 0 46
0 0 46
0 0 46
0 0 46
0 0 47
0 0 47
0 0 47
0 0 47
0 0 47
0 0 47
0 0 48
0 0 48
0 0 48
0 0 49
0 0 49
0 0 51
0 0 53
0 0 53
0 0 55
4 5 50
11 16 47
0 6 54
0 0 53
0 0 51
0 0 51
0 0 50
0 0 51
0 0 50
0 0 51
0 0 52
0 0 53
0 0 54
0 0 56
0 0 57
0 0 57
0 0 58
0 0 58
0 0 58
0 0 58
0 0 61
0 0 65
0 0 72
0 15 83
3 16 80
40 52 57
90 114 82
103 138 96
41 60 17
54 62 21
71 77 35
58 74 22
42 60 7
44 63 6
31 51 0
36 53 0
35 55 0
33 53 0
30 51 0
26 47 0
27 47 0
30 48 0
27 45 0
26 46 0
25 43 0
25 45 0
24 45 0
18 40 0
14 39 0
17 40 0
22 46 0
24 47 0
21 45 0
21 45 0
17 39 0
15 39 0
19 41 0
19 41 0
19 41 0
22 38 0
27 41 0
26 43 0
26 45 0
26 47 0
25 45 0
25 46 0
26 47 0
25 44 0
24 42 0
25 42 0
25 45 0
27 45 0
22 41 0
25 45 0
23 45 0
28 51 0
27 48 0
27 45 0
29 44 0
29 50 0
37 62 23
20 65 47
29 81 55
17 99 119
18 126 134
16 135 155
0 28 86
0 0 59
0 0 45
0 0 40
0 0 43
0 0 41
0 0 44
0 0 42
0 0 42
0 0 41
0 0 42
0 0 42
0 0 42
0 0 42
0 0 42
0 0 42
0 0 42
0 0 42
0 0 42
0 0 42
0 0 42
0 0 42
0 0 42
0 0 42
0 0 43
62 66 83
220 235 254
220 235 254
220 235 254
220 235 254
220 235 254
220 235 254
220 235 254
220 235 254
220 235 254
220 235 254
220 235 254
220 235 254
220 235 254
220 235 254
220 235 254
220 235 254
220 235 254
220 235 254
220 235 254
220 235 254
220 235 254
220 235 254
220 235 254
220 235 254
220 235 254
220 235 254
220 235 254
220 235 254
220 235 254
220 235 254
220 235 254
220 235 254
220 235 254
220 235 254
220 235 254
220 235 254
220 235 254
220 235 254
220 235 254
220 235 254
220 235 254
220 235 254
220 235 254
220 235 254
220 235 254
220 235 254
220 235 254
220 235 254
220 235 254
220 235 254
220 235 254
220 235 254
220 235 254
220 235 254
220 235 254
220 235 254
220 235 254
220 235 254
220 235 254
220 235 254
220 235 254
220 235 254
220 235 254
220 235 254
220 235 254
220 235 254
220 235 254
220 235 254
220 235 254
220 235 254
220 235 254
220 235 254
220 235 254
220 235 254
220 235 254
220 235 254
220 235 254
220 235 254
220 235 254
220 235 254
220 235 254
220 235 254
220 235 254
220 235 254
220 235 254
220 235 254
220 235 254
220 235 254
220 235 254
220 235 254
220 235 254
220 235 254
220 235 254
220 235 254
220 235 254
220 235 254
220 235 254
220 235 254
220 235 254
220 235 254
220 235 254
220 235 254
220 235 254
220 235 254
220 235 254
220 235 254
220 235 254
220 235 254
220 235 254
220 235 254
220 235 254
220 235 254
220 235 254
220 235 254
220 235 254
220 235 254
220 235 254
220 235 254
220 235 254
220 235 254
220 235 254
220 235 254
220 235 254
220 235 254
220 235 254
220 235 254
220 235 254
220 235 254
220 235 254
220 235 254
220 235 254
220 235 254
220 235 254
220 235 254
220 235 254
220 235 254
220 235 254
220 235 254
220 235 254
220 235 254
220 235 254
220 235 254
220 235 254
220 235 254
220 235 254
220 235 254
220 235 254
220 235 254
220 235 254
220 235 254
220 235 254
220 235 254
220 235 254
220 235 254
220 235 254
220 235 254
220 235 254
220 235 254
220 235 254
220 235 254
220 235 254
220 235 254
220 235 254
220 235 254
220 235 254
220 235 254
220 235 254
220 235 254
220 235 254
220 235 254
220 235 254
220 235 254
220 235 254
220 235 254
220 235 254
220 235 254
220 235 254
220 235 254
220 235 254
220 235 254
220 235 254
220 235 254
220 235 254
220 235 254
79 84 101
0 0 45
0 0 45
0 0 45
0 0 45
0 0 45
0 0 45
0 0 45
0 0 45
0 0 45
0 0 45
0 0 45
0 0 45
0 0 45
0 0 45
0 0 45
0 0 45
0 0 45
0 0 45
0 0 45
0 0 45
0 0 45
0 0 45
0 0 45
0 0 46
0 0 47
0 0 46
0 0 45
0 0 45
0 0 45
0 0 45
0 0 45
0 0 45
0 0 45
0 0 45
0 0 45
0 0 45
0 0 45
0 0 45
0 0 45
0 0 45
0 0 45
0 0 45
0 0 45
0 0 47
0 0 47
0 0 47
0 0 45
0 0 45
0 0 45
0 0 45
0 0 45
0 0 45
0 0 45
0 0 45
0 0 45
0 0 45
0 0 47
0 0 47
0 0 47
0 0 47
0 0 47
0 0 47
0 0 47
0 0 47
0 0 47
0 0 47
0 0 47
0 0 47
0 0 47
0 0 47
0 0 47
0 0 47
0 0 47
0 0 47
0 0 47
0 0 47
0 0 47
0 0 47
0 0 47
0 0 47
0 0 47
0 0 47
0 0 47
0 0 47
0 0 47
0 0 47
0 0 47
0 0 47
0 0 47
0 0 47
0 0 47
0 0 47
0 0 47
0 0 47
0 0 47
0 0 47
0 0 50
0 0 50
0 0 50
0 0 50
0 0 53
0 0 51
0 0 57
7 10 46
17 25 36
11 15 50
5 17 45
0 0 52
0 0 53
0 0 51
0 0 51
0 0 52
0 0 53
0 0 53
0 0 52
0 0 52
0 0 53
0 0 57
0 0 57
0 0 57
0 0 57
0 0 57
0 0 59
0 0 63
0 0 69
0 0 69
0 18 79
0 15 86
62 87 54
89 113 104
95 133 119
46 62 35
63 66 29
63 77 33
46 66 15
36 56 0
37 57 0
36 57 0
35 54 0
32 52 0
32 53 0
33 53 0
35 54 0
30 51 0
28 46 0
25 45 0
24 43 0
24 43 0
23 41 0
20 43 0
22 44 0
22 47 0
20 44 0
21 45 0
24 46 0
23 46 0
21 44 0
22 43 0
18 39 0
19 40 0
21 42 0
23 41 0
21 40 0
24 42 0
26 46 0
29 50 0
27 48 0
26 46 0
26 48 0
27 49 0
24 44 0
23 41 0
24 42 0
24 44 0
22 43 0
23 41 0
25 43 0
27 46 0
31 50 0
32 50 0
27 46 0
34 51 0
34 57 0
32 64 19
28 58 21
27 61 30
47 64 24
45 106 97
29 149 133
5 69 112
2 29 90
0 2 52
0 0 49
0 0 42
0 0 41
0 0 43
0 0 42
0 0 41
0 0 40
0 0 42
0 0 42
0 0 42
0 0 42
0 0 42
0 0 42
0 0 42
0 0 42
0 0 42
0 0 42
0 0 42
0 0 42
0 0 42
0 0 42
0 0 42
108 115 130
220 235 254
220 235 254
220 235 254
220 235 254
220 235 254
220 235 254
220 235 254
220 235 254
220 235 254
220 235 254
220 235 254
220 235 254
220 235 254
220 235 254
220 235 254
220 235 254
220 235 254
220 235 254
220 235 254
220 235 254
220 235 254
220 235 254
220 235 254
220 235 254
220 235 254
220 235 254
220 235 254
220 235 254
220 235 254
220 235 254
220 235 254
220 235 254
220 235 254
220 235 254
220 235 254
220 235 254
220 235 254
220 235 254
220 235 254
220 235 254
220 235 254
220 235 254
220 235 254
220 235 254
220 235 254
220 235 254
220 235 254
220 235 254
220 235 254
220 235 254
220 235 254
220 235 254
220 235 254
220 235 254
220 235 254
220 235 254
220 235 254
220 235 254
220 235 254
220 235 254
220 235 254
220 235 254
220 235 254
220 235 254
220 235 254
220 235 254
220 235 254
220 235 254
220 235 254
220 235 254
220 235 254
220 235 254
220 235 254
220 235 254
220 235 254
220 235 254
220 235 254
220 235 254
220 235 254
220 235 254
220 235 254
220 235 254
220 235 254
220 235 254
220 235 254
220 235 254
220 235 254
220 235 254
220 235 254
220 235 254
220 235 254
220 235 254
220 235 254
220 235 254
220 235 254
220 235 254
220 235 254
220 235 254
220 235 254
220 235 254
220 235 254
220 235 254
220 235 254
220 235 254
220 235 254
220 235 254
220 235 254
220 235 254
220 235 254
220 235 254
220 235 254
220 235 254
220 235 254
220 235 254
220 235 254
220 235 254
220 235 254
220 235 254
220 235 254
220 235 254
220 235 254
220 235 254
220 235 254
220 235 254
220 235 254
220 235 254
220 235 254
220 235 254
220 235 254
220 235 254
220 235 254
220 235 254
220 235 254
220 235 254
220 235 254
220 235 254
220 235 254
220 235 254
220 235 254
220 235 254
220 235 254
220 235 254
220 235 254
220 235 254
220 235 254
220 235 254
220 235 254
220 235 254
220 235 254
220 235 254
220 235 254
220 235 254
220 235 254
220 235 254
220 235 254
220 235 254
220 235 254
220 235 254
220 235 254
220 235 254
220 235 254
220 235 254
220 235 254
220 235 254
220 235 254
220 235 254
220 235 254
220 235 254
220 235 254
220 235 254
220 235 254
220 235 254
220 235 254
220 235 254
220 235 254
220 235 254
220 235 254
220 235 254
220 235 254
220 235 254
220 235 254
220 235 254
220 235 254
220 235 254
93 99 115
0 0 44
0 0 45
0 0 45
0 0 45
0 0 45
0 0 44
0 0 44
0 0 43
0 0 44
0 0 45
0 0 45
0 0 45
0 0 45
0 0 45
0 0 45
0 0 45
0 0 45
0 0 45
0 0 45
0 0 45
0 0 45
0 0 45
0 0 45
0 0 45
0 0 45
0 0 45
0 0 45
0 0 45
0 0 45
0 0 45
0 0 45
0 0 45
0 0 45
0 0 45
0 0 45
0 0 45
0 0 45
0 0 45
0 0 45
0 0 45
0 0 45
0 0 45
0 0 45
0 0 46
0 0 47
0 0 45
0 0 45
0 0 45
0 0 45
0 0 45
0 0 45
0 0 45
0 0 45
0 0 45
0 0 45
0 0 45
0 0 47
0 0 47
0 0 47
0 0 47
0 0 47
0 0 47
0 0 47
0 0 47
0 0 47
0 0 47
0 0 47
0 0 47
0 0 47
0 0 47
0 0 47
0 0 47
0 0 47
0 0 47
0 0 47
0 0 47
0 0 47
0 0 47
0 0 47
0 0 47
0 0 47
0 0 47
0 0 47
0 0 47
0 0 47
0 0 47
0 0 47
0 0 47
0 0 47
0 0 47
0 0 47
0 0 47
0 0 47
0 0 47
0 0 47
0 0 47
0 0 48
0 0 50
0 0 50
0 0 50
0 0 52
0 0 54
0 0 55
6 9 50
20 30 34
8 13 48
1 13 41
0 0 53
0 0 56
0 0 51
0 0 50
0 0 52
0 0 51
0 0 48
0 0 50
0 0 52
0 0 52
0 0 54
0 0 55
0 0 57
0 0 57
0 0 57
0 0 59
0 0 63
0 0 67
0 2 67
0 16 71
35 49 78
59 75 31
78 90 80
113 136 122
58 70 28
74 76 39
54 64 19
34 54 5
31 51 0
34 53 0
37 57 0
33 54 0
30 50 0
34 55 0
38 58 0
36 55 0
31 50 0
28 48 0
27 46 0
25 45 0
27 48 0
23 44 0
20 42 0
24 46 0
25 47 0
23 46 0
20 44 0
17 40 0
14 38 0
17 40 0
19 43 0
19 41 0
20 43 0
21 44 0
24 43 0
27 46 0
24 44 0
23 41 0
24 43 0
27 47 0
26 48 0
23 44 0
22 42 0
23 43 0
21 42 0
25 44 0
24 45 0
20 39 0
27 46 0
24 45 0
26 48 0
26 47 0
30 50 0
27 50 0
30 50 0
37 57 0
32 56 0
27 52 0
23 54 0
46 63 13
27 104 90
35 60 9
35 71 27
23 83 91
16 60 89
0 23 59
0 0 38
0 0 49
0 0 40
0 0 41
0 0 42
0 0 41
0 0 42
0 0 42
0 0 42
0 0 42
0 0 42
0 0 42
0 0 42
0 0 42
0 0 42
0 0 42
0 0 42
0 0 42
0 0 42
0 0 42
0 0 42
98 105 120
220 235 254
220 235 254
220 235 254
220 235 254
220 235 254
220 235 254
220 235 254
220 235 254
220 235 254
220 235 254
220 235 254
220 235 254
220 235 254
220 235 254
220 235 254
220 235 254
220 235 254
220 235 254
220 235 254
220 235 254
220 235 254
220 235 254
220 235 254
220 235 254
220 235 254
220 235 254
220 235 254
220 235 254
220 235 254
220 235 254
220 235 254
220 235 254
220 235 254
220 235 254
220 235 254
220 235 254
220 235 254
220 235 254
220 235 254
220 235 254
220 235 254
220 235 254
220 235 254
220 235 254
220 235 254
220 235 254
220 235 254
220 235 254
220 235 254
220 235 254
220 235 254
220 235 254
220 235 254
220 235 254
220 235 254
220 235 254
220 235 254
220 235 254
220 235 254
220 235 254
220 235 254
220 235 254
220 235 254
220 235 254
220 235 254
220 235 254
220 235 254
220 235 254
220 235 254
220 235 254
220 235 254
220 235 254
220 235 254
220 235 254
220 235 254
220 235 254
220 235 254
220 235 254
220 235 254
220 235 254
220 235 254
220 235 254
220 235 254
220 235 254
220 235 254
220 235 254
220 235 254
220 235 254
220 235 254
220 235 254
220 235 254
220 235 254
221 235 254
221 235 254
221 235 254
221 235 254
221 235 254
221 235 254
221 235 254
221 235 254
221 235 254
221 235 254
221 235 254
221 235 254
221 235 254
221 235 254
221 235 254
221 235 254
221 235 254
221 235 254
221 235 254
221 235 254
221 235 254
221 235 254
221 235 254
221 235 254
221 235 254
221 235 254
221 235 254
221 235 254
221 235 254
221 235 254
221 235 254
221 235 254
221 235 254
221 235 254
221 235 254
221 235 254
221 235 254
221 235 254
221 235 254
221 235 254
221 235 254
221 235 254
221 235 254
221 235 254
221 235 254
221 235 254
221 235 254
221 235 254
221 235 254
221 235 254
221 235 254
221 235 254
221 235 254
221 235 254
221 235 254
221 235 254
221 235 254
221 235 254
221 235 254
221 235 254
221 235 254
221 235 254
221 235 254
221 235 254
221 235 254
221 235 254
221 235 254
221 235 254
221 235 254
221 235 254
221 235 254
221 235 254
221 235 254
221 235 254
221 235 254
221 235 254
221 235 254
221 235 254
221 235 254
221 235 254
221 235 254
221 235 254
221 235 254
221 235 254
221 235 254
221 235 254
221 235 254
221 235 254
221 235 254
221 235 254
221 235 254
221 235 254
101 107 123
0 0 42
0 0 44
0 0 45
0 0 44
0 0 43
0 0 42
0 0 42
0 0 42
0 0 42
0 0 43
0 0 45
0 0 45
0 0 43
0 0 43
0 0 43
0 0 43
0 0 43
0 0 43
0 0 44
0 0 45
0 0 45
0 0 45
0 0 45
0 0 45
0 0 45
0 0 44
0 0 43
0 0 43
0 0 44
0 0 44
0 0 45
0 0 45
0 0 45
0 0 45
0 0 45
0 0 45
0 0 45
0 0 45
0 0 45
0 0 45
0 0 45
0 0 45
0 0 45
0 0 45
0 0 45
0 0 45
0 0 45
0 0 45
0 0 45
0 0 45
0 0 45
0 0 45
0 0 45
0 0 45
0 0 45
0 0 45
0 0 45
0 0 46
0 0 46
0 0 46
0 0 46
0 0 46
0 0 46
0 0 46
0 0 46
0 0 46
0 0 46
0 0 46
0 0 46
0 0 46
0 0 47
0 0 47
0 0 47
0 0 47
0 0 47
0 0 47
0 0 47
0 0 46
0 0 46
0 0 46
0 0 46
0 0 47
0 0 47
0 0 47
0 0 47
0 0 47
0 0 47
0 0 47
0 0 47
0 0 47
0 0 47
0 0 47
0 0 47
0 0 47
0 0 47
0 0 46
0 0 46
0 0 48
0 0 49
0 0 50
0 0 49
0 0 46
0 0 53
0 3 57
0 8 49
0 0 52
0 0 53
0 0 48
0 0 50
0 0 47
0 0 49
0 0 51
0 0 50
0 0 48
0 0 47
0 0 49
0 0 52
0 0 53
0 0 54
0 0 55
0 0 57
0 0 57
0 0 59
0 0 63
0 0 67
0 9 76
0 27 93
52 70 66
57 70 24
119 133 122
127 144 125
58 68 29
71 76 38
48 59 15
34 53 0
34 53 0
33 51 0
32 52 0
32 53 0
30 51 0
32 53 0
32 52 0
28 48 0
27 46 0
31 51 0
32 51 0
26 46 0
28 49 0
27 48 0
26 48 0
25 48 0
23 45 0
23 46 0
24 47 0
18 40 0
13 35 0
15 39 0
18 40 0
18 40 0
21 43 0
20 41 0
21 40 0
23 44 0
25 46 0
21 42 0
18 37 0
25 43 0
27 49 0
22 42 0
13 32 0
21 42 0
21 42 0
25 45 0
26 45 0
23 42 0
26 47 0
28 52 0
28 51 0
28 51 0
34 57 0
29 50 0
33 51 0
37 56 0
29 51 0
26 50 0
24 53 3
39 72 35
35 91 57
42 65 0
42 64 0
39 64 10
29 73 61
11 51 79
0 6 52
0 0 45
0 0 44
0 0 40
0 0 41
0 0 40
0 0 42
0 0 42
0 0 42
0 0 42
0 0 42
0 0 42
0 0 42
0 0 42
0 0 42
0 0 42
0 0 42
0 0 42
0 0 42
0 0 42
0 0 42
101 107 122
221 235 254
221 235 254
221 235 254
221 235 254
221 235 254
221 235 254
221 235 254
221 235 254
221 235 254
221 235 254
221 235 254
221 235 254
221 235 254
221 235 254
221 235 254
221 235 254
221 235 254
221 235 254
221 235 254
221 235 254
221 235 254
221 235 254
221 235 254
221 235 254
221 235 254
221 235 254
221 235 254
221 235 254
221 235 254
221 235 254
221 235 254
221 235 254
221 235 254
221 235 254
221 235 254
221 235 254
221 235 254
221 235 254
221 235 254
221 235 254
221 235 254
221 235 254
221 235 254
221 235 254
221 235 254
221 235 254
221 235 254
221 235 254
221 235 254
221 235 254
221 235 254
221 235 254
221 235 254
221 235 254
221 235 254
221 235 254
221 235 254
221 235 254
221 235 254
221 235 254
221 235 254
221 235 254
221 235 254
221 235 254
221 235 254
221 235 254
221 235 254
221 235 254
221 235 254
221 235 254
221 235 254
220 235 254
221 235 254
221 235 254
221 235 254
221 235 254
221 235 254
221 235 254
221 235 254
221 235 254
221 235 254
221 235 254
221 235 254
221 235 254
220 235 254
220 235 254
221 235 254
221 235 254
221 235 254
221 235 254
220 235 254
221 235 254
221 235 254
221 235 254
221 235 254
221 235 254
221 235 254
221 235 254
221 235 254
221 235 254
221 235 254
221 235 254
221 235 254
221 235 254
221 235 254
221 235 254
221 235 254
221 235 254
221 235 254
221 235 254
221 235 254
221 235 254
221 235 254
221 235 254
221 235 254
221 235 254
221 235 254
221 235 254
221 235 254
221 235 254
221 235 254
221 235 254
221 235 254
221 235 254
221 235 254
221 235 254
221 235 254
221 235 254
221 235 254
221 235 254
221 235 254
221 235 254
221 235 254
221 235 254
221 235 254
221 235 254
221 235 254
221 235 254
221 235 254
221 235 254
221 235 254
221 235 254
221 235 254
221 235 254
221 235 254
221 235 254
221 235 254
221 235 254
221 235 254
221 235 254
221 235 254
221 235 254
221 235 254
221 235 254
221 235 254
221 235 254
221 235 254
221 235 254
221 235 254
221 235 254
221 235 254
221 235 254
221 235 254
221 235 254
221 235 254
221 235 254
221 235 254
221 235 254
221 235 254
221 235 254
221 235 254
221 235 254
221 235 254
221 235 254
221 235 254
221 235 254
221 235 254
221 235 254
221 235 254
221 235 254
221 235 254
221 235 254
221 235 254
221 235 254
106 112 128
0 0 42
0 0 44
0 0 42
0 0 42
0 0 42
0 0 42
0 0 42
0 0 42
0 0 42
0 0 42
0 0 42
0 0 42
0 0 42
0 0 42
0 0 42
0 0 42
0 0 42
0 0 42
0 0 42
0 0 42
0 0 42
0 0 42
0 0 42
0 0 42
0 0 42
0 0 42
0 0 42
0 0 42
0 0 42
0 0 43
0 0 45
0 0 45
0 0 45
0 0 45
0 0 45
0 0 45
0 0 45
0 0 45
0 0 45
0 0 45
0 0 45
0 0 45
0 0 45
0 0 45
0 0 45
0 0 45
0 0 45
0 0 45
0 0 45
0 0 45
0 0 45
0 0 45
0 0 45
0 0 45
0 0 45
0 0 45
0 0 45
0 0 45
0 0 45
0 0 45
0 0 45
0 0 45
0 0 45
0 0 45
0 0 45
0 0 45
0 0 45
0 0 45
0 0 45
0 0 45
0 0 45
0 0 46
0 0 46
0 0 46
0 0 46
0 0 46
0 0 45
0 0 45
0 0 45
0 0 45
0 0 45
0 0 46
0 0 47
0 0 47
0 0 47
0 0 47
0 0 47
0 0 47
0 0 46
0 0 46
0 0 46
0 0 46
0 0 46
0 0 46
0 0 45
0 0 45
0 0 45
0 0 47
0 0 48
0 0 50
0 0 49
0 0 46
0 0 48
0 0 48
0 0 46
0 0 46
0 0 56
0 0 47
0 0 46
0 0 45
0 0 47
0 0 46
0 0 48
0 0 48
0 0 47
0 0 48
0 0 52
0 0 52
0 0 52
0 0 54
0 0 57
0 0 59
0 0 60
0 0 64
0 2 70
0 14 75
0 29 94
58 78 80
54 73 22
111 130 119
142 157 155
49 60 22
65 71 32
38 51 9
29 49 0
30 50 0
29 48 0
30 50 0
31 53 0
29 52 0
29 49 0
27 48 0
27 46 0
27 46 0
32 52 0
31 52 0
23 44 0
24 45 0
27 48 0
30 52 0
29 52 0
22 46 0
21 45 0
25 48 0
21 44 0
14 37 0
16 41 0
20 43 0
22 43 0
22 44 0
19 40 0
19 40 0
19 41 0
21 43 0
23 45 0
22 44 0
20 41 0
23 46 0
25 46 0
16 35 0
21 42 0
20 43 0
25 45 0
27 47 0
26 45 0
31 46 0
40 55 0
38 53 0
41 56 0
44 59 0
40 56 0
39 56 0
33 54 0
22 47 0
26 53 14
21 65 22
23 80 42
37 61 10
37 63 0
39 65 0
38 66 0
35 65 15
29 69 57
8 30 73
2 8 51
0 0 42
0 0 43
0 0 44
0 0 42
0 0 42
0 0 42
0 0 42
0 0 42
0 0 42
0 0 42
0 0 42
0 0 42
0 0 42
0 0 42
0 0 42
0 0 42
0 0 42
0 0 42
0 0 42
93 99 114
221 235 254
221 235 254
221 235 254
221 235 254
221 235 254
221 235 254
221 235 254
221 235 254
221 235 254
221 235 254
221 235 254
221 235 254
221 235 254
221 235 254
221 235 254
221 235 254
221 235 254
221 235 254
221 235 254
221 235 254
221 235 254
221 235 254
221 235 254
221 235 254
221 235 254
221 235 254
221 235 254
221 235 254
221 235 254
221 235 254
221 235 254
221 235 254
221 235 254
221 235 254
221 235 254
221 235 254
221 235 254
221 235 254
221 235 254
221 235 254
221 235 254
221 235 254
221 235 254
221 235 254
221 235 254
221 235 254
221 235 254
221 235 254
221 235 254
221 235 254
221 235 254
221 235 254
221 235 254
221 235 254
221 235 254
221 235 254
221 235 254
221 235 254
221 235 254
221 235 254
221 235 254
221 235 254
221 235 254
221 235 254
221 235 254
221 235 254
221 235 254
221 235 254
221 235 254
221 235 254
221 235 254
221 235 254
221 235 254
221 235 254
221 235 254
221 235 254
221 235 254
221 235 254
221 235 254
221 235 254
221 235 254
221 235 254
221 235 254
221 235 254
221 235 254
221 235 254
221 235 254
221 235 254
221 235 254
221 235 254
221 235 254
221 235 254
221 235 254
221 235 254
221 235 254
221 235 254
221 235 254
221 235 254
221 235 254
221 235 254
221 235 254
221 235 254
221 235 254
221 235 254
221 235 254
221 235 254
221 235 254
221 235 254
221 235 254
221 235 254
221 235 254
221 235 254
221 235 254
221 235 254
221 235 254
221 235 254
221 235 254
221 235 254
221 235 254
221 235 254
221 235 254
221 235 254
221 235 254
221 235 254
221 235 254
221 235 254
221 235 254
221 235 254
221 235 254
221 235 254
221 235 254
221 235 254
221 235 254
221 235 254
221 235 254
221 235 254
221 235 254
221 235 254
221 235 254
221 235 254
221 235 254
221 235 254
221 235 254
221 235 254
221 235 254
221 235 254
221 235 254
221 235 254
221 235 254
221 235 254
221 235 254
221 235 254
221 235 254
221 235 254
221 235 254
221 235 254
221 235 254
221 235 254
221 235 254
221 235 254
221 235 254
221 235 254
221 235 254
221 235 254
221 235 254
221 235 254
221 235 254
221 235 254
221 235 254
221 235 254
221 235 254
221 235 254
221 235 254
221 235 254
221 235 254
221 235 254
221 235 254
221 235 254
221 235 254
221 235 254
221 235 254
221 235 254
221 235 254
221 235 254
96 102 117
0 0 42
0 0 43
0 0 40
0 0 41
0 0 42
0 0 42
0 0 42
0 0 42
0 0 42
0 0 42
0 0 42
0 0 42
0 0 42
0 0 42
0 0 42
0 0 41
0 0 40
0 0 41
0 0 41
0 0 42
0 0 42
0 0 42
0 0 42
0 0 42
0 0 42
0 0 42
0 0 42
0 0 42
0 0 42
0 0 42
0 0 42
0 0 42
0 0 42
0 0 42
0 0 42
0 0 42
0 0 42
0 0 42
0 0 43
0 0 44
0 0 44
0 0 44
0 0 44
0 0 44
0 0 45
0 0 45
0 0 45
0 0 45
0 0 45
0 0 45
0 0 45
0 0 45
0 0 45
0 0 45
0 0 45
0 0 45
0 0 45
0 0 45
0 0 45
0 0 45
0 0 45
0 0 45
0 0 45
0 0 45
0 0 45
0 0 45
0 0 45
0 0 45
0 0 45
0 0 45
0 0 45
0 0 45
0 0 45
0 0 45
0 0 45
0 0 45
0 0 45
0 0 45
0 0 45
0 0 45
0 0 45
0 0 45
0 0 45
0 0 45
0 0 45
0 0 45
0 0 45
0 0 45
0 0 45
0 0 45
0 0 45
0 0 45
0 0 45
0 0 45
0 0 45
0 0 45
0 0 47
0 0 47
0 0 47
0 0 48
0 0 47
0 0 44
0 0 44
0 0 52
0 0 48
0 0 39
0 0 45
0 0 47
0 0 46
0 0 45
0 0 45
0 0 44
0 0 44
0 0 47
0 0 48
0 0 50
0 0 52
0 0 52
0 0 52
0 0 57
0 0 61
0 0 61
0 0 64
0 11 70
0 19 78
0 23 86
9 41 111
71 91 99
54 76 33
124 146 126
176 185 184
62 67 42
58 66 24
42 57 9
28 52 0
28 50 0
26 47 0
30 51 0
29 51 0
31 53 0
30 50 0
29 50 0
30 50 0
28 48 0
32 53 0
30 50 0
23 43 0
24 44 0
24 48 0
26 50 0
30 51 0
24 46 0
20 42 0
20 44 0
20 43 0
16 40 0
22 45 0
24 48 0
26 50 0
26 49 0
21 43 0
23 43 0
21 42 0
18 39 0
19 43 0
21 44 0
23 44 0
19 41 0
25 48 0
22 46 0
22 43 0
22 42 0
26 45 0
31 49 0
35 50 0
35 51 0
38 53 0
35 50 0
44 59 0
35 51 0
31 51 0
31 52 0
26 50 0
29 51 0
29 49 0
31 52 0
38 52 0
34 62 0
39 61 0
35 62 0
39 62 5
41 64 3
31 63 33
19 67 84
49 64 68
14 21 52
0 2 46
0 0 51
0 0 43
0 0 42
0 0 42
0 0 42
0 0 42
0 0 42
0 0 42
0 0 42
0 0 42
0 0 42
0 0 42
0 0 42
0 0 42
0 0 42
0 0 42
0 0 42
114 122 137
221 235 254
221 235 254
221 235 254
221 235 254
221 235 254
221 235 254
221 235 254
221 235 254
221 235 254
221 235 254
221 235 254
221 235 254
221 235 254
221 235 254
221 235 254
221 235 254
221 235 254
221 235 254
221 235 254
221 235 254
221 235 254
221 235 254
221 235 254
221 235 254
221 235 254
221 235 254
221 235 254
221 235 254
221 235 254
221 235 254
221 235 254
221 235 254
221 235 254
221 235 254
221 235 254
221 235 254
221 235 254
221 235 254
221 235 254
221 235 254
221 235 254
221 235 254
221 235 254
221 235 254
221 235 254
221 235 254
221 235 254
221 235 254
221 235 254
221 235 254
221 235 254
221 235 254
221 235 254
221 235 254
221 235 254
221 235 254
221 235 254
221 235 254
221 235 254
221 235 254
221 235 254
221 235 254
221 235 254
221 235 254
221 235 254
221 235 254
221 235 254
221 235 254
221 235 254
221 235 254
221 235 254
221 235 254
221 235 254
221 235 254
221 235 254
221 235 254
221 235 254
221 235 254
221 235 254
221 235 254
221 235 254
221 235 254
221 235 254
221 235 254
221 235 254
221 235 254
221 235 254
221 235 254
221 235 254
221 235 254
221 235 254
221 235 254
221 235 254
221 235 254
221 235 254
221 235 254
221 235 254
221 235 254
221 235 254
221 235 254
221 235 254
221 235 254
221 235 254
221 235 254
221 235 254
221 235 254
221 235 254
221 235 254
221 235 254
221 235 254
221 235 254
221 235 254
221 235 254
221 235 254
221 235 254
221 235 254
221 235 254
221 235 254
221 235 254
221 235 254
221 235 254
221 235 254
221 235 254
221 235 254
221 235 254
221 235 254
221 235 254
221 235 254
221 235 254
221 235 254
221 235 254
221 235 254
221 235 254
221 235 254
221 235 254
221 235 254
221 235 254
221 235 254
221 235 254
221 235 254
221 235 254
221 235 254
221 235 254
221 235 254
221 235 254
221 235 254
221 235 254
221 235 254
221 235 254
221 235 254
221 235 254
221 235 254
221 235 254
221 235 254
221 235 254
221 235 254
221 235 254
221 235 254
221 235 254
221 235 254
221 235 254
221 235 254
221 235 254
221 235 254
221 235 254
221 235 254
221 235 254
221 235 254
221 235 254
221 235 254
221 235 254
221 235 254
221 235 254
221 235 254
221 235 254
221 235 254
221 235 254
221 235 254
221 235 254
221 235 254
221 235 254
221 235 254
221 235 254
221 235 254
117 124 139
0 0 42
0 0 42
0 0 42
0 0 42
0 0 42
0 0 42
0 0 42
0 0 42
0 0 42
0 0 42
0 0 42
0 0 42
0 0 42
0 0 42
0 0 42
0 0 41
0 0 41
0 0 40
0 0 41
0 0 42
0 0 42
0 0 42
0 0 42
0 0 42
0 0 42
0 0 42
0 0 42
0 0 42
0 0 42
0 0 42
0 0 42
0 0 42
0 0 42
0 0 42
0 0 42
0 0 42
0 0 42
0 0 42
0 0 42
0 0 42
0 0 42
0 0 42
0 0 42
0 0 42
0 0 44
0 0 43
0 0 44
0 0 44
0 0 43
0 0 43
0 0 43
0 0 43
0 0 44
0 0 43
0 0 44
0 0 43
0 0 44
0 0 44
0 0 44
0 0 44
0 0 44
0 0 44
0 0 45
0 0 45
0 0 45
0 0 45
0 0 45
0 0 45
0 0 45
0 0 45
0 0 45
0 0 45
0 0 45
0 0 45
0 0 45
0 0 45
0 0 45
0 0 45
0 0 45
0 0 45
0 0 45
0 0 45
0 0 45
0 0 45
0 0 45
0 0 45
0 0 45
0 0 45
0 0 45
0 0 45
0 0 45
0 0 45
0 0 45
0 0 45
0 0 45
0 0 45
0 0 47
0 0 47
0 0 47
0 0 47
0 0 50
0 0 50
0 0 42
0 0 48
0 0 47
0 0 47
0 0 51
0 0 46
0 0 46
0 0 43
0 0 44
0 0 44
0 0 45
0 0 47
0 0 49
0 0 50
0 0 52
0 0 53
0 0 55
0 0 60
0 0 64
0 3 65
0 11 69
0 15 76
0 25 86
0 33 94
0 33 90
14 28 87
47 86 99
103 138 144
85 100 91
63 73 27
55 66 22
38 55 6
22 44 0
29 50 0
32 53 0
29 51 0
31 52 0
28 50 0
22 43 0
25 47 0
30 52 0
29 50 0
28 51 0
26 48 0
24 44 0
23 44 0
24 47 0
25 48 0
28 48 0
24 45 0
25 46 0
26 49 0
22 44 0
22 47 0
22 47 0
26 49 0
27 51 0
29 52 0
26 49 0
23 46 0
18 40 0
13 36 0
18 40 0
22 42 0
24 44 0
20 39 0
23 43 0
29 50 0
25 44 0
24 43 0
28 47 0
30 48 0
31 49 0
30 50 0
26 50 0
29 50 0
34 57 0
26 49 0
27 49 0
39 63 0
32 55 0
30 52 0
27 51 0
29 53 0
37 57 0
33 60 0
37 58 0
33 55 0
39 55 5
44 63 5
36 66 25
34 62 26
60 75 40
40 57 41
30 42 41
38 54 37
26 30 47
0 0 39
0 0 39
0 0 40
0 0 40
0 0 42
0 0 41
0 0 42
0 0 42
0 0 42
0 0 42
0 0 42
0 0 42
0 0 42
0 0 42
0 0 42
130 139 154
221 235 254
221 235 254
221 235 254
221 235 254
221 235 254
221 235 254
221 235 254
221 235 254
221 235 254
221 235 254
221 235 254
221 235 254
221 235 254
221 235 254
221 235 254
221 235 254
221 235 254
221 235 254
221 235 254
221 235 254
221 235 254
221 235 254
221 235 254
221 235 254
221 235 254
221 235 254
221 235 254
221 235 254
221 235 254
221 235 254
221 235 254
221 235 254
221 235 254
221 235 254
221 235 254
221 235 254
221 235 254
221 235 254
221 235 254
221 235 254
221 235 254
221 235 254
221 235 254
221 235 254
221 235 254
221 235 254
221 235 254
221 235 254
221 235 254
221 235 254
221 235 254
221 235 254
221 235 254
221 235 254
221 235 254
221 235 254
221 235 254
221 235 254
221 235 254
221 235 254
221 235 254
221 235 254
221 235 254
221 235 254
221 235 254
221 235 254
221 235 254
221 235 254
221 235 254
221 235 254
221 235 254
221 235 254
221 235 254
221 235 254
221 235 254
221 235 254
221 235 254
221 235 254
221 235 254
221 235 254
221 235 254
221 235 254
221 235 254
221 235 254
221 235 254
221 235 254
221 235 254
221 235 254
221 235 254
221 235 254
221 235 254
221 235 254
221 235 254
221 235 254
221 235 254
221 235 254
221 235 254
221 235 254
221 235 254
221 235 254
221 235 254
221 235 254
221 235 254
221 235 254
221 235 254
221 235 254
221 235 254
221 235 254
221 235 254
221 235 254
221 235 254
221 235 254
221 235 254
221 235 254
221 235 254
221 235 254
221 235 254
221 235 254
221 235 254
221 235 254
221 235 254
221 235 254
221 235 254
221 235 254
221 235 254
221 235 254
221 235 254
221 235 254
221 235 254
221 235 254
221 235 254
221 235 254
221 235 254
221 235 254
221 235 254
221 235 254
221 235 254
221 235 254
221 235 254
221 235 254
221 235 254
221 235 254
221 235 254
221 235 254
221 235 254
221 235 254
221 235 254
221 235 254
221 235 254
221 235 254
221 235 254
221 235 254
221 235 254
221 235 254
221 235 254
221 235 254
221 235 254
221 235 254
221 235 254
221 235 254
221 235 254
221 235 254
221 235 254
221 235 254
221 235 254
221 235 254
221 235 254
221 235 254
221 235 254
221 235 254
221 235 254
221 235 254
221 235 254
221 235 254
221 235 254
221 235 254
221 235 254
221 235 254
221 235 254
221 235 254
221 235 254
221 235 254
221 235 254
221 235 254
139 148 164
0 0 42
0 0 42
0 0 42
0 0 42
0 0 42
0 0 42
0 0 42
0 0 42
0 0 42
0 0 42
0 0 42
0 0 42
0 0 42
0 0 42
0 0 42
0 0 42
0 0 42
0 0 42
0 0 42
0 0 42
0 0 42
0 0 42
0 0 42
0 0 42
0 0 42
0 0 42
0 0 42
0 0 42
0 0 42
0 0 42
0 0 42
0 0 42
0 0 42
0 0 42
0 0 42
0 0 42
0 0 42
0 0 42
0 0 42
0 0 42
0 0 42
0 0 42
0 0 42
0 0 42
0 0 42
0 0 42
0 0 42
0 0 42
0 0 42
0 0 42
0 0 42
0 0 42
0 0 42
0 0 42
0 0 42
0 0 42
0 0 42
0 0 42
0 0 42
0 0 42
0 0 42
0 0 42
0 0 45
0 0 45
0 0 45
0 0 45
0 0 45
0 0 45
0 0 45
0 0 45
0 0 45
0 0 45
0 0 45
0 0 45
0 0 45
0 0 45
0 0 45
0 0 45
0 0 45
0 0 45
0 0 45
0 0 45
0 0 45
0 0 45
0 0 45
0 0 45
0 0 45
0 0 45
0 0 45
0 0 45
0 0 45
0 0 45
0 0 45
0 0 45
0 0 46
0 0 47
0 0 47
0 0 47
0 0 47
0 0 47
0 0 47
0 0 47
0 0 46
0 0 47
0 0 47
0 0 47
0 0 45
0 0 47
0 0 46
0 0 45
0 0 43
0 0 44
0 0 45
0 0 45
0 0 47
0 0 48
0 0 52
0 0 54
0 0 59
0 0 64
0 0 65
0 5 67
0 10 72
0 15 77
0 23 84
0 24 87
0 24 86
3 27 90
53 102 129
101 141 138
61 71 41
63 67 31
44 60 11
33 52 0
25 45 0
26 47 0
26 49 0
30 52 0
30 50 0
26 46 0
21 43 0
23 44 0
27 46 0
27 48 0
25 50 0
23 48 0
24 46 0
24 46 0
24 48 0
23 45 0
22 44 0
24 48 0
29 52 0
30 53 0
27 51 0
19 44 0
19 44 0
23 44 0
24 46 0
25 46 0
25 47 0
23 47 0
20 43 0
14 37 0
17 39 0
22 43 0
23 43 0
23 41 0
26 44 0
32 52 0
27 46 0
26 47 0
28 49 0
24 44 0
24 47 0
25 48 0
25 48 0
27 48 0
29 50 0
27 49 0
34 53 0
43 65 0
37 61 0
36 58 0
28 51 0
32 55 0
34 56 1
30 52 0
38 59 0
36 57 0
38 59 0
41 60 0
35 62 6
33 54 0
42 59 3
39 58 4
44 65 10
49 70 7
52 69 24
20 27 46
0 0 43
0 0 42
0 0 43
0 0 43
0 0 41
0 0 42
0 0 42
0 0 42
0 0 42
0 0 42
0 0 42
0 0 42
0 0 42
0 0 42
125 133 148
221 235 254
221 235 254
221 235 254
221 235 254
221 235 254
221 235 254
221 235 254
221 235 254
221 235 254
221 235 254
221 235 254
221 235 254
221 235 254
221 235 254
221 235 254
221 235 254
221 235 254
221 235 254
221 235 254
221 235 254
221 235 254
221 235 254
221 235 254
221 235 254
221 235 254
221 235 254
221 235 254
221 235 254
221 235 254
221 235 254
221 235 254
221 235 254
221 235 254
221 235 254
221 235 254
221 235 254
221 235 254
221 235 254
221 235 254
221 235 254
221 235 254
221 235 254
221 235 254
221 235 254
221 235 254
221 235 254
221 235 254
221 235 254
221 235 254
221 235 254
221 235 254
221 235 254
221 235 254
221 235 254
221 235 254
221 235 254
221 235 254
221 235 254
221 235 254
221 235 254
221 235 254
221 235 254
221 235 254
221 235 254
221 235 254
221 235 254
221 235 254
221 235 254
221 235 254
221 235 254
221 235 254
221 235 254
221 235 254
221 235 254
221 235 254
221 235 254
221 235 254
221 235 254
221 235 254
221 235 254
221 235 254
221 235 254
221 235 254
221 235 254
221 235 254
221 235 254
221 235 254
221 235 254
221 235 254
221 235 254
221 235 254
221 235 254
221 235 254
221 235 254
221 235 254
221 235 254
221 235 254
221 235 254
221 235 254
221 235 254
221 235 254
221 235 254
221 235 254
221 235 254
221 235 254
221 235 254
221 235 254
221 235 254
221 235 254
221 235 254
221 235 254
221 235 254
221 235 254
221 235 254
221 235 254
221 235 254
221 235 254
221 235 254
221 235 254
221 235 254
221 235 254
221 235 254
221 235 254
221 235 254
221 235 254
221 235 254
221 235 254
221 235 254
221 235 254
221 235 254
221 235 254
221 235 254
221 235 254
221 235 254
221 235 254
221 235 254
221 235 254
221 235 254
221 235 254
221 235 254
221 235 254
221 235 254
221 235 254
221 235 254
221 235 254
221 235 254
221 235 254
221 235 254
221 235 254
221 235 254
221 235 254
221 235 254
221 235 254
221 235 254
221 235 254
221 235 254
221 235 254
221 235 254
221 235 254
221 235 254
221 235 254
221 235 254
221 235 254
221 235 254
221 235 254
221 235 254
221 235 254
221 235 254
221 235 254
221 235 254
221 235 254
221 235 254
221 235 254
221 235 254
221 235 254
221 235 254
221 235 254
221 235 254
221 235 254
221 235 254
221 235 254
221 235 254
221 235 254
221 235 254
139 148 164
0 0 42
0 0 42
0 0 42
0 0 42
0 0 42
0 0 42
0 0 42
0 0 42
0 0 42
0 0 42
0 0 42
0 0 42
0 0 42
0 0 42
0 0 42
0 0 42
0 0 42
0 0 42
0 0 42
0 0 42
0 0 42
0 0 42
0 0 42
0 0 42
0 0 42
0 0 42
0 0 42
0 0 42
0 0 42
0 0 42
0 0 42
0 0 42
0 0 42
0 0 42
0 0 42
0 0 42
0 0 42
0 0 42
0 0 42
0 0 42
0 0 42
0 0 42
0 0 42
0 0 42
0 0 42
0 0 42
0 0 42
0 0 42
0 0 42
0 0 42
0 0 42
0 0 42
0 0 42
0 0 42
0 0 42
0 0 42
0 0 42
0 0 42
0 0 42
0 0 42
0 0 42
0 0 43
0 0 45
0 0 45
0 0 45
0 0 45
0 0 45
0 0 45
0 0 45
0 0 45
0 0 45
0 0 45
0 0 45
0 0 45
0 0 45
0 0 45
0 0 45
0 0 45
0 0 45
0 0 45
0 0 45
0 0 45
0 0 45
0 0 45
0 0 45
0 0 45
0 0 45
0 0 45
0 0 45
0 0 45
0 0 45
0 0 45
0 0 45
0 0 45
0 0 47
0 0 49
0 0 49
0 0 49
0 0 49
0 0 49
0 0 49
0 0 47
0 0 46
0 0 46
0 0 47
0 0 46
0 0 45
0 0 47
0 0 45
0 0 45
0 0 45
0 0 45
0 0 45
0 0 45
0 0 48
0 0 50
0 0 53
0 0 57
0 0 63
0 0 64
0 0 65
0 0 67
0 0 69
0 11 75
0 20 83
0 20 82
0 20 84
29 52 74
67 92 82
86 105 87
57 66 21
42 64 15
38 54 0
33 54 0
25 47 0
22 45 0
24 48 0
26 48 0
27 48 0
21 45 0
23 45 0
18 39 0
20 39 0
26 46 0
24 46 0
21 45 0
22 44 0
24 46 0
24 48 0
21 43 0
23 44 0
24 47 0
25 49 0
25 47 0
22 44 0
19 44 0
23 47 0
24 48 0
24 45 0
21 44 0
22 43 0
26 48 0
25 47 0
22 43 0
23 46 0
25 47 0
23 44 0
23 44 0
25 45 0
24 46 0
27 46 0
24 45 0
25 45 0
20 42 0
23 46 0
24 47 0
24 46 0
28 48 0
29 51 0
32 54 0
30 51 0
31 53 0
31 54 0
34 57 0
33 56 0
33 54 6
39 59 7
29 51 0
34 55 0
30 51 0
37 58 0
45 64 7
33 55 0
33 52 0
37 55 0
40 58 10
42 60 5
49 70 16
51 71 8
40 54 28
6 8 44
0 0 39
0 0 40
0 0 43
0 0 42
0 0 42
0 0 42
0 0 42
0 0 42
0 0 42
0 0 42
0 0 42
0 0 42
0 0 42
164 174 191
221 235 254
221 235 254
221 235 254
221 235 254
221 235 254
221 235 254
221 235 254
221 235 254
221 235 254
221 235 254
221 235 254
221 235 254
221 235 254
221 235 254
221 235 254
221 235 254
221 235 254
221 235 254
221 235 254
221 235 254
221 235 254
221 235 254
221 235 254
221 235 254
221 235 254
221 235 254
221 235 254
221 235 254
221 235 254
221 235 254
221 235 254
221 235 254
221 235 254
221 235 254
221 235 254
221 235 254
221 235 254
221 235 254
221 235 254
221 235 254
221 235 254
221 235 254
221 235 254
221 235 254
221 235 254
221 235 254
221 235 254
221 235 254
221 235 254
221 235 254
221 235 254
221 235 254
221 235 254
221 235 254
221 235 254
221 235 254
221 235 254
221 235 254
221 235 254
221 235 254
221 235 254
221 235 254
221 235 254
221 235 254
221 235 254
221 235 254
221 235 254
221 235 254
221 235 254
221 235 254
221 235 254
221 235 254
221 235 254
221 235 254
221 235 254
221 235 254
221 235 254
221 235 254
221 235 254
221 235 254
221 235 254
221 235 254
221 235 254
221 235 254
221 235 254
221 235 254
221 235 254
221 235 254
221 235 254
221 235 254
221 235 254
221 235 254
221 235 254
221 235 254
221 235 254
221 235 254
221 235 254
221 235 254
221 235 254
221 235 254
221 235 254
221 235 254
221 235 254
221 235 254
221 235 254
221 235 254
221 235 254
221 235 254
221 235 254
221 235 254
221 235 254
221 235 254
221 235 254
221 235 254
221 235 254
221 235 254
221 235 254
221 235 254
221 235 254
221 235 254
221 235 254
221 235 254
221 235 254
221 235 254
221 235 254
221 235 254
221 235 254
221 235 254
221 235 254
221 235 254
221 235 254
221 235 254
221 235 254
221 235 254
221 235 254
221 235 254
221 235 254
221 235 254
221 235 254
221 235 254
221 235 254
221 235 254
221 235 254
221 235 254
221 235 254
221 235 254
221 235 254
221 235 254
221 235 254
221 235 254
221 235 254
221 235 254
221 235 254
221 235 254
221 235 254
221 235 254
221 235 254
221 235 254
221 235 254
221 235 254
221 235 254
221 235 254
221 235 254
221 235 254
221 235 254
221 235 254
221 235 254
221 235 254
221 235 254
221 235 254
221 235 254
221 235 254
221 235 254
221 235 254
221 235 254
221 235 254
221 235 254
221 235 254
221 235 254
221 235 254
221 235 254
221 235 254
221 235 254
221 235 254
156 166 182
0 0 42
0 0 42
0 0 42
0 0 42
0 0 42
0 0 42
0 0 42
0 0 42
0 0 42
0 0 42
0 0 42
0 0 42
0 0 42
0 0 42
0 0 42
0 0 42
0 0 42
0 0 42
0 0 42
0 0 42
0 0 42
0 0 42
0 0 42
0 0 42
0 0 42
0 0 42
0 0 42
0 0 42
0 0 42
0 0 42
0 0 42
0 0 42
0 0 42
0 0 42
0 0 42
0 0 42
0 0 42
0 0 42
0 0 42
0 0 42
0 0 42
0 0 42
0 0 42
0 0 42
0 0 42
0 0 42
0 0 42
0 0 42
0 0 42
0 0 42
0 0 42
0 0 42
0 0 42
0 0 42
0 0 42
0 0 42
0 0 42
0 0 42
0 0 42
0 0 42
0 0 42
0 0 42
0 0 45
0 0 45
0 0 45
0 0 45
0 0 45
0 0 45
0 0 45
0 0 44
0 0 44
0 0 44
0 0 44
0 0 44
0 0 44
0 0 44
0 0 44
0 0 44
0 0 45
0 0 45
0 0 45
0 0 45
0 0 45
0 0 45
0 0 45
0 0 45
0 0 45
0 0 45
0 0 45
0 0 45
0 0 45
0 0 45
0 0 45
0 0 47
0 0 49
0 0 50
0 0 50
0 0 50
0 0 50
0 0 50
0 0 50
0 0 47
0 0 47
0 0 47
0 0 47
0 0 47
0 0 45
0 0 45
0 0 45
0 0 45
0 0 45
0 0 45
0 0 46
0 0 45
0 0 48
0 0 51
0 0 54
0 0 59
0 0 64
0 0 66
0 0 67
0 0 67
0 0 69
0 13 79
0 25 89
5 24 88
43 51 79
57 75 38
42 63 16
41 64 5
55 58 23
42 54 3
37 55 0
40 60 0
30 53 0
21 46 0
24 48 0
24 48 0
21 48 0
19 45 0
19 45 0
17 41 0
21 42 0
28 47 0
21 42 0
19 41 0
19 42 0
22 45 0
23 46 0
23 46 0
26 48 0
25 46 0
20 42 0
21 42 0
20 41 0
21 45 0
26 48 0
26 48 0
23 46 0
22 44 0
17 41 0
20 43 0
19 41 0
19 41 0
22 44 0
21 45 0
22 46 0
19 43 0
19 42 0
19 43 0
21 41 0
20 39 0
23 46 0
23 45 0
25 48 0
29 52 0
26 50 0
30 51 0
28 50 0
27 49 0
28 50 0
30 52 0
29 53 0
30 54 0
33 58 0
27 47 5
40 60 9
34 55 0
42 63 0
39 59 0
44 65 9
46 65 11
41 61 0
34 55 0
33 51 0
43 61 5
47 62 13
49 68 17
51 69 18
51 68 19
27 35 43
0 0 42
0 0 44
0 0 41
0 0 43
0 0 42
0 0 42
0 0 42
0 0 42
0 0 42
0 0 42
0 0 42
0 0 42
0 0 42
158 168 184
221 235 254
221 235 254
221 235 254
221 235 254
221 235 254
221 235 254
221 235 254
221 235 254
221 235 254
221 235 254
221 235 254
221 235 254
221 235 254
221 235 254
221 235 254
221 235 254
221 235 254
221 235 254
221 235 254
221 235 254
221 235 254
221 235 254
221 235 254
221 235 254
221 235 254
221 235 254
221 235 254
221 235 254
221 235 254
221 235 254
221 235 254
221 235 254
221 235 254
221 235 254
221 235 254
221 235 254
221 235 254
221 235 254
221 235 254
221 235 254
221 235 254
221 235 254
221 235 254
221 235 254
221 235 254
221 235 254
221 235 254
221 235 254
221 235 254
221 235 254
221 235 254
221 235 254
221 235 254
221 235 254
221 235 254
221 235 254
221 235 254
221 235 254
221 235 254
221 235 254
221 235 254
221 235 254
221 235 254
221 235 254
221 235 254
221 235 254
221 235 254
221 235 254
221 235 254
221 235 254
221 235 254
221 235 254
221 235 254
221 235 254
221 235 254
221 235 254
221 235 254
221 235 254
221 235 254
221 235 254
221 235 254
221 235 254
221 235 254
221 235 254
221 235 254
221 235 254
221 235 254
221 235 254
221 235 254
221 235 254
221 235 254
221 235 254
221 235 254
221 235 254
221 235 254
221 235 254
221 235 254
221 235 254
221 235 254
221 235 254
221 235 254
221 235 254
221 235 254
221 235 254
221 235 254
221 235 254
221 235 254
221 235 254
221 235 254
221 235 254
221 235 254
221 235 254
221 235 254
221 235 254
221 235 254
221 235 254
221 235 254
221 235 254
221 235 254
221 235 254
221 235 254
221 235 254
221 235 254
221 235 254
221 235 254
221 235 254
221 235 254
221 235 254
221 235 254
221 235 254
221 235 254
221 235 254
221 235 254
221 235 254
221 235 254
221 235 254
221 235 254
221 235 254
221 235 254
221 235 254
221 235 254
221 235 254
221 235 254
221 235 254
221 235 254
221 235 254
221 235 254
221 235 254
221 235 254
221 235 254
221 235 254
221 235 254
221 235 254
221 235 254
221 235 254
221 235 254
221 235 254
221 235 254
221 235 254
221 235 254
221 235 254
221 235 254
221 235 254
221 235 254
221 235 254
221 235 254
221 235 254
221 235 254
221 235 254
221 235 254
221 235 254
221 235 254
221 235 254
221 235 254
221 235 254
221 235 254
221 235 254
221 235 254
221 235 254
221 235 254
221 235 254
221 235 254
221 235 254
221 235 254
171 182 199
0 0 42
0 0 42
0 0 42
0 0 42
0 0 42
0 0 42
0 0 42
0 0 42
0 0 42
0 0 42
0 0 42
0 0 42
0 0 42
0 0 42
0 0 42
0 0 42
0 0 42
0 0 42
0 0 42
0 0 42
0 0 42
0 0 42
0 0 42
0 0 42
0 0 42
0 0 42
0 0 42
0 0 42
0 0 42
0 0 42
0 0 42
0 0 42
0 0 42
0 0 42
0 0 42
0 0 42
0 0 42
0 0 42
0 0 42
0 0 42
0 0 42
0 0 42
0 0 42
0 0 42
0 0 42
0 0 42
0 0 42
0 0 42
0 0 42
0 0 42
0 0 42
0 0 42
0 0 42
0 0 42
0 0 42
0 0 42
0 0 42
0 0 42
0 0 42
0 0 42
0 0 42
0 0 42
0 0 45
0 0 45
0 0 45
0 0 45
0 0 45
0 0 45
0 0 44
0 0 43
0 0 42
0 0 42
0 0 42
0 0 42
0 0 42
0 0 42
0 0 42
0 0 42
0 0 44
0 0 45
0 0 45
0 0 45
0 0 45
0 0 45
0 0 45
0 0 45
0 0 45
0 0 45
0 0 45
0 0 45
0 0 45
0 0 45
0 0 45
0 0 47
0 0 50
0 0 52
0 0 52
0 0 52
0 0 52
0 0 52
0 0 51
0 0 48
0 0 47
0 0 47
0 0 47
0 0 47
0 0 47
0 0 47
0 0 45
0 0 45
0 0 45
0 0 45
0 0 47
0 0 47
0 0 48
0 0 51
0 0 55
0 0 59
0 0 61
0 0 63
0 0 64
0 0 64
0 0 65
0 17 76
0 29 92
14 49 97
90 99 79
87 90 41
53 74 28
50 66 14
46 58 12
37 53 0
35 54 0
36 58 0
24 48 0
20 44 0
23 47 0
23 49 0
21 48 0
19 47 0
20 48 0
21 47 0
23 45 0
25 45 0
21 42 0
19 41 0
19 40 0
19 42 0
17 41 0
19 42 0
21 44 0
18 41 0
19 40 0
22 43 0
20 44 0
23 46 0
24 46 0
22 44 0
23 44 0
22 45 0
19 43 0
19 43 0
17 41 0
18 41 0
19 42 0
17 42 0
19 43 0
19 42 0
20 44 0
20 43 0
17 39 0
22 44 0
24 48 0
24 45 0
25 48 0
27 51 0
26 49 0
29 52 0
27 48 0
25 45 0
30 51 0
27 49 0
27 51 0
27 52 0
27 52 0
28 47 1
40 59 4
41 61 0
50 70 10
43 64 11
34 54 1
42 60 2
38 57 0
37 58 0
42 58 2
47 61 12
47 57 17
54 67 16
54 70 18
61 74 22
65 74 47
33 34 48
15 17 41
0 0 41
0 0 42
0 0 42
0 0 42
0 0 42
0 0 42
0 0 42
0 0 42
0 0 42
0 0 42
0 0 42
172 183 200
221 235 254
221 235 254
221 235 254
221 235 254
221 235 254
221 235 254
221 235 254
221 235 254
221 235 254
221 235 254
221 235 254
221 235 254
221 235 254
221 235 254
221 235 254
221 235 254
221 235 254
221 235 254
221 235 254
221 235 254
221 235 254
221 235 254
221 235 254
221 235 254
221 235 254
221 235 254
221 235 254
221 235 254
221 235 254
221 235 254
221 235 254
221 235 254
221 235 254
221 235 254
221 235 254
221 235 254
221 235 254
221 235 254
221 235 254
221 235 254
221 235 254
221 235 254
221 235 254
221 235 254
221 235 254
221 235 254
221 235 254
221 235 254
221 235 254
221 235 254
221 235 254
221 235 254
221 235 254
221 235 254
221 235 254
221 235 254
221 235 254
221 235 254
221 235 254
221 235 254
221 235 254
221 235 254
221 235 254
221 235 254
221 235 254
221 235 254
221 235 254
221 235 254
221 235 254
221 235 254
221 235 254
221 235 254
221 235 254
221 235 254
221 235 254
221 235 254
221 235 254
221 235 254
221 235 254
221 235 254
221 235 254
221 235 254
221 235 254
221 235 254
221 235 254
221 235 254
221 235 254
221 235 254
221 235 254
221 235 254
221 235 254
221 235 254
221 235 254
221 235 254
221 235 254
221 235 254
221 235 254
221 235 254
221 235 254
221 235 254
221 235 254
221 235 254
221 235 254
221 235 254
221 235 254
221 235 254
221 235 254
221 235 254
221 235 254
221 235 254
221 235 254
221 235 254
221 235 254
221 235 254
221 235 254
221 235 254
221 235 254
221 235 254
221 235 254
221 235 254
221 235 254
221 235 254
221 235 254
221 235 254
221 235 254
221 235 254
221 235 254
221 235 254
221 235 254
221 235 254
221 235 254
221 235 254
221 235 254
221 235 254
221 235 254
221 235 254
221 235 254
221 235 254
221 235 254
221 235 254
221 235 254
221 235 254
221 235 254
221 235 254
221 235 254
221 235 254
221 235 254
221 235 254
221 235 254
221 235 254
221 235 254
221 235 254
221 235 254
221 235 254
221 235 254
221 235 254
221 235 254
221 235 254
221 235 254
221 235 254
221 235 254
221 235 254
221 235 254
221 235 254
221 235 254
221 235 254
221 235 254
221 235 254
221 235 254
221 235 254
221 235 254
221 235 254
221 235 254
221 235 254
221 235 254
221 235 254
221 235 254
221 235 254
221 235 254
221 235 254
221 235 254
221 235 254
221 235 254
221 235 254
186 198 216
0 0 42
0 0 42
0 0 42
0 0 42
0 0 42
0 0 42
0 0 42
0 0 42
0 0 42
0 0 42
0 0 42
0 0 42
0 0 42
0 0 42
0 0 42
0 0 42
0 0 42
0 0 42
0 0 42
0 0 42
0 0 42
0 0 42
0 0 42
0 0 42
0 0 42
0 0 42
0 0 42
0 0 42
0 0 42
0 0 42
0 0 42
0 0 42
0 0 42
0 0 42
0 0 42
0 0 42
0 0 42
0 0 42
0 0 42
0 0 42
0 0 42
0 0 42
0 0 42
0 0 42
0 0 42
0 0 42
0 0 42
0 0 42
0 0 42
0 0 42
0 0 42
0 0 42
0 0 42
0 0 42
0 0 42
0 0 42
0 0 42
0 0 42
0 0 42
0 0 42
0 0 42
0 0 42
0 0 45
0 0 45
0 0 45
0 0 45
0 0 45
0 0 45
0 0 42
0 0 42
0 0 42
0 0 42
0 0 42
0 0 42
0 0 42
0 0 42
0 0 42
0 0 42
0 0 42
0 0 44
0 0 45
0 0 45
0 0 45
0 0 45
0 0 45
0 0 45
0 0 45
0 0 45
0 0 45
0 0 45
0 0 45
0 0 45
0 0 47
0 0 47
0 0 50
0 0 52
0 0 51
0 0 51
0 0 50
0 0 50
0 0 50
0 0 48
0 0 47
0 0 47
0 0 47
0 0 47
0 0 47
0 0 47
0 0 46
0 0 45
0 0 45
0 0 45
0 0 45
0 0 46
0 0 49
0 0 51
0 0 53
0 0 55
0 0 57
0 0 59
0 0 59
0 0 61
0 0 64
0 14 72
0 28 90
9 52 106
86 100 94
127 119 61
74 84 38
51 66 17
41 60 12
46 59 10
35 53 0
31 53 0
22 44 0
19 42 0
21 45 0
25 49 0
25 49 0
19 45 0
19 46 0
22 48 0
24 48 0
22 44 0
20 42 0
18 41 0
16 39 0
18 41 0
17 40 0
14 39 0
15 38 0
16 40 0
19 41 0
20 44 0
22 45 0
24 48 0
23 45 0
20 43 0
22 45 0
22 46 0
19 43 0
19 42 0
19 41 0
19 42 0
19 44 0
21 44 0
23 45 0
23 44 0
23 44 0
20 42 0
19 40 0
25 47 0
24 46 0
20 43 0
21 45 0
23 45 0
24 46 0
29 50 0
28 51 0
27 49 0
27 48 0
24 46 0
28 53 0
29 54 0
30 54 5
39 61 7
43 63 8
44 65 0
50 69 11
41 60 9
36 55 0
41 59 0
40 60 0
36 56 0
46 59 8
51 64 17
54 64 17
60 70 19
60 71 23
76 82 32
78 81 43
81 83 52
43 46 36
0 0 44
0 0 42
0 0 42
0 0 42
0 0 42
0 0 42
0 0 42
0 0 42
0 0 42
0 0 42
0 0 42
178 189 207
221 235 254
221 235 254
221 235 254
221 235 254
221 235 254
221 235 254
221 235 254
221 235 254
221 235 254
221 235 254
221 235 254
221 235 254
221 235 254
221 235 254
221 235 254
221 235 254
221 235 254
221 235 254
221 235 254
221 235 254
221 235 254
221 235 254
221 235 254
221 235 254
221 235 254
221 235 254
221 235 254
221 235 254
221 235 254
221 235 254
221 235 254
221 235 254
221 235 254
221 235 254
221 235 254
221 235 254
221 235 254
221 235 254
221 235 254
221 235 254
221 235 254
221 235 254
221 235 254
221 235 254
221 235 254
221 235 254
221 235 254
221 235 254
221 235 254
221 235 254
221 235 254
221 235 254
221 235 254
221 235 254
221 235 254
221 235 254
221 235 254
221 235 254
221 235 254
221 235 254
221 235 254
221 235 254
221 235 254
221 235 254
221 235 254
221 235 254
221 235 254
221 235 254
221 235 254
221 235 254
221 235 254
221 235 254
221 235 254
221 235 254
221 235 254
221 235 254
221 235 254
221 235 254
221 235 254
221 235 254
221 235 254
221 235 254
221 235 254
221 235 254
221 235 254
221 235 254
221 235 254
221 235 254
221 235 254
221 235 254
221 235 254
221 235 254
221 235 254
221 235 254
221 235 254
221 235 254
221 235 254
221 235 254
221 235 254
221 235 254
221 235 254
221 235 254
221 235 254
221 235 254
221 235 254
221 235 254
221 235 254
221 235 254
221 235 254
221 235 254
221 235 254
221 235 254
221 235 254
221 235 254
221 235 254
221 235 254
221 235 254
221 235 254
221 235 254
221 235 254
221 235 254
221 235 254
221 235 254
221 235 254
221 235 254
221 235 254
221 235 254
221 235 254
221 235 254
221 235 254
221 235 254
221 235 254
221 235 254
221 235 254
221 235 254
221 235 254
221 235 254
221 235 254
221 235 254
221 235 254
221 235 254
221 235 254
221 235 254
221 235 254
221 235 254
221 235 254
221 235 254
221 235 254
221 235 254
221 235 254
221 235 254
221 235 254
221 235 254
221 235 254
221 235 254
221 235 254
221 235 254
221 235 254
221 235 254
221 235 254
221 235 254
221 235 254
221 235 254
221 235 254
221 235 254
221 235 254
221 235 254
221 235 254
221 235 254
221 235 254
221 235 254
221 235 254
221 235 254
221 235 254
221 235 254
221 235 254
221 235 254
221 235 254
221 235 254
221 235 254
221 235 254
221 235 254
221 235 254
221 235 254
191 203 221
0 0 42
0 0 42
0 0 42
0 0 42
0 0 42
0 0 42
0 0 42
0 0 42
0 0 42
0 0 42
0 0 42
0 0 42
0 0 42
0 0 42
0 0 42
0 0 42
0 0 42
0 0 42
0 0 42
0 0 42
0 0 42
0 0 42
0 0 42
0 0 42
0 0 42
0 0 42
0 0 42
0 0 42
0 0 42
0 0 42
0 0 42
0 0 42
0 0 42
0 0 42
0 0 42
0 0 42
0 0 42
0 0 42
0 0 42
0 0 42
0 0 42
0 0 42
0 0 42
0 0 42
0 0 42
0 0 42
0 0 42
0 0 42
0 0 42
0 0 42
0 0 42
0 0 42
0 0 42
0 0 42
0 0 42
0 0 42
0 0 42
0 0 42
0 0 42
0 0 42
0 0 42
0 0 42
0 0 44
0 0 44
0 0 44
0 0 44
0 0 44
0 0 44
0 0 42
0 0 42
0 0 42
0 0 42
0 0 42
0 0 42
0 0 42
0 0 42
0 0 42
0 0 42
0 0 42
0 0 44
0 0 45
0 0 45
0 0 45
0 0 45
0 0 45
0 0 45
0 0 45
0 0 45
0 0 45
0 0 45
0 0 45
0 0 45
0 0 47
0 0 47
0 0 49
0 0 50
0 0 50
0 0 48
0 0 48
0 0 48
0 0 48
0 0 47
0 0 47
0 0 46
0 0 47
0 0 47
0 0 47
0 0 47
0 0 46
0 0 45
0 0 45
0 0 45
0 0 45
0 0 47
0 0 48
0 0 51
0 0 52
0 0 52
0 0 53
0 0 56
0 0 57
0 0 59
0 0 60
0 6 66
0 20 83
0 25 91
46 74 95
143 138 101
104 100 56
58 68 18
51 59 9
45 68 15
44 61 12
34 53 0
24 45 0
24 44 0
21 43 0
24 48 0
22 46 0
21 46 0
25 51 0
27 51 0
23 47 0
20 44 0
19 44 0
19 43 0
16 40 0
14 39 0
15 39 0
14 39 0
14 39 0
13 38 0
18 41 0
22 44 0
24 49 0
23 46 0
19 42 0
19 41 0
23 45 0
21 44 0
19 44 0
19 44 0
20 44 0
20 43 0
19 42 0
24 46 0
25 45 0
23 44 0
21 44 0
19 43 0
19 42 0
24 45 0
22 45 0
18 41 0
18 43 0
19 43 0
24 47 0
27 48 0
25 46 0
25 48 0
25 48 0
23 46 0
27 51 0
27 50 0
33 55 7
40 63 2
43 66 7
45 64 0
49 64 8
46 62 9
41 56 0
43 54 0
39 57 0
35 57 0
46 59 6
51 61 10
54 68 21
66 73 27
59 72 21
73 80 35
89 88 54
83 81 45
48 57 33
0 0 41
0 0 42
0 0 42
0 0 42
0 0 42
0 0 42
0 0 42
0 0 42
0 0 42
0 0 42
0 0 42
201 214 232
221 235 254
221 235 254
221 235 254
221 235 254
221 235 254
221 235 254
221 235 254
221 235 254
221 235 254
221 235 254
221 235 254
221 235 254
221 235 254
221 235 254
221 235 254
221 235 254
221 235 254
221 235 254
221 235 254
221 235 254
221 235 254
221 235 254
221 235 254
221 235 254
221 235 254
221 235 254
221 235 254
221 235 254
221 235 254
221 235 254
221 235 254
221 235 254
221 235 254
221 235 254
221 235 254
221 235 254
221 235 254
221 235 254
221 235 254
221 235 254
221 235 254
221 235 254
221 235 254
221 235 254
221 235 254
221 235 254
221 235 254
221 235 254
221 235 254
221 235 254
221 235 254
221 235 254
221 235 254
221 235 254
221 235 254
221 235 254
221 235 254
221 235 254
221 235 254
221 235 254
221 235 254
221 235 254
221 235 254
221 235 254
221 235 254
221 235 254
221 235 254
221 235 254
221 235 254
221 235 254
221 235 254
221 235 254
221 235 254
221 235 254
221 235 254
221 235 254
221 235 254
221 235 254
221 235 254
221 235 254
221 235 254
221 235 254
221 235 254
221 235 254
221 235 254
221 235 254
221 235 254
221 235 254
221 235 254
221 235 254
221 235 254
221 235 254
221 235 254
221 235 254
221 235 254
221 235 254
221 235 254
221 235 254
221 235 254
221 235 254
221 235 254
221 235 254
221 235 254
221 235 254
221 235 254
221 235 254
221 235 254
221 235 254
221 235 254
221 235 254
221 235 254
221 235 254
221 235 254
221 235 254
221 235 254
221 235 254
221 235 254
221 235 254
221 235 254
221 235 254
221 235 254
221 235 254
221 235 254
221 235 254
221 235 254
221 235 254
221 235 254
221 235 254
221 235 254
221 235 254
221 235 254
221 235 254
221 235 254
221 235 254
221 235 254
221 235 254
221 235 254
221 235 254
221 235 254
221 235 254
221 235 254
221 235 254
221 235 254
221 235 254
221 235 254
221 235 254
221 235 254
221 235 254
221 235 254
221 235 254
221 235 254
221 235 254
221 235 254
221 235 254
221 235 254
221 235 254
221 235 254
221 235 254
221 235 254
221 235 254
221 235 254
221 235 254
221 235 254
221 235 254
221 235 254
221 235 254
221 235 254
221 235 254
221 235 254
221 235 254
221 235 254
221 235 254
221 235 254
221 235 254
221 235 254
221 235 254
221 235 254
221 235 254
221 235 254
221 235 254
221 235 254
221 235 254
221 235 254
221 235 254
214 228 247
0 0 42
0 0 42
0 0 42
0 0 42
0 0 42
0 0 42
0 0 42
0 0 42
0 0 42
0 0 42
0 0 42
0 0 42
0 0 42
0 0 42
0 0 42
0 0 42
0 0 42
0 0 42
0 0 42
0 0 42
0 0 42
0 0 42
0 0 42
0 0 42
0 0 42
0 0 42
0 0 42
0 0 42
0 0 42
0 0 42
0 0 42
0 0 42
0 0 42
0 0 42
0 0 42
0 0 42
0 0 42
0 0 42
0 0 42
0 0 42
0 0 42
0 0 42
0 0 42
0 0 42
0 0 42
0 0 42
0 0 42
0 0 42
0 0 42
0 0 42
0 0 42
0 0 42
0 0 42
0 0 42
0 0 42
0 0 42
0 0 42
0 0 42
0 0 42
0 0 42
0 0 42
0 0 44
0 0 44
0 0 42
0 0 42
0 0 43
0 0 43
0 0 45
0 0 45
0 0 45
0 0 44
0 0 43
0 0 43
0 0 43
0 0 43
0 0 43
0 0 44
0 0 45
0 0 45
0 0 45
0 0 45
0 0 45
0 0 45
0 0 45
0 0 45
0 0 45
0 0 45
0 0 45
0 0 45
0 0 45
0 0 45
0 0 45
0 0 45
0 0 45
0 0 45
0 0 45
0 0 45
0 0 45
0 0 45
0 0 43
0 0 43
0 0 47
0 0 47
0 0 47
0 0 47
0 0 47
0 0 47
0 0 49
0 0 46
0 0 45
0 0 42
0 0 45
0 0 45
0 0 45
0 0 47
0 0 48
0 0 51
0 0 52
0 0 52
0 0 54
0 0 57
0 0 58
0 0 61
0 11 70
0 15 78
0 13 75
46 62 95
179 184 166
149 144 101
74 79 40
56 65 17
59 75 26
60 73 28
41 55 12
33 49 0
35 52 0
23 46 0
26 53 0
22 48 0
25 51 0
29 55 0
23 47 0
19 44 0
19 43 0
19 44 0
19 43 0
19 41 0
16 41 0
17 40 0
17 40 0
15 39 0
14 38 0
15 38 0
22 45 0
25 50 0
21 43 0
15 38 0
18 41 0
22 44 0
19 43 0
18 43 0
21 44 0
20 42 0
21 43 0
22 44 0
27 47 0
27 47 0
22 44 0
20 44 0
18 43 0
22 44 0
24 44 0
20 42 0
19 41 0
19 42 0
20 44 0
24 48 0
24 48 0
24 45 0
25 50 0
27 52 0
28 52 0
32 57 3
28 52 2
29 51 0
46 68 2
47 72 9
47 64 3
51 63 11
50 65 13
50 60 13
52 59 12
38 53 0
42 55 6
47 57 7
51 60 13
59 67 24
67 70 28
65 74 26
76 79 39
96 89 55
80 77 40
47 56 30
0 0 42
0 0 42
0 0 42
0 0 42
0 0 42
0 0 42
0 0 42
0 0 42
0 0 42
0 0 42
0 0 42
213 227 246
221 235 254
221 235 254
221 235 254
221 235 254
221 235 254
221 235 254
221 235 254
221 235 254
221 235 254
221 235 254
221 235 254
221 235 254
221 235 254
221 235 254
221 235 254
221 235 254
221 235 254
221 235 254
221 235 254
221 235 254
221 235 254
221 235 254
221 235 254
221 235 254
221 235 254
221 235 254
221 235 254
221 235 254
221 235 254
221 235 254
221 235 254
221 235 254
221 235 254
221 235 254
221 235 254
221 235 254
221 235 254
221 235 254
221 235 254
221 235 254
221 235 254
221 235 254
221 235 254
221 235 254
221 235 254
221 235 254
221 235 254
221 235 254
221 235 254
221 235 254
221 235 254
221 235 254
221 235 254
221 235 254
221 235 254
221 235 254
221 235 254
221 235 254
221 235 254
221 235 254
221 235 254
221 235 254
221 235 254
221 235 254
221 235 254
221 235 254
221 235 254
221 235 254
221 235 254
221 235 254
221 235 254
221 235 254
221 235 254
221 235 254
221 235 254
221 235 254
221 235 254
221 235 254
221 235 254
221 235 254
221 235 254
221 235 254
221 235 254
221 235 254
221 235 254
221 235 254
221 235 254
221 235 254
221 235 254
221 235 254
221 235 254
221 235 254
221 235 254
221 235 254
221 235 254
221 235 254
221 235 254
221 235 254
221 235 254
221 235 254
221 235 254
221 235 254
221 235 254
221 235 254
221 235 254
221 235 254
221 235 254
221 235 254
221 235 254
221 235 254
221 235 254
221 235 254
221 235 254
221 235 254
221 235 254
221 235 254
221 235 254
221 235 254
221 235 254
221 235 254
221 235 254
221 235 254
221 235 254
221 235 254
221 235 254
221 235 254
221 235 254
221 235 254
221 235 254
221 235 254
221 235 254
221 235 254
221 235 254
221 235 254
221 235 254
221 235 254
221 235 254
221 235 254
221 235 254
221 235 254
221 235 254
221 235 254
221 235 254
221 235 254
221 235 254
221 235 254
221 235 254
221 235 254
221 235 254
221 235 254
221 235 254
221 235 254
221 235 254
221 235 254
221 235 254
221 235 254
221 235 254
221 235 254
221 235 254
221 235 254
221 235 254
221 235 254
221 235 254
221 235 254
221 235 254
221 235 254
221 235 254
221 235 254
221 235 254
221 235 254
221 235 254
221 235 254
221 235 254
221 235 254
221 235 254
221 235 254
221 235 254
221 235 254
221 235 254
221 235 254
221 235 254
221 235 254
221 235 254
221 235 254
221 235 254
58 62 78
0 0 42
0 0 42
0 0 42
0 0 42
0 0 42
0 0 42
0 0 42
0 0 42
0 0 42
0 0 42
0 0 42
0 0 42
0 0 42
0 0 42
0 0 42
0 0 42
0 0 42
0 0 42
0 0 42
0 0 42
0 0 42
0 0 42
0 0 42
0 0 42
0 0 42
0 0 42
0 0 42
0 0 42
0 0 42
0 0 42
0 0 42
0 0 42
0 0 42
0 0 42
0 0 42
0 0 42
0 0 42
0 0 42
0 0 42
0 0 42
0 0 42
0 0 42
0 0 42
0 0 42
0 0 42
0 0 42
0 0 42
0 0 42
0 0 42
0 0 42
0 0 42
0 0 42
0 0 42
0 0 42
0 0 42
0 0 42
0 0 42
0 0 42
0 0 42
0 0 44
0 0 45
0 0 45
0 0 44
0 0 42
0 0 45
0 0 45
0 0 45
0 0 45
0 0 45
0 0 45
0 0 45
0 0 45
0 0 45
0 0 45
0 0 45
0 0 45
0 0 45
0 0 45
0 0 45
0 0 45
0 0 45
0 0 45
0 0 45
0 0 45
0 0 45
0 0 45
0 0 45
0 0 45
0 0 45
0 0 45
0 0 45
0 0 45
0 0 45
0 0 45
0 0 45
0 0 45
0 0 45
0 0 45
0 0 45
0 0 44
0 0 46
0 0 46
0 0 46
0 0 47
0 0 47
0 0 47
0 0 48
0 0 46
0 0 45
0 0 44
0 0 45
0 0 45
0 0 47
0 0 47
0 0 47
0 0 49
0 0 51
0 0 51
0 0 53
0 0 56
0 0 57
0 0 60
0 0 67
0 19 81
0 20 79
45 54 98
160 175 186
152 160 133
84 89 47
50 65 18
63 67 22
56 63 19
47 58 14
29 45 0
32 51 0
32 55 0
27 50 0
24 48 0
24 48 0
24 48 0
22 45 0
22 44 0
21 43 0
19 42 0
19 42 0
19 42 0
19 41 0
18 41 0
19 43 0
19 43 0
15 40 0
20 42 0
23 44 0
20 43 0
17 39 0
16 37 0
19 42 0
23 45 0
21 45 0
22 45 0
17 42 0
15 40 0
20 42 0
23 46 0
24 46 0
24 45 0
21 44 0
20 43 0
18 41 0
23 45 0
23 45 0
20 43 0
17 41 0
20 43 0
22 46 0
26 49 0
24 47 0
24 48 0
25 50 0
25 50 0
35 59 0
42 67 10
36 60 8
43 65 7
48 71 4
46 70 2
52 67 13
52 63 11
53 63 12
55 63 15
53 59 13
47 58 7
54 60 16
56 64 21
54 62 20
69 68 32
73 72 34
69 74 31
79 80 42
93 86 53
79 79 37
45 56 25
0 0 42
0 0 42
0 0 42
0 0 42
0 0 42
0 0 42
0 0 42
0 0 42
0 0 42
0 0 42
66 70 86
221 235 254
221 235 254
221 235 254
221 235 254
221 235 254
221 235 254
221 235 254
221 235 254
221 235 254
221 235 254
221 235 254
221 235 254
221 235 254
221 235 254
221 235 254
221 235 254
221 235 254
221 235 254
221 235 254
221 235 254
221 235 254
221 235 254
221 235 254
221 235 254
221 235 254
221 235 254
221 235 254
221 235 254
221 235 254
221 235 254
221 235 254
221 235 254
221 235 254
221 235 254
221 235 254
221 235 254
221 235 254
221 235 254
221 235 254
221 235 254
221 235 254
221 235 254
221 235 254
221 235 254
221 235 254
221 235 254
221 235 254
221 235 254
221 235 254
221 235 254
221 235 254
221 235 254
221 235 254
221 235 254
221 235 254
221 235 254
221 235 254
221 235 254
221 235 254
221 235 254
221 235 254
221 235 254
221 235 254
221 235 254
221 235 254
221 235 254
221 235 254
221 235 254
221 235 254
221 235 254
221 235 254
221 235 254
221 235 254
221 235 254
221 235 254
221 235 254
221 235 254
221 235 254
221 235 254
221 235 254
221 235 254
221 235 254
221 235 254
221 235 254
221 235 254
221 235 254
221 235 254
221 235 254
221 235 254
221 235 254
221 235 254
221 235 254
221 235 254
221 235 254
221 235 254
221 235 254
221 235 254
221 235 254
221 235 254
221 235 254
221 235 254
221 235 254
221 235 254
221 235 254
221 235 254
221 235 254
221 235 254
221 235 254
221 235 254
221 235 254
221 235 254
221 235 254
221 235 254
221 235 254
221 235 254
221 235 254
221 235 254
221 235 254
221 235 254
221 235 254
221 235 254
221 235 254
221 235 254
221 235 254
221 235 254
221 235 254
221 235 254
221 235 254
221 235 254
221 235 254
221 235 254
221 235 254
221 235 254
221 235 254
221 235 254
221 235 254
221 235 254
221 235 254
221 235 254
221 235 254
221 235 254
221 235 254
221 235 254
221 235 254
221 235 254
221 235 254
221 235 254
221 235 254
221 235 254
221 235 254
221 235 254
221 235 254
221 235 254
221 235 254
221 235 254
221 235 254
221 235 254
221 235 254
221 235 254
221 235 254
221 235 254
221 235 254
221 235 254
221 235 254
221 235 254
221 235 254
221 235 254
221 235 254
221 235 254
221 235 254
221 235 254
221 235 254
221 235 254
221 235 254
221 235 254
221 235 254
221 235 254
221 235 254
221 235 254
221 235 254
221 235 254
221 235 254
221 235 254
221 235 254
221 235 254
221 235 254
110 117 132
0 0 42
0 0 42
0 0 42
0 0 42
0 0 42
0 0 42
0 0 42
0 0 42
0 0 42
0 0 42
0 0 42
0 0 42
0 0 42
0 0 42
0 0 42
0 0 42
0 0 42
0 0 42
0 0 42
0 0 42
0 0 42
0 0 42
0 0 42
0 0 42
0 0 42
0 0 42
0 0 42
0 0 42
0 0 42
0 0 42
0 0 42
0 0 42
0 0 42
0 0 42
0 0 42
0 0 42
0 0 42
0 0 42
0 0 42
0 0 42
0 0 42
0 0 42
0 0 42
0 0 42
0 0 42
0 0 42
0 0 42
0 0 42
0 0 42
0 0 42
0 0 42
0 0 42
0 0 42
0 0 42
0 0 42
0 0 42
0 0 42
0 0 42
0 0 44
0 0 45
0 0 45
0 0 45
0 0 45
0 0 44
0 0 45
0 0 45
0 0 45
0 0 45
0 0 45
0 0 45
0 0 45
0 0 45
0 0 45
0 0 45
0 0 45
0 0 45
0 0 45
0 0 45
0 0 45
0 0 45
0 0 45
0 0 45
0 0 45
0 0 45
0 0 45
0 0 45
0 0 45
0 0 45
0 0 45
0 0 45
0 0 45
0 0 45
0 0 45
0 0 45
0 0 45
0 0 45
0 0 45
0 0 45
0 0 45
0 0 45
0 0 45
0 0 45
0 0 45
0 0 47
0 0 47
0 0 47
0 0 47
0 0 46
0 0 45
0 0 45
0 0 45
0 0 45
0 0 47
0 0 47
0 0 46
0 0 47
0 0 48
0 0 50
0 0 51
0 0 54
0 0 58
0 0 61
0 0 66
0 19 80
0 21 82
0 9 80
20 25 84
65 75 86
96 102 73
65 63 31
59 64 23
66 70 29
48 53 15
27 39 0
27 47 0
40 63 12
24 47 0
22 44 0
24 46 0
22 44 0
23 45 0
23 45 0
20 43 0
19 41 0
15 39 0
18 41 0
20 43 0
20 43 0
19 44 0
19 44 0
19 42 0
21 42 0
21 42 0
15 37 0
14 36 0
16 37 0
19 41 0
24 47 0
23 47 0
22 46 0
17 43 0
16 40 0
22 43 0
23 45 0
23 46 0
21 44 0
19 43 0
19 42 0
19 41 0
22 44 0
23 47 0
26 48 0
20 42 0
22 47 0
25 48 0
26 51 0
24 45 0
24 47 0
26 50 0
25 49 0
30 54 0
34 58 0
38 62 0
52 74 13
48 70 9
49 70 6
55 67 16
59 69 21
56 66 17
59 66 20
54 60 18
52 59 15
60 62 20
55 61 22
62 66 30
82 76 44
72 68 32
68 70 28
74 75 38
77 78 39
67 74 27
42 58 28
0 0 42
0 0 42
0 0 42
0 0 42
0 0 42
0 0 42
0 0 42
0 0 42
0 0 42
0 0 42
91 97 111
221 235 254
221 235 254
221 235 254
221 235 254
221 235 254
221 235 254
221 235 254
221 235 254
221 235 254
221 235 254
221 235 254
221 235 254
221 235 254
221 235 254
221 235 254
221 235 254
221 235 254
221 235 254
221 235 254
221 235 254
221 235 254
221 235 254
221 235 254
221 235 254
221 235 254
221 235 254
221 235 254
221 235 254
221 235 254
221 235 254
221 235 254
221 235 254
221 235 254
221 235 254
221 235 254
221 235 254
221 235 254
221 235 254
221 235 254
221 235 254
221 235 254
221 235 254
221 235 254
221 235 254
221 235 254
221 235 254
221 235 254
221 235 254
221 235 254
221 235 254
221 235 254
221 235 254
221 235 254
221 235 254
221 235 254
221 235 254
221 235 254
221 235 254
221 235 254
221 235 254
221 235 254
221 235 254
221 235 254
221 235 254
221 235 254
221 235 254
221 235 254
221 235 254
221 235 254
221 235 254
221 235 254
221 235 254
221 235 254
221 235 254
221 235 254
221 235 254
221 235 254
221 235 254
221 235 254
221 235 254
221 235 254
221 235 254
221 235 254
221 235 254
221 235 254
221 235 254
221 235 254
221 235 254
221 235 254
221 235 254
221 235 254
221 235 254
221 235 254
221 235 254
221 235 254
221 235 254
221 235 254
221 235 254
221 235 254
221 235 254
221 235 254
221 235 254
221 235 254
221 235 254
221 235 254
221 235 254
221 235 254
221 235 254
221 235 254
221 235 254
221 235 254
221 235 254
221 235 254
221 235 254
221 235 254
221 235 254
221 235 254
221 235 254
221 235 254
221 235 254
221 235 254
221 235 254
221 235 254
221 235 254
221 235 254
221 235 254
221 235 254
221 235 254
221 235 254
221 235 254
221 235 254
221 235 254
221 235 254
221 235 254
221 235 254
221 235 254
221 235 254
221 235 254
221 235 254
221 235 254
221 235 254
221 235 254
221 235 254
221 235 254
221 235 254
221 235 254
221 235 254
221 235 254
221 235 254
221 235 254
221 235 254
221 235 254
221 235 254
221 235 254
221 235 254
221 235 254
221 235 254
221 235 254
221 235 254
221 235 254
221 235 254
221 235 254
221 235 254
221 235 254
221 235 254
221 235 254
221 235 254
221 235 254
221 235 254
221 235 254
221 235 254
221 235 254
221 235 254
221 235 254
221 235 254
221 235 254
221 235 254
221 235 254
221 235 254
221 235 254
221 235 254
221 235 254
221 235 254
221 235 254
221 235 254
221 235 254
136 145 160
0 0 42
0 0 42
0 0 42
0 0 42
0 0 42
0 0 42
0 0 42
0 0 43
0 0 44
0 0 44
0 0 44
0 0 43
0 0 44
0 0 44
0 0 43
0 0 42
0 0 42
0 0 42
0 0 42
0 0 42
0 0 42
0 0 42
0 0 42
0 0 42
0 0 42
0 0 42
0 0 42
0 0 42
0 0 42
0 0 42
0 0 42
0 0 42
0 0 42
0 0 42
0 0 42
0 0 42
0 0 42
0 0 42
0 0 42
0 0 42
0 0 42
0 0 42
0 0 42
0 0 42
0 0 42
0 0 42
0 0 42
0 0 42
0 0 42
0 0 42
0 0 42
0 0 42
0 0 42
0 0 42
0 0 42
0 0 42
0 0 42
0 0 42
0 0 43
0 0 45
0 0 44
0 0 44
0 0 45
0 0 45
0 0 45
0 0 45
0 0 45
0 0 44
0 0 42
0 0 42
0 0 42
0 0 42
0 0 43
0 0 44
0 0 45
0 0 45
0 0 45
0 0 45
0 0 45
0 0 45
0 0 45
0 0 45
0 0 45
0 0 45
0 0 45
0 0 45
0 0 45
0 0 45
0 0 45
0 0 45
0 0 45
0 0 45
0 0 45
0 0 45
0 0 45
0 0 45
0 0 45
0 0 45
0 0 45
0 0 45
0 0 45
0 0 45
0 0 45
0 0 47
0 0 47
0 0 47
0 0 47
0 0 45
0 0 45
0 0 45
0 0 45
0 0 45
0 0 45
0 0 45
0 0 45
0 0 45
0 0 47
0 0 48
0 0 51
0 0 54
0 0 57
0 0 60
0 0 66
0 17 79
0 18 78
0 12 65
0 7 71
10 19 84
60 66 89
90 88 58
61 65 24
77 75 38
67 66 31
35 44 0
29 49 0
31 54 0
26 47 0
24 45 0
26 48 0
22 45 0
22 45 0
23 45 0
24 46 0
24 45 0
17 39 0
18 40 0
19 41 0
22 43 0
20 44 0
19 44 0
19 42 0
20 42 0
19 41 0
16 37 0
16 38 0
17 38 0
19 43 0
24 47 0
24 47 0
19 44 0
18 42 0
21 44 0
22 45 0
20 43 0
19 43 0
19 43 0
20 44 0
19 42 0
19 41 0
19 42 0
21 44 0
26 48 0
23 46 0
22 45 0
24 47 0
27 50 0
24 45 0
24 46 0
25 50 0
26 50 0
29 53 0
24 49 0
38 61 0
46 68 10
50 71 15
57 75 17
58 68 23
54 64 15
56 64 16
55 61 18
55 58 17
52 61 16
57 61 17
56 61 24
68 71 35
83 77 41
75 70 34
71 70 29
72 74 36
69 76 35
62 74 22
33 48 34
0 0 42
0 0 42
0 0 42
0 0 42
0 0 42
0 0 42
0 0 42
0 0 42
0 0 42
0 0 42
127 135 150
221 235 254
221 235 254
221 235 254
221 235 254
221 235 254
221 235 254
221 235 254
221 235 254
221 235 254
221 235 254
221 235 254
221 235 254
221 235 254
221 235 254
221 235 254
221 235 254
221 235 254
221 235 254
221 235 254
221 235 254
221 235 254
221 235 254
221 235 254
221 235 254
221 235 254
221 235 254
221 235 254
221 235 254
221 235 254
221 235 254
221 235 254
221 235 254
221 235 254
221 235 254
221 235 254
221 235 254
221 235 254
221 235 254
221 235 254
221 235 254
221 235 254
221 235 254
221 235 254
221 235 254
221 235 254
221 235 254
221 235 254
221 235 254
221 235 254
221 235 254
221 235 254
221 235 254
221 235 254
221 235 254
221 235 254
221 235 254
221 235 254
221 235 254
221 235 254
221 235 254
221 235 254
221 235 254
221 235 254
221 235 254
221 235 254
221 235 254
221 235 254
221 235 254
221 235 254
221 235 254
221 235 254
221 235 254
221 235 254
221 235 254
221 235 254
221 235 254
221 235 254
221 235 254
221 235 254
221 235 254
221 235 254
221 235 254
221 235 254
221 235 254
221 235 254
221 235 254
221 235 254
221 235 254
221 235 254
221 235 254
221 235 254
221 235 254
221 235 254
221 235 254
221 235 254
221 235 254
221 235 254
221 235 254
221 235 254
221 235 254
221 235 254
221 235 254
221 235 254
221 235 254
221 235 254
221 235 254
221 235 254
221 235 254
221 235 254
221 235 254
221 235 254
221 235 254
221 235 254
221 235 254
221 235 254
221 235 254
221 235 254
221 235 254
221 235 254
221 235 254
221 235 254
221 235 254
221 235 254
221 235 254
221 235 254
221 235 254
221 235 254
221 235 254
221 235 254
221 235 254
221 235 254
221 235 254
221 235 254
221 235 254
221 235 254
221 235 254
221 235 254
221 235 254
221 235 254
221 235 254
221 235 254
221 235 254
221 235 254
221 235 254
221 235 254
221 235 254
221 235 254
221 235 254
221 235 254
221 235 254
221 235 254
221 235 254
221 235 254
221 235 254
221 235 254
221 235 254
221 235 254
221 235 254
221 235 254
221 235 254
221 235 254
221 235 254
221 235 254
221 235 254
221 235 254
221 235 254
221 235 254
221 235 254
221 235 254
221 235 254
221 235 254
221 235 254
221 235 254
221 235 254
221 235 254
221 235 254
221 235 254
221 235 254
221 235 254
221 235 254
221 235 254
221 235 254
221 235 254
221 235 254
221 235 254
221 235 254
155 164 181
0 0 42
0 0 42
0 0 42
0 0 42
0 0 42
0 0 42
0 0 42
0 0 43
0 0 44
0 0 45
0 0 45
0 0 45
0 0 45
0 0 45
0 0 45
0 0 42
0 0 42
0 0 42
0 0 42
0 0 42
0 0 42
0 0 42
0 0 42
0 0 42
0 0 42
0 0 42
0 0 42
0 0 42
0 0 42
0 0 42
0 0 42
0 0 42
0 0 42
0 0 42
0 0 42
0 0 42
0 0 42
0 0 42
0 0 42
0 0 42
0 0 42
0 0 42
0 0 42
0 0 42
0 0 42
0 0 42
0 0 42
0 0 42
0 0 42
0 0 42
0 0 42
0 0 42
0 0 42
0 0 42
0 0 42
0 0 42
0 0 42
0 0 42
0 0 44
0 0 44
0 0 42
0 0 42
0 0 44
0 0 45
0 0 43
0 0 43
0 0 43
0 0 42
0 0 41
0 0 40
0 0 40
0 0 42
0 0 42
0 0 42
0 0 43
0 0 43
0 0 43
0 0 43
0 0 43
0 0 43
0 0 43
0 0 43
0 0 44
0 0 44
0 0 44
0 0 43
0 0 43
0 0 44
0 0 43
0 0 43
0 0 44
0 0 43
0 0 43
0 0 44
0 0 44
0 0 45
0 0 45
0 0 45
0 0 45
0 0 45
0 0 45
0 0 45
0 0 45
0 0 45
0 0 47
0 0 47
0 0 45
0 0 45
0 0 44
0 0 45
0 0 45
0 0 45
0 0 45
0 0 45
0 0 45
0 0 45
0 0 47
0 0 47
0 0 51
0 0 57
0 0 56
0 0 57
0 2 67
0 16 77
0 14 76
0 11 64
0 10 77
0 11 74
21 39 86
92 111 76
69 72 30
73 70 33
79 73 38
46 47 10
29 46 0
25 47 0
26 45 0
22 44 0
25 49 0
24 48 0
20 45 0
24 47 0
26 49 0
26 48 0
20 42 0
20 42 0
21 43 0
21 45 0
21 43 0
21 43 0
22 43 0
19 41 0
20 41 0
21 40 0
19 40 0
19 41 0
22 44 0
24 46 0
22 45 0
19 43 0
21 43 0
24 46 0
24 45 0
22 43 0
23 43 0
20 41 0
19 42 0
15 40 0
17 41 0
20 43 0
20 42 0
22 46 0
26 49 0
23 47 0
24 48 0
28 52 0
25 47 0
25 47 0
26 51 0
26 48 0
28 52 0
30 52 0
45 68 7
49 67 18
49 69 16
58 75 17
58 67 24
54 64 14
56 63 17
54 60 15
57 60 23
50 60 16
52 60 18
60 66 29
68 71 34
74 73 36
74 68 30
74 70 29
75 75 38
62 70 28
55 75 17
19 29 37
0 0 42
0 0 42
0 0 42
0 0 42
0 0 42
0 0 42
0 0 42
0 0 42
0 0 42
0 0 42
158 168 184
221 235 254
221 235 254
221 235 254
221 235 254
221 235 254
221 235 254
221 235 254
221 235 254
221 235 254
221 235 254
221 235 254
221 235 254
221 235 254
221 235 254
221 235 254
221 235 254
221 235 254
221 235 254
221 235 254
221 235 254
221 235 254
221 235 254
221 235 254
221 235 254
221 235 254
221 235 254
221 235 254
221 235 254
221 235 254
221 235 254
221 235 254
221 235 254
221 235 254
221 235 254
221 235 254
221 235 254
221 235 254
221 235 254
221 235 254
221 235 254
221 235 254
221 235 254
221 235 254
221 235 254
221 235 254
221 235 254
221 235 254
221 235 254
221 235 254
221 235 254
221 235 254
221 235 254
221 235 254
221 235 254
221 235 254
221 235 254
221 235 254
221 235 254
221 235 254
221 235 254
221 235 254
221 235 254
221 235 254
221 235 254
221 235 254
221 235 254
221 235 254
221 235 254
221 235 254
221 235 254
221 235 254
221 235 254
221 235 254
221 235 254
221 235 254
221 235 254
221 235 254
221 235 254
221 235 254
221 235 254
221 235 254
221 235 254
221 235 254
221 235 254
221 235 254
221 235 254
221 235 254
221 235 254
221 235 254
221 235 254
221 235 254
221 235 254
221 235 254
221 235 254
221 235 254
221 235 254
221 235 254
221 235 254
221 235 254
221 235 254
221 235 254
221 235 254
221 235 254
221 235 254
221 235 254
221 235 254
221 235 254
221 235 254
221 235 254
221 235 254
221 235 254
221 235 254
221 235 254
221 235 254
221 235 254
221 235 254
221 235 254
221 235 254
221 235 254
221 235 254
221 235 254
221 235 254
221 235 254
221 235 254
221 235 254
221 235 254
221 235 254
221 235 254
221 235 254
221 235 254
221 235 254
221 235 254
221 235 254
221 235 254
221 235 254
221 235 254
221 235 254
221 235 254
221 235 254
221 235 254
221 235 254
221 235 254
221 235 254
221 235 254
221 235 254
221 235 254
221 235 254
221 235 254
221 235 254
221 235 254
221 235 254
221 235 254
221 235 254
221 235 254
221 235 254
221 235 254
221 235 254
221 235 254
221 235 254
221 235 254
221 235 254
221 235 254
221 235 254
221 235 254
221 235 254
221 235 254
221 235 254
221 235 254
221 235 254
221 235 254
221 235 254
221 235 254
221 235 254
221 235 254
221 235 254
221 235 254
221 235 254
221 235 254
221 235 254
221 235 254
221 235 254
221 235 254
221 235 254
221 235 254
221 235 254
221 235 254
173 184 200
0 0 42
0 0 42
0 0 42
0 0 42
0 0 42
0 0 42
0 0 42
0 0 42
0 0 44
0 0 45
0 0 45
0 0 45
0 0 45
0 0 45
0 0 45
0 0 42
0 0 41
0 0 41
0 0 43
0 0 42
0 0 42
0 0 42
0 0 42
0 0 42
0 0 42
0 0 42
0 0 42
0 0 42
0 0 42
0 0 42
0 0 42
0 0 42
0 0 42
0 0 42
0 0 42
0 0 42
0 0 42
0 0 42
0 0 42
0 0 42
0 0 42
0 0 42
0 0 42
0 0 42
0 0 42
0 0 42
0 0 42
0 0 42
0 0 42
0 0 42
0 0 42
0 0 42
0 0 42
0 0 42
0 0 42
0 0 42
0 0 42
0 0 42
0 0 43
0 0 43
0 0 42
0 0 42
0 0 42
0 0 44
0 0 42
0 0 42
0 0 42
0 0 41
0 0 39
0 0 39
0 0 39
0 0 41
0 0 42
0 0 42
0 0 42
0 0 42
0 0 42
0 0 42
0 0 42
0 0 42
0 0 42
0 0 42
0 0 42
0 0 42
0 0 42
0 0 42
0 0 42
0 0 42
0 0 42
0 0 42
0 0 42
0 0 42
0 0 40
0 0 41
0 0 42
0 0 44
0 0 45
0 0 45
0 0 45
0 0 45
0 0 45
0 0 45
0 0 45
0 0 45
0 0 45
0 0 46
0 0 45
0 0 45
0 0 43
0 0 44
0 0 45
0 0 46
0 0 45
0 0 45
0 0 45
0 0 46
0 0 47
0 0 47
0 0 48
0 0 54
0 0 55
0 0 59
0 11 69
0 8 72
0 10 71
0 3 71
0 7 71
0 20 85
0 32 91
51 65 89
81 87 67
75 75 34
75 65 30
63 60 26
33 47 8
33 55 11
24 46 0
23 46 0
29 52 0
31 54 0
23 46 0
22 46 0
24 46 0
24 46 0
19 43 0
23 46 0
23 47 0
25 49 0
24 45 0
23 44 0
24 46 0
22 43 0
23 42 0
23 44 0
21 44 0
24 45 0
24 46 0
23 45 0
21 43 0
22 44 0
25 45 0
21 45 0
21 43 0
21 43 0
30 51 0
23 43 0
15 39 0
15 39 0
19 43 0
24 45 0
22 45 0
22 45 0
24 48 0
24 48 0
22 48 0
28 53 0
25 48 0
24 48 0
25 50 0
25 49 0
28 51 0
29 50 0
42 65 10
48 64 16
53 68 20
53 69 18
54 63 19
58 63 18
59 64 23
51 60 17
58 62 24
45 56 14
49 57 15
59 62 25
78 69 39
79 73 41
89 81 46
92 84 44
81 80 39
68 83 25
47 69 11
5 10 40
0 0 42
0 0 42
0 0 42
0 0 42
0 0 42
0 0 42
0 0 42
0 0 42
0 0 42
0 0 42
182 194 211
221 235 254
221 235 254
221 235 254
221 235 254
221 235 254
221 235 254
221 235 254
221 235 254
221 235 254
221 235 254
221 235 254
221 235 254
221 235 254
221 235 254
221 235 254
221 235 254
221 235 254
221 235 254
221 235 254
221 235 254
221 235 254
221 235 254
221 235 254
221 235 254
221 235 254
221 235 254
221 235 254
221 235 254
221 235 254
221 235 254
221 235 254
221 235 254
221 235 254
221 235 254
221 235 254
221 235 254
221 235 254
221 235 254
221 235 254
221 235 254
221 235 254
221 235 254
221 235 254
221 235 254
221 235 254
221 235 254
221 235 254
221 235 254
221 235 254
221 235 254
221 235 254
221 235 254
221 235 254
221 235 254
221 235 254
221 235 254
221 235 254
221 235 254
221 235 254
221 235 254
221 235 254
221 235 254
221 235 254
221 235 254
221 235 254
221 235 254
221 235 254
221 235 254
221 235 254
221 235 254
221 235 254
221 235 254
221 235 254
221 235 254
221 235 254
221 235 254
221 235 254
221 235 254
221 235 254
221 235 254
221 235 254
221 235 254
221 235 254
221 235 254
221 235 254
221 235 254
221 235 254
221 235 254
221 235 254
221 235 254
221 235 254
221 235 254
221 235 254
221 235 254
221 235 254
221 235 254
221 235 254
221 235 254
221 235 254
221 235 254
221 235 254
221 235 254
221 235 254
221 235 254
221 235 254
221 235 254
221 235 254
221 235 254
221 235 254
221 235 254
221 235 254
221 235 254
221 235 254
221 235 254
221 235 254
221 235 254
221 235 254
221 235 254
221 235 254
221 235 254
221 235 254
221 235 254
221 235 254
221 235 254
221 235 254
221 235 254
221 235 254
221 235 254
221 235 254
221 235 254
221 235 254
221 235 254
221 235 254
221 235 254
221 235 254
221 235 254
221 235 254
221 235 254
221 235 254
221 235 254
221 235 254
221 235 254
221 235 254
221 235 254
221 235 254
221 235 254
221 235 254
221 235 254
221 235 254
221 235 254
221 235 254
221 235 254
221 235 254
221 235 254
221 235 254
221 235 254
221 235 254
221 235 254
221 235 254
221 235 254
221 235 254
221 235 254
221 235 254
221 235 254
221 235 254
221 235 254
221 235 254
221 235 254
221 235 254
221 235 254
221 235 254
221 235 254
221 235 254
221 235 254
221 235 254
221 235 254
221 235 254
221 235 254
221 235 254
221 235 254
221 235 254
221 235 254
221 235 254
221 235 254
221 235 254
221 235 254
199 212 230
0 0 42
0 0 42
0 0 42
0 0 42
0 0 42
0 0 42
0 0 42
0 0 42
0 0 43
0 0 45
0 0 45
0 0 45
0 0 45
0 0 45
0 0 45
0 0 44
0 0 43
0 0 41
0 0 42
0 0 42
0 0 42
0 0 42
0 0 42
0 0 42
0 0 42
0 0 42
0 0 42
0 0 42
0 0 42
0 0 42
0 0 42
0 0 42
0 0 42
0 0 42
0 0 42
0 0 42
0 0 42
0 0 42
0 0 42
0 0 42
0 0 42
0 0 42
0 0 42
0 0 42
0 0 42
0 0 42
0 0 42
0 0 42
0 0 42
0 0 42
0 0 42
0 0 42
0 0 42
0 0 42
0 0 42
0 0 42
0 0 42
0 0 42
0 0 42
0 0 42
0 0 42
0 0 42
0 0 42
0 0 42
0 0 42
0 0 42
0 0 42
0 0 42
0 0 42
0 0 42
0 0 42
0 0 42
0 0 42
0 0 42
0 0 42
0 0 42
0 0 42
0 0 42
0 0 42
0 0 42
0 0 42
0 0 42
0 0 42
0 0 42
0 0 42
0 0 42
0 0 42
0 0 42
0 0 42
0 0 42
0 0 42
0 0 42
0 0 41
0 0 42
0 0 44
0 0 45
0 0 45
0 0 45
0 0 45
0 0 45
0 0 45
0 0 45
0 0 45
0 0 45
0 0 45
0 0 45
0 0 45
0 0 45
0 0 44
0 0 45
0 0 45
0 0 45
0 0 43
0 0 43
0 0 45
0 0 46
0 0 47
0 0 46
0 0 50
0 0 54
0 0 53
0 0 56
0 5 61
0 0 66
0 3 65
0 2 67
0 6 70
0 22 84
0 33 94
24 39 100
91 93 102
90 89 63
72 63 37
76 71 35
50 52 19
33 54 3
30 50 0
30 50 0
37 55 0
34 56 0
24 50 0
25 48 0
25 46 0
24 45 0
24 45 0
24 46 0
24 45 0
20 42 0
21 43 0
23 43 0
21 46 0
20 43 0
21 44 0
29 50 0
26 46 0
26 46 0
26 46 0
25 46 0
25 46 0
27 47 0
32 53 0
24 44 0
22 41 0
26 45 0
30 48 0
22 42 0
20 43 0
16 39 0
16 42 0
24 48 0
24 47 0
23 46 0
20 45 0
21 46 0
23 50 0
27 52 0
25 50 0
21 49 0
21 48 0
21 47 0
28 51 0
32 54 0
35 57 4
46 58 8
56 67 22
55 68 21
56 64 21
63 65 22
60 63 25
55 59 18
58 64 25
40 51 9
58 64 28
70 68 37
82 75 46
89 77 46
93 81 49
88 80 42
82 95 33
57 81 16
31 47 32
0 0 40
0 0 42
0 0 42
0 0 42
0 0 42
0 0 42
0 0 42
0 0 42
0 0 42
0 0 42
0 0 42
194 206 224
221 235 254
221 235 254
221 235 254
221 235 254
221 235 254
221 235 254
221 235 254
221 235 254
221 235 254
221 235 254
221 235 254
221 235 254
221 235 254
221 235 254
221 235 254
221 235 254
221 235 254
221 235 254
221 235 254
221 235 254
221 235 254
221 235 254
221 235 254
221 235 254
221 235 254
221 235 254
221 235 254
221 235 254
221 235 254
221 235 254
221 235 254
221 235 254
221 235 254
221 235 254
221 235 254
221 235 254
221 235 254
221 235 254
221 235 254
221 235 254
221 235 254
221 235 254
221 235 254
221 235 254
221 235 254
221 235 254
221 235 254
221 235 254
221 235 254
221 235 254
221 235 254
221 235 254
221 235 254
221 235 254
221 235 254
221 235 254
221 235 254
221 235 254
221 235 254
221 235 254
221 235 254
221 235 254
221 235 254
221 235 254
221 235 254
221 235 254
221 235 254
221 235 254
221 235 254
221 235 254
221 235 254
221 235 254
221 235 254
221 235 254
221 235 254
221 235 254
221 235 254
221 235 254
221 235 254
221 235 254
221 235 254
221 235 254
221 235 254
221 235 254
221 235 254
221 235 254
221 235 254
221 235 254
221 235 254
221 235 254
221 235 254
221 235 254
221 235 254
221 235 254
221 235 254
221 235 254
221 235 254
221 235 254
221 235 254
221 235 254
221 235 254
221 235 254
221 235 254
221 235 254
221 235 254
221 235 254
221 235 254
221 235 254
221 235 254
221 235 254
221 235 254
221 235 254
221 235 254
221 235 254
221 235 254
221 235 254
221 235 254
221 235 254
221 235 254
221 235 254
221 235 254
221 235 254
221 235 254
221 235 254
221 235 254
221 235 254
221 235 254
221 235 254
221 235 254
221 235 254
221 235 254
221 235 254
221 235 254
221 235 254
221 235 254
221 235 254
221 235 254
221 235 254
221 235 254
221 235 254
221 235 254
221 235 254
221 235 254
221 235 254
221 235 254
221 235 254
221 235 254
221 235 254
221 235 254
221 235 254
221 235 254
221 235 254
221 235 254
221 235 254
221 235 254
221 235 254
221 235 254
221 235 254
221 235 254
221 235 254
221 235 254
221 235 254
221 235 254
221 235 254
221 235 254
221 235 254
221 235 254
221 235 254
221 235 254
221 235 254
221 235 254
221 235 254
221 235 254
221 235 254
221 235 254
221 235 254
221 235 254
221 235 254
221 235 254
221 235 254
221 235 254
221 235 254
221 235 254
221 235 254
221 235 254
221 235 254
218 232 251
44 47 65
0 0 42
0 0 42
0 0 42
0 0 42
0 0 42
0 0 42
0 0 42
0 0 42
0 0 43
0 0 44
0 0 45
0 0 45
0 0 45
0 0 45
0 0 44
0 0 43
0 0 42
0 0 41
0 0 42
0 0 42
0 0 42
0 0 42
0 0 42
0 0 42
0 0 42
0 0 42
0 0 42
0 0 42
0 0 42
0 0 42
0 0 42
0 0 42
0 0 42
0 0 42
0 0 42
0 0 42
0 0 42
0 0 42
0 0 42
0 0 42
0 0 42
0 0 42
0 0 42
0 0 42
0 0 42
0 0 42
0 0 42
0 0 42
0 0 42
0 0 42
0 0 42
0 0 42
0 0 42
0 0 42
0 0 42
0 0 42
0 0 42
0 0 42
0 0 42
0 0 42
0 0 42
0 0 42
0 0 42
0 0 42
0 0 42
0 0 42
0 0 42
0 0 42
0 0 42
0 0 42
0 0 42
0 0 42
0 0 42
0 0 42
0 0 42
0 0 42
0 0 42
0 0 42
0 0 42
0 0 42
0 0 42
0 0 42
0 0 42
0 0 42
0 0 42
0 0 42
0 0 42
0 0 42
0 0 42
0 0 42
0 0 42
0 0 42
0 0 43
0 0 45
0 0 45
0 0 45
0 0 45
0 0 45
0 0 45
0 0 45
0 0 45
0 0 45
0 0 45
0 0 45
0 0 45
0 0 45
0 0 45
0 0 45
0 0 45
0 0 45
0 0 45
0 0 45
0 0 45
0 0 45
0 0 45
0 0 45
0 0 45
0 0 49
0 0 53
0 0 56
0 0 63
0 0 63
0 0 62
0 0 62
0 0 67
0 12 72
0 29 85
0 50 109
0 34 94
62 79 104
114 107 83
71 64 41
77 75 37
61 61 29
34 50 9
32 54 0
31 53 0
32 51 0
29 51 0
20 45 0
24 46 0
28 48 0
25 46 0
24 45 0
24 45 0
24 44 0
22 43 0
22 44 0
23 44 0
24 47 0
23 47 0
25 49 0
30 53 0
28 49 0
28 48 0
25 47 0
25 46 0
29 49 0
27 48 0
27 48 0
27 48 0
23 44 0
25 46 0
20 41 0
22 43 0
23 44 0
19 41 0
22 44 0
24 46 0
24 48 0
27 50 0
25 50 0
30 54 0
26 49 0
32 54 0
31 54 0
25 49 0
23 47 0
24 49 0
24 47 0
35 59 0
33 53 0
47 59 14
55 66 21
54 64 18
60 65 23
75 77 37
63 64 29
66 66 29
53 61 21
48 55 19
67 69 38
83 80 51
85 83 53
97 83 53
91 81 43
76 79 27
64 88 18
53 79 15
8 14 45
0 0 39
0 0 42
0 0 42
0 0 42
0 0 42
0 0 42
0 0 42
0 0 42
0 0 42
0 0 42
54 57 74
220 234 253
221 235 254
221 235 254
221 235 254
221 235 254
221 235 254
221 235 254
221 235 254
221 235 254
221 235 254
221 235 254
221 235 254
221 235 254
221 235 254
221 235 254
221 235 254
221 235 254
221 235 254
221 235 254
221 235 254
221 235 254
221 235 254
221 235 254
221 235 254
221 235 254
221 235 254
221 235 254
221 235 254
221 235 254
221 235 254
221 235 254
221 235 254
221 235 254
221 235 254
221 235 254
221 235 254
221 235 254
221 235 254
221 235 254
221 235 254
221 235 254
221 235 254
221 235 254
221 235 254
221 235 254
221 235 254
221 235 254
221 235 254
221 235 254
221 235 254
221 235 254
221 235 254
221 235 254
221 235 254
221 235 254
221 235 254
221 235 254
221 235 254
221 235 254
221 235 254
221 235 254
221 235 254
221 235 254
221 235 254
221 235 254
221 235 254
221 235 254
221 235 254
221 235 254
221 235 254
221 235 254
221 235 254
221 235 254
221 235 254
221 235 254
221 235 254
221 235 254
221 235 254
221 235 254
221 235 254
221 235 254
221 235 254
221 235 254
221 235 254
221 235 254
221 235 254
221 235 254
221 235 254
221 235 254
221 235 254
221 235 254
221 235 254
221 235 254
221 235 254
221 235 254
221 235 254
221 235 254
221 235 254
221 235 254
221 235 254
221 235 254
221 235 254
221 235 254
221 235 254
221 235 254
221 235 254
221 235 254
221 235 254
221 235 254
221 235 254
221 235 254
221 235 254
221 235 254
221 235 254
221 235 254
222 235 254
222 235 254
221 235 254
222 235 254
222 235 254
222 235 254
222 235 254
222 235 254
222 235 254
222 235 254
222 235 254
222 235 254
222 235 254
222 235 254
222 235 254
222 235 254
222 235 254
222 235 254
222 235 254
222 235 254
222 235 254
222 235 254
222 235 254
222 235 254
222 235 254
222 235 254
222 235 254
222 235 254
222 235 254
222 235 254
222 235 254
222 235 254
222 235 254
222 235 254
222 235 254
222 235 254
222 235 254
222 235 254
222 235 254
222 235 254
222 235 254
222 235 254
222 235 254
222 235 254
222 235 254
222 235 254
222 235 254
222 235 254
222 235 254
222 235 254
222 235 254
222 235 254
222 235 254
222 235 254
222 235 254
222 235 254
222 235 254
222 235 254
222 235 254
222 235 254
222 235 254
222 235 254
222 235 254
222 235 254
222 235 254
222 235 254
222 235 254
222 235 254
222 235 254
222 235 254
222 235 254
222 235 254
222 235 254
91 97 111
0 0 42
0 0 42
0 0 42
0 0 42
0 0 42
0 0 42
0 0 42
0 0 42
0 0 42
0 0 42
0 0 45
0 0 45
0 0 45
0 0 45
0 0 44
0 0 44
0 0 43
0 0 40
0 0 42
0 0 42
0 0 42
0 0 42
0 0 42
0 0 42
0 0 42
0 0 42
0 0 42
0 0 42
0 0 42
0 0 42
0 0 42
0 0 42
0 0 42
0 0 42
0 0 42
0 0 42
0 0 42
0 0 42
0 0 42
0 0 42
0 0 42
0 0 42
0 0 42
0 0 42
0 0 42
0 0 42
0 0 42
0 0 42
0 0 42
0 0 42
0 0 42
0 0 42
0 0 42
0 0 42
0 0 42
0 0 42
0 0 42
0 0 42
0 0 42
0 0 42
0 0 42
0 0 42
0 0 42
0 0 42
0 0 42
0 0 42
0 0 42
0 0 42
0 0 42
0 0 42
0 0 42
0 0 42
0 0 42
0 0 42
0 0 42
0 0 42
0 0 42
0 0 42
0 0 42
0 0 42
0 0 42
0 0 42
0 0 42
0 0 42
0 0 42
0 0 42
0 0 42
0 0 42
0 0 42
0 0 42
0 0 42
0 0 42
0 0 43
0 0 45
0 0 45
0 0 45
0 0 45
0 0 45
0 0 45
0 0 45
0 0 45
0 0 45
0 0 45
0 0 45
0 0 45
0 0 45
0 0 45
0 0 45
0 0 45
0 0 45
0 0 45
0 0 45
0 0 45
0 0 46
0 0 46
0 0 46
0 0 46
0 0 48
0 0 55
0 0 60
0 0 64
0 0 64
0 0 59
0 0 59
0 0 64
0 5 67
0 18 76
0 42 99
0 38 97
21 49 99
116 111 95
84 77 44
75 72 37
70 70 34
47 54 21
37 53 6
30 51 0
28 49 0
25 49 0
22 43 0
22 41 0
25 46 0
24 46 0
26 46 0
27 47 0
27 47 0
25 46 0
22 45 0
23 45 0
20 43 0
27 51 0
36 60 2
33 55 1
31 52 0
30 52 0
27 48 0
27 47 0
26 47 0
25 46 0
29 50 0
36 57 0
33 55 0
29 50 0
19 43 0
23 44 0
17 40 0
20 42 0
27 47 0
25 49 0
29 53 0
34 58 0
33 57 0
41 65 7
37 58 0
42 63 5
32 54 0
28 51 0
24 47 0
28 50 0
29 50 0
39 61 13
38 55 4
49 61 18
58 67 26
53 62 20
61 66 27
83 81 43
70 69 36
64 66 30
54 61 25
60 60 30
73 70 42
75 70 41
70 67 35
75 69 33
74 74 31
67 79 26
58 81 12
30 43 36
0 0 39
0 0 43
0 0 42
0 0 42
0 0 42
0 0 42
0 0 42
0 0 42
0 0 42
0 0 42
0 0 42
113 120 135
222 235 254
222 235 254
222 235 254
222 235 254
222 235 254
222 235 254
222 235 254
222 235 254
222 235 254
222 235 254
222 235 254
222 235 254
222 235 254
222 235 254
222 235 254
222 235 254
222 235 254
222 235 254
222 235 254
222 235 254
222 235 254
222 235 254
222 235 254
222 235 254
222 235 254
222 235 254
222 235 254
222 235 254
222 235 254
222 235 254
222 235 254
222 235 254
222 235 254
222 235 254
222 235 254
222 235 254
222 235 254
222 235 254
222 235 254
222 235 254
222 235 254
222 235 254
222 235 254
222 235 254
222 235 254
222 235 254
222 235 254
222 235 254
222 235 254
222 235 254
222 235 254
222 235 254
222 235 254
222 235 254
222 235 254
222 235 254
222 235 254
222 235 254
222 235 254
222 235 254
222 235 254
222 235 254
222 235 254
222 235 254
222 235 254
222 235 254
222 235 254
222 235 254
222 235 254
222 235 254
222 235 254
222 235 254
221 235 254
221 235 254
222 235 254
221 235 254
221 235 254
221 235 254
221 235 254
221 235 254
221 235 254
221 235 254
221 235 254
221 235 254
221 235 254
221 235 254
221 235 254
221 235 254
221 235 254
221 235 254
221 235 254
221 235 254
221 235 254
221 235 254
222 235 254
222 235 254
222 235 254
222 235 254
222 235 254
222 235 254
222 235 254
222 235 254
222 235 254
222 235 254
222 235 254
222 235 254
222 235 254
222 235 254
222 235 254
222 235 254
222 235 254
222 235 254
222 235 254
222 235 254
222 235 254
222 235 254
222 235 254
222 235 254
222 235 254
222 235 254
222 235 254
222 235 254
222 235 254
222 235 254
222 235 254
222 235 254
222 235 254
222 235 254
222 235 254
222 235 254
222 235 254
222 235 254
222 235 254
222 235 254
222 235 254
222 235 254
222 235 254
222 235 254
222 235 254
222 235 254
222 235 254
222 235 254
222 235 254
222 235 254
222 235 254
222 235 254
222 235 254
222 235 254
222 235 254
222 235 254
222 235 254
222 235 254
222 235 254
222 235 254
222 235 254
222 235 254
222 235 254
222 235 254
222 235 254
222 235 254
222 235 254
222 235 254
222 235 254
222 235 254
222 235 254
222 235 254
222 235 254
222 235 254
222 235 254
222 235 254
222 235 254
222 235 254
222 235 254
222 235 254
222 235 254
222 235 254
222 235 254
222 235 254
222 235 254
222 235 254
222 235 254
222 235 254
222 235 254
222 235 254
222 235 254
222 235 254
222 235 254
222 235 254
123 131 146
0 0 42
0 0 42
0 0 42
0 0 42
0 0 42
0 0 42
0 0 42
0 0 42
0 0 42
0 0 42
0 0 43
0 0 45
0 0 45
0 0 45
0 0 45
0 0 45
0 0 43
0 0 41
0 0 42
0 0 42
0 0 42
0 0 42
0 0 42
0 0 42
0 0 42
0 0 42
0 0 42
0 0 42
0 0 42
0 0 42
0 0 42
0 0 42
0 0 42
0 0 42
0 0 42
0 0 42
0 0 42
0 0 42
0 0 42
0 0 42
0 0 42
0 0 42
0 0 42
0 0 42
0 0 42
0 0 42
0 0 42
0 0 42
0 0 42
0 0 42
0 0 42
0 0 42
0 0 42
0 0 42
0 0 42
0 0 42
0 0 42
0 0 42
0 0 42
0 0 42
0 0 42
0 0 42
0 0 42
0 0 42
0 0 42
0 0 42
0 0 42
0 0 42
0 0 42
0 0 42
0 0 42
0 0 42
0 0 42
0 0 42
0 0 42
0 0 42
0 0 42
0 0 42
0 0 42
0 0 42
0 0 42
0 0 42
0 0 42
0 0 42
0 0 42
0 0 42
0 0 42
0 0 42
0 0 42
0 0 42
0 0 42
0 0 42
0 0 42
0 0 42
0 0 42
0 0 42
0 0 43
0 0 42
0 0 43
0 0 45
0 0 45
0 0 45
0 0 45
0 0 45
0 0 45
0 0 45
0 0 45
0 0 45
0 0 45
0 0 45
0 0 45
0 0 45
0 0 46
0 0 47
0 0 47
0 0 48
0 0 49
0 0 46
0 0 50
0 0 57
0 0 65
0 0 66
0 0 60
0 0 60
0 0 59
0 2 64
0 5 70
0 20 82
0 32 94
0 30 97
68 80 90
101 91 59
78 69 37
74 71 35
72 70 37
50 58 19
30 49 0
24 45 0
20 44 0
24 45 0
24 44 0
24 43 0
25 46 0
27 47 0
28 47 0
26 47 0
25 46 0
26 46 0
25 45 0
26 48 0
31 52 0
41 63 7
41 63 6
33 54 0
26 47 0
24 44 0
28 48 0
27 48 0
25 49 0
34 56 0
41 62 0
43 65 0
33 55 0
22 46 0
24 46 0
22 44 0
22 45 0
27 49 0
27 51 0
29 54 0
30 54 0
33 56 0
45 67 8
51 73 18
50 70 18
32 54 0
30 52 0
31 52 6
39 58 9
38 55 7
39 53 12
42 54 15
50 61 20
61 67 27
54 61 20
62 67 28
81 76 39
64 64 31
50 59 19
50 55 21
67 64 38
78 73 44
84 73 45
74 68 35
70 73 29
72 76 32
68 78 27
41 60 25
7 10 43
0 0 42
0 0 42
0 0 42
0 0 42
0 0 42
0 0 42
0 0 42
0 0 42
0 0 42
0 0 42
0 0 42
125 133 148
222 235 254
222 235 254
222 235 254
222 235 254
222 235 254
222 235 254
222 235 254
222 235 254
222 235 254
222 235 254
222 235 254
222 235 254
222 235 254
222 235 254
222 235 254
222 235 254
222 235 254
222 235 254
222 235 254
222 235 254
222 235 254
222 235 254
222 235 254
222 235 254
222 235 254
222 235 254
222 235 254
222 235 254
222 235 254
222 235 254
222 235 254
222 235 254
222 235 254
222 235 254
222 235 254
222 235 254
222 235 254
222 235 254
222 235 254
222 235 254
222 235 254
222 235 254
222 235 254
222 235 254
222 235 254
222 235 254
222 235 254
222 235 254
222 235 254
222 235 254
222 235 254
222 235 254
222 235 254
222 235 254
222 235 254
222 235 254
222 235 254
222 235 254
222 235 254
222 235 254
222 235 254
222 235 254
222 235 254
222 235 254
222 235 254
222 235 254
222 235 254
222 235 254
222 235 254
222 235 254
222 235 254
222 235 254
222 235 254
222 235 254
222 235 254
222 235 254
222 235 254
222 235 254
222 235 254
222 235 254
222 235 254
222 235 254
222 235 254
222 235 254
222 235 254
222 235 254
222 235 254
222 235 254
222 235 254
222 235 254
222 235 254
222 235 254
222 235 254
222 235 254
222 235 254
222 235 254
222 235 254
222 235 254
222 235 254
222 235 254
222 235 254
222 235 254
222 235 254
222 235 254
222 235 254
222 235 254
222 235 254
222 235 254
222 235 254
222 235 254
222 235 254
222 235 254
222 235 254
222 235 254
222 235 254
222 235 254
222 235 254
222 235 254
222 235 254
222 235 254
222 235 254
222 235 254
222 235 254
222 235 254
222 235 254
222 235 254
222 235 254
222 235 254
222 235 254
222 235 254
222 235 254
222 235 254
222 235 254
222 235 254
222 235 254
222 235 254
222 235 254
222 235 254
222 235 254
222 235 254
222 235 254
222 235 254
222 235 254
222 235 254
222 235 254
222 235 254
222 235 254
222 235 254
222 235 254
222 235 254
222 235 254
222 235 254
222 235 254
222 235 254
222 235 254
222 235 254
222 235 254
222 235 254
222 235 254
222 235 254
222 235 254
222 235 254
222 235 254
222 235 254
222 235 254
222 235 254
222 235 254
222 235 254
222 235 254
222 235 254
222 235 254
222 235 254
222 235 254
222 235 254
222 235 254
222 235 254
222 235 254
222 235 254
222 235 254
222 235 254
222 235 254
222 235 254
222 235 254
222 235 254
222 235 254
222 235 254
222 235 254
222 235 254
181 193 210
0 0 42
0 0 42
0 0 42
0 0 42
0 0 42
0 0 42
0 0 42
0 0 42
0 0 42
0 0 42
0 0 42
0 0 45
0 0 45
0 0 45
0 0 45
0 0 42
0 0 43
0 0 44
0 0 42
0 0 42
0 0 42
0 0 42
0 0 42
0 0 42
0 0 42
0 0 42
0 0 42
0 0 42
0 0 42
0 0 42
0 0 42
0 0 42
0 0 42
0 0 42
0 0 42
0 0 42
0 0 42
0 0 42
0 0 42
0 0 42
0 0 42
0 0 42
0 0 42
0 0 42
0 0 42
0 0 42
0 0 42
0 0 42
0 0 42
0 0 42
0 0 42
0 0 42
0 0 42
0 0 42
0 0 42
0 0 42
0 0 42
0 0 42
0 0 42
0 0 42
0 0 42
0 0 42
0 0 42
0 0 42
0 0 42
0 0 42
0 0 42
0 0 42
0 0 42
0 0 42
0 0 42
0 0 42
0 0 42
0 0 42
0 0 42
0 0 42
0 0 42
0 0 42
0 0 42
0 0 42
0 0 42
0 0 42
0 0 42
0 0 42
0 0 42
0 0 42
0 0 42
0 0 42
0 0 42
0 0 42
0 0 42
0 0 42
0 0 42
0 0 42
0 0 42
0 0 42
0 0 42
0 0 42
0 0 42
0 0 45
0 0 45
0 0 45
0 0 45
0 0 45
0 0 45
0 0 45
0 0 45
0 0 45
0 0 45
0 0 45
0 0 45
0 0 45
0 0 47
0 0 47
0 0 47
0 0 47
0 0 47
0 0 49
0 0 59
0 0 63
0 0 64
0 0 59
0 0 57
0 0 58
0 0 60
0 8 66
0 7 68
0 14 74
0 29 91
0 30 94
45 58 92
103 99 92
90 77 49
77 74 42
78 74 36
56 58 21
33 48 0
27 49 0
22 44 0
26 45 0
23 45 0
25 44 0
27 47 0
28 49 0
27 48 0
25 47 0
25 45 0
27 46 0
29 50 0
30 52 0
33 54 0
35 56 0
29 48 0
25 46 0
26 45 0
27 46 0
30 51 0
28 49 0
22 45 0
28 51 0
36 58 0
50 72 10
47 69 10
28 49 0
22 42 0
20 40 0
20 44 0
25 49 0
28 52 0
29 52 0
29 53 0
28 52 0
39 60 6
49 70 17
40 60 11
27 48 0
21 42 0
36 56 9
42 59 13
45 58 19
45 56 18
41 52 13
47 59 18
60 65 25
51 61 21
69 72 32
88 80 46
59 62 25
44 55 14
54 58 26
75 70 44
78 70 41
94 76 51
70 69 30
73 76 27
73 76 26
61 72 20
19 29 38
0 0 42
0 0 42
0 0 42
0 0 42
0 0 42
0 0 42
0 0 42
0 0 42
0 0 42
0 0 42
0 0 42
0 0 42
189 201 218
222 235 254
222 235 254
222 235 254
222 235 254
222 235 254
222 235 254
222 235 254
222 235 254
222 235 254
222 235 254
222 235 254
222 235 254
222 235 254
222 235 254
222 235 254
222 235 254
222 235 254
222 235 254
222 235 254
222 235 254
222 235 254
222 235 254
222 235 254
222 235 254
222 235 254
222 235 254
222 235 254
222 235 254
222 235 254
222 235 254
222 235 254
222 235 254
222 235 254
222 235 254
222 235 254
222 235 254
222 235 254
222 235 254
222 235 254
222 235 254
222 235 254
222 235 254
222 235 254
222 235 254
222 235 254
222 235 254
222 235 254
222 235 254
222 235 254
222 235 254
222 235 254
222 235 254
222 235 254
222 235 254
222 235 254
222 235 254
222 235 254
222 235 254
222 235 254
222 235 254
222 235 254
222 235 254
222 235 254
222 235 254
222 235 254
222 235 254
222 235 254
222 235 254
222 235 254
222 235 254
222 235 254
222 235 254
222 235 254
222 235 254
222 235 254
222 235 254
222 235 254
222 235 254
222 235 254
222 235 254
222 235 254
222 235 254
222 235 254
222 235 254
222 235 254
222 235 254
222 235 254
222 235 254
222 235 254
222 235 254
222 235 254
222 235 254
222 235 254
222 235 254
222 235 254
222 235 254
222 235 254
222 235 254
222 235 254
222 235 254
222 235 254
222 235 254
222 235 254
222 235 254
222 235 254
222 235 254
222 235 254
222 235 254
222 235 254
222 235 254
222 235 254
222 235 254
222 235 254
222 235 254
222 235 254
222 235 254
222 235 254
222 235 254
222 235 254
222 235 254
222 235 254
222 235 254
222 235 254
222 235 254
222 235 254
222 235 254
222 235 254
222 235 254
222 235 254
222 235 254
222 235 254
222 235 254
222 235 254
222 235 254
222 235 254
222 235 254
222 235 254
222 235 254
222 235 254
222 235 254
222 235 254
222 235 254
222 235 254
222 235 254
222 235 254
222 235 254
222 235 254
222 235 254
222 235 254
222 235 254
222 235 254
222 235 254
222 235 254
222 235 254
222 235 254
222 235 254
222 235 254
222 235 254
222 235 254
222 235 254
222 235 254
222 235 254
222 235 254
222 235 254
222 235 254
222 235 254
222 235 254
222 235 254
222 235 254
222 235 254
222 235 254
222 235 254
222 235 254
222 235 254
222 235 254
222 235 254
222 235 254
222 235 254
222 235 254
222 235 254
222 235 254
222 235 254
222 235 254
222 235 254
222 235 254
222 235 254
222 235 254
222 235 254
201 213 231
0 0 42
0 0 42
0 0 42
0 0 42
0 0 42
0 0 42
0 0 42
0 0 42
0 0 42
0 0 42
0 0 42
0 0 44
0 0 45
0 0 45
0 0 45
0 0 42
0 0 42
0 0 42
0 0 42
0 0 42
0 0 42
0 0 42
0 0 42
0 0 42
0 0 42
0 0 42
0 0 42
0 0 42
0 0 42
0 0 42
0 0 42
0 0 42
0 0 42
0 0 42
0 0 42
0 0 42
0 0 42
0 0 42
0 0 42
0 0 42
0 0 42
0 0 42
0 0 42
0 0 42
0 0 42
0 0 42
0 0 42
0 0 42
0 0 42
0 0 42
0 0 42
0 0 42
0 0 42
0 0 42
0 0 42
0 0 42
0 0 42
0 0 42
0 0 42
0 0 42
0 0 42
0 0 42
0 0 42
0 0 42
0 0 42
0 0 42
0 0 42
0 0 42
0 0 42
0 0 42
0 0 42
0 0 42
0 0 42
0 0 42
0 0 42
0 0 42
0 0 42
0 0 42
0 0 42
0 0 42
0 0 42
0 0 42
0 0 42
0 0 42
0 0 42
0 0 42
0 0 42
0 0 42
0 0 42
0 0 42
0 0 42
0 0 42
0 0 42
0 0 42
0 0 42
0 0 42
0 0 42
0 0 42
0 0 42
0 0 45
0 0 45
0 0 45
0 0 45
0 0 45
0 0 45
0 0 45
0 0 45
0 0 45
0 0 45
0 0 45
0 0 45
0 0 47
0 0 47
0 0 47
0 0 47
0 0 49
0 0 50
0 8 61
0 0 63
0 0 59
0 0 54
0 0 54
0 0 54
0 0 54
0 0 59
0 0 62
0 0 66
0 8 75
0 22 87
0 38 98
15 34 97
93 96 105
101 93 64
77 76 47
76 74 36
60 60 21
35 48 0
31 53 0
25 45 0
26 44 0
23 44 0
25 44 0
28 48 0
28 49 0
28 47 0
27 47 0
27 46 0
25 43 0
30 49 0
35 55 0
31 50 0
28 46 0
25 45 0
28 48 0
29 50 0
27 48 0
27 48 0
24 46 0
19 42 0
24 45 0
32 53 0
45 65 3
49 70 10
39 59 7
29 49 0
20 43 0
20 43 0
31 54 0
34 57 0
38 60 5
39 62 6
30 53 0
33 53 0
33 55 0
33 55 7
25 47 0
22 42 0
31 51 0
42 59 12
45 59 17
48 59 21
42 55 16
52 62 22
62 67 25
55 65 20
62 67 29
82 77 47
80 75 44
55 59 25
63 61 32
66 62 34
61 60 29
83 70 39
58 69 20
75 76 25
66 73 23
38 51 24
0 0 42
0 0 42
0 0 42
0 0 42
0 0 42
0 0 42
0 0 42
0 0 42
0 0 42
0 0 42
0 0 42
0 0 42
0 0 42
203 216 234
222 235 254
222 235 254
222 235 254
222 235 254
222 235 254
222 235 254
222 235 254
222 235 254
222 235 254
222 235 254
222 235 254
222 235 254
222 235 254
222 235 254
222 235 254
222 235 254
222 235 254
222 235 254
222 235 254
222 235 254
222 235 254
222 235 254
222 235 254
222 235 254
222 235 254
222 235 254
222 235 254
222 235 254
222 235 254
222 235 254
222 235 254
222 235 254
222 235 254
222 235 254
222 235 254
222 235 254
222 235 254
222 235 254
222 235 254
222 235 254
222 235 254
222 235 254
222 235 254
222 235 254
222 235 254
222 235 254
222 235 254
222 235 254
222 235 254
222 235 254
222 235 254
222 235 254
222 235 254
222 235 254
222 235 254
222 235 254
222 235 254
222 235 254
222 235 254
222 235 254
222 235 254
222 235 254
222 235 254
222 235 254
222 235 254
222 235 254
222 235 254
222 235 254
222 235 254
222 235 254
222 235 254
222 235 254
222 235 254
222 235 254
222 235 254
222 235 254
222 235 254
222 235 254
222 235 254
222 235 254
222 235 254
222 235 254
222 235 254
222 235 254
222 235 254
222 235 254
222 235 254
222 235 254
222 235 254
222 235 254
222 235 254
222 235 254
222 235 254
222 235 254
222 235 254
222 235 254
222 235 254
222 235 254
222 235 254
222 235 254
222 235 254
222 235 254
222 235 254
222 235 254
222 235 254
222 235 254
222 235 254
222 235 254
222 235 254
222 235 254
222 235 254
222 235 254
222 235 254
222 235 254
222 235 254
222 235 254
222 235 254
222 235 254
222 235 254
222 235 254
222 235 254
222 235 254
222 235 254
222 235 254
222 235 254
222 235 254
222 235 254
222 235 254
222 235 254
222 235 254
222 235 254
222 235 254
222 235 254
222 235 254
222 235 254
222 235 254
222 235 254
222 235 254
222 235 254
222 235 254
222 235 254
222 235 254
222 235 254
222 235 254
222 235 254
222 235 254
222 235 254
222 235 254
222 235 254
222 235 254
222 235 254
222 235 254
222 235 254
222 235 254
222 235 254
222 235 254
222 235 254
222 235 254
222 235 254
222 235 254
222 235 254
222 235 254
222 235 254
222 235 254
222 235 254
222 235 254
222 235 254
222 235 254
222 235 254
222 235 254
222 235 254
222 235 254
222 235 254
222 235 254
222 235 254
222 235 254
222 235 254
222 235 254
222 235 254
222 235 254
222 235 254
222 235 254
222 235 254
222 235 254
222 235 254
222 235 254
222 235 254
222 235 254
222 235 254
80 85 100
0 0 42
0 0 42
0 0 42
0 0 42
0 0 42
0 0 42
0 0 42
0 0 42
0 0 42
0 0 42
0 0 42
0 0 43
0 0 45
0 0 45
0 0 43
0 0 42
0 0 42
0 0 42
0 0 42
0 0 42
0 0 42
0 0 42
0 0 42
0 0 42
0 0 42
0 0 42
0 0 42
0 0 42
0 0 42
0 0 42
0 0 42
0 0 42
0 0 42
0 0 42
0 0 42
0 0 42
0 0 42
0 0 42
0 0 42
0 0 42
0 0 42
0 0 42
0 0 42
0 0 42
0 0 42
0 0 42
0 0 42
0 0 42
0 0 42
0 0 42
0 0 42
0 0 42
0 0 42
0 0 42
0 0 42
0 0 42
0 0 42
0 0 42
0 0 42
0 0 42
0 0 42
0 0 42
0 0 42
0 0 42
0 0 42
0 0 42
0 0 42
0 0 42
0 0 42
0 0 42
0 0 42
0 0 42
0 0 42
0 0 42
0 0 42
0 0 42
0 0 42
0 0 42
0 0 42
0 0 42
0 0 42
0 0 42
0 0 42
0 0 42
0 0 42
0 0 42
0 0 42
0 0 42
0 0 42
0 0 42
0 0 42
0 0 42
0 0 42
0 0 42
0 0 42
0 0 42
0 0 42
0 0 42
0 0 45
0 0 45
0 0 45
0 0 45
0 0 45
0 0 45
0 0 45
0 0 45
0 0 45
0 0 45
0 0 45
0 0 45
0 0 47
0 0 47
0 0 45
0 0 46
0 0 52
0 0 62
0 6 63
0 0 58
0 0 54
0 0 52
0 0 51
0 0 49
0 0 50
0 0 53
0 0 59
0 0 62
0 3 68
0 15 79
0 39 98
0 30 101
49 71 112
116 111 103
79 79 43
85 77 47
88 78 48
55 52 18
49 58 17
27 47 0
26 47 0
25 45 0
27 46 0
30 48 0
24 42 0
26 45 0
27 46 0
22 43 0
24 45 0
26 49 0
28 49 0
28 47 0
27 47 0
25 45 0
30 50 0
26 47 0
26 46 0
26 47 0
24 43 0
25 46 0
28 47 0
33 52 0
43 61 5
48 69 12
42 64 6
31 52 0
22 41 0
20 43 0
30 54 0
36 58 0
37 56 5
33 54 2
29 50 0
44 59 14
40 59 12
24 47 0
23 45 0
22 44 0
29 49 0
35 53 3
48 61 17
46 59 20
45 55 16
62 69 29
62 67 26
56 66 24
60 65 30
89 82 51
76 75 42
59 63 26
63 62 32
68 64 37
66 62 30
62 60 22
58 66 16
68 74 23
50 68 7
16 24 39
0 0 41
0 0 42
0 0 42
0 0 42
0 0 42
0 0 42
0 0 42
0 0 42
0 0 42
0 0 42
0 0 42
0 0 42
66 70 86
221 234 253
222 235 254
222 235 254
222 235 254
222 235 254
222 235 254
222 235 254
222 235 254
222 235 254
222 235 254
222 235 254
222 235 254
222 235 254
222 235 254
222 235 254
222 235 254
222 235 254
222 235 254
222 235 254
222 235 254
222 235 254
222 235 254
222 235 254
222 235 254
222 235 254
222 235 254
222 235 254
222 235 254
222 235 254
222 235 254
222 235 254
222 235 254
222 235 254
222 235 254
222 235 254
222 235 254
222 235 254
222 235 254
222 235 254
222 235 254
222 235 254
222 235 254
222 235 254
222 235 254
222 235 254
222 235 254
222 235 254
222 235 254
222 235 254
222 235 254
222 235 254
222 235 254
222 235 254
222 235 254
222 235 254
222 235 254
222 235 254
222 235 254
222 235 254
222 235 254
222 235 254
222 235 254
222 235 254
222 235 254
222 235 254
222 235 254
222 235 254
222 235 254
222 235 254
222 235 254
222 235 254
222 235 254
222 235 254
222 235 254
222 235 254
222 235 254
222 235 254
222 235 254
222 235 254
222 235 254
222 235 254
222 235 254
222 235 254
222 235 254
222 235 254
222 235 254
222 235 254
222 235 254
222 235 254
222 235 254
222 235 254
222 235 254
222 235 254
222 235 254
222 235 254
222 235 254
222 235 254
222 235 254
222 235 254
222 235 254
222 235 254
222 235 254
222 235 254
222 235 254
222 235 254
222 235 254
222 235 254
222 235 254
222 235 254
222 235 254
222 235 254
222 235 254
222 235 254
222 235 254
222 235 254
222 235 254
222 235 254
222 235 254
222 235 254
222 235 254
222 235 254
222 235 254
222 235 254
222 235 254
222 235 254
222 235 254
222 235 254
222 235 254
222 235 254
222 235 254
222 235 254
222 235 254
222 235 254
222 235 254
222 235 254
222 235 254
222 235 254
222 235 254
222 235 254
222 235 254
222 235 254
222 235 254
222 235 254
222 235 254
222 235 254
222 235 254
222 235 254
222 235 254
222 235 254
222 235 254
222 235 254
222 235 254
222 235 254
222 235 254
222 235 254
222 235 254
222 235 254
222 235 254
222 235 254
222 235 254
222 235 254
222 235 254
222 235 254
222 235 254
222 235 254
222 235 254
222 235 254
222 235 254
222 235 254
222 235 254
222 235 254
222 235 254
222 235 254
222 235 254
222 235 254
222 235 254
222 235 254
222 235 254
222 235 254
222 235 254
222 235 254
222 235 254
222 235 254
222 235 254
222 235 254
222 235 254
222 235 254
222 235 254
222 235 254
222 235 254
127 135 150
0 0 42
0 0 42
0 0 42
0 0 42
0 0 42
0 0 42
0 0 42
0 0 42
0 0 42
0 0 42
0 0 42
0 0 42
0 0 43
0 0 43
0 0 42
0 0 42
0 0 42
0 0 42
0 0 42
0 0 42
0 0 42
0 0 42
0 0 42
0 0 42
0 0 42
0 0 42
0 0 42
0 0 42
0 0 42
0 0 42
0 0 42
0 0 42
0 0 42
0 0 42
0 0 42
0 0 42
0 0 42
0 0 42
0 0 42
0 0 42
0 0 42
0 0 42
0 0 42
0 0 42
0 0 42
0 0 42
0 0 42
0 0 42
0 0 42
0 0 42
0 0 42
0 0 42
0 0 42
0 0 42
0 0 42
0 0 42
0 0 42
0 0 42
0 0 42
0 0 42
0 0 42
0 0 42
0 0 42
0 0 42
0 0 42
0 0 42
0 0 42
0 0 42
0 0 42
0 0 42
0 0 42
0 0 42
0 0 42
0 0 42
0 0 42
0 0 42
0 0 42
0 0 42
0 0 42
0 0 42
0 0 42
0 0 42
0 0 42
0 0 42
0 0 42
0 0 42
0 0 42
0 0 42
0 0 42
0 0 42
0 0 42
0 0 42
0 0 42
0 0 42
0 0 42
0 0 42
0 0 42
0 0 42
0 0 43
0 0 45
0 0 45
0 0 45
0 0 45
0 0 43
0 0 45
0 0 45
0 0 45
0 0 45
0 0 45
0 0 45
0 0 47
0 0 45
0 0 44
0 0 47
0 0 53
0 0 60
0 0 60
0 0 56
0 0 53
0 0 52
0 0 49
0 0 47
0 0 45
0 0 49
0 0 55
0 0 58
0 0 64
0 11 77
0 29 89
0 41 101
0 40 96
75 97 123
108 94 75
94 77 44
95 84 50
83 79 44
57 61 21
36 49 0
24 43 0
26 48 0
22 46 0
22 42 0
24 43 0
27 45 0
26 45 0
25 43 0
24 44 0
26 47 0
28 48 0
23 46 0
22 45 0
26 46 0
32 50 0
29 47 0
35 53 0
32 52 0
23 44 0
26 48 0
30 52 0
27 50 0
36 59 0
44 65 5
36 59 0
27 48 0
30 50 0
26 47 0
27 47 0
30 53 0
27 49 0
29 48 0
44 56 13
63 67 27
42 54 8
28 46 0
20 43 0
27 49 0
34 52 0
43 55 12
48 58 19
41 53 16
50 58 23
68 73 33
60 66 25
58 66 24
59 66 29
87 80 47
69 70 35
61 62 27
67 67 38
81 72 47
75 70 38
58 62 19
61 67 18
51 69 16
31 47 29
0 0 41
0 0 43
0 0 42
0 0 42
0 0 42
0 0 42
0 0 42
0 0 42
0 0 42
0 0 42
0 0 42
0 0 42
0 0 42
138 147 162
222 235 254
222 235 254
222 235 254
222 235 254
222 235 254
222 235 254
222 235 254
222 235 254
222 235 254
222 235 254
222 235 254
222 235 254
222 235 254
222 235 254
222 235 254
222 235 254
222 235 254
222 235 254
222 235 254
222 235 254
222 235 254
222 235 254
222 235 254
222 235 254
222 235 254
222 235 254
222 235 254
222 235 254
222 235 254
222 235 254
222 235 254
222 235 254
222 235 254
222 235 254
222 235 254
222 235 254
222 235 254
222 235 254
222 235 254
222 235 254
222 235 254
222 235 254
222 235 254
222 235 254
222 235 254
222 235 254
222 235 254
222 235 254
222 235 254
222 235 254
222 235 254
222 235 254
222 235 254
222 235 254
222 235 254
222 235 254
222 235 254
222 235 254
222 235 254
222 235 254
222 235 254
222 235 254
222 235 254
222 235 254
222 235 254
222 235 254
222 235 254
222 235 254
222 235 254
222 235 254
222 235 254
222 235 254
222 235 254
222 235 254
222 235 254
222 235 254
222 235 254
222 235 254
222 235 254
222 235 254
222 235 254
222 235 254
222 235 254
222 235 254
222 235 254
222 235 254
222 235 254
222 235 254
222 235 254
222 235 254
222 235 254
222 235 254
222 235 254
222 235 254
222 235 254
222 235 254
222 235 254
222 235 254
222 235 254
222 235 254
222 235 254
222 235 254
222 235 254
222 235 254
222 235 254
222 235 254
222 235 254
222 235 254
222 235 254
222 235 254
222 235 254
222 235 254
222 235 254
222 235 254
222 235 254
222 235 254
222 235 254
222 235 254
222 235 254
222 235 254
222 235 254
222 235 254
222 235 254
222 235 254
222 235 254
222 235 254
222 235 254
222 235 254
222 235 254
222 235 254
222 235 254
222 235 254
222 235 254
222 235 254
222 235 254
222 235 254
222 235 254
222 235 254
222 235 254
222 235 254
222 235 254
222 235 254
222 235 254
222 235 254
222 235 254
222 235 254
222 235 254
222 235 254
222 235 254
222 235 254
222 235 254
222 235 254
222 235 254
222 235 254
222 235 254
222 235 254
222 235 254
222 235 254
222 235 254
222 235 254
222 235 254
222 235 254
222 235 254
222 235 254
222 235 254
222 235 254
222 235 254
222 235 254
222 235 254
222 235 254
222 235 254
222 235 254
222 235 254
222 235 254
222 235 254
222 235 254
222 235 254
222 235 254
222 235 254
222 235 254
222 235 254
222 235 254
222 235 254
222 235 254
222 235 254
222 235 254
222 235 254
222 235 254
222 235 254
222 235 254
167 178 194
0 0 42
0 0 42
0 0 42
0 0 42
0 0 42
0 0 42
0 0 42
0 0 42
0 0 42
0 0 42
0 0 42
0 0 42
0 0 42
0 0 42
0 0 42
0 0 42
0 0 42
0 0 42
0 0 42
0 0 42
0 0 42
0 0 42
0 0 42
0 0 42
0 0 42
0 0 42
0 0 42
0 0 42
0 0 42
0 0 42
0 0 42
0 0 42
0 0 42
0 0 42
0 0 42
0 0 42
0 0 42
0 0 42
0 0 42
0 0 42
0 0 42
0 0 42
0 0 42
0 0 42
0 0 42
0 0 42
0 0 42
0 0 42
0 0 42
0 0 42
0 0 42
0 0 42
0 0 42
0 0 42
0 0 42
0 0 42
0 0 42
0 0 42
0 0 42
0 0 42
0 0 42
0 0 42
0 0 42
0 0 42
0 0 42
0 0 42
0 0 42
0 0 42
0 0 42
0 0 42
0 0 42
0 0 42
0 0 42
0 0 42
0 0 42
0 0 42
0 0 42
0 0 42
0 0 42
0 0 42
0 0 42
0 0 42
0 0 42
0 0 42
0 0 42
0 0 42
0 0 42
0 0 42
0 0 42
0 0 42
0 0 42
0 0 42
0 0 42
0 0 42
0 0 42
0 0 42
0 0 42
0 0 42
0 0 42
0 0 44
0 0 45
0 0 45
0 0 44
0 0 42
0 0 45
0 0 45
0 0 45
0 0 45
0 0 45
0 0 45
0 0 47
0 0 44
0 0 44
0 0 49
0 0 53
0 0 55
0 0 56
0 0 53
0 0 52
0 0 50
0 0 48
0 0 47
0 0 46
0 0 49
0 0 52
0 0 54
0 0 60
0 11 74
0 28 91
0 39 96
0 48 117
53 84 129
106 103 107
92 85 51
87 79 47
88 81 47
67 64 26
43 50 0
29 45 0
27 47 0
25 45 0
27 44 0
27 43 0
27 46 0
23 46 0
24 42 0
24 45 0
27 48 0
27 47 0
25 45 0
27 46 0
31 50 0
39 55 0
40 53 0
44 58 7
39 54 9
33 50 5
30 48 0
28 49 0
25 49 0
27 52 0
32 53 0
39 59 7
32 53 0
35 54 0
31 50 0
36 51 0
38 56 8
29 49 0
33 50 0
58 66 25
62 68 29
36 48 7
27 47 0
22 46 0
27 47 0
41 54 8
50 59 20
49 59 21
48 58 23
60 67 31
62 67 31
59 66 25
60 68 28
57 65 29
89 83 48
66 69 34
64 65 34
74 71 43
83 72 47
65 63 28
63 61 21
61 67 22
35 55 21
7 11 45
0 0 41
0 0 42
0 0 42
0 0 42
0 0 42
0 0 42
0 0 42
0 0 42
0 0 42
0 0 42
0 0 42
0 0 42
0 0 42
182 193 210
222 235 254
222 235 254
222 235 254
222 235 254
222 235 254
222 235 254
222 235 254
222 235 254
222 235 254
222 235 254
222 235 254
222 235 254
222 235 254
222 235 254
222 235 254
222 235 254
222 235 254
222 235 254
222 235 254
222 235 254
222 235 254
222 235 254
222 235 254
222 235 254
222 235 254
222 235 254
222 235 254
222 235 254
222 235 254
222 235 254
222 235 254
222 235 254
222 235 254
222 235 254
222 235 254
222 235 254
222 235 254
222 235 254
222 235 254
222 235 254
222 235 254
222 235 254
222 235 254
222 235 254
222 235 254
222 235 254
222 235 254
222 235 254
222 235 254
222 235 254
222 235 254
222 235 254
222 235 254
222 235 254
222 235 254
222 235 254
222 235 254
222 235 254
222 235 254
222 235 254
222 235 254
222 235 254
222 235 254
222 235 254
222 235 254
222 235 254
222 235 254
222 235 254
222 235 254
222 235 254
222 235 254
222 235 254
222 235 254
222 235 254
222 235 254
222 235 254
222 235 254
222 235 254
222 235 254
222 235 254
222 235 254
222 235 254
222 235 254
222 235 254
222 235 254
222 235 254
222 235 254
222 235 254
222 235 254
222 235 254
222 235 254
222 235 254
222 235 254
222 235 254
222 235 254
222 235 254
222 235 254
222 235 254
222 235 254
222 235 254
222 235 254
222 235 254
222 235 254
222 235 254
222 235 254
222 235 254
222 235 254
222 235 254
222 235 254
222 235 254
222 235 254
222 235 254
222 235 254
222 235 254
222 235 254
222 235 254
222 235 254
222 235 254
222 235 254
222 235 254
222 235 254
222 235 254
222 235 254
222 235 254
222 235 254
222 235 254
222 235 254
222 235 254
222 235 254
222 235 254
222 235 254
222 235 254
222 235 254
222 235 254
222 235 254
222 235 254
222 235 254
222 235 254
222 235 254
222 235 254
222 235 254
222 235 254
222 235 254
222 235 254
222 235 254
222 235 254
222 235 254
222 235 254
222 235 254
222 235 254
222 235 254
222 235 254
222 235 254
222 235 254
222 235 254
222 235 254
222 235 254
222 235 254
222 235 254
222 235 254
222 235 254
222 235 254
222 235 254
222 235 254
222 235 254
222 235 254
222 235 254
222 235 254
222 235 254
222 235 254
222 235 254
222 235 254
222 235 254
222 235 254
222 235 254
222 235 254
222 235 254
222 235 254
222 235 254
222 235 254
222 235 254
222 235 254
222 235 254
222 235 254
222 235 254
222 235 254
222 235 254
222 235 254
222 235 254
222 235 254
208 221 239
0 0 42
0 0 42
0 0 42
0 0 42
0 0 42
0 0 41
0 0 41
0 0 41
0 0 42
0 0 42
0 0 42
0 0 42
0 0 42
0 0 42
0 0 42
0 0 42
0 0 42
0 0 42
0 0 42
0 0 42
0 0 42
0 0 42
0 0 42
0 0 42
0 0 42
0 0 42
0 0 42
0 0 42
0 0 42
0 0 42
0 0 42
0 0 42
0 0 42
0 0 42
0 0 42
0 0 42
0 0 42
0 0 42
0 0 42
0 0 42
0 0 42
0 0 42
0 0 42
0 0 42
0 0 42
0 0 42
0 0 42
0 0 42
0 0 42
0 0 42
0 0 42
0 0 42
0 0 42
0 0 42
0 0 42
0 0 42
0 0 42
0 0 42
0 0 42
0 0 42
0 0 42
0 0 42
0 0 42
0 0 42
0 0 42
0 0 42
0 0 42
0 0 42
0 0 42
0 0 42
0 0 42
0 0 42
0 0 42
0 0 42
0 0 42
0 0 42
0 0 42
0 0 42
0 0 42
0 0 42
0 0 42
0 0 42
0 0 42
0 0 42
0 0 42
0 0 42
0 0 42
0 0 42
0 0 42
0 0 42
0 0 42
0 0 42
0 0 42
0 0 42
0 0 42
0 0 42
0 0 42
0 0 42
0 0 42
0 0 43
0 0 45
0 0 45
0 0 43
0 0 42
0 0 45
0 0 45
0 0 45
0 0 45
0 0 45
0 0 45
0 0 45
0 0 45
0 0 45
0 0 48
0 0 51
0 0 53
0 0 53
0 0 51
0 0 50
0 0 48
0 0 47
0 0 47
0 0 46
0 0 47
0 0 50
0 0 51
0 0 59
0 23 81
0 45 105
0 39 102
0 36 103
8 35 89
76 79 103
103 92 73
93 83 50
101 89 55
87 80 43
71 70 32
46 53 14
29 41 4
40 46 8
40 47 9
37 47 8
30 47 2
27 49 0
24 49 0
23 48 0
23 47 0
25 46 0
34 49 0
38 54 0
37 55 0
45 58 0
46 55 3
48 58 12
48 60 12
45 56 13
38 50 4
26 42 0
30 49 0
27 46 0
33 51 0
43 64 12
39 60 0
33 51 0
39 53 5
51 61 17
49 61 15
37 50 6
35 48 3
55 64 25
58 68 29
39 54 10
34 51 1
37 52 6
47 60 15
61 67 26
55 61 25
49 59 21
57 65 27
65 70 34
60 65 31
53 61 24
61 66 30
64 68 34
78 74 39
69 70 39
69 67 39
76 68 44
81 72 44
73 65 32
77 65 32
46 58 11
16 29 38
0 0 42
0 0 43
0 0 42
0 0 42
0 0 42
0 0 42
0 0 42
0 0 42
0 0 42
0 0 42
0 0 42
0 0 42
0 0 42
0 0 42
207 220 238
222 235 254
222 235 254
222 235 254
222 235 254
222 235 254
222 235 254
222 235 254
222 235 254
222 235 254
222 235 254
222 235 254
222 235 254
222 235 254
222 235 254
222 235 254
222 235 254
222 235 254
222 235 254
222 235 254
222 235 254
222 235 254
222 235 254
222 235 254
222 235 254
222 235 254
222 235 254
222 235 254
222 235 254
222 235 254
222 235 254
222 235 254
222 235 254
222 235 254
222 235 254
222 235 254
222 235 254
222 235 254
222 235 254
222 235 254
222 235 254
222 235 254
222 235 254
222 235 254
222 235 254
222 235 254
222 235 254
222 235 254
222 235 254
222 235 254
222 235 254
222 235 254
222 235 254
222 235 254
222 235 254
222 235 254
222 235 254
222 235 254
222 235 254
222 235 254
222 235 254
222 235 254
222 235 254
222 235 254
222 235 254
222 235 254
222 235 254
222 235 254
222 235 254
222 235 254
222 235 254
222 235 254
222 235 254
222 235 254
222 235 254
222 235 254
222 235 254
222 235 254
222 235 254
222 235 254
222 235 254
222 235 254
222 235 254
222 235 254
222 235 254
222 235 254
222 235 254
222 235 254
222 235 254
222 235 254
222 235 254
222 235 254
222 235 254
222 235 254
222 235 254
222 235 254
222 235 254
222 235 254
222 235 254
222 235 254
222 235 254
222 235 254
222 235 254
222 235 254
222 235 254
222 235 254
222 235 254
222 236 254
222 236 254
222 236 254
222 236 254
222 236 254
222 236 254
222 236 254
222 236 254
222 236 254
222 236 254
222 236 254
222 236 254
222 236 254
222 236 254
222 236 254
222 236 254
222 236 254
222 236 254
222 236 254
222 236 254
222 236 254
222 236 254
222 236 254
222 236 254
222 236 254
222 236 254
222 236 254
222 236 254
222 236 254
222 236 254
222 236 254
222 236 254
222 236 254
222 236 254
222 236 254
222 236 254
222 236 254
222 236 254
222 236 254
222 236 254
222 236 254
222 236 254
222 236 254
222 236 254
222 236 254
222 236 254
222 236 254
222 236 254
222 236 254
222 236 254
222 236 254
222 236 254
222 236 254
222 236 254
222 236 254
222 236 254
222 236 254
222 236 254
222 236 254
222 236 254
222 236 254
222 236 254
222 236 254
222 236 254
222 236 254
222 236 254
222 236 254
222 236 254
222 236 254
222 236 254
222 236 254
222 236 254
222 236 254
222 236 254
222 236 254
222 236 254
222 236 254
222 236 254
222 236 254
222 236 254
222 236 254
222 236 254
222 236 254
222 236 254
222 236 254
70 74 90
0 0 42
0 0 42
0 0 42
0 0 42
0 0 42
0 0 41
0 0 40
0 0 42
0 0 42
0 0 42
0 0 42
0 0 42
0 0 42
0 0 42
0 0 42
0 0 42
0 0 42
0 0 42
0 0 42
0 0 42
0 0 42
0 0 42
0 0 42
0 0 42
0 0 42
0 0 42
0 0 42
0 0 42
0 0 42
0 0 42
0 0 42
0 0 42
0 0 42
0 0 42
0 0 42
0 0 42
0 0 42
0 0 42
0 0 42
0 0 42
0 0 42
0 0 42
0 0 42
0 0 42
0 0 42
0 0 42
0 0 42
0 0 42
0 0 42
0 0 42
0 0 42
0 0 42
0 0 42
0 0 42
0 0 42
0 0 42
0 0 42
0 0 42
0 0 42
0 0 42
0 0 42
0 0 42
0 0 42
0 0 42
0 0 42
0 0 42
0 0 42
0 0 42
0 0 42
0 0 42
0 0 42
0 0 42
0 0 42
0 0 42
0 0 42
0 0 42
0 0 42
0 0 42
0 0 42
0 0 42
0 0 42
0 0 42
0 0 42
0 0 42
0 0 42
0 0 42
0 0 42
0 0 42
0 0 42
0 0 42
0 0 42
0 0 42
0 0 42
0 0 42
0 0 42
0 0 42
0 0 42
0 0 42
0 0 42
0 0 44
0 0 44
0 0 42
0 0 42
0 0 45
0 0 45
0 0 45
0 0 45
0 0 45
0 0 45
0 0 44
0 0 45
0 0 44
0 0 45
0 0 48
0 0 51
0 0 49
0 0 49
0 0 48
0 0 47
0 0 47
0 0 47
0 0 45
0 0 46
0 0 46
0 0 48
0 0 57
0 20 78
0 34 94
0 29 98
0 29 89
0 33 90
21 47 95
112 105 86
101 87 53
109 95 61
93 83 48
85 81 44
58 60 24
46 50 15
57 55 21
68 66 33
70 69 33
53 57 22
39 49 7
27 45 0
23 42 0
23 43 0
22 43 0
28 44 0
32 49 0
38 55 0
45 55 0
47 56 11
50 60 15
53 64 18
46 56 8
45 57 10
32 46 0
28 46 0
28 46 0
28 45 0
36 56 4
39 59 0
39 54 0
56 66 23
64 66 26
62 63 23
62 68 25
43 56 10
53 63 20
51 61 20
49 61 20
50 59 16
56 64 22
62 69 28
74 75 39
57 62 27
50 62 22
62 69 29
63 66 32
57 61 27
54 61 25
61 64 30
71 70 38
76 73 41
77 76 48
75 69 45
89 77 53
80 69 39
90 73 46
79 69 38
40 57 4
8 15 38
0 0 39
0 0 42
0 0 42
0 0 42
0 0 42
0 0 42
0 0 42
0 0 42
0 0 42
0 0 42
0 0 42
0 0 42
0 0 42
73 78 93
222 236 254
222 236 254
222 236 254
222 236 254
222 236 254
222 236 254
222 236 254
222 236 254
222 236 254
222 236 254
222 236 254
222 236 254
222 236 254
222 236 254
222 236 254
222 236 254
222 236 254
222 236 254
222 236 254
222 236 254
222 236 254
222 236 254
222 236 254
222 236 254
222 236 254
222 236 254
222 236 254
222 236 254
222 236 254
222 236 254
222 236 254
222 236 254
222 236 254
222 236 254
222 236 254
222 236 254
222 236 254
222 236 254
222 236 254
222 236 254
222 236 254
222 236 254
222 236 254
222 236 254
222 236 254
222 236 254
222 236 254
222 236 254
222 236 254
222 236 254
222 236 254
222 236 254
222 236 254
222 236 254
222 236 254
222 236 254
222 236 254
222 236 254
222 236 254
222 236 254
222 236 254
222 236 254
222 236 254
222 236 254
222 236 254
222 236 254
222 236 254
222 236 254
222 236 254
222 236 254
222 236 254
222 236 254
222 236 254
222 236 254
222 236 254
222 236 254
222 236 254
222 236 254
222 236 254
222 236 254
222 236 254
222 236 254
222 236 254
222 236 254
222 236 254
222 236 254
222 235 254
222 235 254
222 235 254
222 235 254
222 235 254
222 235 254
222 235 254
222 235 254
222 235 254
222 235 254
222 236 254
222 236 254
222 236 254
222 236 254
222 236 254
222 236 254
222 236 254
222 236 254
222 236 254
222 236 254
222 236 254
222 236 254
222 236 254
222 236 254
222 236 254
222 236 254
222 236 254
222 236 254
222 236 254
222 236 254
222 236 254
222 236 254
222 236 254
222 236 254
222 236 254
222 236 254
222 236 254
222 236 254
222 236 254
222 236 254
222 236 254
222 236 254
222 236 254
222 236 254
222 236 254
222 236 254
222 236 254
222 236 254
222 236 254
222 236 254
222 236 254
222 236 254
222 236 254
222 236 254
222 236 254
222 236 254
222 236 254
222 236 254
222 236 254
222 236 254
222 236 254
222 236 254
222 236 254
222 236 254
222 236 254
222 236 254
222 236 254
222 236 254
222 236 254
222 236 254
222 236 254
222 236 254
222 236 254
222 236 254
222 236 254
222 236 254
222 236 254
222 236 254
222 236 254
222 236 254
222 236 254
222 236 254
222 236 254
222 236 254
222 236 254
222 236 254
222 236 254
222 236 254
222 236 254
222 236 254
222 236 254
222 236 254
222 236 254
222 236 254
222 236 254
222 236 254
222 236 254
222 236 254
222 236 254
222 236 254
222 236 254
222 236 254
222 236 254
222 236 254
222 236 254
222 236 254
129 137 152
0 0 42
0 0 42
0 0 42
0 0 42
0 0 42
0 0 42
0 0 41
0 0 42
0 0 42
0 0 42
0 0 42
0 0 42
0 0 42
0 0 42
0 0 42
0 0 42
0 0 42
0 0 42
0 0 42
0 0 42
0 0 42
0 0 42
0 0 42
0 0 42
0 0 42
0 0 42
0 0 42
0 0 42
0 0 42
0 0 42
0 0 42
0 0 42
0 0 42
0 0 42
0 0 42
0 0 42
0 0 42
0 0 42
0 0 42
0 0 42
0 0 42
0 0 42
0 0 42
0 0 42
0 0 42
0 0 42
0 0 42
0 0 42
0 0 42
0 0 42
0 0 42
0 0 42
0 0 42
0 0 42
0 0 42
0 0 42
0 0 42
0 0 42
0 0 42
0 0 42
0 0 42
0 0 42
0 0 42
0 0 42
0 0 42
0 0 42
0 0 42
0 0 42
0 0 42
0 0 42
0 0 42
0 0 42
0 0 42
0 0 42
0 0 42
0 0 42
0 0 42
0 0 42
0 0 42
0 0 42
0 0 42
0 0 42
0 0 42
0 0 42
0 0 42
0 0 42
0 0 42
0 0 42
0 0 42
0 0 42
0 0 42
0 0 42
0 0 42
0 0 42
0 0 42
0 0 42
0 0 42
0 0 42
0 0 42
0 0 42
0 0 42
0 0 42
0 0 42
0 0 45
0 0 45
0 0 45
0 0 45
0 0 45
0 0 45
0 0 42
0 0 45
0 0 43
0 0 45
0 0 47
0 0 47
0 0 45
0 0 47
0 0 47
0 0 46
0 0 47
0 0 45
0 0 44
0 0 47
0 0 42
0 0 45
0 0 56
0 8 66
0 11 70
0 25 87
0 26 93
0 29 88
14 28 94
128 135 111
114 99 69
105 91 57
100 89 54
88 79 43
73 70 34
65 64 30
71 67 34
77 69 37
84 75 42
92 85 51
81 76 41
48 57 17
35 47 3
23 43 0
20 44 0
23 46 0
28 50 0
43 60 9
47 58 11
51 59 13
49 60 11
46 58 7
41 55 0
38 54 0
32 51 0
28 49 0
23 44 0
23 42 0
28 47 0
39 56 8
43 56 0
63 67 28
67 65 30
69 69 32
63 68 29
53 63 20
53 62 18
54 62 23
58 63 29
73 74 37
65 68 28
62 70 30
60 68 30
57 64 26
66 70 33
68 71 35
63 69 33
61 65 30
61 65 31
71 71 39
76 72 42
80 75 45
76 74 42
79 71 47
88 75 48
75 66 36
87 71 43
69 68 29
39 57 15
0 0 44
0 0 41
0 0 41
0 0 42
0 0 42
0 0 42
0 0 42
0 0 42
0 0 42
0 0 42
0 0 42
0 0 42
0 0 42
0 0 42
119 127 141
222 236 254
222 236 254
222 236 254
222 236 254
222 236 254
222 236 254
222 236 254
222 236 254
222 236 254
222 236 254
222 236 254
222 236 254
222 236 254
222 236 254
222 236 254
222 236 254
222 236 254
222 236 254
222 236 254
222 236 254
222 236 254
222 236 254
222 236 254
222 236 254
222 236 254
222 236 254
222 236 254
222 236 254
222 236 254
222 236 254
222 236 254
222 236 254
222 236 254
222 236 254
222 236 254
222 236 254
222 236 254
222 236 254
222 236 254
222 236 254
222 236 254
222 236 254
222 236 254
222 236 254
222 236 254
222 236 254
222 236 254
222 236 254
222 236 254
222 236 254
222 236 254
222 236 254
222 236 254
222 236 254
222 236 254
222 236 254
222 236 254
222 236 254
222 236 254
222 236 254
222 236 254
222 236 254
222 236 254
222 236 254
222 236 254
222 236 254
222 236 254
222 236 254
222 236 254
222 236 254
222 236 254
222 236 254
222 236 254
222 236 254
222 236 254
222 236 254
222 236 254
222 236 254
222 236 254
222 236 254
222 236 254
222 236 254
222 236 254
222 236 254
222 236 254
222 236 254
222 236 254
222 236 254
222 236 254
222 236 254
222 236 254
222 236 254
222 236 254
222 236 254
222 236 254
222 236 254
222 236 254
222 236 254
222 236 254
222 236 254
222 236 254
222 236 254
222 236 254
222 236 254
222 236 254
222 236 254
222 236 254
222 236 254
222 236 254
222 236 254
222 236 254
222 236 254
222 236 254
222 236 254
222 236 254
222 236 254
222 236 254
222 236 254
222 236 254
222 236 254
222 236 254
222 236 254
222 236 254
222 236 254
222 236 254
222 236 254
222 236 254
222 236 254
222 236 254
222 236 254
222 236 254
222 236 254
222 236 254
222 236 254
222 236 254
222 236 254
222 236 254
222 236 254
222 236 254
222 236 254
222 236 254
222 236 254
222 236 254
222 236 254
222 236 254
222 236 254
222 236 254
222 236 254
222 236 254
222 236 254
222 236 254
222 236 254
222 236 254
222 236 254
222 236 254
222 236 254
222 236 254
222 236 254
222 236 254
222 236 254
222 236 254
222 236 254
222 236 254
222 236 254
222 236 254
222 236 254
222 236 254
222 236 254
222 236 254
222 236 254
222 236 254
222 236 254
222 236 254
222 236 254
222 236 254
222 236 254
222 236 254
222 236 254
222 236 254
222 236 254
222 236 254
222 236 254
222 236 254
222 236 254
222 236 254
222 236 254
222 236 254
222 236 254
222 236 254
222 236 254
222 236 254
222 236 254
188 200 217
0 0 42
0 0 42
0 0 42
0 0 42
0 0 42
0 0 41
0 0 41
0 0 42
0 0 42
0 0 42
0 0 42
0 0 42
0 0 42
0 0 42
0 0 42
0 0 42
0 0 42
0 0 42
0 0 42
0 0 42
0 0 42
0 0 42
0 0 42
0 0 42
0 0 42
0 0 42
0 0 42
0 0 42
0 0 42
0 0 42
0 0 42
0 0 42
0 0 42
0 0 42
0 0 42
0 0 42
0 0 42
0 0 42
0 0 42
0 0 42
0 0 42
0 0 42
0 0 42
0 0 42
0 0 42
0 0 42
0 0 42
0 0 42
0 0 42
0 0 42
0 0 42
0 0 42
0 0 42
0 0 42
0 0 42
0 0 42
0 0 42
0 0 42
0 0 42
0 0 42
0 0 42
0 0 42
0 0 42
0 0 42
0 0 42
0 0 42
0 0 42
0 0 42
0 0 42
0 0 42
0 0 42
0 0 42
0 0 42
0 0 42
0 0 42
0 0 42
0 0 42
0 0 42
0 0 42
0 0 42
0 0 42
0 0 42
0 0 42
0 0 42
0 0 42
0 0 42
0 0 42
0 0 42
0 0 42
0 0 42
0 0 42
0 0 42
0 0 42
0 0 42
0 0 42
0 0 42
0 0 42
0 0 42
0 0 42
0 0 42
0 0 42
0 0 42
0 0 42
0 0 43
0 0 43
0 0 43
0 0 43
0 0 42
0 0 43
0 0 44
0 0 45
0 0 44
0 0 45
0 0 46
0 0 46
0 0 45
0 0 46
0 0 45
0 0 45
0 0 45
0 0 45
0 0 44
0 0 44
0 0 42
0 0 46
0 0 55
0 1 62
0 10 70
0 20 82
0 23 84
0 19 87
12 23 77
132 139 131
152 143 109
108 101 67
104 91 57
98 84 51
88 80 47
80 74 38
94 84 49
91 82 50
86 80 48
93 83 49
108 93 54
92 79 48
61 57 28
30 43 7
30 44 7
20 40 0
28 49 0
44 60 11
41 56 6
46 61 0
47 63 13
43 59 9
33 51 0
30 51 0
23 46 0
24 48 0
23 45 0
23 43 0
29 48 0
43 58 10
44 58 7
63 66 27
65 67 27
59 66 26
58 68 26
62 70 28
61 69 29
61 68 31
65 69 34
71 73 37
64 69 31
60 69 30
57 63 26
61 66 28
70 74 39
59 65 29
64 69 32
63 68 32
68 70 34
76 73 40
85 80 47
77 75 42
64 64 35
74 69 44
73 69 39
60 60 24
71 68 31
59 68 20
30 49 25
0 1 45
0 0 43
0 0 41
0 0 42
0 0 42
0 0 42
0 0 42
0 0 42
0 0 42
0 0 42
0 0 42
0 0 42
0 0 42
0 0 42
192 204 221
222 236 254
222 236 254
222 236 254
222 236 254
222 236 254
222 236 254
222 236 254
222 236 254
222 236 254
222 236 254
222 236 254
222 236 254
222 236 254
222 236 254
222 236 254
222 236 254
222 236 254
222 236 254
222 236 254
222 236 254
222 236 254
222 236 254
222 236 254
222 236 254
222 236 254
222 236 254
222 236 254
222 236 254
222 236 254
222 236 254
222 236 254
222 236 254
222 236 254
222 236 254
222 236 254
222 236 254
222 236 254
222 236 254
222 236 254
222 236 254
222 236 254
222 236 254
222 236 254
222 236 254
222 236 254
222 236 254
222 236 254
222 236 254
222 236 254
222 236 254
222 236 254
222 236 254
222 236 254
222 236 254
222 236 254
222 236 254
222 236 254
222 236 254
222 236 254
222 236 254
222 236 254
222 236 254
222 236 254
222 236 254
222 236 254
222 236 254
222 236 254
222 236 254
222 236 254
222 236 254
222 236 254
222 236 254
222 236 254
222 236 254
222 236 254
222 236 254
222 236 254
222 236 254
222 236 254
222 236 254
222 236 254
222 236 254
222 236 254
222 236 254
222 236 254
222 236 254
222 236 254
222 236 254
222 236 254
222 236 254
222 236 254
222 236 254
222 236 254
222 236 254
222 236 254
222 236 254
222 236 254
222 236 254
222 236 254
222 236 254
222 236 254
222 236 254
222 236 254
222 236 254
222 236 254
222 236 254
222 236 254
222 236 254
222 236 254
222 236 254
222 236 254
222 236 254
222 236 254
222 236 254
222 236 254
222 236 254
222 236 254
222 236 254
222 236 254
222 236 254
222 236 254
222 236 254
222 236 254
222 236 254
222 236 254
222 236 254
222 236 254
222 236 254
222 236 254
222 236 254
222 236 254
222 236 254
222 236 254
222 236 254
222 236 254
222 236 254
222 236 254
222 236 254
222 236 254
222 236 254
222 236 254
222 236 254
222 236 254
222 236 254
222 236 254
222 236 254
222 236 254
222 236 254
222 236 254
222 236 254
222 236 254
222 236 254
222 236 254
222 236 254
222 236 254
222 236 254
222 236 254
222 236 254
222 236 254
222 236 254
222 236 254
222 236 254
222 236 254
222 236 254
222 236 254
222 236 254
222 236 254
222 236 254
222 236 254
222 236 254
222 236 254
222 236 254
222 236 254
222 236 254
222 236 254
222 236 254
222 236 254
222 236 254
222 236 254
222 236 254
222 236 254
222 236 254
222 236 254
222 236 254
222 236 254
222 236 254
222 236 254
222 236 254
222 236 254
222 236 254
222 236 254
222 236 254
220 233 252
62 66 82
0 0 42
0 0 42
0 0 42
0 0 42
0 0 41
0 0 41
0 0 42
0 0 42
0 0 42
0 0 42
0 0 42
0 0 42
0 0 42
0 0 42
0 0 42
0 0 42
0 0 42
0 0 42
0 0 42
0 0 42
0 0 42
0 0 42
0 0 42
0 0 42
0 0 42
0 0 42
0 0 42
0 0 42
0 0 42
0 0 42
0 0 42
0 0 42
0 0 42
0 0 42
0 0 42
0 0 42
0 0 42
0 0 42
0 0 42
0 0 42
0 0 42
0 0 42
0 0 42
0 0 42
0 0 42
0 0 42
0 0 42
0 0 42
0 0 42
0 0 42
0 0 42
0 0 42
0 0 42
0 0 42
0 0 42
0 0 42
0 0 42
0 0 42
0 0 42
0 0 42
0 0 42
0 0 42
0 0 42
0 0 42
0 0 42
0 0 42
0 0 42
0 0 42
0 0 42
0 0 42
0 0 42
0 0 42
0 0 42
0 0 42
0 0 42
0 0 42
0 0 42
0 0 42
0 0 42
0 0 42
0 0 42
0 0 42
0 0 42
0 0 42
0 0 42
0 0 42
0 0 42
0 0 42
0 0 42
0 0 42
0 0 42
0 0 42
0 0 42
0 0 42
0 0 42
0 0 42
0 0 42
0 0 42
0 0 42
0 0 42
0 0 42
0 0 42
0 0 42
0 0 42
0 0 42
0 0 42
0 0 42
0 0 42
0 0 42
0 0 43
0 0 45
0 0 45
0 0 45
0 0 45
0 0 44
0 0 44
0 0 44
0 0 44
0 0 44
0 0 44
0 0 45
0 0 45
0 0 44
0 0 47
0 0 55
0 3 61
0 13 72
0 10 77
0 14 70
0 12 74
0 16 78
94 82 88
154 140 122
144 125 95
118 102 71
102 89 51
108 94 54
110 97 59
112 101 63
105 94 57
96 83 43
95 81 41
103 90 56
101 89 56
89 84 38
54 52 22
38 50 7
25 41 0
24 44 0
33 52 0
32 50 0
38 56 0
44 60 8
42 58 9
30 50 0
24 45 0
22 44 0
23 45 0
23 45 0
26 46 0
32 51 0
43 61 11
48 64 16
50 64 13
54 69 20
51 65 17
52 64 17
58 66 23
60 64 26
63 69 31
70 74 39
70 71 38
65 72 37
62 69 33
65 70 34
68 70 32
68 74 36
63 71 33
60 67 30
67 70 33
73 68 35
84 77 44
79 74 40
74 71 39
70 69 40
76 71 46
68 67 38
56 62 22
57 64 19
57 71 16
26 45 34
0 0 42
0 0 41
0 0 42
0 0 42
0 0 42
0 0 42
0 0 42
0 0 42
0 0 42
0 0 42
0 0 42
0 0 42
0 0 42
44 47 65
220 233 252
222 236 254
222 236 254
222 236 254
222 236 254
222 236 254
222 236 254
222 236 254
222 236 254
222 236 254
222 236 254
222 236 254
222 236 254
222 236 254
222 236 254
222 236 254
222 236 254
222 236 254
222 236 254
222 236 254
222 236 254
222 236 254
222 236 254
222 236 254
222 236 254
222 236 254
222 236 254
222 236 254
222 236 254
222 236 254
222 236 254
222 236 254
222 236 254
222 236 254
222 236 254
222 236 254
222 236 254
222 236 254
222 236 254
222 236 254
222 236 254
222 236 254
222 236 254
222 236 254
222 236 254
222 236 254
222 236 254
222 236 254
222 236 254
222 236 254
222 236 254
222 236 254
222 236 254
222 236 254
222 236 254
222 236 254
222 236 254
222 236 254
222 236 254
222 236 254
222 236 254
222 236 254
222 236 254
222 236 254
222 236 254
222 236 254
222 236 254
222 236 254
222 236 254
222 236 254
222 236 254
222 236 254
222 236 254
222 236 254
222 236 254
222 236 254
222 236 254
222 236 254
222 236 254
222 236 254
222 236 254
222 236 254
222 236 254
222 236 254
222 236 254
222 236 254
222 236 254
222 236 254
222 236 254
222 236 254
222 236 254
222 236 254
222 236 254
222 236 254
222 236 254
222 236 254
222 236 254
222 236 254
222 236 254
222 236 254
222 236 254
222 236 254
222 236 254
222 236 254
222 236 254
222 236 254
222 236 254
222 236 254
222 236 254
222 236 254
222 236 254
222 236 254
222 236 254
222 236 254
222 236 254
222 236 254
222 236 254
222 236 254
222 236 254
222 236 254
222 236 254
222 236 254
222 236 254
222 236 254
222 236 254
222 236 254
222 236 254
222 236 254
222 236 254
222 236 254
222 236 254
222 236 254
222 236 254
222 236 254
222 236 254
222 236 254
222 236 254
222 236 254
222 236 254
222 236 254
222 236 254
222 236 254
222 236 254
222 236 254
222 236 254
222 236 254
222 236 254
222 236 254
222 236 254
222 236 254
222 236 254
222 236 254
222 236 254
222 236 254
222 236 254
222 236 254
222 236 254
222 236 254
222 236 254
222 236 254
222 236 254
222 236 254
222 236 254
222 236 254
222 236 254
222 236 254
222 236 254
222 236 254
222 236 254
222 236 254
222 236 254
222 236 254
222 236 254
222 236 254
222 236 254
222 236 254
222 236 254
222 236 254
222 236 254
222 236 254
222 236 254
222 236 254
222 236 254
222 236 254
222 236 254
222 236 254
222 236 254
222 236 254
222 236 254
222 236 254
222 236 254
222 236 254
222 236 254
222 236 254
111 118 132
0 0 42
0 0 42
0 0 42
0 0 42
0 0 42
0 0 42
0 0 40
0 0 42
0 0 42
0 0 42
0 0 42
0 0 42
0 0 42
0 0 42
0 0 42
0 0 42
0 0 42
0 0 42
0 0 42
0 0 42
0 0 42
0 0 42
0 0 42
0 0 42
0 0 42
0 0 42
0 0 42
0 0 42
0 0 42
0 0 42
0 0 42
0 0 42
0 0 42
0 0 42
0 0 42
0 0 42
0 0 42
0 0 42
0 0 42
0 0 42
0 0 42
0 0 42
0 0 42
0 0 42
0 0 42
0 0 42
0 0 42
0 0 42
0 0 42
0 0 42
0 0 42
0 0 42
0 0 42
0 0 42
0 0 42
0 0 42
0 0 42
0 0 42
0 0 42
0 0 42
0 0 42
0 0 42
0 0 42
0 0 42
0 0 42
0 0 42
0 0 42
0 0 42
0 0 42
0 0 42
0 0 42
0 0 42
0 0 42
0 0 42
0 0 42
0 0 42
0 0 42
0 0 42
0 0 42
0 0 42
0 0 42
0 0 42
0 0 42
0 0 42
0 0 42
0 0 42
0 0 42
0 0 42
0 0 42
0 0 42
0 0 42
0 0 42
0 0 42
0 0 42
0 0 42
0 0 42
0 0 42
0 0 42
0 0 42
0 0 42
0 0 42
0 0 42
0 0 42
0 0 42
0 0 42
0 0 42
0 0 42
0 0 42
0 0 42
0 0 42
0 0 43
0 0 45
0 0 45
0 0 45
0 0 42
0 0 42
0 0 42
0 0 42
0 0 42
0 0 42
0 0 47
0 0 45
0 0 44
0 0 48
0 0 54
0 0 63
0 6 76
0 9 79
0 11 65
0 5 61
0 17 79
0 21 89
53 57 98
147 133 112
147 127 82
106 91 62
96 86 57
107 92 54
125 104 61
117 99 59
99 86 48
98 86 48
107 90 53
88 82 71
83 82 61
72 66 33
31 45 12
26 50 0
26 50 0
17 40 0
22 44 0
37 57 0
40 58 0
36 54 0
33 53 0
26 50 0
25 46 0
25 46 0
31 47 0
34 50 0
40 55 0
44 58 8
53 67 18
61 76 27
58 74 27
48 62 17
55 63 21
64 69 29
59 66 28
61 69 31
62 68 31
70 73 38
63 67 33
68 71 35
73 76 41
73 76 39
67 73 34
66 75 36
61 67 29
72 73 35
80 75 42
82 75 42
79 76 42
78 75 43
72 68 38
71 67 38
57 59 26
55 63 23
54 65 14
53 70 12
16 28 38
0 0 40
0 0 41
0 0 42
0 0 42
0 0 42
0 0 42
0 0 42
0 0 42
0 0 42
0 0 42
0 0 42
0 0 42
0 0 42
102 108 122
222 236 254
222 236 254
222 236 254
222 236 254
222 236 254
222 236 254
222 236 254
222 236 254
222 236 254
222 236 254
222 236 254
222 236 254
222 236 254
222 236 254
222 236 254
222 236 254
222 236 254
222 236 254
222 236 254
222 236 254
222 236 254
222 236 254
222 236 254
222 236 254
222 236 254
222 236 254
222 236 254
222 236 254
222 236 254
222 236 254
222 236 254
222 236 254
222 236 254
222 236 254
222 236 254
222 236 254
222 236 254
222 236 254
222 236 254
222 236 254
222 236 254
222 236 254
222 236 254
222 236 254
222 236 254
222 236 254
222 236 254
222 236 254
222 236 254
222 236 254
222 236 254
222 236 254
222 236 254
222 236 254
222 236 254
222 236 254
222 236 254
222 236 254
222 236 254
222 236 254
222 236 254
222 236 254
222 236 254
222 236 254
222 236 254
222 236 254
222 236 254
222 236 254
222 236 254
222 236 254
222 236 254
222 236 254
222 236 254
222 236 254
222 236 254
222 236 254
222 236 254
222 236 254
222 236 254
222 236 254
222 236 254
222 236 254
222 236 254
222 236 254
222 236 254
222 236 254
222 236 254
222 236 254
222 236 254
222 236 254
222 236 254
222 236 254
222 236 254
222 236 254
222 236 254
222 236 254
222 236 254
222 236 254
222 236 254
222 236 254
222 236 254
222 236 254
222 236 254
222 236 254
222 236 254
222 236 254
222 236 254
222 236 254
222 236 254
222 236 254
222 236 254
222 236 254
222 236 254
222 236 254
222 236 254
222 236 254
222 236 254
222 236 254
222 236 254
222 236 254
222 236 254
222 236 254
222 236 254
222 236 254
222 236 254
222 236 254
222 236 254
222 236 254
222 236 254
222 236 254
222 236 254
222 236 254
222 236 254
222 236 254
222 236 254
222 236 254
222 236 254
222 236 254
222 236 254
222 236 254
222 236 254
222 236 254
222 236 254
222 236 254
222 236 254
222 236 254
222 236 254
222 236 254
222 236 254
222 236 254
222 236 254
222 236 254
222 236 254
222 236 254
222 236 254
222 236 254
222 236 254
222 236 254
222 236 254
222 236 254
222 236 254
222 236 254
222 236 254
222 236 254
222 236 254
222 236 254
222 236 254
222 236 254
222 236 254
222 236 254
222 236 254
222 236 254
222 236 254
222 236 254
222 236 254
222 236 254
222 236 254
222 236 254
222 236 254
222 236 254
222 236 254
222 236 254
222 236 254
222 236 254
222 236 254
222 236 254
222 236 254
222 236 254
222 236 254
222 236 254
222 236 254
222 236 254
222 236 254
222 236 254
180 191 208
0 0 42
0 0 42
0 0 42
0 0 42
0 0 42
0 0 40
0 0 40
0 0 42
0 0 42
0 0 42
0 0 42
0 0 42
0 0 42
0 0 42
0 0 42
0 0 42
0 0 42
0 0 42
0 0 42
0 0 42
0 0 42
0 0 42
0 0 42
0 0 42
0 0 42
0 0 42
0 0 42
0 0 42
0 0 42
0 0 42
0 0 42
0 0 42
0 0 42
0 0 42
0 0 42
0 0 42
0 0 42
0 0 42
0 0 42
0 0 42
0 0 42
0 0 42
0 0 42
0 0 42
0 0 42
0 0 42
0 0 42
0 0 42
0 0 42
0 0 42
0 0 42
0 0 42
0 0 42
0 0 42
0 0 42
0 0 42
0 0 42
0 0 42
0 0 42
0 0 42
0 0 42
0 0 42
0 0 42
0 0 42
0 0 42
0 0 42
0 0 42
0 0 42
0 0 42
0 0 42
0 0 42
0 0 42
0 0 42
0 0 42
0 0 42
0 0 42
0 0 42
0 0 42
0 0 42
0 0 42
0 0 42
0 0 42
0 0 42
0 0 42
0 0 42
0 0 42
0 0 42
0 0 42
0 0 42
0 0 42
0 0 42
0 0 42
0 0 42
0 0 42
0 0 42
0 0 42
0 0 42
0 0 42
0 0 42
0 0 42
0 0 42
0 0 42
0 0 42
0 0 42
0 0 42
0 0 42
0 0 42
0 0 42
0 0 42
0 0 42
0 0 42
0 0 43
0 0 43
0 0 42
0 0 42
0 0 42
0 0 42
0 0 42
0 0 42
0 0 42
0 0 45
0 0 45
0 0 47
0 0 49
0 0 52
0 0 60
0 0 67
0 0 64
0 2 64
0 11 72
0 10 65
0 19 77
11 25 79
50 62 98
109 99 97
136 115 82
146 121 89
127 110 83
105 97 72
104 89 60
118 97 61
115 97 62
107 94 59
78 75 77
32 53 99
76 68 66
64 62 33
24 48 0
26 47 0
20 40 0
18 40 0
32 54 0
39 58 0
32 52 0
33 55 0
29 51 0
27 47 0
33 51 0
40 53 0
41 54 0
41 55 0
46 58 0
52 63 15
61 73 28
59 72 29
52 64 22
58 67 27
54 63 23
51 62 19
58 69 28
60 67 28
66 70 35
66 69 37
72 73 40
73 75 40
70 74 38
67 74 33
64 74 32
69 74 31
75 73 36
81 76 44
82 76 45
77 74 40
77 75 42
68 68 34
65 65 33
57 60 26
58 64 25
56 70 16
42 57 17
5 8 45
0 0 41
0 0 41
0 0 42
0 0 42
0 0 42
0 0 42
0 0 42
0 0 42
0 0 42
0 0 42
0 0 42
0 0 42
0 0 42
191 203 220
222 236 254
222 236 254
222 236 254
222 236 254
222 236 254
222 236 254
222 236 254
222 236 254
222 236 254
222 236 254
222 236 254
222 236 254
222 236 254
222 236 254
222 236 254
222 236 254
222 236 254
222 236 254
222 236 254
222 236 254
222 236 254
222 236 254
222 236 254
222 236 254
222 236 254
222 236 254
222 236 254
222 236 254
222 236 254
222 236 254
222 236 254
222 236 254
222 236 254
222 236 254
222 236 254
222 236 254
222 236 254
222 236 254
222 236 254
222 236 254
222 236 254
222 236 254
222 236 254
222 236 254
222 236 254
222 236 254
222 236 254
222 236 254
222 236 254
222 236 254
222 236 254
222 236 254
222 236 254
222 236 254
222 236 254
222 236 254
222 236 254
222 236 254
222 236 254
222 236 254
222 236 254
222 236 254
222 236 254
222 236 254
222 236 254
222 236 254
222 236 254
222 236 254
222 236 254
222 236 254
222 236 254
222 236 254
222 236 254
222 236 254
222 236 254
222 236 254
222 236 254
222 236 254
222 236 254
222 236 254
222 236 254
222 236 254
222 236 254
222 236 254
222 236 254
222 236 254
222 236 254
222 236 254
222 236 254
222 236 254
222 236 254
222 236 254
222 236 254
222 236 254
222 236 254
222 236 254
222 236 254
222 236 254
222 236 254
222 236 254
222 236 254
222 236 254
222 236 254
222 236 254
222 236 254
222 236 254
222 236 254
222 236 254
222 236 254
222 236 254
222 236 254
222 236 254
222 236 254
222 236 254
222 236 254
222 236 254
222 236 254
222 236 254
222 236 254
222 236 254
222 236 254
222 236 254
222 236 254
222 236 254
222 236 254
222 236 254
222 236 254
222 236 254
222 236 254
222 236 254
222 236 254
222 236 254
222 236 254
222 236 254
222 236 254
222 236 254
222 236 254
222 236 254
222 236 254
222 236 254
222 236 254
222 236 254
222 236 254
222 236 254
222 236 254
222 236 254
222 236 254
222 236 254
222 236 254
222 236 254
222 236 254
222 236 254
222 236 254
222 236 254
222 236 254
222 236 254
222 236 254
222 236 254
222 236 254
222 236 254
222 236 254
222 236 254
222 236 254
222 236 254
222 236 254
222 236 254
222 236 254
222 236 254
222 236 254
222 236 254
222 236 254
222 236 254
222 236 254
222 236 254
222 236 254
222 236 254
222 236 254
222 236 254
222 236 254
222 236 254
222 236 254
222 236 254
222 236 254
222 236 254
222 236 254
222 236 254
222 236 254
222 236 254
222 236 254
222 236 254
222 236 254
222 236 254
222 236 254
222 236 254
219 232 251
31 33 55
0 0 42
0 0 42
0 0 42
0 0 42
0 0 42
0 0 40
0 0 41
0 0 42
0 0 42
0 0 42
0 0 42
0 0 42
0 0 42
0 0 42
0 0 42
0 0 42
0 0 42
0 0 42
0 0 42
0 0 42
0 0 42
0 0 42
0 0 42
0 0 42
0 0 42
0 0 42
0 0 42
0 0 42
0 0 42
0 0 42
0 0 42
0 0 42
0 0 42
0 0 42
0 0 42
0 0 42
0 0 42
0 0 42
0 0 42
0 0 42
0 0 42
0 0 42
0 0 42
0 0 42
0 0 42
0 0 42
0 0 42
0 0 42
0 0 42
0 0 42
0 0 42
0 0 42
0 0 42
0 0 42
0 0 42
0 0 42
0 0 42
0 0 42
0 0 42
0 0 42
0 0 42
0 0 42
0 0 42
0 0 42
0 0 42
0 0 42
0 0 42
0 0 42
0 0 42
0 0 42
0 0 42
0 0 42
0 0 42
0 0 42
0 0 42
0 0 42
0 0 42
0 0 42
0 0 42
0 0 42
0 0 42
0 0 42
0 0 42
0 0 42
0 0 42
0 0 42
0 0 42
0 0 42
0 0 42
0 0 42
0 0 42
0 0 42
0 0 42
0 0 42
0 0 42
0 0 42
0 0 42
0 0 42
0 0 42
0 0 42
0 0 42
0 0 42
0 0 42
0 0 42
0 0 42
0 0 42
0 0 42
0 0 42
0 0 42
0 0 42
0 0 42
0 0 42
0 0 42
0 0 42
0 0 42
0 0 42
0 0 42
0 0 42
0 0 42
0 0 45
0 0 46
0 0 48
0 0 50
0 0 52
0 0 53
0 0 49
0 0 54
0 0 66
0 0 63
0 10 70
0 21 84
0 27 88
0 22 84
12 24 82
92 75 87
134 120 107
180 156 124
168 149 119
139 122 95
115 98 68
125 106 71
116 101 62
111 90 56
60 72 82
64 75 72
93 84 43
38 44 12
27 38 1
22 36 2
20 41 0
27 51 0
32 54 0
26 50 0
32 55 2
34 56 5
35 54 0
40 56 0
39 53 0
44 59 0
40 54 0
41 55 0
44 57 6
46 55 12
48 62 16
43 58 11
46 61 14
42 56 12
48 62 17
60 72 28
63 70 30
70 72 38
73 72 40
74 74 39
74 75 41
73 75 39
75 80 39
68 76 34
72 76 34
75 73 37
78 74 41
79 74 43
78 73 41
72 71 37
72 67 36
57 59 25
59 64 28
50 66 14
62 76 18
27 44 39
0 0 42
0 0 42
0 0 41
0 0 42
0 0 42
0 0 42
0 0 42
0 0 42
0 0 42
0 0 42
0 0 42
0 0 42
0 0 42
38 40 60
220 233 252
222 236 254
222 236 254
222 236 254
222 236 254
222 236 254
222 236 254
222 236 254
222 236 254
222 236 254
222 236 254
222 236 254
222 236 254
222 236 254
222 236 254
222 236 254
222 236 254
222 236 254
222 236 254
222 236 254
222 236 254
222 236 254
222 236 254
222 236 254
222 236 254
222 236 254
222 236 254
222 236 254
222 236 254
222 236 254
222 236 254
222 236 254
222 236 254
222 236 254
222 236 254
222 236 254
222 236 254
222 236 254
222 236 254
222 236 254
222 236 254
222 236 254
222 236 254
222 236 254
222 236 254
222 236 254
222 236 254
222 236 254
222 236 254
222 236 254
222 236 254
222 236 254
222 236 254
222 236 254
222 236 254
222 236 254
222 236 254
222 236 254
222 236 254
222 236 254
222 236 254
222 236 254
222 236 254
222 236 254
222 236 254
222 236 254
222 236 254
222 236 254
222 236 254
222 236 254
222 236 254
222 236 254
222 236 254
222 236 254
222 236 254
222 236 254
222 236 254
222 236 254
222 236 254
222 236 254
222 236 254
222 236 254
222 236 254
222 236 254
222 236 254
222 236 254
222 236 254
222 236 254
222 236 254
222 236 254
222 236 254
222 236 254
222 236 254
222 236 254
222 236 254
222 236 254
222 236 254
222 236 254
222 236 254
222 236 254
222 236 254
222 236 254
222 236 254
222 236 254
222 236 254
222 236 254
222 236 254
222 236 254
222 236 254
222 236 254
222 236 254
222 236 254
222 236 254
222 236 254
222 236 254
222 236 254
222 236 254
222 236 254
222 236 254
222 236 254
222 236 254
222 236 254
222 236 254
222 236 254
222 236 254
222 236 254
222 236 254
222 236 254
222 236 254
222 236 254
222 236 254
222 236 254
222 236 254
222 236 254
222 236 254
222 236 254
222 236 254
222 236 254
222 236 254
222 236 254
222 236 254
222 236 254
222 236 254
222 236 254
222 236 254
222 236 254
222 236 254
222 236 254
222 236 254
222 236 254
222 236 254
222 236 254
222 236 254
222 236 254
222 236 254
222 236 254
222 236 254
222 236 254
222 236 254
222 236 254
222 236 254
222 236 254
222 236 254
222 236 254
222 236 254
222 236 254
222 236 254
222 236 254
222 236 254
222 236 254
222 236 254
222 236 254
222 236 254
222 236 254
222 236 254
222 236 254
222 236 254
222 236 254
222 236 254
222 236 254
222 236 254
222 236 254
222 236 254
222 236 254
222 236 254
222 236 254
222 236 254
222 236 254
222 236 254
222 236 254
222 236 254
222 236 254
222 236 254
222 236 254
222 236 254
222 236 254
122 129 144
0 0 42
0 0 42
0 0 42
0 0 42
0 0 42
0 0 41
0 0 39
0 0 42
0 0 42
0 0 42
0 0 42
0 0 42
0 0 42
0 0 42
0 0 42
0 0 42
0 0 42
0 0 42
0 0 42
0 0 42
0 0 42
0 0 42
0 0 42
0 0 42
0 0 42
0 0 42
0 0 42
0 0 42
0 0 42
0 0 42
0 0 42
0 0 42
0 0 42
0 0 42
0 0 42
0 0 42
0 0 42
0 0 42
0 0 42
0 0 42
0 0 42
0 0 42
0 0 42
0 0 42
0 0 42
0 0 42
0 0 42
0 0 42
0 0 42
0 0 42
0 0 42
0 0 42
0 0 42
0 0 42
0 0 42
0 0 42
0 0 42
0 0 42
0 0 42
0 0 42
0 0 42
0 0 42
0 0 42
0 0 42
0 0 42
0 0 42
0 0 42
0 0 42
0 0 42
0 0 42
0 0 42
0 0 42
0 0 42
0 0 42
0 0 42
0 0 42
0 0 42
0 0 42
0 0 42
0 0 42
0 0 42
0 0 42
0 0 42
0 0 42
0 0 42
0 0 42
0 0 42
0 0 42
0 0 42
0 0 42
0 0 42
0 0 42
0 0 42
0 0 42
0 0 42
0 0 42
0 0 42
0 0 42
0 0 42
0 0 42
0 0 42
0 0 42
0 0 42
0 0 42
0 0 42
0 0 42
0 0 42
0 0 40
0 0 42
0 0 42
0 0 42
0 0 42
0 0 42
0 0 42
0 0 42
0 0 42
0 0 42
0 0 42
0 0 42
0 0 45
0 0 45
0 0 47
0 0 49
0 0 51
0 0 58
0 0 58
0 0 63
0 0 61
0 0 50
0 0 66
0 15 79
0 19 80
0 15 70
0 5 68
6 11 64
31 37 80
93 102 116
147 137 120
183 160 123
148 136 111
122 106 71
130 114 78
120 100 58
120 96 72
114 105 68
122 101 64
69 62 33
54 53 23
52 59 29
37 49 17
27 49 0
28 55 0
29 53 0
46 68 11
50 70 14
52 65 14
47 57 7
39 54 0
41 57 0
37 52 0
34 51 0
40 55 0
36 47 0
36 49 4
38 54 10
42 58 5
48 59 20
57 65 25
65 70 31
74 74 41
76 76 43
74 75 42
70 72 39
79 76 44
80 77 45
74 77 38
70 76 34
70 74 33
77 75 40
74 71 38
79 75 40
74 69 36
74 70 36
62 61 29
53 56 22
53 58 19
62 76 21
64 75 16
15 26 51
0 0 43
0 0 42
0 0 42
0 0 42
0 0 42
0 0 42
0 0 42
0 0 42
0 0 42
0 0 42
0 0 42
0 0 42
0 0 42
137 145 160
222 236 254
222 236 254
222 236 254
222 236 254
222 236 254
222 236 254
222 236 254
222 236 254
222 236 254
222 236 254
222 236 254
222 236 254
222 236 254
222 236 254
222 236 254
222 236 254
222 236 254
222 236 254
222 236 254
222 236 254
222 236 254
222 236 254
222 236 254
222 236 254
222 236 254
222 236 254
222 236 254
222 236 254
222 236 254
222 236 254
222 236 254
222 236 254
222 236 254
222 236 254
222 236 254
222 236 254
222 236 254
222 236 254
222 236 254
222 236 254
222 236 254
222 236 254
222 236 254
222 236 254
222 236 254
222 236 254
222 236 254
222 236 254
222 236 254
222 236 254
222 236 254
222 236 254
222 236 254
222 236 254
222 236 254
222 236 254
222 236 254
222 236 254
222 236 254
222 236 254
222 236 254
222 236 254
222 236 254
222 236 254
222 236 254
222 236 254
222 236 254
222 236 254
222 236 254
222 236 254
222 236 254
222 236 254
222 236 254
222 236 254
222 236 254
222 236 254
222 236 254
222 236 254
222 236 254
222 236 254
222 236 254
222 236 254
222 236 254
222 236 254
222 236 254
222 236 254
222 236 254
222 236 254
222 236 254
222 236 254
222 236 254
222 236 254
222 236 254
222 236 254
222 236 254
222 236 254
222 236 254
222 236 254
222 236 254
222 236 254
222 236 254
222 236 254
222 236 254
222 236 254
222 236 254
222 236 254
222 236 254
222 236 254
222 236 254
222 236 254
222 236 254
222 236 254
222 236 254
222 236 254
222 236 254
222 236 254
222 236 254
222 236 254
222 236 254
222 236 254
222 236 254
222 236 254
222 236 254
222 236 254
222 236 254
222 236 254
222 236 254
222 236 254
222 236 254
222 236 254
222 236 254
222 236 254
222 236 254
222 236 254
222 236 254
222 236 254
222 236 254
222 236 254
222 236 254
222 236 254
222 236 254
222 236 254
222 236 254
222 236 254
222 236 254
222 236 254
222 236 254
222 236 254
222 236 254
222 236 254
222 236 254
222 236 254
222 236 254
222 236 254
222 236 254
222 236 254
222 236 254
222 236 254
222 236 254
222 236 254
222 236 254
222 236 254
222 236 254
222 236 254
222 236 254
222 236 254
222 236 254
222 236 254
222 236 254
222 236 254
222 236 254
222 236 254
222 236 254
222 236 254
222 236 254
222 236 254
222 236 254
222 236 254
222 236 254
222 236 254
222 236 254
222 236 254
222 236 254
222 236 254
222 236 254
222 236 254
222 236 254
222 236 254
222 236 254
222 236 254
222 236 254
222 236 254
222 236 254
222 236 254
222 236 254
222 236 254
189 200 217
0 0 42
0 0 42
0 0 42
0 0 42
0 0 42
0 0 41
0 0 43
0 0 42
0 0 42
0 0 42
0 0 42
0 0 42
0 0 42
0 0 42
0 0 42
0 0 42
0 0 42
0 0 42
0 0 42
0 0 42
0 0 42
0 0 42
0 0 42
0 0 42
0 0 42
0 0 42
0 0 42
0 0 42
0 0 42
0 0 42
0 0 42
0 0 42
0 0 42
0 0 42
0 0 42
0 0 42
0 0 42
0 0 42
0 0 42
0 0 42
0 0 42
0 0 42
0 0 42
0 0 42
0 0 42
0 0 42
0 0 42
0 0 42
0 0 42
0 0 42
0 0 42
0 0 42
0 0 42
0 0 42
0 0 42
0 0 42
0 0 42
0 0 42
0 0 42
0 0 42
0 0 42
0 0 42
0 0 42
0 0 42
0 0 42
0 0 42
0 0 42
0 0 42
0 0 42
0 0 42
0 0 42
0 0 42
0 0 42
0 0 42
0 0 42
0 0 42
0 0 42
0 0 42
0 0 42
0 0 42
0 0 42
0 0 42
0 0 42
0 0 42
0 0 42
0 0 42
0 0 42
0 0 42
0 0 42
0 0 42
0 0 42
0 0 42
0 0 42
0 0 42
0 0 42
0 0 42
0 0 42
0 0 42
0 0 42
0 0 42
0 0 42
0 0 42
0 0 42
0 0 42
0 0 42
0 0 42
0 0 42
0 0 41
0 0 42
0 0 42
0 0 42
0 0 42
0 0 42
0 0 42
0 0 42
0 0 42
0 0 42
0 0 42
0 0 42
0 0 43
0 0 45
0 0 45
0 0 45
0 0 45
0 0 47
0 0 50
0 0 53
0 0 53
0 0 53
0 0 54
0 3 65
0 12 77
0 7 70
0 0 64
0 0 59
0 9 67
0 30 91
28 54 105
120 119 118
185 159 137
150 124 97
121 104 68
131 108 72
141 114 74
141 117 79
141 117 85
122 102 71
90 78 45
88 80 52
76 71 43
46 53 16
26 48 0
32 54 0
49 70 14
61 77 24
67 77 28
59 72 25
41 59 0
39 56 0
34 51 0
33 49 0
33 50 0
33 49 0
24 40 0
40 56 14
57 68 27
62 70 34
57 64 27
68 73 37
70 73 36
71 71 38
71 73 39
72 73 40
77 76 44
76 70 39
76 75 42
73 77 39
68 72 34
78 75 39
79 76 40
78 75 40
77 71 37
71 67 34
52 58 24
57 61 27
67 67 28
69 77 23
40 51 34
0 6 50
0 0 43
0 0 41
0 0 42
0 0 42
0 0 42
0 0 42
0 0 42
0 0 42
0 0 42
0 0 42
0 0 42
0 0 42
0 0 42
185 196 213
222 236 254
222 236 254
222 236 254
222 236 254
222 236 254
222 236 254
222 236 254
222 236 254
222 236 254
222 236 254
222 236 254
222 236 254
222 236 254
222 236 254
222 236 254
222 236 254
222 236 254
222 236 254
222 236 254
222 236 254
222 236 254
222 236 254
222 236 254
222 236 254
222 236 254
222 236 254
222 236 254
222 236 254
222 236 254
222 236 254
222 236 254
222 236 254
222 236 254
222 236 254
222 236 254
222 236 254
222 236 254
222 236 254
222 236 254
222 236 254
222 236 254
222 236 254
222 236 254
222 236 254
222 236 254
222 236 254
222 236 254
222 236 254
222 236 254
222 236 254
222 236 254
222 236 254
222 236 254
222 236 254
222 236 254
222 236 254
222 236 254
222 236 254
222 236 254
222 236 254
222 236 254
222 236 254
222 236 254
222 236 254
222 236 254
222 236 254
222 236 254
222 236 254
222 236 254
222 236 254
222 236 254
222 236 254
222 236 254
222 236 254
222 236 254
222 236 254
222 236 254
222 236 254
222 236 254
222 236 254
222 236 254
222 236 254
222 236 254
222 236 254
222 236 254
222 236 254
222 236 254
222 236 254
222 236 254
222 236 254
222 236 254
222 236 254
222 236 254
222 236 254
222 236 254
222 236 254
222 236 254
222 236 254
222 236 254
222 236 254
222 236 254
222 236 254
222 236 254
222 236 254
222 236 254
222 236 254
222 236 254
222 236 254
222 236 254
222 236 254
222 236 254
222 236 254
222 236 254
222 236 254
222 236 254
222 236 254
222 236 254
222 236 254
222 236 254
222 236 254
222 236 254
222 236 254
222 236 254
222 236 254
222 236 254
222 236 254
222 236 254
222 236 254
222 236 254
222 236 254
222 236 254
222 236 254
222 236 254
222 236 254
222 236 254
222 236 254
222 236 254
222 236 254
222 236 254
222 236 254
222 236 254
222 236 254
222 236 254
222 236 254
222 236 254
222 236 254
222 236 254
222 236 254
222 236 254
222 236 254
222 236 254
222 236 254
222 236 254
222 236 254
222 236 254
222 236 254
222 236 254
222 236 254
222 236 254
222 236 254
222 236 254
222 236 254
222 236 254
222 236 254
222 236 254
222 236 254
222 236 254
222 236 254
222 236 254
222 236 254
222 236 254
222 236 254
222 236 254
222 236 254
222 236 254
222 236 254
222 236 254
222 236 254
222 236 254
222 236 254
222 236 254
222 236 254
222 236 254
222 236 254
222 236 254
222 236 254
222 236 254
222 236 254
222 236 254
222 236 254
222 236 254
222 236 254
222 236 254
222 236 254
222 236 254
222 236 254
220 233 252
70 74 90
0 0 42
0 0 42
0 0 42
0 0 42
0 0 41
0 0 42
0 0 42
0 0 42
0 0 42
0 0 42
0 0 42
0 0 42
0 0 42
0 0 42
0 0 42
0 0 42
0 0 42
0 0 42
0 0 42
0 0 42
0 0 42
0 0 42
0 0 42
0 0 42
0 0 42
0 0 42
0 0 42
0 0 42
0 0 42
0 0 42
0 0 42
0 0 42
0 0 42
0 0 42
0 0 42
0 0 42
0 0 42
0 0 42
0 0 42
0 0 42
0 0 42
0 0 42
0 0 42
0 0 42
0 0 42
0 0 42
0 0 42
0 0 42
0 0 42
0 0 42
0 0 42
0 0 42
0 0 42
0 0 42
0 0 42
0 0 42
0 0 42
0 0 42
0 0 42
0 0 42
0 0 42
0 0 42
0 0 42
0 0 42
0 0 42
0 0 42
0 0 42
0 0 42
0 0 42
0 0 42
0 0 42
0 0 42
0 0 42
0 0 42
0 0 42
0 0 42
0 0 42
0 0 42
0 0 42
0 0 42
0 0 42
0 0 42
0 0 42
0 0 42
0 0 42
0 0 42
0 0 42
0 0 42
0 0 42
0 0 42
0 0 42
0 0 42
0 0 42
0 0 42
0 0 42
0 0 42
0 0 42
0 0 42
0 0 42
0 0 42
0 0 42
0 0 42
0 0 42
0 0 42
0 0 42
0 0 42
0 0 42
0 0 42
0 0 42
0 0 42
0 0 42
0 0 42
0 0 42
0 0 42
0 0 42
0 0 42
0 0 42
0 0 42
0 0 42
0 0 44
0 0 45
0 0 45
0 0 45
0 0 46
0 0 47
0 0 49
0 0 50
0 0 52
0 0 52
0 0 57
0 0 64
0 0 60
0 0 61
0 0 57
0 8 64
0 15 77
0 24 83
17 30 88
135 122 107
172 139 101
140 116 85
135 109 74
143 119 82
148 125 89
150 123 92
156 132 96
129 110 72
108 87 60
108 89 66
85 75 51
58 61 27
38 52 7
36 52 0
66 79 31
60 72 24
50 66 17
41 59 0
41 58 0
38 53 0
33 48 0
30 49 0
31 51 0
30 51 0
36 51 13
56 62 30
62 68 35
61 67 32
67 73 35
62 67 31
71 70 37
72 74 40
70 72 39
75 74 42
77 71 42
72 70 36
70 72 35
68 70 33
76 74 37
76 74 37
77 74 37
80 73 38
72 71 37
47 58 22
65 66 28
75 71 35
59 68 20
18 27 50
0 0 46
0 0 41
0 0 42
0 0 42
0 0 42
0 0 42
0 0 42
0 0 42
0 0 42
0 0 42
0 0 42
0 0 42
0 0 42
49 52 70
217 230 248
222 236 254
222 236 254
222 236 254
222 236 254
222 236 254
222 236 254
222 236 254
222 236 254
222 236 254
222 236 254
222 236 254
222 236 254
222 236 254
222 236 254
222 236 254
222 236 254
222 236 254
222 236 254
222 236 254
222 236 254
222 236 254
222 236 254
222 236 254
222 236 254
222 236 254
222 236 254
222 236 254
222 236 254
222 236 254
222 236 254
222 236 254
222 236 254
222 236 254
222 236 254
222 236 254
222 236 254
222 236 254
222 236 254
222 236 254
222 236 254
222 236 254
222 236 254
222 236 254
222 236 254
222 236 254
222 236 254
222 236 254
222 236 254
222 236 254
222 236 254
222 236 254
222 236 254
222 236 254
222 236 254
222 236 254
222 236 254
222 236 254
222 236 254
222 236 254
222 236 254
222 236 254
222 236 254
222 236 254
222 236 254
222 236 254
222 236 254
222 236 254
222 236 254
222 236 254
222 236 254
222 236 254
222 236 254
222 236 254
222 236 254
222 236 254
222 236 254
222 236 254
222 236 254
222 236 254
222 236 254
222 236 254
222 236 254
222 236 254
222 236 254
222 236 254
222 236 254
222 236 254
222 236 254
222 236 254
222 236 254
222 236 254
222 236 254
222 236 254
222 236 254
222 236 254
222 236 254
222 236 254
222 236 254
222 236 254
222 236 254
222 236 254
222 236 254
222 236 254
222 236 254
222 236 254
222 236 254
222 236 254
222 236 254
222 236 254
222 236 254
222 236 254
222 236 254
222 236 254
222 236 254
222 236 254
222 236 254
222 236 254
222 236 254
222 236 254
222 236 254
222 236 254
222 236 254
222 236 254
222 236 254
222 236 254
222 236 254
222 236 254
222 236 254
222 236 254
222 236 254
222 236 254
222 236 254
222 236 254
222 236 254
222 236 254
223 236 254
223 236 254
223 236 254
223 236 254
223 236 254
223 236 254
223 236 254
223 236 254
223 236 254
223 236 254
223 236 254
223 236 254
223 236 254
223 236 254
223 236 254
223 236 254
223 236 254
223 236 254
223 236 254
223 236 254
223 236 254
223 236 254
223 236 254
223 236 254
223 236 254
223 236 254
223 236 254
223 236 254
223 236 254
223 236 254
223 236 254
223 236 254
223 236 254
223 236 254
223 236 254
223 236 254
223 236 254
223 236 254
223 236 254
223 236 254
223 236 254
223 236 254
223 236 254
223 236 254
223 236 254
223 236 254
223 236 254
223 236 254
223 236 254
223 236 254
223 236 254
223 236 254
223 236 254
223 236 254
223 236 254
223 236 254
223 236 254
223 236 254
223 236 254
223 236 254
223 236 254
223 236 254
157 167 182
0 0 42
0 0 42
0 0 42
0 0 42
0 0 42
0 0 41
0 0 41
0 0 42
0 0 42
0 0 42
0 0 42
0 0 42
0 0 42
0 0 42
0 0 42
0 0 42
0 0 42
0 0 42
0 0 42
0 0 42
0 0 42
0 0 42
0 0 42
0 0 42
0 0 42
0 0 42
0 0 42
0 0 42
0 0 42
0 0 42
0 0 42
0 0 42
0 0 42
0 0 42
0 0 42
0 0 42
0 0 42
0 0 42
0 0 42
0 0 42
0 0 42
0 0 42
0 0 42
0 0 42
0 0 42
0 0 42
0 0 42
0 0 42
0 0 42
0 0 42
0 0 42
0 0 42
0 0 42
0 0 42
0 0 42
0 0 42
0 0 42
0 0 42
0 0 42
0 0 42
0 0 42
0 0 42
0 0 42
0 0 42
0 0 42
0 0 42
0 0 42
0 0 42
0 0 42
0 0 42
0 0 42
0 0 42
0 0 42
0 0 42
0 0 42
0 0 42
0 0 42
0 0 42
0 0 42
0 0 42
0 0 42
0 0 42
0 0 42
0 0 42
0 0 42
0 0 42
0 0 42
0 0 42
0 0 42
0 0 42
0 0 42
0 0 42
0 0 42
0 0 42
0 0 42
0 0 42
0 0 42
0 0 42
0 0 42
0 0 42
0 0 42
0 0 42
0 0 42
0 0 42
0 0 42
0 0 42
0 0 42
0 0 42
0 0 42
0 0 42
0 0 42
0 0 42
0 0 42
0 0 42
0 0 42
0 0 42
0 0 42
0 0 42
0 0 42
0 0 42
0 0 44
0 0 45
0 0 45
0 0 47
0 0 47
0 0 48
0 0 50
0 0 52
0 0 52
0 0 54
0 0 55
0 0 54
0 0 60
0 0 62
0 3 65
0 2 58
0 3 59
0 3 56
20 29 76
120 113 108
179 152 123
142 114 80
131 108 65
140 117 79
149 119 81
171 139 101
131 107 70
112 96 64
89 77 45
70 64 32
66 66 32
50 60 17
44 56 10
61 70 25
49 60 12
42 59 8
39 56 0
44 60 8
45 60 13
37 53 3
31 51 0
31 51 0
33 51 0
37 46 15
57 60 32
60 65 30
61 69 32
70 77 38
71 74 37
76 76 41
75 76 41
72 74 39
72 71 37
70 68 36
73 72 36
76 76 40
71 70 34
76 74 37
75 73 37
78 76 40
82 76 42
67 67 32
49 57 20
68 68 30
65 64 27
48 61 44
0 16 56
0 0 43
0 0 42
0 0 42
0 0 42
0 0 42
0 0 42
0 0 42
0 0 42
0 0 42
0 0 42
0 0 42
0 0 42
0 0 42
149 158 173
223 236 254
223 236 254
223 236 254
223 236 254
223 236 254
223 236 254
223 236 254
223 236 254
223 236 254
223 236 254
223 236 254
223 236 254
223 236 254
223 236 254
223 236 254
223 236 254
223 236 254
223 236 254
223 236 254
223 236 254
223 236 254
223 236 254
223 236 254
223 236 254
223 236 254
223 236 254
223 236 254
223 236 254
223 236 254
223 236 254
223 236 254
223 236 254
223 236 254
223 236 254
223 236 254
223 236 254
223 236 254
223 236 254
223 236 254
223 236 254
223 236 254
223 236 254
223 236 254
223 236 254
223 236 254
223 236 254
223 236 254
223 236 254
223 236 254
223 236 254
223 236 254
223 236 254
223 236 254
223 236 254
223 236 254
223 236 254
223 236 254
223 236 254
223 236 254
223 236 254
223 236 254
222 236 254
223 236 254
222 236 254
222 236 254
223 236 254
222 236 254
222 236 254
222 236 254
222 236 254
222 236 254
222 236 254
222 236 254
222 236 254
222 236 254
222 236 254
222 236 254
222 236 254
222 236 254
222 236 254
222 236 254
222 236 254
222 236 254
222 236 254
222 236 254
222 236 254
222 236 254
222 236 254
222 236 254
222 236 254
222 236 254
222 236 254
222 236 254
222 236 254
222 236 254
222 236 254
222 236 254
222 236 254
222 236 254
223 236 254
223 236 254
223 236 254
223 236 254
223 236 254
223 236 254
223 236 254
223 236 254
223 236 254
223 236 254
223 236 254
223 236 254
223 236 254
223 236 254
223 236 254
223 236 254
223 236 254
223 236 254
223 236 254
223 236 254
223 236 254
223 236 254
223 236 254
223 236 254
223 236 254
223 236 254
223 236 254
223 236 254
223 236 254
223 236 254
223 236 254
223 236 254
223 236 254
223 236 254
223 236 254
223 236 254
223 236 254
223 236 254
223 236 254
223 236 254
223 236 254
223 236 254
223 236 254
223 236 254
223 236 254
223 236 254
223 236 254
223 236 254
223 236 254
223 236 254
223 236 254
223 236 254
223 236 254
223 236 254
223 236 254
223 236 254
223 236 254
223 236 254
223 236 254
223 236 254
223 236 254
223 236 254
223 236 254
223 236 254
223 236 254
223 236 254
223 236 254
223 236 254
223 236 254
223 236 254
223 236 254
223 236 254
223 236 254
223 236 254
223 236 254
223 236 254
223 236 254
223 236 254
223 236 254
223 236 254
223 236 254
223 236 254
223 236 254
223 236 254
223 236 254
223 236 254
223 236 254
223 236 254
223 236 254
223 236 254
223 236 254
223 236 254
223 236 254
223 236 254
223 236 254
223 236 254
223 236 254
223 236 254
223 236 254
202 214 231
0 0 42
0 0 42
0 0 42
0 0 42
0 0 42
0 0 42
0 0 42
0 0 42
0 0 42
0 0 42
0 0 42
0 0 42
0 0 42
0 0 42
0 0 42
0 0 42
0 0 42
0 0 42
0 0 42
0 0 42
0 0 42
0 0 42
0 0 42
0 0 42
0 0 42
0 0 42
0 0 42
0 0 42
0 0 42
0 0 42
0 0 42
0 0 42
0 0 42
0 0 42
0 0 42
0 0 42
0 0 42
0 0 42
0 0 42
0 0 42
0 0 42
0 0 42
0 0 42
0 0 42
0 0 42
0 0 42
0 0 42
0 0 42
0 0 42
0 0 42
0 0 42
0 0 42
0 0 42
0 0 42
0 0 42
0 0 42
0 0 42
0 0 42
0 0 42
0 0 42
0 0 42
0 0 42
0 0 42
0 0 42
0 0 42
0 0 42
0 0 42
0 0 42
0 0 42
0 0 42
0 0 42
0 0 42
0 0 42
0 0 42
0 0 42
0 0 42
0 0 42
0 0 42
0 0 42
0 0 42
0 0 42
0 0 42
0 0 42
0 0 42
0 0 42
0 0 42
0 0 42
0 0 42
0 0 42
0 0 42
0 0 42
0 0 42
0 0 42
0 0 42
0 0 42
0 0 42
0 0 42
0 0 42
0 0 42
0 0 42
0 0 42
0 0 42
0 0 42
0 0 42
0 0 42
0 0 42
0 0 42
0 0 42
0 0 42
0 0 42
0 0 42
0 0 42
0 0 42
0 0 42
0 0 42
0 0 42
0 0 42
0 0 42
0 0 42
0 0 42
0 0 43
0 0 45
0 0 45
0 0 42
0 0 45
0 0 47
0 0 48
0 0 49
0 0 50
0 0 54
0 0 55
0 0 57
0 0 61
0 0 64
0 0 58
0 0 54
0 0 54
0 0 58
0 0 60
67 65 96
170 145 117
138 112 83
145 124 78
165 143 101
173 143 96
138 128 69
123 112 62
114 99 62
109 92 60
79 72 44
71 66 35
40 48 11
51 59 18
62 63 24
53 60 19
49 61 14
46 59 3
46 60 10
46 61 15
40 58 7
31 52 0
39 53 0
47 58 17
57 64 28
64 69 35
59 67 31
60 71 30
67 74 35
77 78 42
76 77 41
74 76 40
74 76 40
70 74 38
71 72 36
73 73 35
77 75 37
78 77 41
76 75 38
73 71 35
77 75 37
73 71 34
57 59 22
54 57 21
61 65 29
62 63 21
25 34 50
0 0 42
0 0 42
0 0 42
0 0 42
0 0 42
0 0 42
0 0 42
0 0 42
0 0 42
0 0 42
0 0 42
0 0 42
0 0 42
0 0 42
203 215 232
223 236 254
223 236 254
223 236 254
223 236 254
223 236 254
223 236 254
223 236 254
223 236 254
223 236 254
223 236 254
223 236 254
223 236 254
223 236 254
223 236 254
223 236 254
223 236 254
223 236 254
223 236 254
223 236 254
223 236 254
223 236 254
223 236 254
223 236 254
223 236 254
223 236 254
223 236 254
223 236 254
223 236 254
223 236 254
223 236 254
223 236 254
223 236 254
223 236 254
223 236 254
223 236 254
223 236 254
223 236 254
223 236 254
223 236 254
223 236 254
223 236 254
223 236 254
223 236 254
223 236 254
223 236 254
223 236 254
223 236 254
223 236 254
223 236 254
223 236 254
223 236 254
223 236 254
223 236 254
223 236 254
223 236 254
223 236 254
223 236 254
223 236 254
223 236 254
223 236 254
223 236 254
223 236 254
223 236 254
223 236 254
223 236 254
223 236 254
223 236 254
223 236 254
223 236 254
223 236 254
223 236 254
223 236 254
223 236 254
223 236 254
223 236 254
223 236 254
223 236 254
223 236 254
223 236 254
223 236 254
223 236 254
223 236 254
223 236 254
223 236 254
223 236 254
223 236 254
223 236 254
223 236 254
223 236 254
223 236 254
223 236 254
223 236 254
223 236 254
223 236 254
223 236 254
223 236 254
223 236 254
223 236 254
223 236 254
223 236 254
223 236 254
223 236 254
223 236 254
223 236 254
223 236 254
223 236 254
223 236 254
223 236 254
223 236 254
223 236 254
223 236 254
223 236 254
223 236 254
223 236 254
223 236 254
223 236 254
223 236 254
223 236 254
223 236 254
223 236 254
223 236 254
223 236 254
223 236 254
223 236 254
223 236 254
223 236 254
223 236 254
223 236 254
223 236 254
223 236 254
223 236 254
223 236 254
223 236 254
223 236 254
223 236 254
223 236 254
223 236 254
223 236 254
223 236 254
223 236 254
223 236 254
223 236 254
223 236 254
223 236 254
223 236 254
223 236 254
223 236 254
223 236 254
223 236 254
223 236 254
223 236 254
223 236 254
223 236 254
223 236 254
223 236 254
223 236 254
223 236 254
223 236 254
223 236 254
223 236 254
223 236 254
223 236 254
223 236 254
223 236 254
223 236 254
223 236 254
223 236 254
223 236 254
223 236 254
223 236 254
223 236 254
223 236 254
223 236 254
223 236 254
223 236 254
223 236 254
223 236 254
223 236 254
223 236 254
223 236 254
223 236 254
223 236 254
223 236 254
223 236 254
223 236 254
223 236 254
223 236 254
223 236 254
223 236 254
223 236 254
223 236 254
223 236 254
223 236 254
223 236 254
223 236 254
223 236 254
223 236 254
223 236 254
223 236 254
109 115 130
0 0 42
0 0 42
0 0 42
0 0 42
0 0 42
0 0 42
0 0 42
0 0 42
0 0 42
0 0 42
0 0 42
0 0 42
0 0 42
0 0 42
0 0 42
0 0 42
0 0 42
0 0 42
0 0 42
0 0 42
0 0 42
0 0 42
0 0 42
0 0 42
0 0 42
0 0 42
0 0 42
0 0 42
0 0 42
0 0 42
0 0 42
0 0 42
0 0 42
0 0 42
0 0 42
0 0 42
0 0 42
0 0 42
0 0 42
0 0 42
0 0 42
0 0 42
0 0 42
0 0 42
0 0 42
0 0 42
0 0 42
0 0 42
0 0 42
0 0 42
0 0 42
0 0 42
0 0 42
0 0 42
0 0 42
0 0 42
0 0 42
0 0 42
0 0 42
0 0 42
0 0 42
0 0 42
0 0 42
0 0 42
0 0 42
0 0 42
0 0 42
0 0 42
0 0 42
0 0 42
0 0 42
0 0 42
0 0 42
0 0 42
0 0 42
0 0 42
0 0 42
0 0 42
0 0 42
0 0 42
0 0 42
0 0 42
0 0 42
0 0 42
0 0 42
0 0 42
0 0 42
0 0 42
0 0 42
0 0 42
0 0 42
0 0 42
0 0 42
0 0 42
0 0 42
0 0 42
0 0 42
0 0 42
0 0 42
0 0 42
0 0 42
0 0 42
0 0 42
0 0 42
0 0 42
0 0 42
0 0 42
0 0 42
0 0 42
0 0 42
0 0 42
0 0 42
0 0 42
0 0 42
0 0 42
0 0 42
0 0 42
0 0 42
0 0 42
0 0 42
0 0 44
0 0 45
0 0 42
0 0 44
0 0 45
0 0 47
0 0 48
0 0 50
0 0 53
0 0 54
0 0 55
0 0 54
0 0 54
0 0 52
0 0 51
0 0 50
0 0 56
0 0 55
64 56 80
147 128 104
123 96 76
137 113 67
134 109 64
170 143 99
165 151 98
140 123 84
134 112 80
121 100 68
104 92 62
77 71 38
42 52 10
56 63 23
66 63 28
56 61 21
53 62 15
50 62 14
45 60 11
41 58 11
37 57 1
38 55 7
56 67 25
57 67 28
48 57 13
46 54 16
52 61 21
64 72 32
72 75 38
73 75 41
74 77 39
76 79 40
75 79 41
73 76 41
75 78 40
75 75 38
69 70 32
67 70 31
72 71 35
73 74 37
66 70 30
57 61 24
55 60 24
59 62 29
55 63 27
40 48 37
0 1 45
0 0 42
0 0 42
0 0 42
0 0 42
0 0 42
0 0 42
0 0 42
0 0 42
0 0 42
0 0 42
0 0 42
0 0 42
0 0 42
115 122 137
223 236 254
223 236 254
223 236 254
223 236 254
223 236 254
223 236 254
223 236 254
223 236 254
223 236 254
223 236 254
223 236 254
223 236 254
223 236 254
223 236 254
223 236 254
223 236 254
223 236 254
223 236 254
223 236 254
223 236 254
223 236 254
223 236 254
223 236 254
223 236 254
223 236 254
223 236 254
223 236 254
223 236 254
223 236 254
223 236 254
223 236 254
223 236 254
223 236 254
223 236 254
223 236 254
223 236 254
223 236 254
223 236 254
223 236 254
223 236 254
223 236 254
223 236 254
223 236 254
223 236 254
223 236 254
223 236 254
223 236 254
223 236 254
223 236 254
223 236 254
223 236 254
223 236 254
223 236 254
223 236 254
223 236 254
223 236 254
223 236 254
223 236 254
223 236 254
223 236 254
223 236 254
223 236 254
223 236 254
223 236 254
223 236 254
223 236 254
223 236 254
223 236 254
223 236 254
223 236 254
223 236 254
223 236 254
223 236 254
223 236 254
223 236 254
223 236 254
223 236 254
223 236 254
223 236 254
223 236 254
223 236 254
223 236 254
223 236 254
223 236 254
223 236 254
223 236 254
223 236 254
223 236 254
223 236 254
223 236 254
223 236 254
223 236 254
223 236 254
223 236 254
223 236 254
223 236 254
223 236 254
223 236 254
223 236 254
223 236 254
223 236 254
223 236 254
223 236 254
223 236 254
223 236 254
223 236 254
223 236 254
223 236 254
223 236 254
223 236 254
223 236 254
223 236 254
223 236 254
223 236 254
223 236 254
223 236 254
223 236 254
223 236 254
223 236 254
223 236 254
223 236 254
223 236 254
223 236 254
223 236 254
223 236 254
223 236 254
223 236 254
223 236 254
223 236 254
223 236 254
223 236 254
223 236 254
223 236 254
223 236 254
223 236 254
223 236 254
223 236 254
223 236 254
223 236 254
223 236 254
223 236 254
223 236 254
223 236 254
223 236 254
223 236 254
223 236 254
223 236 254
223 236 254
223 236 254
223 236 254
223 236 254
223 236 254
223 236 254
223 236 254
223 236 254
223 236 254
223 236 254
223 236 254
223 236 254
223 236 254
223 236 254
223 236 254
223 236 254
223 236 254
223 236 254
223 236 254
223 236 254
223 236 254
223 236 254
223 236 254
223 236 254
223 236 254
223 236 254
223 236 254
223 236 254
223 236 254
223 236 254
223 236 254
223 236 254
223 236 254
223 236 254
223 236 254
223 236 254
223 236 254
223 236 254
223 236 254
223 236 254
223 236 254
223 236 254
223 236 254
223 236 254
223 236 254
223 236 254
223 236 254
223 236 254
223 236 254
223 236 254
223 236 254
223 236 254
223 236 254
185 196 213
0 0 42
0 0 42
0 0 42
0 0 42
0 0 42
0 0 42
0 0 42
0 0 42
0 0 42
0 0 42
0 0 42
0 0 42
0 0 42
0 0 42
0 0 42
0 0 42
0 0 42
0 0 42
0 0 42
0 0 42
0 0 42
0 0 42
0 0 42
0 0 42
0 0 42
0 0 42
0 0 42
0 0 42
0 0 42
0 0 42
0 0 42
0 0 42
0 0 42
0 0 42
0 0 42
0 0 42
0 0 42
0 0 42
0 0 42
0 0 42
0 0 42
0 0 42
0 0 42
0 0 42
0 0 42
0 0 42
0 0 42
0 0 42
0 0 42
0 0 42
0 0 42
0 0 42
0 0 42
0 0 42
0 0 42
0 0 42
0 0 42
0 0 42
0 0 42
0 0 42
0 0 42
0 0 42
0 0 42
0 0 42
0 0 42
0 0 42
0 0 42
0 0 42
0 0 42
0 0 42
0 0 42
0 0 42
0 0 42
0 0 42
0 0 42
0 0 42
0 0 42
0 0 42
0 0 42
0 0 42
0 0 42
0 0 42
0 0 42
0 0 42
0 0 42
0 0 42
0 0 42
0 0 42
0 0 42
0 0 42
0 0 42
0 0 42
0 0 42
0 0 42
0 0 42
0 0 42
0 0 42
0 0 42
0 0 42
0 0 42
0 0 42
0 0 42
0 0 42
0 0 42
0 0 42
0 0 42
0 0 42
0 0 42
0 0 42
0 0 42
0 0 42
0 0 42
0 0 42
0 0 42
0 0 42
0 0 42
0 0 42
0 0 42
0 0 42
0 0 42
0 0 42
0 0 44
0 0 42
0 0 44
0 0 45
0 0 46
0 0 47
0 0 48
0 0 49
0 0 50
0 0 48
0 0 48
0 0 48
0 0 57
0 0 49
0 0 51
0 0 54
0 0 65
71 66 86
161 143 123
128 103 79
139 112 79
131 107 78
146 116 76
157 125 95
152 128 94
133 114 80
127 106 75
104 93 56
64 63 32
49 56 17
59 61 24
72 66 37
66 61 31
55 61 22
51 60 18
41 55 2
38 54 0
34 56 0
47 62 14
64 72 31
52 62 20
47 63 19
52 64 24
60 69 28
67 72 34
74 76 40
72 74 38
69 76 34
69 74 32
67 76 34
78 82 43
79 82 43
71 72 33
59 66 26
64 67 30
74 74 36
73 74 35
63 66 29
58 63 26
60 63 26
57 63 22
50 62 37
14 20 46
0 0 42
0 0 42
0 0 42
0 0 42
0 0 42
0 0 42
0 0 42
0 0 42
0 0 42
0 0 42
0 0 42
0 0 42
0 0 42
0 0 42
172 183 199
223 236 254
223 236 254
223 236 254
223 236 254
223 236 254
223 236 254
223 236 254
223 236 254
223 236 254
223 236 254
223 236 254
223 236 254
223 236 254
223 236 254
223 236 254
223 236 254
223 236 254
223 236 254
223 236 254
223 236 254
223 236 254
223 236 254
223 236 254
223 236 254
223 236 254
223 236 254
223 236 254
223 236 254
223 236 254
223 236 254
223 236 254
223 236 254
223 236 254
223 236 254
223 236 254
223 236 254
223 236 254
223 236 254
223 236 254
223 236 254
223 236 254
223 236 254
223 236 254
223 236 254
223 236 254
223 236 254
223 236 254
223 236 254
223 236 254
223 236 254
223 236 254
223 236 254
223 236 254
223 236 254
223 236 254
223 236 254
223 236 254
223 236 254
223 236 254
223 236 254
223 236 254
223 236 254
223 236 254
223 236 254
223 236 254
223 236 254
223 236 254
223 236 254
223 236 254
223 236 254
223 236 254
223 236 254
223 236 254
223 236 254
223 236 254
223 236 254
223 236 254
223 236 254
223 236 254
223 236 254
223 236 254
223 236 254
223 236 254
223 236 254
223 236 254
223 236 254
223 236 254
223 236 254
223 236 254
223 236 254
223 236 254
223 236 254
223 236 254
223 236 254
223 236 254
223 236 254
223 236 254
223 236 254
223 236 254
223 236 254
223 236 254
223 236 254
223 236 254
223 236 254
223 236 254
223 236 254
223 236 254
223 236 254
223 236 254
223 236 254
223 236 254
223 236 254
223 236 254
223 236 254
223 236 254
223 236 254
223 236 254
223 236 254
223 236 254
223 236 254
223 236 254
223 236 254
223 236 254
223 236 254
223 236 254
223 236 254
223 236 254
223 236 254
223 236 254
223 236 254
223 236 254
223 236 254
223 236 254
223 236 254
223 236 254
223 236 254
223 236 254
223 236 254
223 236 254
223 236 254
223 236 254
223 236 254
223 236 254
223 236 254
223 236 254
223 236 254
223 236 254
223 236 254
223 236 254
223 236 254
223 236 254
223 236 254
223 236 254
223 236 254
223 236 254
223 236 254
223 236 254
223 236 254
223 236 254
223 236 254
223 236 254
223 236 254
223 236 254
223 236 254
223 236 254
223 236 254
223 236 254
223 236 254
223 236 254
223 236 254
223 236 254
223 236 254
223 236 254
223 236 254
223 236 254
223 236 254
223 236 254
223 236 254
223 236 254
223 236 254
223 236 254
223 236 254
223 236 254
223 236 254
223 236 254
223 236 254
223 236 254
223 236 254
223 236 254
223 236 254
223 236 254
223 236 254
223 236 254
223 236 254
223 236 254
223 236 254
223 236 254
223 236 254
223 236 254
223 236 254
223 236 254
59 62 78
0 0 42
0 0 42
0 0 42
0 0 42
0 0 42
0 0 42
0 0 42
0 0 42
0 0 42
0 0 42
0 0 42
0 0 42
0 0 42
0 0 42
0 0 42
0 0 42
0 0 42
0 0 42
0 0 42
0 0 42
0 0 42
0 0 42
0 0 42
0 0 42
0 0 42
0 0 42
0 0 42
0 0 42
0 0 42
0 0 42
0 0 42
0 0 42
0 0 42
0 0 42
0 0 42
0 0 42
0 0 42
0 0 42
0 0 42
0 0 42
0 0 42
0 0 42
0 0 42
0 0 42
0 0 42
0 0 42
0 0 42
0 0 42
0 0 42
0 0 42
0 0 42
0 0 42
0 0 42
0 0 42
0 0 42
0 0 42
0 0 42
0 0 42
0 0 42
0 0 42
0 0 42
0 0 42
0 0 42
0 0 42
0 0 42
0 0 42
0 0 42
0 0 42
0 0 42
0 0 42
0 0 42
0 0 42
0 0 42
0 0 42
0 0 42
0 0 42
0 0 42
0 0 42
0 0 42
0 0 42
0 0 42
0 0 42
0 0 42
0 0 42
0 0 42
0 0 42
0 0 42
0 0 42
0 0 42
0 0 42
0 0 42
0 0 42
0 0 42
0 0 42
0 0 42
0 0 42
0 0 42
0 0 42
0 0 42
0 0 42
0 0 42
0 0 42
0 0 42
0 0 42
0 0 42
0 0 42
0 0 42
0 0 42
0 0 42
0 0 42
0 0 42
0 0 42
0 0 42
0 0 42
0 0 42
0 0 42
0 0 42
0 0 42
0 0 42
0 0 42
0 0 42
0 0 42
0 0 44
0 0 45
0 0 47
0 0 46
0 0 47
0 0 48
0 0 49
0 0 50
0 0 50
0 0 52
0 0 52
0 0 56
0 0 58
0 0 57
0 2 66
58 61 89
177 152 128
146 120 94
168 136 107
150 130 101
138 111 84
168 138 111
150 125 91
105 89 55
119 101 69
97 86 49
52 55 20
51 60 21
60 63 29
68 64 36
70 71 41
57 62 23
48 57 15
43 56 11
38 55 2
32 57 0
46 62 16
56 66 24
45 59 16
55 71 25
58 69 27
65 73 30
73 78 39
71 73 35
72 76 35
65 74 30
64 74 28
63 74 28
74 81 39
78 80 40
65 72 30
55 66 25
66 71 31
70 72 32
71 72 35
66 68 32
61 63 27
69 70 35
72 73 38
42 53 61
0 0 41
0 0 42
0 0 42
0 0 42
0 0 42
0 0 42
0 0 42
0 0 42
0 0 42
0 0 42
0 0 42
0 0 42
0 0 42
0 0 42
74 78 93
223 236 254
223 236 254
223 236 254
223 236 254
223 236 254
223 236 254
223 236 254
223 236 254
223 236 254
223 236 254
223 236 254
223 236 254
223 236 254
223 236 254
223 236 254
223 236 254
223 236 254
223 236 254
223 236 254
223 236 254
223 236 254
223 236 254
223 236 254
223 236 254
223 236 254
223 236 254
223 236 254
223 236 254
223 236 254
223 236 254
223 236 254
223 236 254
223 236 254
223 236 254
223 236 254
223 236 254
223 236 254
223 236 254
223 236 254
223 236 254
223 236 254
223 236 254
223 236 254
223 236 254
223 236 254
223 236 254
223 236 254
223 236 254
223 236 254
223 236 254
223 236 254
223 236 254
223 236 254
223 236 254
223 236 254
223 236 254
223 236 254
223 236 254
223 236 254
223 236 254
223 236 254
223 236 254
223 236 254
223 236 254
223 236 254
223 236 254
223 236 254
223 236 254
223 236 254
223 236 254
223 236 254
223 236 254
223 236 254
223 236 254
223 236 254
223 236 254
223 236 254
223 236 254
223 236 254
223 236 254
223 236 254
223 236 254
223 236 254
223 236 254
223 236 254
223 236 254
223 236 254
223 236 254
223 236 254
223 236 254
223 236 254
223 236 254
223 236 254
223 236 254
223 236 254
223 236 254
223 236 254
223 236 254
223 236 254
223 236 254
223 236 254
223 236 254
223 236 254
223 236 254
223 236 254
223 236 254
223 236 254
223 236 254
223 236 254
223 236 254
223 236 254
223 236 254
223 236 254
223 236 254
223 236 254
223 236 254
223 236 254
223 236 254
223 236 254
223 236 254
223 236 254
223 236 254
223 236 254
223 236 254
223 236 254
223 236 254
223 236 254
223 236 254
223 236 254
223 236 254
223 236 254
223 236 254
223 236 254
223 236 254
223 236 254
223 236 254
223 236 254
223 236 254
223 236 254
223 236 254
223 236 254
223 236 254
223 236 254
223 236 254
223 236 254
223 236 254
223 236 254
223 236 254
223 236 254
223 236 254
223 236 254
223 236 254
223 236 254
223 236 254
223 236 254
223 236 254
223 236 254
223 236 254
223 236 254
223 236 254
223 236 254
223 236 254
223 236 254
223 236 254
223 236 254
223 236 254
223 236 254
223 236 254
223 236 254
223 236 254
223 236 254
223 236 254
223 236 254
223 236 254
223 236 254
223 236 254
223 236 254
223 236 254
223 236 254
223 236 254
223 236 254
223 236 254
223 236 254
223 236 254
223 236 254
223 236 254
223 236 254
223 236 254
223 236 254
223 236 254
223 236 254
223 236 254
223 236 254
223 236 254
223 236 254
223 236 254
223 236 254
223 236 254
223 236 254
223 236 254
223 236 254
223 236 254
153 162 177
0 0 42
0 0 42
0 0 42
0 0 42
0 0 42
0 0 42
0 0 42
0 0 42
0 0 42
0 0 42
0 0 42
0 0 42
0 0 42
0 0 42
0 0 42
0 0 42
0 0 42
0 0 42
0 0 42
0 0 42
0 0 42
0 0 42
0 0 42
0 0 42
0 0 42
0 0 42
0 0 42
0 0 42
0 0 42
0 0 42
0 0 42
0 0 42
0 0 42
0 0 42
0 0 42
0 0 42
0 0 42
0 0 42
0 0 42
0 0 42
0 0 42
0 0 42
0 0 42
0 0 42
0 0 42
0 0 42
0 0 42
0 0 42
0 0 42
0 0 42
0 0 42
0 0 42
0 0 42
0 0 42
0 0 42
0 0 42
0 0 42
0 0 42
0 0 42
0 0 42
0 0 42
0 0 42
0 0 42
0 0 42
0 0 42
0 0 42
0 0 42
0 0 42
0 0 42
0 0 42
0 0 42
0 0 42
0 0 42
0 0 42
0 0 42
0 0 42
0 0 42
0 0 42
0 0 42
0 0 42
0 0 42
0 0 42
0 0 42
0 0 42
0 0 42
0 0 42
0 0 42
0 0 42
0 0 42
0 0 42
0 0 42
0 0 42
0 0 42
0 0 42
0 0 42
0 0 42
0 0 42
0 0 42
0 0 42
0 0 42
0 0 42
0 0 42
0 0 42
0 0 42
0 0 42
0 0 42
0 0 42
0 0 42
0 0 42
0 0 42
0 0 42
0 0 42
0 0 42
0 0 42
0 0 42
0 0 42
0 0 42
0 0 42
0 0 42
0 0 42
0 0 42
0 0 40
0 0 43
0 0 45
0 0 46
0 0 47
0 0 48
0 0 49
0 0 51
0 0 53
0 0 53
0 0 53
0 0 52
0 0 54
0 0 59
0 3 59
0 12 74
79 79 99
171 133 104
147 117 92
157 125 90
158 134 103
167 146 119
199 164 138
167 137 104
104 90 54
114 95 63
83 71 39
45 52 14
51 60 21
55 58 26
61 59 34
63 65 34
57 61 25
50 59 16
47 60 15
41 59 15
42 62 13
50 64 20
53 64 22
51 64 20
58 71 26
59 69 27
66 73 32
68 73 31
65 69 27
67 76 30
61 71 26
69 80 32
66 78 30
66 74 29
72 74 34
56 68 26
57 66 27
64 70 29
69 72 34
67 68 33
61 63 28
60 65 29
62 69 28
66 75 44
12 16 65
0 0 40
0 0 42
0 0 42
0 0 42
0 0 42
0 0 42
0 0 42
0 0 42
0 0 42
0 0 42
0 0 42
0 0 42
0 0 42
0 0 42
165 175 191
223 236 254
223 236 254
223 236 254
223 236 254
223 236 254
223 236 254
223 236 254
223 236 254
223 236 254
223 236 254
223 236 254
223 236 254
223 236 254
223 236 254
223 236 254
223 236 254
223 236 254
223 236 254
223 236 254
223 236 254
223 236 254
223 236 254
223 236 254
223 236 254
223 236 254
223 236 254
223 236 254
223 236 254
223 236 254
223 236 254
223 236 254
223 236 254
223 236 254
223 236 254
223 236 254
223 236 254
223 236 254
223 236 254
223 236 254
223 236 254
223 236 254
223 236 254
223 236 254
223 236 254
223 236 254
223 236 254
223 236 254
223 236 254
223 236 254
223 236 254
223 236 254
223 236 254
223 236 254
223 236 254
223 236 254
223 236 254
223 236 254
223 236 254
223 236 254
223 236 254
223 236 254
223 236 254
223 236 254
223 236 254
223 236 254
223 236 254
223 236 254
223 236 254
223 236 254
223 236 254
223 236 254
223 236 254
223 236 254
223 236 254
223 236 254
223 236 254
223 236 254
223 236 254
223 236 254
223 236 254
223 236 254
223 236 254
223 236 254
223 236 254
223 236 254
223 236 254
223 236 254
223 236 254
223 236 254
223 236 254
223 236 254
223 236 254
223 236 254
223 236 254
223 236 254
223 236 254
223 236 254
223 236 254
223 236 254
223 236 254
223 236 254
223 236 254
223 236 254
223 236 254
223 236 254
223 236 254
223 236 254
223 236 254
223 236 254
223 236 254
223 236 254
223 236 254
223 236 254
223 236 254
223 236 254
223 236 254
223 236 254
223 236 254
223 236 254
223 236 254
223 236 254
223 236 254
223 236 254
223 236 254
223 236 254
223 236 254
223 236 254
223 236 254
223 236 254
223 236 254
223 236 254
223 236 254
223 236 254
223 236 254
223 236 254
223 236 254
223 236 254
223 236 254
223 236 254
223 236 254
223 236 254
223 236 254
223 236 254
223 236 254
223 236 254
223 236 254
223 236 254
223 236 254
223 236 254
223 236 254
223 236 254
223 236 254
223 236 254
223 236 254
223 236 254
223 236 254
223 236 254
223 236 254
223 236 254
223 236 254
223 236 254
223 236 254
223 236 254
223 236 254
223 236 254
223 236 254
223 236 254
223 236 254
223 236 254
223 236 254
223 236 254
223 236 254
223 236 254
223 236 254
223 236 254
223 236 254
223 236 254
223 236 254
223 236 254
223 236 254
223 236 254
223 236 254
223 236 254
223 236 254
223 236 254
223 236 254
223 236 254
223 236 254
223 236 254
223 236 254
223 236 254
223 236 254
223 236 254
223 236 254
223 236 254
223 236 254
223 236 254
223 236 254
223 236 254
223 236 254
223 236 254
223 236 254
213 225 243
54 57 74
0 0 42
0 0 42
0 0 42
0 0 42
0 0 42
0 0 42
0 0 42
0 0 42
0 0 42
0 0 42
0 0 42
0 0 42
0 0 42
0 0 42
0 0 42
0 0 42
0 0 42
0 0 42
0 0 42
0 0 42
0 0 42
0 0 42
0 0 42
0 0 42
0 0 42
0 0 42
0 0 42
0 0 42
0 0 42
0 0 42
0 0 42
0 0 42
0 0 42
0 0 42
0 0 42
0 0 42
0 0 42
0 0 42
0 0 42
0 0 42
0 0 42
0 0 42
0 0 42
0 0 42
0 0 42
0 0 42
0 0 42
0 0 42
0 0 42
0 0 42
0 0 42
0 0 42
0 0 42
0 0 42
0 0 42
0 0 42
0 0 42
0 0 42
0 0 42
0 0 42
0 0 42
0 0 42
0 0 42
0 0 42
0 0 42
0 0 42
0 0 42
0 0 42
0 0 42
0 0 42
0 0 42
0 0 42
0 0 42
0 0 42
0 0 42
0 0 42
0 0 42
0 0 42
0 0 42
0 0 42
0 0 42
0 0 42
0 0 42
0 0 42
0 0 42
0 0 42
0 0 42
0 0 42
0 0 42
0 0 42
0 0 42
0 0 42
0 0 42
0 0 42
0 0 42
0 0 42
0 0 42
0 0 42
0 0 42
0 0 42
0 0 42
0 0 42
0 0 42
0 0 42
0 0 42
0 0 42
0 0 42
0 0 42
0 0 42
0 0 42
0 0 42
0 0 42
0 0 42
0 0 42
0 0 42
0 0 42
0 0 42
0 0 42
0 0 42
0 0 42
0 0 41
0 0 42
0 0 45
0 0 46
0 0 47
0 0 49
0 0 50
0 0 53
0 0 54
0 0 54
0 0 52
0 0 51
0 0 53
0 0 55
0 3 63
0 10 75
107 92 100
187 151 122
150 124 100
149 116 82
162 134 100
158 134 102
178 141 114
141 116 82
118 100 62
114 95 64
85 80 49
46 51 17
53 59 23
61 61 30
59 58 31
62 63 31
58 62 26
47 56 13
47 59 15
44 60 15
45 61 12
54 66 24
56 67 24
57 69 24
57 70 26
61 72 28
58 69 22
66 75 26
65 75 26
61 72 26
74 81 39
70 81 32
72 81 35
68 77 33
65 70 31
60 69 31
59 68 28
59 67 24
61 66 29
56 61 26
52 60 20
45 57 17
43 57 37
25 32 61
0 0 44
0 0 42
0 0 42
0 0 42
0 0 42
0 0 42
0 0 42
0 0 42
0 0 42
0 0 42
0 0 42
0 0 42
0 0 42
0 0 42
54 57 74
216 229 247
223 236 254
223 236 254
223 236 254
223 236 254
223 236 254
223 236 254
223 236 254
223 236 254
223 236 254
223 236 254
223 236 254
223 236 254
223 236 254
223 236 254
223 236 254
223 236 254
223 236 254
223 236 254
223 236 254
223 236 254
223 236 254
223 236 254
223 236 254
223 236 254
223 236 254
223 236 254
223 236 254
223 236 254
223 236 254
223 236 254
223 236 254
223 236 254
223 236 254
223 236 254
223 236 254
223 236 254
223 236 254
223 236 254
223 236 254
223 236 254
223 236 254
223 236 254
223 236 254
223 236 254
223 236 254
223 236 254
223 236 254
223 236 254
223 236 254
223 236 254
223 236 254
223 236 254
223 236 254
223 236 254
223 236 254
223 236 254
223 236 254
223 236 254
223 236 254
223 236 254
223 236 254
223 236 254
223 236 254
223 236 254
223 236 254
223 236 254
223 236 254
223 236 254
223 236 254
223 236 254
223 236 254
223 236 254
223 236 254
223 236 254
223 236 254
223 236 254
223 236 254
223 236 254
223 236 254
223 236 254
223 236 254
223 236 254
223 236 254
223 236 254
223 236 254
223 236 254
223 236 254
223 236 254
223 236 254
223 236 254
223 236 254
223 236 254
223 236 254
223 236 254
223 236 254
223 236 254
223 236 254
223 236 254
223 236 254
223 236 254
223 236 254
223 236 254
223 236 254
223 236 254
223 236 254
223 236 254
223 236 254
223 236 254
223 236 254
223 236 254
223 236 254
223 236 254
223 236 254
223 236 254
223 236 254
223 236 254
223 236 254
223 236 254
223 236 254
223 236 254
223 236 254
223 236 254
223 236 254
223 236 254
223 236 254
223 236 254
223 236 254
223 236 254
223 236 254
223 236 254
223 236 254
223 236 254
223 236 254
223 236 254
223 236 254
223 236 254
223 236 254
223 236 254
223 236 254
223 236 254
223 236 254
223 236 254
223 236 254
223 236 254
223 236 254
223 236 254
223 236 254
223 236 254
223 236 254
223 236 254
223 236 254
223 236 254
223 236 254
223 236 254
223 236 254
223 236 254
223 236 254
223 236 254
223 236 254
223 236 254
223 236 254
223 236 254
223 236 254
223 236 254
223 236 254
223 236 254
223 236 254
223 236 254
223 236 254
223 236 254
223 236 254
223 236 254
223 236 254
223 236 254
223 236 254
223 236 254
223 236 254
223 236 254
223 236 254
223 236 254
223 236 254
223 236 254
223 236 254
223 236 254
223 236 254
223 236 254
223 236 254
223 236 254
223 236 254
223 236 254
223 236 254
223 236 254
223 236 254
223 236 254
223 236 254
223 236 254
223 236 254
223 236 254
223 236 254
223 236 254
223 236 254
223 236 254
223 236 254
149 158 173
0 0 42
0 0 42
0 0 42
0 0 42
0 0 42
0 0 42
0 0 42
0 0 42
0 0 42
0 0 42
0 0 42
0 0 42
0 0 42
0 0 42
0 0 42
0 0 42
0 0 42
0 0 42
0 0 42
0 0 42
0 0 42
0 0 42
0 0 42
0 0 42
0 0 42
0 0 42
0 0 42
0 0 42
0 0 42
0 0 42
0 0 42
0 0 42
0 0 42
0 0 42
0 0 42
0 0 42
0 0 42
0 0 42
0 0 42
0 0 42
0 0 42
0 0 42
0 0 42
0 0 42
0 0 42
0 0 42
0 0 42
0 0 42
0 0 42
0 0 42
0 0 42
0 0 42
0 0 42
0 0 42
0 0 42
0 0 42
0 0 42
0 0 42
0 0 42
0 0 42
0 0 42
0 0 42
0 0 42
0 0 42
0 0 42
0 0 42
0 0 42
0 0 42
0 0 42
0 0 42
0 0 42
0 0 42
0 0 42
0 0 42
0 0 42
0 0 42
0 0 42
0 0 42
0 0 42
0 0 42
0 0 42
0 0 42
0 0 42
0 0 42
0 0 42
0 0 42
0 0 42
0 0 42
0 0 42
0 0 42
0 0 42
0 0 42
0 0 42
0 0 42
0 0 42
0 0 42
0 0 42
0 0 42
0 0 42
0 0 42
0 0 42
0 0 42
0 0 42
0 0 42
0 0 42
0 0 42
0 0 42
0 0 42
0 0 42
0 0 42
0 0 42
0 0 42
0 0 42
0 0 42
0 0 42
0 0 42
0 0 42
0 0 42
0 0 42
0 0 42
0 0 42
0 0 42
0 0 43
0 0 44
0 0 45
0 0 47
0 0 50
0 0 50
0 0 51
0 0 50
0 0 50
0 0 52
0 0 54
0 0 53
0 0 59
13 12 65
123 103 100
192 165 141
156 130 108
139 112 87
158 124 92
155 124 95
154 123 94
133 111 73
135 109 71
114 100 69
59 62 34
41 50 11
53 59 23
63 64 29
60 62 30
59 61 29
54 60 22
59 69 25
60 72 26
46 62 16
38 55 3
46 60 16
49 63 17
52 64 19
59 71 29
59 70 28
64 77 27
68 80 26
61 73 24
69 80 37
76 82 40
70 76 31
64 73 27
61 71 28
60 67 28
63 71 28
63 67 29
57 64 25
52 63 22
43 54 22
40 61 41
38 56 36
23 30 56
0 0 46
0 0 41
0 0 42
0 0 42
0 0 42
0 0 42
0 0 42
0 0 42
0 0 42
0 0 42
0 0 42
0 0 42
0 0 42
0 0 42
0 0 42
154 163 179
223 236 254
223 236 254
223 236 254
223 236 254
223 236 254
223 236 254
223 236 254
223 236 254
223 236 254
223 236 254
223 236 254
223 236 254
223 236 254
223 236 254
223 236 254
223 236 254
223 236 254
223 236 254
223 236 254
223 236 254
223 236 254
223 236 254
223 236 254
223 236 254
223 236 254
223 236 254
223 236 254
223 236 254
223 236 254
223 236 254
223 236 254
223 236 254
223 236 254
223 236 254
223 236 254
223 236 254
223 236 254
223 236 254
223 236 254
223 236 254
223 236 254
223 236 254
223 236 254
223 236 254
223 236 254
223 236 254
223 236 254
223 236 254
223 236 254
223 236 254
223 236 254
223 236 254
223 236 254
223 236 254
223 236 254
223 236 254
223 236 254
223 236 254
223 236 254
223 236 254
223 236 254
223 236 254
223 236 254
223 236 254
223 236 254
223 236 254
223 236 254
223 236 254
223 236 254
223 236 254
223 236 254
223 236 254
223 236 254
223 236 254
223 236 254
223 236 254
223 236 254
223 236 254
223 236 254
223 236 254
223 236 254
223 236 254
223 236 254
223 236 254
223 236 254
223 236 254
223 236 254
223 236 254
223 236 254
223 236 254
223 236 254
223 236 254
223 236 254
223 236 254
223 236 254
223 236 254
223 236 254
223 236 254
223 236 254
223 236 254
223 236 254
223 236 254
223 236 254
223 236 254
223 236 254
223 236 254
223 236 254
223 236 254
223 236 254
223 236 254
223 236 254
223 236 254
223 236 254
223 236 254
223 236 254
223 236 254
223 236 254
223 236 254
223 236 254
223 236 254
223 236 254
223 236 254
223 236 254
223 236 254
223 236 254
223 236 254
223 236 254
223 236 254
223 236 254
223 236 254
223 236 254
223 236 254
223 236 254
223 236 254
223 236 254
223 236 254
223 236 254
223 236 254
223 236 254
223 236 254
223 236 254
223 236 254
223 236 254
223 236 254
223 236 254
223 236 254
223 236 254
223 236 254
223 236 254
223 236 254
223 236 254
223 236 254
223 236 254
223 236 254
223 236 254
223 236 254
223 236 254
223 236 254
223 236 254
223 236 254
223 236 254
223 236 254
223 236 254
223 236 254
223 236 254
223 236 254
223 236 254
223 236 254
223 236 254
223 236 254
223 236 254
223 236 254
223 236 254
223 236 254
223 236 254
223 236 254
223 236 254
223 236 254
223 236 254
223 236 254
223 236 254
223 236 254
223 236 254
223 236 254
223 236 254
223 236 254
223 236 254
223 236 254
223 236 254
223 236 254
223 236 254
223 236 254
223 236 254
223 236 254
223 236 254
223 236 254
223 236 254
223 236 254
223 236 254
223 236 254
223 236 254
223 236 254
223 236 254
223 236 254
210 223 240
49 52 70
0 0 42
0 0 42
0 0 42
0 0 42
0 0 42
0 0 42
0 0 42
0 0 42
0 0 42
0 0 42
0 0 42
0 0 42
0 0 42
0 0 42
0 0 42
0 0 42
0 0 42
0 0 42
0 0 42
0 0 42
0 0 42
0 0 42
0 0 42
0 0 42
0 0 42
0 0 42
0 0 42
0 0 42
0 0 42
0 0 42
0 0 42
0 0 42
0 0 42
0 0 42
0 0 42
0 0 42
0 0 42
0 0 42
0 0 42
0 0 42
0 0 42
0 0 42
0 0 42
0 0 42
0 0 42
0 0 42
0 0 42
0 0 42
0 0 42
0 0 42
0 0 42
0 0 42
0 0 42
0 0 42
0 0 42
0 0 42
0 0 42
0 0 42
0 0 42
0 0 42
0 0 42
0 0 42
0 0 42
0 0 42
0 0 42
0 0 42
0 0 42
0 0 42
0 0 42
0 0 42
0 0 42
0 0 42
0 0 42
0 0 42
0 0 42
0 0 42
0 0 42
0 0 42
0 0 42
0 0 42
0 0 42
0 0 42
0 0 42
0 0 42
0 0 42
0 0 42
0 0 42
0 0 42
0 0 42
0 0 42
0 0 42
0 0 42
0 0 42
0 0 42
0 0 42
0 0 42
0 0 42
0 0 42
0 0 42
0 0 42
0 0 42
0 0 42
0 0 42
0 0 42
0 0 42
0 0 42
0 0 42
0 0 42
0 0 42
0 0 42
0 0 42
0 0 42
0 0 42
0 0 42
0 0 42
0 0 42
0 0 42
0 0 42
0 0 42
0 0 41
0 0 42
0 0 42
0 0 42
0 0 45
0 0 46
0 0 47
0 0 48
0 0 49
0 0 49
0 0 51
0 0 56
0 0 57
0 0 53
0 0 57
31 26 69
146 119 102
168 145 129
164 138 120
137 118 96
158 124 101
157 122 94
141 117 87
150 126 87
157 127 92
82 72 41
29 44 2
44 57 18
54 61 24
65 70 32
56 61 27
56 61 26
55 62 21
69 80 36
65 77 31
42 58 15
39 57 12
40 56 11
46 62 19
45 59 17
57 70 27
62 74 25
66 78 25
60 72 22
77 84 39
74 81 38
60 70 29
50 62 19
52 64 17
59 67 27
60 68 26
66 73 31
56 69 27
51 62 19
42 48 29
10 16 48
15 21 54
6 8 49
0 2 47
0 0 38
0 0 42
0 0 42
0 0 42
0 0 42
0 0 42
0 0 42
0 0 42
0 0 42
0 0 42
0 0 42
0 0 42
0 0 42
0 0 42
0 0 42
215 228 246
223 236 254
223 236 254
223 236 254
223 236 254
223 236 254
223 236 254
223 236 254
223 236 254
223 236 254
223 236 254
223 236 254
223 236 254
223 236 254
223 236 254
223 236 254
223 236 254
223 236 254
223 236 254
223 236 254
223 236 254
223 236 254
223 236 254
223 236 254
223 236 254
223 236 254
223 236 254
223 236 254
223 236 254
223 236 254
223 236 254
223 236 254
223 236 254
223 236 254
223 236 254
223 236 254
223 236 254
223 236 254
223 236 254
223 236 254
223 236 254
223 236 254
223 236 254
223 236 254
223 236 254
223 236 254
223 236 254
223 236 254
223 236 254
223 236 254
223 236 254
223 236 254
223 236 254
223 236 254
223 236 254
223 236 254
223 236 254
223 236 254
223 236 254
223 236 254
223 236 254
223 236 254
223 236 254
223 236 254
223 236 254
223 236 254
223 236 254
223 236 254
223 236 254
223 236 254
223 236 254
223 236 254
223 236 254
223 236 254
223 236 254
223 236 254
223 236 254
223 236 254
223 236 254
223 236 254
223 236 254
223 236 254
223 236 254
223 236 254
223 236 254
223 236 254
223 236 254
223 236 254
223 236 254
223 236 254
223 236 254
223 236 254
223 236 254
223 236 254
223 236 254
223 236 254
223 236 254
223 236 254
223 236 254
223 236 254
223 236 254
223 236 254
223 236 254
223 236 254
223 236 254
223 236 254
223 236 254
223 236 254
223 236 254
223 236 254
223 236 254
223 236 254
223 236 254
223 236 254
223 236 254
223 236 254
223 236 254
223 236 254
223 236 254
223 236 254
223 236 254
223 236 254
223 236 254
223 236 254
223 236 254
223 236 254
223 236 254
223 236 254
223 236 254
223 236 254
223 236 254
223 236 254
223 236 254
223 236 254
223 236 254
223 236 254
223 236 254
223 236 254
223 236 254
223 236 254
223 236 254
223 236 254
223 236 254
223 236 254
223 236 254
223 236 254
223 236 254
223 236 254
223 236 254
223 236 254
223 236 254
223 236 254
223 236 254
223 236 254
223 236 254
223 236 254
223 236 254
223 236 254
223 236 254
223 236 254
223 236 254
223 236 254
223 236 254
223 236 254
223 236 254
223 236 254
223 236 254
223 236 254
223 236 254
223 236 254
223 236 254
223 236 254
223 236 254
223 236 254
223 236 254
223 236 254
223 236 254
223 236 254
223 236 254
223 236 254
223 236 254
223 236 254
223 236 254
223 236 254
223 236 254
223 236 254
223 236 254
223 236 254
223 236 254
223 236 254
223 236 254
223 236 254
223 236 254
223 236 254
223 236 254
223 236 254
223 236 254
223 236 254
223 236 254
223 236 254
223 236 254
223 236 254
223 236 254
223 236 254
223 236 254
223 236 254
154 163 179
0 0 42
0 0 42
0 0 42
0 0 42
0 0 42
0 0 42
0 0 42
0 0 42
0 0 42
0 0 42
0 0 42
0 0 42
0 0 42
0 0 42
0 0 42
0 0 42
0 0 42
0 0 42
0 0 42
0 0 42
0 0 42
0 0 42
0 0 42
0 0 42
0 0 42
0 0 42
0 0 42
0 0 42
0 0 42
0 0 42
0 0 42
0 0 42
0 0 42
0 0 42
0 0 42
0 0 42
0 0 42
0 0 42
0 0 42
0 0 42
0 0 42
0 0 42
0 0 42
0 0 42
0 0 42
0 0 42
0 0 42
0 0 42
0 0 42
0 0 42
0 0 42
0 0 42
0 0 42
0 0 42
0 0 42
0 0 42
0 0 42
0 0 42
0 0 42
0 0 42
0 0 42
0 0 42
0 0 42
0 0 42
0 0 42
0 0 42
0 0 42
0 0 42
0 0 42
0 0 42
0 0 42
0 0 42
0 0 42
0 0 42
0 0 42
0 0 42
0 0 42
0 0 42
0 0 42
0 0 42
0 0 42
0 0 42
0 0 42
0 0 42
0 0 42
0 0 42
0 0 42
0 0 42
0 0 42
0 0 42
0 0 42
0 0 42
0 0 42
0 0 42
0 0 42
0 0 42
0 0 42
0 0 42
0 0 42
0 0 42
0 0 42
0 0 42
0 0 42
0 0 42
0 0 42
0 0 42
0 0 42
0 0 42
0 0 42
0 0 42
0 0 42
0 0 42
0 0 42
0 0 42
0 0 42
0 0 42
0 0 42
0 0 42
0 0 42
0 0 41
0 0 42
0 0 43
0 0 44
0 0 45
0 0 44
0 0 45
0 0 46
0 0 47
0 0 48
0 0 55
0 0 60
0 0 53
0 0 56
0 11 78
83 69 79
158 133 112
160 138 112
154 127 112
148 120 105
156 125 99
168 134 106
154 128 93
162 132 94
134 113 77
50 52 22
43 58 18
58 66 29
60 63 30
65 70 32
59 65 27
51 61 19
50 61 18
53 64 22
51 63 21
43 58 18
40 54 10
48 62 21
47 60 17
47 59 16
63 73 29
70 77 29
66 75 24
72 82 33
68 77 32
58 69 25
52 66 24
52 66 25
55 66 20
58 67 23
58 66 23
51 59 25
52 64 28
25 38 37
8 13 51
0 0 48
0 0 44
0 0 46
0 0 42
0 0 40
0 0 42
0 0 42
0 0 42
0 0 42
0 0 42
0 0 42
0 0 42
0 0 42
0 0 42
0 0 42
0 0 42
0 0 42
0 0 42
124 131 146
223 236 254
223 236 254
223 236 254
223 236 254
223 236 254
223 236 254
223 236 254
223 236 254
223 236 254
223 236 254
223 236 254
223 236 254
223 236 254
223 236 254
223 236 254
223 236 254
223 236 254
223 236 254
223 236 254
223 236 254
223 236 254
223 236 254
223 236 254
223 236 254
223 236 254
223 236 254
223 236 254
223 236 254
223 236 254
223 236 254
223 236 254
223 236 254
223 236 254
223 236 254
223 236 254
223 236 254
223 236 254
223 236 254
223 236 254
223 236 254
223 236 254
223 236 254
223 236 254
223 236 254
223 236 254
223 236 254
223 236 254
223 236 254
223 236 254
223 236 254
223 236 254
223 236 254
223 236 254
223 236 254
223 236 254
223 236 254
223 236 254
223 236 254
223 236 254
223 236 254
223 236 254
223 236 254
223 236 254
223 236 254
223 236 254
223 236 254
223 236 254
223 236 254
223 236 254
223 236 254
223 236 254
223 236 254
223 236 254
223 236 254
223 236 254
223 236 254
223 236 254
223 236 254
223 236 254
223 236 254
223 236 254
223 236 254
223 236 254
223 236 254
223 236 254
223 236 254
223 236 254
223 236 254
223 236 254
223 236 254
223 236 254
223 236 254
223 236 254
223 236 254
223 236 254
223 236 254
223 236 254
223 236 254
223 236 254
223 236 254
223 236 254
223 236 254
223 236 254
223 236 254
223 236 254
223 236 254
223 236 254
223 236 254
223 236 254
223 236 254
223 236 254
223 236 254
223 236 254
223 236 254
223 236 254
223 236 254
223 236 254
223 236 254
223 236 254
223 236 254
223 236 254
223 236 254
223 236 254
223 236 254
223 236 254
223 236 254
223 236 254
223 236 254
223 236 254
223 236 254
223 236 254
223 236 254
223 236 254
223 236 254
223 236 254
223 236 254
223 236 254
223 236 254
223 236 254
223 236 254
223 236 254
223 236 254
223 236 254
223 236 254
223 236 254
223 236 254
223 236 254
223 236 254
223 236 254
223 236 254
223 236 254
223 236 254
223 236 254
223 236 254
223 236 254
223 236 254
223 236 254
223 236 254
223 236 254
223 236 254
223 236 254
223 236 254
223 236 254
223 236 254
223 236 254
223 236 254
223 236 254
223 236 254
223 236 254
223 236 254
223 236 254
223 236 254
223 236 254
223 236 254
223 236 254
223 236 254
223 236 254
223 236 254
223 236 254
223 236 254
223 236 254
223 236 254
223 236 254
223 236 254
223 236 254
223 236 254
223 236 254
223 236 254
223 236 254
223 236 254
223 236 254
223 236 254
223 236 254
223 236 254
223 236 254
223 236 254
223 236 254
223 236 254
223 236 254
223 236 254
223 236 254
223 236 254
223 236 254
223 236 254
223 236 254
223 236 254
204 216 234
59 62 78
0 0 42
0 0 42
0 0 42
0 0 42
0 0 42
0 0 42
0 0 42
0 0 42
0 0 42
0 0 42
0 0 42
0 0 42
0 0 42
0 0 42
0 0 42
0 0 42
0 0 42
0 0 42
0 0 42
0 0 42
0 0 42
0 0 42
0 0 42
0 0 42
0 0 42
0 0 42
0 0 42
0 0 42
0 0 42
0 0 42
0 0 42
0 0 42
0 0 42
0 0 42
0 0 42
0 0 42
0 0 42
0 0 42
0 0 42
0 0 42
0 0 42
0 0 42
0 0 42
0 0 42
0 0 42
0 0 42
0 0 42
0 0 42
0 0 42
0 0 42
0 0 42
0 0 42
0 0 42
0 0 42
0 0 42
0 0 42
0 0 42
0 0 42
0 0 42
0 0 42
0 0 42
0 0 42
0 0 42
0 0 42
0 0 42
0 0 42
0 0 42
0 0 42
0 0 42
0 0 42
0 0 42
0 0 42
0 0 42
0 0 42
0 0 42
0 0 42
0 0 42
0 0 42
0 0 42
0 0 42
0 0 42
0 0 42
0 0 42
0 0 42
0 0 42
0 0 42
0 0 42
0 0 42
0 0 42
0 0 42
0 0 42
0 0 42
0 0 42
0 0 42
0 0 42
0 0 42
0 0 42
0 0 42
0 0 42
0 0 42
0 0 42
0 0 42
0 0 42
0 0 42
0 0 42
0 0 42
0 0 42
0 0 42
0 0 42
0 0 42
0 0 42
0 0 42
0 0 42
0 0 42
0 0 42
0 0 42
0 0 42
0 0 42
0 0 42
0 0 42
0 0 44
0 0 45
0 0 45
0 0 43
0 0 45
0 0 46
0 0 47
0 0 48
0 0 50
0 0 58
0 0 52
0 0 68
29 37 87
123 111 105
165 137 110
150 123 98
150 122 102
164 136 117
163 130 107
169 139 112
162 134 101
164 136 101
109 95 62
41 49 13
58 66 30
62 65 31
63 63 31
63 66 29
53 64 23
49 60 17
50 63 21
57 71 32
49 62 21
50 64 20
43 58 12
46 60 17
45 59 12
45 58 11
60 70 25
64 74 28
71 80 32
70 81 34
56 68 22
51 66 22
44 59 16
44 58 18
47 59 15
43 55 12
34 49 6
16 34 42
5 14 57
0 0 59
0 0 45
0 0 45
0 0 43
0 0 43
0 0 39
0 0 41
0 0 42
0 0 42
0 0 42
0 0 42
0 0 42
0 0 42
0 0 42
0 0 42
0 0 42
0 0 42
0 0 42
0 0 42
31 33 55
213 225 243
223 236 254
223 236 254
223 236 254
223 236 254
223 236 254
223 236 254
223 236 254
223 236 254
223 236 254
223 236 254
223 236 254
223 236 254
223 236 254
223 236 254
223 236 254
223 236 254
223 236 254
223 236 254
223 236 254
223 236 254
223 236 254
223 236 254
223 236 254
223 236 254
223 236 254
223 236 254
223 236 254
223 236 254
223 236 254
223 236 254
223 236 254
223 236 254
223 236 254
223 236 254
223 236 254
223 236 254
223 236 254
223 236 254
223 236 254
223 236 254
223 236 254
223 236 254
223 236 254
223 236 254
223 236 254
223 236 254
223 236 254
223 236 254
223 236 254
223 236 254
223 236 254
223 236 254
223 236 254
223 236 254
223 236 254
223 236 254
223 236 254
223 236 254
223 236 254
223 236 254
223 236 254
223 236 254
223 236 254
223 236 254
223 236 254
223 236 254
223 236 254
223 236 254
223 236 254
223 236 254
223 236 254
223 236 254
223 236 254
223 236 254
223 236 254
223 236 254
223 236 254
223 236 254
223 236 254
223 236 254
223 236 254
223 236 254
223 236 254
223 236 254
223 236 254
223 236 254
223 236 254
223 236 254
223 236 254
223 236 254
223 236 254
223 236 254
223 236 254
223 236 254
223 236 254
223 236 254
223 236 254
223 236 254
223 236 254
223 236 254
223 236 254
223 236 254
223 236 254
223 236 254
223 236 254
223 236 254
223 236 254
223 236 254
223 236 254
223 236 254
223 236 254
223 236 254
223 236 254
223 236 254
223 236 254
223 236 254
223 236 254
223 236 254
223 236 254
223 236 254
223 236 254
223 236 254
223 236 254
223 236 254
223 236 254
223 236 254
223 236 254
223 236 254
223 236 254
223 236 254
223 236 254
223 236 254
223 236 254
223 236 254
223 236 254
223 236 254
223 236 254
223 236 254
223 236 254
223 236 254
223 236 254
223 236 254
223 236 254
223 236 254
223 236 254
223 236 254
223 236 254
223 236 254
223 236 254
223 236 254
223 236 254
223 236 254
223 236 254
223 236 254
223 236 254
223 236 254
223 236 254
223 236 254
223 236 254
223 236 254
223 236 254
223 236 254
223 236 254
223 236 254
223 236 254
223 236 254
223 236 254
223 236 254
223 236 254
223 236 254
223 236 254
223 236 254
223 236 254
223 236 254
223 236 254
223 236 254
223 236 254
223 236 254
223 236 254
223 236 254
223 236 254
223 236 254
223 236 254
223 236 254
223 236 254
223 236 254
223 236 254
223 236 254
223 236 254
223 236 254
223 236 254
223 236 254
223 236 254
223 236 254
223 236 254
223 236 254
223 236 254
223 236 254
223 236 254
223 236 254
223 236 254
223 236 254
223 236 254
223 236 254
223 236 254
223 236 254
223 236 254
146 155 170
0 0 42
0 0 42
0 0 42
0 0 42
0 0 42
0 0 42
0 0 42
0 0 42
0 0 42
0 0 42
0 0 42
0 0 42
0 0 42
0 0 42
0 0 42
0 0 42
0 0 42
0 0 42
0 0 42
0 0 42
0 0 42
0 0 42
0 0 42
0 0 42
0 0 42
0 0 42
0 0 42
0 0 42
0 0 42
0 0 42
0 0 42
0 0 42
0 0 42
0 0 42
0 0 42
0 0 42
0 0 42
0 0 42
0 0 42
0 0 42
0 0 42
0 0 42
0 0 42
0 0 42
0 0 42
0 0 42
0 0 42
0 0 42
0 0 42
0 0 42
0 0 42
0 0 42
0 0 42
0 0 42
0 0 42
0 0 42
0 0 42
0 0 42
0 0 42
0 0 42
0 0 42
0 0 42
0 0 42
0 0 42
0 0 42
0 0 42
0 0 42
0 0 42
0 0 42
0 0 42
0 0 42
0 0 42
0 0 42
0 0 42
0 0 42
0 0 42
0 0 42
0 0 42
0 0 42
0 0 42
0 0 42
0 0 42
0 0 42
0 0 42
0 0 42
0 0 42
0 0 42
0 0 42
0 0 42
0 0 42
0 0 42
0 0 42
0 0 42
0 0 42
0 0 42
0 0 42
0 0 42
0 0 42
0 0 42
0 0 42
0 0 42
0 0 42
0 0 42
0 0 42
0 0 42
0 0 42
0 0 42
0 0 42
0 0 42
0 0 42
0 0 42
0 0 42
0 0 42
0 0 42
0 0 42
0 0 42
0 0 42
0 0 42
0 0 42
0 0 42
0 0 44
0 0 45
0 0 45
0 0 45
0 0 45
0 0 47
0 0 48
0 0 49
0 0 51
0 0 53
0 0 56
0 0 56
40 42 74
156 132 109
168 137 110
154 123 97
165 136 107
149 123 104
148 119 101
159 130 103
158 129 99
144 120 89
50 50 15
40 52 14
50 58 21
61 67 33
63 69 34
56 63 28
44 58 16
43 56 14
41 54 10
51 65 26
42 58 14
39 58 12
43 62 15
46 63 17
43 61 13
40 57 7
47 62 17
54 68 23
58 71 25
55 68 23
49 64 18
50 63 18
40 53 9
44 57 19
29 46 1
27 46 7
15 37 50
3 11 54
0 0 48
0 0 43
0 0 45
0 0 41
0 0 41
0 0 40
0 0 42
0 0 41
0 0 42
0 0 42
0 0 42
0 0 42
0 0 42
0 0 42
0 0 42
0 0 42
0 0 42
0 0 42
0 0 42
0 0 42
128 135 150
223 236 254
223 236 254
223 236 254
223 236 254
223 236 254
223 236 254
223 236 254
223 236 254
223 236 254
223 236 254
223 236 254
223 236 254
223 236 254
223 236 254
223 236 254
223 236 254
223 236 254
223 236 254
223 236 254
223 236 254
223 236 254
223 236 254
223 236 254
223 236 254
223 236 254
223 236 254
223 236 254
223 236 254
223 236 254
223 236 254
223 236 254
223 236 254
223 236 254
223 236 254
223 236 254
223 236 254
223 236 254
223 236 254
223 236 254
223 236 254
223 236 254
223 236 254
223 236 254
223 236 254
223 236 254
223 236 254
223 236 254
223 236 254
223 236 254
223 236 254
223 236 254
223 236 254
223 236 254
223 236 254
223 236 254
223 236 254
223 236 254
223 236 254
223 236 254
223 236 254
223 236 254
223 236 254
223 236 254
223 236 254
223 236 254
223 236 254
223 236 254
223 236 254
223 236 254
223 236 254
223 236 254
223 236 254
223 236 254
223 236 254
223 236 254
223 236 254
223 236 254
223 236 254
223 236 254
223 236 254
223 236 254
223 236 254
223 236 254
223 236 254
223 236 254
223 236 254
223 236 254
223 236 254
223 236 254
223 236 254
223 236 254
223 236 254
223 236 254
223 236 254
223 236 254
223 236 254
223 236 254
223 236 254
223 236 254
223 236 254
223 236 254
223 236 254
223 236 254
223 236 254
223 236 254
223 236 254
223 236 254
223 236 254
223 236 254
223 236 254
223 236 254
223 236 254
223 236 254
223 236 254
223 236 254
223 236 254
223 236 254
223 236 254
223 236 254
223 236 254
223 236 254
223 236 254
223 236 254
223 236 254
223 236 254
223 236 254
223 236 254
223 236 254
223 236 254
223 236 254
223 236 254
223 236 254
223 236 254
223 236 254
223 236 254
223 236 254
223 236 254
223 236 254
223 236 254
223 236 254
223 236 254
223 236 254
223 236 254
223 236 254
223 236 254
223 236 254
223 236 254
223 236 254
223 236 254
223 236 254
223 236 254
223 236 254
223 236 254
223 236 254
223 236 254
223 236 254
223 236 254
223 236 254
223 236 254
223 236 254
223 236 254
223 236 254
223 236 254
223 236 254
223 236 254
223 236 254
223 236 254
223 236 254
223 236 254
223 236 254
223 236 254
223 236 254
223 236 254
223 236 254
223 236 254
223 236 254
223 236 254
223 236 254
223 236 254
223 236 254
223 236 254
223 236 254
223 236 254
223 236 254
223 236 254
223 236 254
223 236 254
223 236 254
223 236 254
223 236 254
223 236 254
223 236 254
223 236 254
223 236 254
223 236 254
223 236 254
223 236 254
223 236 254
223 236 254
223 236 254
223 236 254
223 236 254
223 236 254
223 236 254
223 236 254
223 236 254
223 236 254
223 236 254
215 228 246
44 47 65
0 0 42
0 0 42
0 0 42
0 0 42
0 0 42
0 0 42
0 0 42
0 0 42
0 0 42
0 0 42
0 0 42
0 0 42
0 0 42
0 0 42
0 0 42
0 0 42
0 0 42
0 0 42
0 0 42
0 0 42
0 0 42
0 0 42
0 0 42
0 0 42
0 0 42
0 0 42
0 0 42
0 0 42
0 0 42
0 0 42
0 0 42
0 0 42
0 0 42
0 0 42
0 0 42
0 0 42
0 0 42
0 0 42
0 0 42
0 0 42
0 0 42
0 0 42
0 0 42
0 0 42
0 0 42
0 0 42
0 0 42
0 0 42
0 0 42
0 0 42
0 0 42
0 0 42
0 0 42
0 0 42
0 0 42
0 0 42
0 0 42
0 0 42
0 0 42
0 0 42
0 0 42
0 0 42
0 0 42
0 0 42
0 0 42
0 0 42
0 0 42
0 0 42
0 0 42
0 0 42
0 0 42
0 0 42
0 0 42
0 0 42
0 0 42
0 0 42
0 0 42
0 0 42
0 0 42
0 0 42
0 0 42
0 0 42
0 0 42
0 0 42
0 0 42
0 0 42
0 0 42
0 0 42
0 0 42
0 0 42
0 0 42
0 0 42
0 0 42
0 0 42
0 0 42
0 0 42
0 0 42
0 0 42
0 0 42
0 0 42
0 0 42
0 0 42
0 0 42
0 0 42
0 0 42
0 0 42
0 0 42
0 0 42
0 0 42
0 0 42
0 0 42
0 0 42
0 0 42
0 0 42
0 0 42
0 0 42
0 0 42
0 0 42
0 0 42
0 0 45
0 0 45
0 0 45
0 0 45
0 0 45
0 0 48
0 0 50
0 0 50
0 0 52
0 0 57
0 0 56
0 0 56
55 54 70
170 139 112
178 145 116
164 130 102
150 120 95
150 124 105
166 134 113
159 131 103
130 105 76
95 82 54
49 57 22
41 53 17
50 61 22
48 57 17
48 59 21
50 59 21
46 58 19
42 55 15
39 53 11
38 54 10
39 58 14
39 58 12
43 61 16
44 62 16
43 59 12
43 60 13
47 62 22
49 65 20
51 65 22
48 62 18
48 62 16
44 55 10
48 59 20
39 52 13
23 45 15
14 33 46
0 0 50
0 0 48
0 0 44
0 0 45
0 0 41
0 0 42
0 0 42
0 0 42
0 0 42
0 0 42
0 0 42
0 0 42
0 0 42
0 0 42
0 0 42
0 0 42
0 0 42
0 0 42
0 0 42
0 0 42
0 0 42
54 57 74
215 228 246
223 236 254
223 236 254
223 236 254
223 236 254
223 236 254
223 236 254
223 236 254
223 236 254
223 236 254
223 236 254
223 236 254
223 236 254
223 236 254
223 236 254
223 236 254
223 236 254
223 236 254
223 236 254
223 236 254
223 236 254
223 236 254
223 236 254
223 236 254
223 236 254
223 236 254
223 236 254
223 236 254
223 236 254
223 236 254
223 236 254
223 236 254
223 236 254
223 236 254
223 236 254
223 236 254
223 236 254
223 236 254
223 236 254
223 236 254
223 236 254
223 236 254
223 236 254
223 236 254
223 236 254
223 236 254
223 236 254
223 236 254
223 236 254
223 236 254
223 236 254
223 236 254
223 236 254
223 236 254
223 236 254
223 236 254
223 236 254
223 236 254
223 236 254
223 236 254
223 236 254
223 236 254
223 236 254
223 236 254
223 236 254
223 236 254
223 236 254
223 236 254
223 236 254
223 236 254
223 236 254
223 236 254
223 236 254
223 236 254
223 236 254
223 236 254
223 236 254
223 236 254
223 236 254
223 236 254
223 236 254
223 236 254
223 236 254
223 236 254
223 236 254
223 236 254
223 236 254
223 236 254
223 236 254
223 236 254
223 236 254
223 236 254
223 236 254
223 236 254
223 236 254
223 236 254
223 236 254
223 236 254
223 236 254
223 236 254
223 236 254
223 236 254
223 236 254
223 236 254
223 236 254
223 236 254
223 236 254
223 236 254
223 236 254
223 236 254
223 236 254
223 236 254
223 236 254
223 236 254
223 236 254
223 236 254
223 236 254
223 236 254
223 236 254
223 236 254
223 236 254
223 236 254
223 236 254
223 236 254
223 236 254
223 236 254
223 236 254
223 236 254
223 236 254
223 236 254
223 236 254
223 236 254
223 236 254
223 236 254
223 236 254
223 236 254
223 236 254
223 236 254
223 236 254
223 236 254
223 236 254
223 236 254
223 236 254
223 236 254
223 236 254
223 236 254
223 236 254
223 236 254
223 236 254
223 236 254
223 236 254
223 236 254
223 236 254
223 236 254
223 236 254
223 236 254
223 236 254
223 236 254
223 236 254
223 236 254
223 236 254
223 236 254
223 236 254
223 236 254
223 236 254
223 236 254
223 236 254
223 236 254
223 236 254
223 236 254
223 236 254
223 236 254
223 236 254
223 236 254
223 236 254
223 236 254
223 236 254
223 236 254
223 236 254
223 236 254
223 236 254
223 236 254
223 236 254
223 236 254
223 236 254
223 236 254
223 236 254
223 236 254
223 236 254
223 236 254
223 236 254
223 236 254
223 236 254
223 236 254
223 236 254
223 236 254
223 236 254
223 236 254
223 236 254
223 236 254
223 236 254
223 236 254
223 236 254
223 236 254
223 236 254
223 236 254
223 236 254
223 236 254
223 236 254
223 236 254
153 162 177
0 0 42
0 0 42
0 0 42
0 0 42
0 0 42
0 0 42
0 0 42
0 0 42
0 0 42
0 0 42
0 0 42
0 0 42
0 0 42
0 0 42
0 0 42
0 0 42
0 0 42
0 0 42
0 0 42
0 0 42
0 0 42
0 0 42
0 0 42
0 0 42
0 0 42
0 0 42
0 0 42
0 0 42
0 0 42
0 0 42
0 0 42
0 0 42
0 0 42
0 0 42
0 0 42
0 0 42
0 0 42
0 0 42
0 0 42
0 0 42
0 0 42
0 0 42
0 0 42
0 0 42
0 0 42
0 0 42
0 0 42
0 0 42
0 0 42
0 0 42
0 0 42
0 0 42
0 0 42
0 0 42
0 0 42
0 0 42
0 0 42
0 0 42
0 0 42
0 0 42
0 0 42
0 0 42
0 0 42
0 0 42
0 0 42
0 0 42
0 0 42
0 0 42
0 0 42
0 0 42
0 0 42
0 0 42
0 0 42
0 0 42
0 0 42
0 0 42
0 0 42
0 0 42
0 0 42
0 0 42
0 0 42
0 0 42
0 0 42
0 0 42
0 0 42
0 0 42
0 0 42
0 0 42
0 0 42
0 0 42
0 0 42
0 0 42
0 0 42
0 0 42
0 0 42
0 0 42
0 0 42
0 0 42
0 0 42
0 0 42
0 0 42
0 0 42
0 0 42
0 0 42
0 0 42
0 0 42
0 0 42
0 0 42
0 0 42
0 0 42
0 0 42
0 0 42
0 0 42
0 0 42
0 0 42
0 0 42
0 0 42
0 0 42
0 0 42
0 0 45
0 0 45
0 0 45
0 0 43
0 0 46
0 0 50
0 0 51
0 0 52
0 0 56
0 0 60
0 0 59
0 0 69
78 69 81
153 120 95
164 133 100
154 121 96
136 107 89
158 133 112
168 132 108
153 127 97
107 91 63
61 61 34
43 52 17
58 67 30
55 63 25
50 58 15
48 57 16
45 54 16
48 57 19
43 56 13
39 56 14
35 52 7
39 55 14
48 62 20
51 65 21
50 61 16
50 63 19
45 58 16
46 60 18
42 56 14
48 62 20
48 60 19
45 58 18
38 49 10
46 54 18
39 52 15
13 40 47
2 11 57
0 0 47
0 0 45
0 0 45
0 0 43
0 0 42
0 0 42
0 0 42
0 0 42
0 0 42
0 0 42
0 0 42
0 0 42
0 0 42
0 0 42
0 0 42
0 0 42
0 0 42
0 0 42
0 0 42
0 0 42
0 0 42
151 160 175
223 236 254
223 236 254
223 236 254
223 236 254
223 236 254
223 236 254
223 236 254
223 236 254
223 236 254
223 236 254
223 236 254
223 236 254
223 236 254
223 236 254
223 236 254
223 236 254
223 236 254
223 236 254
223 236 254
223 236 254
223 236 254
223 236 254
223 236 254
223 236 254
223 236 254
223 236 254
223 236 254
223 236 254
223 236 254
223 236 254
223 236 254
223 236 254
223 236 254
223 236 254
223 236 254
223 236 254
223 236 254
223 236 254
223 236 254
223 236 254
223 236 254
223 236 254
223 236 254
223 236 254
223 236 254
223 236 254
223 236 254
223 236 254
223 236 254
223 236 254
223 236 254
223 236 254
223 236 254
223 236 254
223 236 254
223 236 254
223 236 254
223 236 254
223 236 254
223 236 254
223 236 254
223 236 254
223 236 254
223 236 254
223 236 254
223 236 254
223 236 254
223 236 254
223 236 254
223 236 254
223 236 254
223 236 254
223 236 254
223 236 254
223 236 254
223 236 254
223 236 254
223 236 254
223 236 254
223 236 254
223 236 254
223 236 254
223 236 254
223 236 254
223 236 254
223 236 254
223 236 254
223 236 254
223 236 254
223 236 254
223 236 254
223 236 254
223 236 254
223 236 254
223 236 254
223 236 254
223 236 254
223 236 254
223 236 254
223 236 254
223 236 254
223 236 254
223 236 254
223 236 254
223 236 254
223 236 254
223 236 254
223 236 254
223 236 254
223 236 254
223 236 254
223 236 254
223 236 254
223 236 254
223 236 254
223 236 254
223 236 254
223 236 254
223 236 254
223 236 254
223 236 254
223 236 254
223 236 254
223 236 254
223 236 254
223 236 254
223 236 254
223 236 254
223 236 254
223 236 254
223 236 254
223 236 254
223 236 254
223 236 254
223 236 254
223 236 254
223 236 254
223 236 254
223 236 254
223 236 254
223 236 254
223 236 254
223 236 254
223 236 254
223 236 254
223 236 254
223 236 254
223 236 254
223 236 254
223 236 254
223 236 254
223 236 254
223 236 254
223 236 254
223 236 254
223 236 254
223 236 254
223 236 254
223 236 254
223 236 254
223 236 254
223 236 254
223 236 254
223 236 254
223 236 254
223 236 254
223 236 254
223 236 254
223 236 254
223 236 254
223 236 254
223 236 254
223 236 254
223 236 254
223 236 254
223 236 254
223 236 254
223 236 254
223 236 254
223 236 254
223 236 254
223 236 254
223 236 254
223 236 254
223 236 254
223 236 254
223 236 254
223 236 254
223 236 254
223 236 254
223 236 254
223 236 254
223 236 254
223 236 254
223 236 254
223 236 254
223 236 254
223 236 254
223 236 254
223 236 254
223 236 254
223 236 254
223 236 254
223 236 254
223 236 254
223 236 254
223 236 254
223 236 254
223 236 254
223 236 254
219 232 249
63 66 82
0 0 42
0 0 42
0 0 42
0 0 42
0 0 42
0 0 42
0 0 42
0 0 42
0 0 42
0 0 42
0 0 42
0 0 42
0 0 42
0 0 42
0 0 42
0 0 42
0 0 42
0 0 42
0 0 42
0 0 42
0 0 42
0 0 42
0 0 42
0 0 42
0 0 42
0 0 42
0 0 42
0 0 42
0 0 42
0 0 42
0 0 42
0 0 42
0 0 42
0 0 42
0 0 42
0 0 42
0 0 42
0 0 42
0 0 42
0 0 42
0 0 42
0 0 42
0 0 42
0 0 42
0 0 42
0 0 42
0 0 42
0 0 42
0 0 42
0 0 42
0 0 42
0 0 42
0 0 42
0 0 42
0 0 42
0 0 42
0 0 42
0 0 42
0 0 42
0 0 42
0 0 42
0 0 42
0 0 42
0 0 42
0 0 42
0 0 42
0 0 42
0 0 42
0 0 42
0 0 42
0 0 42
0 0 42
0 0 42
0 0 42
0 0 42
0 0 42
0 0 42
0 0 42
0 0 42
0 0 42
0 0 42
0 0 42
0 0 42
0 0 42
0 0 42
0 0 42
0 0 42
0 0 42
0 0 42
0 0 42
0 0 42
0 0 42
0 0 42
0 0 42
0 0 42
0 0 42
0 0 42
0 0 42
0 0 42
0 0 42
0 0 42
0 0 42
0 0 42
0 0 42
0 0 42
0 0 42
0 0 42
0 0 42
0 0 42
0 0 42
0 0 42
0 0 42
0 0 42
0 0 42
0 0 42
0 0 42
0 0 42
0 0 42
0 0 45
0 0 45
0 0 45
0 0 43
0 0 46
0 0 51
0 0 53
0 0 55
0 0 59
0 0 61
0 0 60
0 0 58
98 74 76
144 109 83
151 117 84
140 113 87
134 108 88
143 117 94
164 136 112
136 112 79
102 86 61
54 56 26
52 61 26
55 63 23
53 63 23
49 59 18
48 55 15
41 53 13
51 59 23
50 60 23
40 55 14
46 61 21
41 55 16
48 61 19
52 63 23
51 60 17
47 60 17
48 62 21
32 46 6
45 59 16
52 64 26
45 56 15
33 44 4
42 52 13
38 47 14
31 47 25
8 20 63
0 0 50
0 0 45
0 0 45
0 0 45
0 0 44
0 0 44
0 0 42
0 0 42
0 0 42
0 0 42
0 0 42
0 0 42
0 0 42
0 0 42
0 0 42
0 0 42
0 0 42
0 0 42
0 0 42
0 0 42
0 0 42
74 78 93
221 234 252
223 236 254
223 236 254
223 236 254
223 236 254
223 236 254
223 236 254
223 236 254
223 236 254
223 236 254
223 236 254
223 236 254
223 236 254
223 236 254
223 236 254
223 236 254
223 236 254
223 236 254
223 236 254
223 236 254
223 236 254
223 236 254
223 236 254
223 236 254
223 236 254
223 236 254
223 236 254
223 236 254
223 236 254
223 236 254
223 236 254
223 236 254
223 236 254
223 236 254
223 236 254
223 236 254
223 236 254
223 236 254
223 236 254
223 236 254
223 236 254
223 236 254
223 236 254
223 236 254
223 236 254
223 236 254
223 236 254
223 236 254
223 236 254
223 236 254
223 236 254
223 236 254
223 236 254
223 236 254
223 236 254
223 236 254
223 236 254
223 236 254
223 236 254
223 236 254
223 236 254
223 236 254
223 236 254
223 236 254
223 236 254
223 236 254
223 236 254
223 236 254
223 236 254
223 236 254
223 236 254
223 236 254
223 236 254
223 236 254
223 236 254
223 236 254
223 236 254
223 236 254
223 236 254
223 236 254
223 236 254
223 236 254
223 236 254
223 236 254
223 236 254
223 236 254
223 236 254
223 236 254
223 236 254
223 236 254
223 236 254
223 236 254
223 236 254
223 236 254
223 236 254
223 236 254
223 236 254
223 236 254
223 236 254
223 236 254
223 236 254
223 236 254
223 236 254
223 236 254
223 236 254
223 236 254
223 236 254
223 236 254
223 236 254
223 236 254
223 236 254
223 236 254
223 236 254
223 236 254
223 236 254
223 236 254
223 236 254
223 236 254
223 236 254
223 236 254
223 236 254
223 236 254
223 236 254
223 236 254
223 236 254
223 236 254
223 236 254
223 236 254
223 236 254
223 236 254
223 236 254
223 236 254
223 236 254
223 236 254
223 236 254
223 236 254
223 236 254
223 236 254
223 236 254
223 236 254
223 236 254
223 236 254
223 236 254
223 236 254
223 236 254
223 236 254
223 236 254
223 236 254
223 236 254
223 236 254
223 236 254
223 236 254
223 236 254
223 236 254
223 236 254
223 236 254
223 236 254
223 236 254
223 236 254
223 236 254
223 236 254
223 236 254
223 236 254
223 236 254
223 236 254
223 236 254
223 236 254
223 236 254
223 236 254
223 236 254
223 236 254
223 236 254
223 236 254
223 236 254
223 236 254
223 236 254
223 236 254
223 236 254
223 236 254
223 236 254
223 236 254
223 236 254
223 236 254
223 236 254
223 236 254
223 236 254
223 236 254
223 236 254
223 236 254
223 236 254
223 236 254
223 236 254
223 236 254
223 236 254
223 236 254
223 236 254
223 236 254
223 236 254
223 236 254
223 236 254
223 236 254
223 236 254
223 236 254
223 236 254
223 236 254
223 236 254
223 236 254
223 236 254
223 236 254
223 236 254
223 236 254
223 236 254
180 190 207
0 0 42
0 0 42
0 0 42
0 0 42
0 0 42
0 0 42
0 0 42
0 0 42
0 0 42
0 0 42
0 0 42
0 0 42
0 0 42
0 0 42
0 0 42
0 0 42
0 0 42
0 0 42
0 0 42
0 0 42
0 0 42
0 0 42
0 0 42
0 0 42
0 0 42
0 0 42
0 0 42
0 0 42
0 0 42
0 0 42
0 0 42
0 0 42
0 0 42
0 0 42
0 0 42
0 0 42
0 0 42
0 0 42
0 0 42
0 0 42
0 0 42
0 0 42
0 0 42
0 0 42
0 0 42
0 0 42
0 0 42
0 0 42
0 0 42
0 0 42
0 0 42
0 0 42
0 0 42
0 0 42
0 0 42
0 0 42
0 0 42
0 0 41
0 0 42
0 0 42
0 0 42
0 0 42
0 0 42
0 0 42
0 0 42
0 0 42
0 0 42
0 0 42
0 0 42
0 0 42
0 0 42
0 0 42
0 0 42
0 0 42
0 0 42
0 0 42
0 0 42
0 0 42
0 0 42
0 0 42
0 0 42
0 0 42
0 0 42
0 0 42
0 0 42
0 0 42
0 0 42
0 0 42
0 0 42
0 0 42
0 0 42
0 0 42
0 0 42
0 0 42
0 0 42
0 0 42
0 0 42
0 0 42
0 0 42
0 0 42
0 0 42
0 0 42
0 0 42
0 0 42
0 0 42
0 0 42
0 0 42
0 0 42
0 0 42
0 0 42
0 0 42
0 0 42
0 0 42
0 0 42
0 0 42
0 0 42
0 0 42
0 0 44
0 0 45
0 0 46
0 0 45
0 0 46
0 0 47
0 0 51
0 0 53
0 0 53
0 0 54
0 0 54
0 0 63
42 37 70
123 97 82
127 98 68
136 105 77
125 104 80
137 112 95
142 117 96
159 129 104
133 110 80
98 83 56
53 57 23
54 63 26
55 64 26
49 60 19
50 60 20
50 59 22
44 53 18
49 56 20
52 62 25
53 65 26
57 70 30
48 62 22
46 58 19
53 63 24
48 60 18
46 60 19
42 55 15
30 45 4
50 61 22
52 62 24
44 53 16
37 46 3
36 48 5
28 44 3
23 42 48
0 5 56
0 0 47
0 0 45
0 0 44
0 0 44
0 0 45
0 0 44
0 0 42
0 0 42
0 0 42
0 0 42
0 0 42
0 0 42
0 0 42
0 0 42
0 0 42
0 0 42
0 0 42
0 0 42
0 0 42
0 0 42
0 0 42
170 180 196
223 236 254
223 236 254
223 236 254
223 236 254
223 236 254
223 236 254
223 236 254
223 236 254
223 236 254
223 236 254
223 236 254
223 236 254
223 236 254
223 236 254
223 236 254
223 236 254
223 236 254
223 236 254
223 236 254
223 236 254
223 236 254
223 236 254
223 236 254
223 236 254
223 236 254
223 236 254
223 236 254
223 236 254
223 236 254
223 236 254
223 236 254
223 236 254
223 236 254
223 236 254
223 236 254
223 236 254
223 236 254
223 236 254
223 236 254
223 236 254
223 236 254
223 236 254
223 236 254
223 236 254
223 236 254
223 236 254
223 236 254
223 236 254
223 236 254
223 236 254
223 236 254
223 236 254
223 236 254
223 236 254
223 236 254
223 236 254
223 236 254
223 236 254
223 236 254
223 236 254
223 236 254
223 236 254
223 236 254
223 236 254
223 236 254
223 236 254
223 236 254
223 236 254
223 236 254
223 236 254
223 236 254
223 236 254
223 236 254
223 236 254
223 236 254
223 236 254
223 236 254
223 236 254
223 236 254
223 236 254
223 236 254
223 236 254
223 236 254
223 236 254
223 236 254
223 236 254
223 236 254
223 236 254
223 236 254
223 236 254
223 236 254
223 236 254
223 236 254
223 236 254
223 236 254
223 236 254
223 236 254
223 236 254
223 236 254
223 236 254
223 236 254
223 236 254
223 236 254
223 236 254
223 236 254
223 236 254
223 236 254
223 236 254
223 236 254
223 236 254
223 236 254
223 236 254
223 236 254
223 236 254
223 236 254
223 236 254
223 236 254
223 236 254
223 236 254
223 236 254
223 236 254
223 236 254
223 236 254
223 236 254
223 236 254
223 236 254
223 236 254
223 236 254
223 236 254
223 236 254
223 236 254
223 236 254
223 236 254
223 236 254
223 236 254
223 236 254
223 236 254
223 236 254
223 236 254
223 236 254
223 236 254
223 236 254
223 236 254
223 236 254
223 236 254
223 236 254
223 236 254
223 236 254
223 236 254
223 236 254
223 236 254
223 236 254
223 236 254
223 236 254
223 236 254
223 236 254
223 236 254
223 236 254
223 236 254
223 236 254
223 236 254
223 236 254
223 236 254
223 236 254
223 236 254
223 236 254
223 236 254
223 236 254
223 236 254
223 236 254
223 236 254
223 236 254
223 236 254
223 236 254
223 236 254
223 236 254
223 236 254
223 236 254
223 236 254
223 236 254
223 236 254
223 236 254
223 236 254
223 236 254
223 236 254
223 236 254
223 236 254
223 236 254
223 236 254
223 236 254
223 236 254
223 236 254
223 236 254
223 236 254
223 236 254
223 236 254
223 236 254
223 236 254
223 236 254
223 236 254
223 236 254
223 236 254
223 236 254
223 236 254
223 236 254
223 236 254
223 236 254
223 236 254
223 236 254
223 236 254
223 236 254
223 236 254
223 236 254
107 113 127
0 0 42
0 0 42
0 0 42
0 0 42
0 0 42
0 0 42
0 0 42
0 0 42
0 0 42
0 0 42
0 0 42
0 0 42
0 0 42
0 0 42
0 0 42
0 0 42
0 0 42
0 0 42
0 0 42
0 0 42
0 0 42
0 0 42
0 0 42
0 0 42
0 0 42
0 0 42
0 0 42
0 0 42
0 0 42
0 0 42
0 0 42
0 0 42
0 0 42
0 0 42
0 0 42
0 0 42
0 0 42
0 0 42
0 0 42
0 0 42
0 0 42
0 0 42
0 0 42
0 0 42
0 0 42
0 0 42
0 0 42
0 0 42
0 0 42
0 0 42
0 0 42
0 0 42
0 0 42
0 0 42
0 0 42
0 0 42
0 0 40
0 0 41
0 0 42
0 0 42
0 0 42
0 0 42
0 0 42
0 0 42
0 0 42
0 0 42
0 0 42
0 0 42
0 0 42
0 0 42
0 0 42
0 0 42
0 0 42
0 0 42
0 0 42
0 0 42
0 0 42
0 0 42
0 0 42
0 0 42
0 0 42
0 0 42
0 0 42
0 0 42
0 0 42
0 0 42
0 0 42
0 0 42
0 0 42
0 0 42
0 0 42
0 0 42
0 0 42
0 0 42
0 0 42
0 0 42
0 0 42
0 0 42
0 0 42
0 0 42
0 0 42
0 0 42
0 0 42
0 0 42
0 0 42
0 0 42
0 0 42
0 0 42
0 0 42
0 0 42
0 0 42
0 0 42
0 0 42
0 0 41
0 0 41
0 0 42
0 0 45
0 0 47
0 0 48
0 0 48
0 0 48
0 0 50
0 0 49
0 0 50
0 0 51
0 0 53
0 0 59
0 0 66
65 57 61
134 109 80
138 115 84
155 127 104
137 118 99
141 117 102
164 141 119
158 130 104
128 111 80
78 73 43
56 64 27
62 71 33
49 59 21
49 60 20
50 60 20
54 64 28
57 63 29
61 69 34
55 66 28
51 60 21
50 61 23
47 57 19
47 55 20
53 63 27
50 64 22
42 56 14
37 50 8
39 53 11
48 58 20
48 57 18
45 53 16
42 51 12
36 50 9
31 49 12
18 40 56
0 0 50
0 0 43
0 0 44
0 0 43
0 0 43
0 0 45
0 0 43
0 0 42
0 0 42
0 0 42
0 0 42
0 0 42
0 0 42
0 0 42
0 0 42
0 0 42
0 0 42
0 0 42
0 0 42
0 0 42
0 0 42
111 118 132
223 236 254
223 236 254
223 236 254
223 236 254
223 236 254
223 236 254
223 236 254
223 236 254
223 236 254
223 236 254
223 236 254
223 236 254
223 236 254
223 236 254
223 236 254
223 236 254
223 236 254
223 236 254
223 236 254
223 236 254
223 236 254
223 236 254
223 236 254
223 236 254
223 236 254
223 236 254
223 236 254
223 236 254
223 236 254
223 236 254
223 236 254
223 236 254
223 236 254
223 236 254
223 236 254
223 236 254
223 236 254
223 236 254
223 236 254
223 236 254
223 236 254
223 236 254
223 236 254
223 236 254
223 236 254
223 236 254
223 236 254
223 236 254
223 236 254
223 236 254
223 236 254
223 236 254
223 236 254
223 236 254
223 236 254
223 236 254
223 236 254
223 236 254
223 236 254
223 236 254
223 236 254
223 236 254
223 236 254
223 236 254
223 236 254
223 236 254
223 236 254
223 236 254
223 236 254
223 236 254
223 236 254
223 236 254
223 236 254
223 236 254
223 236 254
223 236 254
223 236 254
223 236 254
223 236 254
223 236 254
223 236 254
223 236 254
223 236 254
223 236 254
223 236 254
223 236 254
223 236 254
223 236 254
223 236 254
223 236 254
223 236 254
223 236 254
223 236 254
223 236 254
223 236 254
223 236 254
223 236 254
223 236 254
223 236 254
223 236 254
223 236 254
223 236 254
223 236 254
223 236 254
223 236 254
223 236 254
223 236 254
223 236 254
223 236 254
223 236 254
223 236 254
223 236 254
223 236 254
223 236 254
223 236 254
223 236 254
223 236 254
223 236 254
223 236 254
223 236 254
223 236 254
223 236 254
223 236 254
223 236 254
223 236 254
223 236 254
223 236 254
223 236 254
223 236 254
223 236 254
223 236 254
223 236 254
223 236 254
223 236 254
223 236 254
223 236 254
223 236 254
223 236 254
223 236 254
223 236 254
223 236 254
223 236 254
223 236 254
223 236 254
223 236 254
223 236 254
223 236 254
223 236 254
223 236 254
223 236 254
223 236 254
223 236 254
223 236 254
223 236 254
223 236 254
223 236 254
223 236 254
223 236 254
223 236 254
223 236 254
223 236 254
223 236 254
223 236 254
223 236 254
223 236 254
223 236 254
223 236 254
223 236 254
223 236 254
223 236 254
223 236 254
223 236 254
223 236 254
223 236 254
223 236 254
223 236 254
223 236 254
223 236 254
223 236 254
223 236 254
223 236 254
223 236 254
223 236 254
223 236 254
223 236 254
223 236 254
223 236 254
223 236 254
223 236 254
223 236 254
223 236 254
223 236 254
223 236 254
223 236 254
223 236 254
223 236 254
223 236 254
223 236 254
223 236 254
223 236 254
223 236 254
223 236 254
223 236 254
223 236 254
223 236 254
223 236 254
223 236 254
223 236 254
223 236 254
223 236 254
223 236 254
223 236 254
223 236 254
223 236 254
202 214 231
31 33 55
0 0 42
0 0 42
0 0 42
0 0 42
0 0 42
0 0 42
0 0 42
0 0 42
0 0 42
0 0 42
0 0 42
0 0 42
0 0 42
0 0 42
0 0 42
0 0 42
0 0 42
0 0 42
0 0 42
0 0 42
0 0 42
0 0 42
0 0 42
0 0 42
0 0 42
0 0 42
0 0 42
0 0 42
0 0 42
0 0 42
0 0 42
0 0 42
0 0 42
0 0 42
0 0 42
0 0 42
0 0 42
0 0 42
0 0 42
0 0 42
0 0 42
0 0 42
0 0 42
0 0 42
0 0 42
0 0 42
0 0 42
0 0 42
0 0 42
0 0 42
0 0 42
0 0 42
0 0 42
0 0 42
0 0 42
0 0 42
0 0 42
0 0 39
0 0 39
0 0 42
0 0 42
0 0 42
0 0 42
0 0 42
0 0 42
0 0 42
0 0 42
0 0 42
0 0 42
0 0 42
0 0 42
0 0 42
0 0 42
0 0 42
0 0 42
0 0 42
0 0 42
0 0 42
0 0 42
0 0 42
0 0 42
0 0 42
0 0 42
0 0 42
0 0 42
0 0 42
0 0 42
0 0 42
0 0 42
0 0 42
0 0 42
0 0 42
0 0 42
0 0 42
0 0 42
0 0 42
0 0 42
0 0 42
0 0 42
0 0 42
0 0 42
0 0 42
0 0 42
0 0 42
0 0 42
0 0 42
0 0 42
0 0 42
0 0 42
0 0 42
0 0 42
0 0 42
0 0 41
0 0 41
0 0 44
0 0 46
0 0 48
0 0 50
0 0 50
0 0 52
0 0 52
0 0 52
0 0 52
0 0 56
0 0 56
0 4 61
23 20 66
111 99 82
139 112 86
126 100 77
145 126 112
141 127 113
134 119 98
152 135 114
135 119 88
113 102 72
50 64 24
64 75 36
58 65 28
53 62 23
51 61 24
54 63 26
64 69 36
68 73 40
55 65 28
48 63 22
53 64 24
51 60 21
48 58 20
47 57 18
48 58 18
46 57 15
43 55 11
50 63 22
51 65 26
54 68 28
50 62 21
49 56 19
46 52 16
37 46 15
26 43 27
5 13 56
0 0 44
0 0 43
0 0 45
0 0 43
0 0 42
0 0 44
0 0 42
0 0 42
0 0 41
0 0 42
0 0 42
0 0 42
0 0 42
0 0 42
0 0 42
0 0 42
0 0 42
0 0 42
0 0 42
0 0 42
22 23 49
199 210 227
223 236 254
224 236 254
223 236 254
223 236 254
223 236 254
223 236 254
223 236 254
223 236 254
223 236 254
223 236 254
223 236 254
223 236 254
223 236 254
223 236 254
223 236 254
223 236 254
223 236 254
223 236 254
223 236 254
223 236 254
223 236 254
223 236 254
223 236 254
223 236 254
223 236 254
223 236 254
223 236 254
223 236 254
223 236 254
223 236 254
223 236 254
223 236 254
223 236 254
223 236 254
223 236 254
223 236 254
223 236 254
223 236 254
223 236 254
223 236 254
223 236 254
223 236 254
223 236 254
223 236 254
223 236 254
223 236 254
223 236 254
223 236 254
223 236 254
223 236 254
223 236 254
223 236 254
223 236 254
223 236 254
223 236 254
223 236 254
223 236 254
223 236 254
223 236 254
223 236 254
223 236 254
223 236 254
223 236 254
223 236 254
223 236 254
223 236 254
223 236 254
223 236 254
223 236 254
223 236 254
223 236 254
223 236 254
223 236 254
223 236 254
223 236 254
223 236 254
223 236 254
223 236 254
223 236 254
223 236 254
223 236 254
223 236 254
223 236 254
223 236 254
223 236 254
223 236 254
223 236 254
223 236 254
223 236 254
223 236 254
223 236 254
223 236 254
223 236 254
223 236 254
223 236 254
223 236 254
223 236 254
223 236 254
223 236 254
223 236 254
223 236 254
223 236 254
223 236 254
223 236 254
223 236 254
223 236 254
223 236 254
223 236 254
223 236 254
223 236 254
223 236 254
223 236 254
223 236 254
223 236 254
223 236 254
223 236 254
223 236 254
223 236 254
223 236 254
223 236 254
223 236 254
223 236 254
223 236 254
223 236 254
223 236 254
223 236 254
223 236 254
223 236 254
223 236 254
223 236 254
223 236 254
223 236 254
223 236 254
223 236 254
223 236 254
223 236 254
223 236 254
223 236 254
223 236 254
223 236 254
223 236 254
223 236 254
223 236 254
223 236 254
223 236 254
223 236 254
223 236 254
223 236 254
223 236 254
223 236 254
223 236 254
223 236 254
223 236 254
224 236 254
223 236 254
224 236 254
224 236 254
224 236 254
224 236 254
224 236 254
224 236 254
224 236 254
224 236 254
224 236 254
224 236 254
224 236 254
224 236 254
224 236 254
224 236 254
224 236 254
224 236 254
224 236 254
224 236 254
224 236 254
224 236 254
224 236 254
224 236 254
224 236 254
224 236 254
224 236 254
224 236 254
224 236 254
224 236 254
224 236 254
224 236 254
224 236 254
224 236 254
224 236 254
224 236 254
224 236 254
224 236 254
224 236 254
224 236 254
224 236 254
224 236 254
224 236 254
224 236 254
224 236 254
224 236 254
224 236 254
224 236 254
224 236 254
224 236 254
224 236 254
224 236 254
224 236 254
224 236 254
224 236 254
224 236 254
224 236 254
224 236 254
224 236 254
224 236 254
224 236 254
224 236 254
155 164 179
0 0 42
0 0 42
0 0 42
0 0 42
0 0 42
0 0 42
0 0 42
0 0 42
0 0 42
0 0 42
0 0 42
0 0 42
0 0 42
0 0 42
0 0 42
0 0 42
0 0 42
0 0 42
0 0 42
0 0 42
0 0 42
0 0 42
0 0 42
0 0 42
0 0 42
0 0 42
0 0 42
0 0 42
0 0 42
0 0 42
0 0 42
0 0 42
0 0 42
0 0 42
0 0 42
0 0 42
0 0 42
0 0 42
0 0 42
0 0 42
0 0 42
0 0 42
0 0 42
0 0 42
0 0 42
0 0 42
0 0 42
0 0 42
0 0 42
0 0 42
0 0 42
0 0 42
0 0 42
0 0 42
0 0 42
0 0 42
0 0 42
0 0 40
0 0 40
0 0 42
0 0 42
0 0 42
0 0 42
0 0 42
0 0 42
0 0 42
0 0 42
0 0 42
0 0 42
0 0 42
0 0 42
0 0 42
0 0 42
0 0 42
0 0 42
0 0 42
0 0 42
0 0 42
0 0 42
0 0 42
0 0 42
0 0 42
0 0 42
0 0 42
0 0 42
0 0 42
0 0 42
0 0 42
0 0 42
0 0 42
0 0 42
0 0 42
0 0 42
0 0 42
0 0 42
0 0 42
0 0 42
0 0 42
0 0 42
0 0 42
0 0 42
0 0 42
0 0 42
0 0 42
0 0 42
0 0 42
0 0 42
0 0 42
0 0 42
0 0 42
0 0 42
0 0 42
0 0 42
0 0 43
0 0 46
0 0 47
0 0 49
0 0 50
0 0 52
0 0 55
0 0 57
0 0 59
0 0 60
0 0 63
0 0 63
0 6 62
85 72 81
146 127 99
127 104 80
135 111 94
159 142 130
134 116 100
137 119 94
111 95 71
119 103 73
72 72 38
54 66 27
60 69 29
63 71 32
58 65 28
52 60 23
60 67 31
65 68 36
63 67 32
43 57 12
45 61 17
53 63 23
50 59 22
38 47 10
36 44 10
52 59 20
54 63 23
57 68 27
53 69 25
55 73 25
53 72 27
53 62 24
58 61 28
49 54 16
35 52 24
17 30 54
0 0 48
0 0 45
0 0 45
0 0 45
0 0 43
0 0 43
0 0 45
0 0 43
0 0 42
0 0 42
0 0 42
0 0 42
0 0 42
0 0 42
0 0 42
0 0 42
0 0 42
0 0 42
0 0 42
0 0 42
0 0 42
158 167 182
224 236 254
224 236 254
224 236 254
224 236 254
224 236 254
224 236 254
224 236 254
224 236 254
224 236 254
224 236 254
224 236 254
224 236 254
224 236 254
224 236 254
224 236 254
224 236 254
224 236 254
224 236 254
224 236 254
224 236 254
224 236 254
224 236 254
224 236 254
224 236 254
224 236 254
224 236 254
224 236 254
224 236 254
224 236 254
224 236 254
224 236 254
224 236 254
224 236 254
224 236 254
224 236 254
224 236 254
224 236 254
224 236 254
224 236 254
224 236 254
224 236 254
224 236 254
224 236 254
224 236 254
224 236 254
224 236 254
224 236 254
224 236 254
224 236 254
224 236 254
224 236 254
224 236 254
224 236 254
224 236 254
224 236 254
224 236 254
224 236 254
224 236 254
224 236 254
224 236 254
223 236 254
223 236 254
223 236 254
223 236 254
223 236 254
223 236 254
223 236 254
223 236 254
223 236 254
223 236 254
223 236 254
223 236 254
223 236 254
223 236 254
223 236 254
223 236 254
223 236 254
223 236 254
223 236 254
223 236 254
223 236 254
223 236 254
223 236 254
223 236 254
223 236 254
223 236 254
223 236 254
223 236 254
223 236 254
223 236 254
223 236 254
223 236 254
223 236 254
223 236 254
223 236 254
223 236 254
223 236 254
223 236 254
223 236 254
223 236 254
223 236 254
223 236 254
223 236 254
223 236 254
223 236 254
223 236 254
223 236 254
223 236 254
223 236 254
223 236 254
223 236 254
223 236 254
223 236 254
224 236 254
224 236 254
224 236 254
224 236 254
224 236 254
224 236 254
224 236 254
224 236 254
224 236 254
224 236 254
224 236 254
224 236 254
224 236 254
224 236 254
224 236 254
224 236 254
224 236 254
224 236 254
224 236 254
224 236 254
224 236 254
224 236 254
224 236 254
224 236 254
224 236 254
224 236 254
224 236 254
224 236 254
224 236 254
224 236 254
224 236 254
224 236 254
224 236 254
224 236 254
224 236 254
224 236 254
224 236 254
224 236 254
224 236 254
224 236 254
224 236 254
224 236 254
224 236 254
224 236 254
224 236 254
224 236 254
224 236 254
224 236 254
224 236 254
224 236 254
224 236 254
224 236 254
224 236 254
224 236 254
224 236 254
224 236 254
224 236 254
224 236 254
224 236 254
224 236 254
224 236 254
224 236 254
224 236 254
224 236 254
224 236 254
224 236 254
224 236 254
224 236 254
224 236 254
224 236 254
224 236 254
224 236 254
224 236 254
224 236 254
224 236 254
224 236 254
224 236 254
224 236 254
224 236 254
224 236 254
224 236 254
224 236 254
224 236 254
224 236 254
224 236 254
224 236 254
224 236 254
224 236 254
224 236 254
224 236 254
224 236 254
224 236 254
224 236 254
224 236 254
224 236 254
224 236 254
224 236 254
224 236 254
224 236 254
224 236 254
224 236 254
224 236 254
224 236 254
220 233 251
80 85 100
0 0 42
0 0 42
0 0 42
0 0 42
0 0 42
0 0 42
0 0 42
0 0 42
0 0 42
0 0 42
0 0 42
0 0 42
0 0 42
0 0 42
0 0 42
0 0 42
0 0 42
0 0 42
0 0 42
0 0 42
0 0 42
0 0 42
0 0 42
0 0 42
0 0 42
0 0 42
0 0 42
0 0 42
0 0 42
0 0 42
0 0 42
0 0 42
0 0 42
0 0 42
0 0 42
0 0 42
0 0 42
0 0 42
0 0 42
0 0 42
0 0 42
0 0 42
0 0 42
0 0 42
0 0 42
0 0 42
0 0 42
0 0 42
0 0 42
0 0 42
0 0 42
0 0 42
0 0 42
0 0 42
0 0 42
0 0 40
0 0 42
0 0 42
0 0 42
0 0 42
0 0 42
0 0 42
0 0 42
0 0 42
0 0 42
0 0 42
0 0 42
0 0 42
0 0 42
0 0 42
0 0 42
0 0 42
0 0 42
0 0 42
0 0 42
0 0 42
0 0 42
0 0 42
0 0 42
0 0 42
0 0 42
0 0 42
0 0 42
0 0 42
0 0 42
0 0 42
0 0 42
0 0 42
0 0 42
0 0 42
0 0 42
0 0 42
0 0 42
0 0 42
0 0 42
0 0 42
0 0 42
0 0 42
0 0 42
0 0 42
0 0 42
0 0 42
0 0 42
0 0 42
0 0 42
0 0 42
0 0 42
0 0 42
0 0 42
0 0 42
0 0 42
0 0 43
0 0 45
0 0 47
0 0 48
0 0 50
0 0 51
0 0 52
0 0 55
0 0 59
0 0 63
0 0 64
0 0 64
0 0 67
9 9 62
112 95 83
140 119 92
127 115 92
155 135 122
142 127 114
113 89 69
117 97 71
162 133 111
146 127 100
55 61 24
60 69 33
61 66 34
69 74 39
53 63 27
56 64 29
66 70 37
63 69 34
36 46 10
40 52 11
53 64 25
51 59 22
45 54 18
40 47 12
51 55 21
64 68 29
67 74 34
63 74 31
60 75 31
55 71 27
45 58 22
41 52 17
44 53 22
36 50 24
15 27 60
0 1 50
0 0 45
0 0 45
0 0 45
0 0 45
0 0 45
0 0 45
0 0 45
0 0 43
0 0 42
0 0 42
0 0 42
0 0 42
0 0 42
0 0 42
0 0 42
0 0 42
0 0 42
0 0 42
0 0 42
0 0 42
89 94 109
217 229 247
224 236 254
224 236 254
224 236 254
224 236 254
224 236 254
224 236 254
224 236 254
224 236 254
224 236 254
224 236 254
224 236 254
224 236 254
224 236 254
224 236 254
224 236 254
224 236 254
224 236 254
224 236 254
224 236 254
224 236 254
224 236 254
224 236 254
224 236 254
224 236 254
224 236 254
224 236 254
224 236 254
224 236 254
224 236 254
224 236 254
224 236 254
224 236 254
224 236 254
224 236 254
224 236 254
224 236 254
224 236 254
224 236 254
224 236 254
224 236 254
224 236 254
224 236 254
224 236 254
224 236 254
224 236 254
224 236 254
224 236 254
224 236 254
224 236 254
224 236 254
224 236 254
224 236 254
224 236 254
224 236 254
224 236 254
224 236 254
224 236 254
224 236 254
224 236 254
224 236 254
224 236 254
224 236 254
224 236 254
224 236 254
224 236 254
224 236 254
224 236 254
224 236 254
224 236 254
224 236 254
224 236 254
224 236 254
224 236 254
224 236 254
224 236 254
224 236 254
224 236 254
224 236 254
224 236 254
224 236 254
224 236 254
224 236 254
224 236 254
224 236 254
224 236 254
224 236 254
224 236 254
224 236 254
224 236 254
224 236 254
224 236 254
224 236 254
224 236 254
224 236 254
224 236 254
224 236 254
224 236 254
224 236 254
224 236 254
224 236 254
224 236 254
224 236 254
224 236 254
223 236 254
223 236 254
223 236 254
223 236 254
223 236 254
224 236 254
224 236 254
224 236 254
224 236 254
224 236 254
224 236 254
224 236 254
224 236 254
224 236 254
224 236 254
224 236 254
224 236 254
224 236 254
224 236 254
224 236 254
224 236 254
224 236 254
224 236 254
224 236 254
224 236 254
224 236 254
224 236 254
224 236 254
224 236 254
224 236 254
224 236 254
224 236 254
224 236 254
224 236 254
224 236 254
224 236 254
224 236 254
224 236 254
224 236 254
224 236 254
224 236 254
224 236 254
224 236 254
224 236 254
224 236 254
224 236 254
224 236 254
224 236 254
224 236 254
224 236 254
224 236 254
224 236 254
224 236 254
224 236 254
224 236 254
224 236 254
224 236 254
224 236 254
224 236 254
224 236 254
224 236 254
224 236 254
224 236 254
224 236 254
224 236 254
224 236 254
224 236 254
224 236 254
224 236 254
224 236 254
224 236 254
224 236 254
224 236 254
224 236 254
224 236 254
224 236 254
224 236 254
224 236 254
224 236 254
224 236 254
224 236 254
224 236 254
224 236 254
224 236 254
224 236 254
224 236 254
224 236 254
224 236 254
224 236 254
224 236 254
224 236 254
224 236 254
224 236 254
224 236 254
224 236 254
224 236 254
224 236 254
224 236 254
224 236 254
224 236 254
224 236 254
224 236 254
224 236 254
224 236 254
224 236 254
224 236 254
224 236 254
224 236 254
224 236 254
224 236 254
224 236 254
224 236 254
224 236 254
224 236 254
184 195 211
0 0 42
0 0 42
0 0 42
0 0 42
0 0 42
0 0 42
0 0 42
0 0 42
0 0 42
0 0 42
0 0 42
0 0 42
0 0 42
0 0 42
0 0 42
0 0 42
0 0 42
0 0 42
0 0 42
0 0 42
0 0 42
0 0 42
0 0 42
0 0 42
0 0 42
0 0 42
0 0 42
0 0 42
0 0 42
0 0 42
0 0 42
0 0 42
0 0 42
0 0 42
0 0 42
0 0 42
0 0 42
0 0 42
0 0 42
0 0 42
0 0 42
0 0 42
0 0 42
0 0 42
0 0 42
0 0 42
0 0 42
0 0 42
0 0 42
0 0 42
0 0 42
0 0 42
0 0 42
0 0 42
0 0 42
0 0 42
0 0 42
0 0 42
0 0 42
0 0 42
0 0 42
0 0 42
0 0 42
0 0 42
0 0 42
0 0 42
0 0 42
0 0 42
0 0 42
0 0 42
0 0 42
0 0 42
0 0 42
0 0 42
0 0 42
0 0 42
0 0 42
0 0 42
0 0 42
0 0 42
0 0 42
0 0 42
0 0 42
0 0 42
0 0 42
0 0 42
0 0 42
0 0 42
0 0 42
0 0 42
0 0 42
0 0 42
0 0 42
0 0 42
0 0 42
0 0 42
0 0 42
0 0 42
0 0 42
0 0 42
0 0 42
0 0 42
0 0 42
0 0 42
0 0 42
0 0 42
0 0 42
0 0 42
0 0 43
0 0 44
0 0 44
0 0 43
0 0 45
0 0 45
0 0 46
0 0 48
0 0 50
0 0 50
0 0 52
0 0 54
0 0 58
0 0 60
0 0 64
0 0 66
39 33 56
114 96 69
130 106 82
148 128 112
141 115 98
116 97 72
115 91 69
108 93 67
137 113 93
84 79 51
57 63 29
56 65 30
68 71 35
62 66 31
53 63 25
63 71 33
70 74 40
59 66 31
44 54 17
58 70 32
55 64 25
59 66 31
61 68 31
56 60 25
64 66 29
72 74 34
65 69 29
64 72 30
52 66 24
42 53 16
45 55 13
40 52 8
36 52 21
14 24 63
0 0 55
0 0 45
0 0 45
0 0 45
0 0 45
0 0 45
0 0 45
0 0 45
0 0 45
0 0 43
0 0 42
0 0 42
0 0 42
0 0 42
0 0 42
0 0 42
0 0 42
0 0 42
0 0 42
0 0 42
0 0 42
0 0 42
186 196 213
224 236 254
224 236 254
224 236 254
224 236 254
224 236 254
224 236 254
224 236 254
224 236 254
224 236 254
224 236 254
224 236 254
224 236 254
224 236 254
224 236 254
224 236 254
224 236 254
224 236 254
224 236 254
224 236 254
224 236 254
224 236 254
224 236 254
224 236 254
224 236 254
224 236 254
224 236 254
224 236 254
224 236 254
224 236 254
224 236 254
224 236 254
224 236 254
224 236 254
224 236 254
224 236 254
224 236 254
224 236 254
224 236 254
224 236 254
224 236 254
224 236 254
224 236 254
224 236 254
224 236 254
224 236 254
224 236 254
224 236 254
224 236 254
224 236 254
224 236 254
224 236 254
224 236 254
224 236 254
224 236 254
224 236 254
224 236 254
224 236 254
224 236 254
224 236 254
224 236 254
224 236 254
224 236 254
224 236 254
224 236 254
224 236 254
224 236 254
224 236 254
224 236 254
224 236 254
224 236 254
224 236 254
224 236 254
224 236 254
224 236 254
224 236 254
224 236 254
224 236 254
224 236 254
224 236 254
224 236 254
224 236 254
224 236 254
224 236 254
224 236 254
224 236 254
224 236 254
224 236 254
224 236 254
224 236 254
224 236 254
224 236 254
224 236 254
224 236 254
224 236 254
224 236 254
224 236 254
224 236 254
224 236 254
224 236 254
224 236 254
224 236 254
224 236 254
224 236 254
224 236 254
224 236 254
224 236 254
224 236 254
224 236 254
224 236 254
224 236 254
224 236 254
224 236 254
224 236 254
224 236 254
224 236 254
224 236 254
224 236 254
224 236 254
224 236 254
224 236 254
224 236 254
224 236 254
224 236 254
224 236 254
224 236 254
224 236 254
224 236 254
224 236 254
224 236 254
224 236 254
224 236 254
224 236 254
224 236 254
224 236 254
224 236 254
224 236 254
224 236 254
224 236 254
224 236 254
224 236 254
224 236 254
224 236 254
224 236 254
224 236 254
224 236 254
224 236 254
224 236 254
224 236 254
224 236 254
224 236 254
224 236 254
224 236 254
224 236 254
224 236 254
224 236 254
224 236 254
224 236 254
224 236 254
224 236 254
224 236 254
224 236 254
224 236 254
224 236 254
224 236 254
224 236 254
224 236 254
224 236 254
224 236 254
224 236 254
224 236 254
224 236 254
224 236 254
224 236 254
224 236 254
224 236 254
224 236 254
224 236 254
224 236 254
224 236 254
224 236 254
224 236 254
224 236 254
224 236 254
224 236 254
224 236 254
224 236 254
224 236 254
224 236 254
224 236 254
224 236 254
224 237 254
224 237 254
224 237 254
224 237 254
224 237 254
224 237 254
224 237 254
224 237 254
224 237 254
224 237 254
224 237 254
224 237 254
224 237 254
224 237 254
224 237 254
224 237 254
224 237 254
224 237 254
224 237 254
224 237 254
224 237 254
224 237 254
224 237 254
224 237 254
224 237 254
224 237 254
224 237 254
224 237 254
224 237 254
150 158 173
0 0 42
0 0 42
0 0 42
0 0 42
0 0 42
0 0 42
0 0 42
0 0 42
0 0 42
0 0 42
0 0 42
0 0 42
0 0 42
0 0 42
0 0 42
0 0 42
0 0 42
0 0 42
0 0 42
0 0 42
0 0 42
0 0 42
0 0 42
0 0 42
0 0 42
0 0 42
0 0 42
0 0 42
0 0 42
0 0 42
0 0 42
0 0 42
0 0 42
0 0 42
0 0 42
0 0 42
0 0 42
0 0 42
0 0 42
0 0 42
0 0 42
0 0 42
0 0 42
0 0 42
0 0 42
0 0 42
0 0 42
0 0 42
0 0 42
0 0 42
0 0 42
0 0 42
0 0 42
0 0 42
0 0 42
0 0 42
0 0 42
0 0 42
0 0 42
0 0 42
0 0 42
0 0 42
0 0 42
0 0 42
0 0 42
0 0 42
0 0 42
0 0 42
0 0 42
0 0 42
0 0 42
0 0 42
0 0 42
0 0 42
0 0 42
0 0 42
0 0 42
0 0 42
0 0 42
0 0 42
0 0 42
0 0 42
0 0 42
0 0 42
0 0 42
0 0 42
0 0 42
0 0 42
0 0 42
0 0 42
0 0 42
0 0 42
0 0 42
0 0 42
0 0 42
0 0 42
0 0 42
0 0 42
0 0 42
0 0 42
0 0 42
0 0 42
0 0 42
0 0 42
0 0 42
0 0 42
0 0 42
0 0 43
0 0 45
0 0 45
0 0 45
0 0 45
0 0 45
0 0 47
0 0 49
0 0 50
0 0 51
0 0 53
0 0 57
0 0 61
0 0 68
0 0 63
10 12 68
82 79 63
132 108 81
141 121 107
154 139 120
121 104 79
108 91 70
103 85 56
96 84 57
69 68 42
82 76 53
61 66 32
75 76 36
78 79 41
60 62 30
45 55 22
58 67 31
68 72 36
54 59 23
58 68 32
55 66 27
53 61 23
68 74 38
63 66 29
65 66 30
67 69 30
70 72 33
66 69 30
62 69 26
58 66 24
56 63 24
48 68 32
49 69 48
18 32 65
0 0 54
0 0 44
0 0 45
0 0 45
0 0 45
0 0 45
0 0 45
0 0 45
0 0 45
0 0 45
0 0 44
0 0 43
0 0 42
0 0 42
0 0 42
0 0 42
0 0 42
0 0 42
0 0 42
0 0 42
0 0 42
0 0 42
147 155 170
224 237 254
224 237 254
224 237 254
224 237 254
224 237 254
224 237 254
224 237 254
224 237 254
224 237 254
224 237 254
224 237 254
224 237 254
224 237 254
224 237 254
224 237 254
224 237 254
224 237 254
224 237 254
224 237 254
224 237 254
224 237 254
224 237 254
224 237 254
224 237 254
224 237 254
224 237 254
224 237 254
224 237 254
224 236 254
224 237 254
224 237 254
224 236 254
224 236 254
224 236 254
224 236 254
224 236 254
224 236 254
224 236 254
224 236 254
224 236 254
224 236 254
224 236 254
224 236 254
224 236 254
224 236 254
224 236 254
224 236 254
224 236 254
224 236 254
224 236 254
224 236 254
224 236 254
224 236 254
224 236 254
224 236 254
224 236 254
224 236 254
224 236 254
224 236 254
224 236 254
224 236 254
224 236 254
224 236 254
224 236 254
224 236 254
224 236 254
224 236 254
224 236 254
224 236 254
224 236 254
224 236 254
224 236 254
224 236 254
224 236 254
224 236 254
224 236 254
224 236 254
224 236 254
224 236 254
224 236 254
224 236 254
224 236 254
224 236 254
224 236 254
224 236 254
224 236 254
224 236 254
224 236 254
224 236 254
224 236 254
224 236 254
224 236 254
224 236 254
224 236 254
224 236 254
224 236 254
224 236 254
224 236 254
224 236 254
224 236 254
224 236 254
224 236 254
224 236 254
224 236 254
224 236 254
224 236 254
224 236 254
224 236 254
224 236 254
224 236 254
224 236 254
224 236 254
224 236 254
224 236 254
224 236 254
224 236 254
224 236 254
224 236 254
224 236 254
224 236 254
224 236 254
224 236 254
224 236 254
224 236 254
224 236 254
224 236 254
224 236 254
224 236 254
224 236 254
224 236 254
224 236 254
224 236 254
224 236 254
224 236 254
224 236 254
224 236 254
224 236 254
224 236 254
224 236 254
224 236 254
224 236 254
224 237 254
224 237 254
224 237 254
224 237 254
224 237 254
224 237 254
224 237 254
224 237 254
224 237 254
224 237 254
224 237 254
224 237 254
224 237 254
224 237 254
224 237 254
224 237 254
224 237 254
224 237 254
224 237 254
224 237 254
224 237 254
224 237 254
224 237 254
224 237 254
224 237 254
224 237 254
224 237 254
224 237 254
224 237 254
224 237 254
224 237 254
224 237 254
224 237 254
224 237 254
224 237 254
224 237 254
224 237 254
224 237 254
224 237 254
224 237 254
224 237 254
224 237 254
224 237 254
224 237 254
224 237 254
224 237 254
224 237 254
224 237 254
224 237 254
224 237 254
224 237 254
224 237 254
224 237 254
224 237 254
224 237 254
224 237 254
224 237 254
224 237 254
224 237 254
224 237 254
224 237 254
224 237 254
224 237 254
224 237 254
224 237 254
224 237 254
224 237 254
224 237 254
224 237 254
224 237 254
224 237 254
224 237 254
224 237 254
224 237 254
224 237 254
224 237 254
224 237 254
224 237 254
224 237 254
215 227 244
86 91 106
0 0 42
0 0 42
0 0 42
0 0 42
0 0 42
0 0 42
0 0 42
0 0 42
0 0 42
0 0 42
0 0 42
0 0 42
0 0 42
0 0 42
0 0 42
0 0 42
0 0 42
0 0 42
0 0 42
0 0 42
0 0 42
0 0 42
0 0 42
0 0 42
0 0 42
0 0 42
0 0 42
0 0 42
0 0 42
0 0 42
0 0 42
0 0 42
0 0 42
0 0 42
0 0 42
0 0 42
0 0 42
0 0 42
0 0 42
0 0 42
0 0 42
0 0 42
0 0 42
0 0 42
0 0 42
0 0 42
0 0 42
0 0 42
0 0 42
0 0 42
0 0 42
0 0 42
0 0 42
0 0 42
0 0 42
0 0 42
0 0 42
0 0 42
0 0 42
0 0 42
0 0 42
0 0 42
0 0 42
0 0 42
0 0 42
0 0 42
0 0 42
0 0 42
0 0 42
0 0 42
0 0 42
0 0 42
0 0 42
0 0 42
0 0 42
0 0 42
0 0 42
0 0 42
0 0 42
0 0 42
0 0 42
0 0 42
0 0 42
0 0 42
0 0 42
0 0 42
0 0 42
0 0 42
0 0 42
0 0 42
0 0 42
0 0 42
0 0 42
0 0 42
0 0 42
0 0 42
0 0 42
0 0 42
0 0 42
0 0 42
0 0 42
0 0 42
0 0 42
0 0 42
0 0 42
0 0 42
0 0 43
0 0 45
0 0 45
0 0 45
0 0 45
0 0 47
0 0 49
0 0 50
0 0 52
0 0 52
0 0 55
0 0 58
0 0 61
0 0 67
0 0 65
4 7 66
80 71 53
112 92 67
150 133 120
138 119 96
96 80 55
149 113 95
127 97 73
96 83 56
77 76 48
86 73 47
86 80 45
70 69 32
73 73 40
58 63 34
29 42 11
67 77 42
72 78 41
62 68 32
57 67 30
49 59 19
58 67 32
68 72 34
68 70 30
70 71 35
67 72 32
65 68 30
65 72 31
56 68 25
53 64 16
48 61 26
36 103 101
24 61 75
0 9 58
0 0 45
0 0 45
0 0 45
0 0 45
0 0 45
0 0 44
0 0 43
0 0 45
0 0 45
0 0 45
0 0 45
0 0 43
0 0 44
0 0 42
0 0 43
0 0 43
0 0 43
0 0 43
0 0 42
0 0 42
0 0 42
80 85 100
218 231 248
224 237 254
224 237 254
224 237 254
224 237 254
224 237 254
224 237 254
224 237 254
224 237 254
224 237 254
224 237 254
224 237 254
224 237 254
224 237 254
224 237 254
224 237 254
224 237 254
224 237 254
224 237 254
224 237 254
224 237 254
224 237 254
224 237 254
224 237 254
224 237 254
224 237 254
224 237 254
224 237 254
224 237 254
224 237 254
224 237 254
224 237 254
224 237 254
224 237 254
224 237 254
224 237 254
224 237 254
224 237 254
224 237 254
224 237 254
224 237 254
224 237 254
224 237 254
224 237 254
224 237 254
224 237 254
224 237 254
224 237 254
224 237 254
224 237 254
224 237 254
224 237 254
224 237 254
224 237 254
224 237 254
224 237 254
224 237 254
224 237 254
224 237 254
224 237 254
224 237 254
224 237 254
224 237 254
224 237 254
224 237 254
224 237 254
224 237 254
224 237 254
224 237 254
224 237 254
224 237 254
224 237 254
224 237 254
224 237 254
224 237 254
224 237 254
224 237 254
224 237 254
224 237 254
224 236 254
224 236 254
224 236 254
224 236 254
224 236 254
224 236 254
224 236 254
224 236 254
224 236 254
224 236 254
224 236 254
224 236 254
224 236 254
224 236 254
224 236 254
224 236 254
224 236 254
224 236 254
224 236 254
224 236 254
224 236 254
224 236 254
224 236 254
224 236 254
224 236 254
224 236 254
224 236 254
224 236 254
224 236 254
224 236 254
224 236 254
224 236 254
224 237 254
224 237 254
224 237 254
224 237 254
224 237 254
224 237 254
224 237 254
224 237 254
224 237 254
224 237 254
224 237 254
224 237 254
224 237 254
224 237 254
224 237 254
224 237 254
224 237 254
224 237 254
224 237 254
224 237 254
224 237 254
224 237 254
224 237 254
224 237 254
224 237 254
224 237 254
224 237 254
224 237 254
224 237 254
224 237 254
224 237 254
224 237 254
224 237 254
224 237 254
224 237 254
224 237 254
224 237 254
224 237 254
224 237 254
224 237 254
224 237 254
224 237 254
224 237 254
224 237 254
224 237 254
224 237 254
224 237 254
224 237 254
224 237 254
224 237 254
224 237 254
224 237 254
224 237 254
224 237 254
224 237 254
224 237 254
224 237 254
224 237 254
224 237 254
224 237 254
224 237 254
224 237 254
224 237 254
224 237 254
224 237 254
224 237 254
224 237 254
224 237 254
224 237 254
224 237 254
224 237 254
224 237 254
224 237 254
224 237 254
224 237 254
224 237 254
224 237 254
224 237 254
224 237 254
224 237 254
224 237 254
224 237 254
224 237 254
224 237 254
224 237 254
224 237 254
224 237 254
224 237 254
224 237 254
224 237 254
224 237 254
224 237 254
224 237 254
224 237 254
224 237 254
224 237 254
224 237 254
224 237 254
224 237 254
224 237 254
224 237 254
224 237 254
224 237 254
224 237 254
224 237 254
224 237 254
224 237 254
224 237 254
224 237 254
224 237 254
224 237 254
196 208 224
0 0 42
0 0 42
0 0 42
0 0 42
0 0 42
0 0 42
0 0 42
0 0 42
0 0 42
0 0 42
0 0 42
0 0 42
0 0 42
0 0 42
0 0 42
0 0 42
0 0 42
0 0 42
0 0 42
0 0 42
0 0 42
0 0 42
0 0 42
0 0 42
0 0 42
0 0 42
0 0 42
0 0 42
0 0 42
0 0 42
0 0 42
0 0 42
0 0 42
0 0 42
0 0 42
0 0 42
0 0 42
0 0 42
0 0 42
0 0 42
0 0 42
0 0 42
0 0 42
0 0 42
0 0 42
0 0 42
0 0 42
0 0 42
0 0 42
0 0 42
0 0 42
0 0 42
0 0 42
0 0 42
0 0 42
0 0 42
0 0 42
0 0 42
0 0 42
0 0 42
0 0 42
0 0 42
0 0 42
0 0 42
0 0 42
0 0 42
0 0 42
0 0 42
0 0 42
0 0 42
0 0 42
0 0 42
0 0 42
0 0 42
0 0 42
0 0 42
0 0 42
0 0 42
0 0 42
0 0 42
0 0 42
0 0 42
0 0 42
0 0 42
0 0 42
0 0 42
0 0 42
0 0 42
0 0 42
0 0 42
0 0 42
0 0 42
0 0 42
0 0 42
0 0 42
0 0 42
0 0 42
0 0 42
0 0 42
0 0 42
0 0 42
0 0 42
0 0 42
0 0 42
0 0 42
0 0 42
0 0 44
0 0 45
0 0 45
0 0 45
0 0 47
0 0 48
0 0 50
0 0 51
0 0 52
0 0 53
0 0 57
0 0 59
0 0 61
0 0 66
0 0 63
23 30 61
86 75 60
121 109 86
146 134 112
115 101 74
112 103 72
144 118 90
91 80 54
89 77 53
66 67 36
78 73 40
72 70 38
67 70 37
76 79 43
51 64 23
43 61 22
75 84 45
74 81 44
68 76 38
53 63 25
57 68 31
62 72 33
68 71 32
77 80 42
70 75 38
59 68 30
60 69 29
61 71 29
55 63 22
56 65 24
41 83 87
21 59 80
0 6 60
0 0 45
0 0 45
0 0 45
0 0 45
0 0 45
0 0 45
0 0 44
0 0 45
0 0 45
0 0 45
0 0 45
0 0 45
0 0 44
0 0 44
0 0 42
0 0 45
0 0 45
0 0 45
0 0 44
0 0 42
0 0 42
0 0 42
199 210 227
224 237 254
224 237 254
224 237 254
224 237 254
224 237 254
224 237 254
224 237 254
224 237 254
224 237 254
224 237 254
224 237 254
224 237 254
224 237 254
224 237 254
224 237 254
224 237 254
224 237 254
224 237 254
224 237 254
224 237 254
224 237 254
224 237 254
224 237 254
224 237 254
224 237 254
224 237 254
224 237 254
224 237 254
224 237 254
224 237 254
224 237 254
224 237 254
224 237 254
224 237 254
224 237 254
224 237 254
224 237 254
224 237 254
224 237 254
224 237 254
224 237 254
224 237 254
224 237 254
224 237 254
224 237 254
224 237 254
224 237 254
224 237 254
224 237 254
224 237 254
224 237 254
224 237 254
224 237 254
224 237 254
224 237 254
224 237 254
224 237 254
224 237 254
224 237 254
224 237 254
224 237 254
224 237 254
224 237 254
224 237 254
224 237 254
224 237 254
224 237 254
224 237 254
224 237 254
224 237 254
224 237 254
224 237 254
224 237 254
224 237 254
224 237 254
224 237 254
224 237 254
224 237 254
224 237 254
224 237 254
224 237 254
224 237 254
224 237 254
224 237 254
224 237 254
224 237 254
224 237 254
224 237 254
224 237 254
224 237 254
224 237 254
224 237 254
224 237 254
224 237 254
224 237 254
224 237 254
224 237 254
224 237 254
224 237 254
224 237 254
224 237 254
224 237 254
224 237 254
224 237 254
224 237 254
224 237 254
224 237 254
224 237 254
224 237 254
224 237 254
224 237 254
224 237 254
224 237 254
224 237 254
224 237 254
224 237 254
224 237 254
224 237 254
224 237 254
224 237 254
224 237 254
224 237 254
224 237 254
224 237 254
224 237 254
224 237 254
224 237 254
224 237 254
224 237 254
224 237 254
224 237 254
224 237 254
224 237 254
224 237 254
224 237 254
224 237 254
224 237 254
224 237 254
224 237 254
224 237 254
224 237 254
224 237 254
224 237 254
224 237 254
224 237 254
224 237 254
224 237 254
224 237 254
224 237 254
224 237 254
224 237 254
224 237 254
224 237 254
224 237 254
224 237 254
224 237 254
224 237 254
224 237 254
224 237 254
224 237 254
224 237 254
224 237 254
224 237 254
224 237 254
224 237 254
224 237 254
224 237 254
224 237 254
224 237 254
224 237 254
224 237 254
224 237 254
224 237 254
224 237 254
224 237 254
224 237 254
224 237 254
224 237 254
224 237 254
224 237 254
224 237 254
224 237 254
224 237 254
224 237 254
224 237 254
224 237 254
224 237 254
224 237 254
224 237 254
224 237 254
224 237 254
224 237 254
224 237 254
224 237 254
224 237 254
224 237 254
224 237 254
224 237 254
224 237 254
224 237 254
224 237 254
224 237 254
224 237 254
224 237 254
224 237 254
224 237 254
224 237 254
224 237 254
224 237 254
224 237 254
224 237 254
224 237 254
224 237 254
224 237 254
224 237 254
224 237 254
224 237 254
224 237 254
224 237 254
224 237 254
224 237 254
224 237 254
224 237 254
150 159 173
0 0 42
0 0 42
0 0 42
0 0 42
0 0 42
0 0 42
0 0 42
0 0 42
0 0 42
0 0 42
0 0 42
0 0 42
0 0 42
0 0 42
0 0 42
0 0 42
0 0 42
0 0 42
0 0 42
0 0 42
0 0 42
0 0 42
0 0 42
0 0 42
0 0 42
0 0 42
0 0 42
0 0 42
0 0 42
0 0 42
0 0 42
0 0 42
0 0 42
0 0 42
0 0 42
0 0 42
0 0 42
0 0 42
0 0 42
0 0 42
0 0 42
0 0 42
0 0 42
0 0 42
0 0 42
0 0 42
0 0 42
0 0 42
0 0 42
0 0 42
0 0 42
0 0 42
0 0 42
0 0 42
0 0 42
0 0 42
0 0 42
0 0 42
0 0 42
0 0 42
0 0 42
0 0 42
0 0 42
0 0 42
0 0 42
0 0 42
0 0 42
0 0 42
0 0 42
0 0 42
0 0 42
0 0 42
0 0 42
0 0 42
0 0 42
0 0 42
0 0 42
0 0 42
0 0 42
0 0 42
0 0 42
0 0 42
0 0 42
0 0 42
0 0 42
0 0 42
0 0 42
0 0 42
0 0 42
0 0 42
0 0 42
0 0 42
0 0 42
0 0 42
0 0 42
0 0 42
0 0 42
0 0 42
0 0 42
0 0 42
0 0 42
0 0 42
0 0 42
0 0 42
0 0 42
0 0 44
0 0 45
0 0 45
0 0 46
0 0 47
0 0 49
0 0 50
0 0 52
0 0 53
0 0 54
0 0 57
0 0 60
0 0 61
0 2 67
0 9 70
59 64 51
94 82 58
152 137 119
134 108 84
107 89 64
140 126 93
145 121 99
81 71 48
82 76 51
63 66 36
63 64 33
69 67 37
80 79 44
88 85 48
84 87 46
73 81 42
73 85 44
73 83 45
65 72 36
59 69 31
60 69 31
62 71 30
74 78 36
74 81 38
60 68 29
61 72 33
56 69 29
55 67 28
48 64 21
36 79 75
8 59 95
3 13 67
0 0 48
0 0 43
0 0 44
0 0 45
0 0 45
0 0 45
0 0 45
0 0 45
0 0 45
0 0 45
0 0 45
0 0 45
0 0 45
0 0 45
0 0 44
0 0 44
0 0 45
0 0 45
0 0 45
0 0 43
0 0 44
0 0 44
164 174 189
224 237 254
224 237 254
224 237 254
224 237 254
224 237 254
224 237 254
224 237 254
224 237 254
224 237 254
224 237 254
224 237 254
224 237 254
224 237 254
224 237 254
224 237 254
224 237 254
224 237 254
224 237 254
224 237 254
224 237 254
224 237 254
224 237 254
224 237 254
224 237 254
224 237 254
224 237 254
224 237 254
224 237 254
224 237 254
224 237 254
224 237 254
224 237 254
224 237 254
224 237 254
224 237 254
224 237 254
224 237 254
224 237 254
224 237 254
224 237 254
224 237 254
224 237 254
224 237 254
224 237 254
224 237 254
224 237 254
224 237 254
224 237 254
224 237 254
224 237 254
224 237 254
224 237 254
224 237 254
224 237 254
224 237 254
224 237 254
224 237 254
224 237 254
224 237 254
224 237 254
224 237 254
224 237 254
224 237 254
224 237 254
224 237 254
224 237 254
224 237 254
224 237 254
224 237 254
224 237 254
224 237 254
224 237 254
224 237 254
224 237 254
224 237 254
224 237 254
224 237 254
224 237 254
224 237 254
224 237 254
224 237 254
224 237 254
224 237 254
224 237 254
224 237 254
224 237 254
224 237 254
224 237 254
224 237 254
224 237 254
224 237 254
224 237 254
224 237 254
224 237 254
224 237 254
224 237 254
224 237 254
224 237 254
224 237 254
224 237 254
224 237 254
224 237 254
224 237 254
224 237 254
224 237 254
224 237 254
224 237 254
224 237 254
224 237 254
224 237 254
224 237 254
224 237 254
224 237 254
224 237 254
224 237 254
224 237 254
224 237 254
224 237 254
224 237 254
224 237 254
224 237 254
224 237 254
224 237 254
224 237 254
224 237 254
224 237 254
224 237 254
224 237 254
224 237 254
224 237 254
224 237 254
224 237 254
224 237 254
224 237 254
224 237 254
224 237 254
224 237 254
224 237 254
224 237 254
224 237 254
224 237 254
224 237 254
224 237 254
224 237 254
224 237 254
224 237 254
224 237 254
224 237 254
224 237 254
224 237 254
224 237 254
224 237 254
224 237 254
224 237 254
224 237 254
224 237 254
224 237 254
224 237 254
224 237 254
224 237 254
224 237 254
224 237 254
224 237 254
224 237 254
224 237 254
224 237 254
224 237 254
224 237 254
224 237 254
224 237 254
224 237 254
224 237 254
224 237 254
224 237 254
224 237 254
224 237 254
224 237 254
224 237 254
224 237 254
224 237 254
224 237 254
224 237 254
224 237 254
224 237 254
224 237 254
224 237 254
224 237 254
224 237 254
224 237 254
224 237 254
224 237 254
224 237 254
224 237 254
224 237 254
224 237 254
224 237 254
224 237 254
224 237 254
224 237 254
224 237 254
224 237 254
224 237 254
224 237 254
224 237 254
224 237 254
224 237 254
224 237 254
224 237 254
224 237 254
224 237 254
224 237 254
224 237 254
224 237 254
224 237 254
224 237 254
224 237 254
224 237 254
224 237 254
224 237 254
224 237 254
224 237 254
224 237 254
224 237 254
224 237 254
218 231 248
109 116 130
0 0 42
0 0 42
0 0 42
0 0 42
0 0 42
0 0 42
0 0 42
0 0 42
0 0 42
0 0 42
0 0 42
0 0 42
0 0 42
0 0 42
0 0 42
0 0 42
0 0 42
0 0 42
0 0 42
0 0 42
0 0 42
0 0 42
0 0 42
0 0 42
0 0 42
0 0 42
0 0 42
0 0 42
0 0 42
0 0 42
0 0 42
0 0 42
0 0 42
0 0 42
0 0 42
0 0 42
0 0 42
0 0 42
0 0 42
0 0 42
0 0 42
0 0 42
0 0 42
0 0 42
0 0 42
0 0 42
0 0 42
0 0 42
0 0 42
0 0 42
0 0 42
0 0 42
0 0 42
0 0 42
0 0 42
0 0 42
0 0 42
0 0 42
0 0 42
0 0 42
0 0 42
0 0 42
0 0 42
0 0 42
0 0 42
0 0 42
0 0 42
0 0 42
0 0 42
0 0 42
0 0 42
0 0 42
0 0 42
0 0 42
0 0 42
0 0 42
0 0 42
0 0 42
0 0 42
0 0 42
0 0 42
0 0 42
0 0 42
0 0 42
0 0 42
0 0 42
0 0 42
0 0 42
0 0 42
0 0 42
0 0 42
0 0 42
0 0 42
0 0 42
0 0 42
0 0 42
0 0 42
0 0 42
0 0 42
0 0 42
0 0 42
0 0 42
0 0 42
0 0 42
0 0 42
0 0 45
0 0 47
0 0 49
0 0 48
0 0 50
0 0 53
0 0 57
0 0 60
0 0 58
0 0 59
0 0 62
0 0 61
0 3 69
13 18 76
69 69 47
122 114 96
175 163 152
121 98 74
92 80 49
125 110 83
122 103 77
115 102 77
78 73 46
66 66 37
73 72 43
82 79 48
97 93 59
86 86 48
84 88 51
80 85 49
73 84 44
69 77 37
70 79 38
64 72 33
65 73 37
63 72 30
69 77 32
68 80 35
54 65 24
54 67 27
60 73 32
59 68 26
50 65 55
13 47 91
0 12 76
0 0 50
0 0 43
0 0 44
0 0 45
0 0 45
0 0 45
0 0 45
0 0 46
0 0 45
0 0 45
0 0 45
0 0 45
0 0 45
0 0 45
0 0 45
0 0 43
0 0 44
0 0 45
0 0 45
0 0 44
0 0 44
0 0 45
95 100 115
224 237 254
224 237 254
224 237 254
224 237 254
224 237 254
224 237 254
224 237 254
224 237 254
224 237 254
224 237 254
224 237 254
224 237 254
224 237 254
224 237 254
224 237 254
224 237 254
224 237 254
224 237 254
224 237 254
224 237 254
224 237 254
224 237 254
224 237 254
224 237 254
224 237 254
224 237 254
224 237 254
224 237 254
224 237 254
224 237 254
224 237 254
224 237 254
224 237 254
224 237 254
224 237 254
224 237 254
224 237 254
224 237 254
224 237 254
224 237 254
224 237 254
224 237 254
224 237 254
224 237 254
224 237 254
224 237 254
224 237 254
224 237 254
224 237 254
224 237 254
224 237 254
224 237 254
224 237 254
224 237 254
224 237 254
224 237 254
224 237 254
224 237 254
224 237 254
224 237 254
224 237 254
224 237 254
224 237 254
224 237 254
224 237 254
224 237 254
224 237 254
224 237 254
224 237 254
224 237 254
224 237 254
224 237 254
224 237 254
224 237 254
224 237 254
224 237 254
224 237 254
224 237 254
224 237 254
224 237 254
224 237 254
224 237 254
224 237 254
224 237 254
224 237 254
224 237 254
224 237 254
224 237 254
224 237 254
224 237 254
224 237 254
224 237 254
224 237 254
224 237 254
224 237 254
224 237 254
224 237 254
224 237 254
224 237 254
224 237 254
224 237 254
224 237 254
224 237 254
224 237 254
224 237 254
224 237 254
224 237 254
224 237 254
224 237 254
224 237 254
224 237 254
224 237 254
224 237 254
224 237 254
224 237 254
224 237 254
224 237 254
224 237 254
224 237 254
224 237 254
224 237 254
224 237 254
224 237 254
224 237 254
224 237 254
224 237 254
224 237 254
224 237 254
224 237 254
224 237 254
224 237 254
224 237 254
224 237 254
224 237 254
224 237 254
224 237 254
224 237 254
224 237 254
224 237 254
224 237 254
224 237 254
224 237 254
224 237 254
224 237 254
224 237 254
224 237 254
224 237 254
224 237 254
224 237 254
224 237 254
224 237 254
224 237 254
224 237 254
224 237 254
224 237 254
224 237 254
224 237 254
224 237 254
224 237 254
224 237 254
224 237 254
224 237 254
224 237 254
224 237 254
224 237 254
224 237 254
224 237 254
224 237 254
224 237 254
224 237 254
224 237 254
224 237 254
224 237 254
224 237 254
224 237 254
224 237 254
224 237 254
224 237 254
224 237 254
224 237 254
224 237 254
224 237 254
224 237 254
224 237 254
224 237 254
224 237 254
224 237 254
224 237 254
224 237 254
224 237 254
224 237 254
224 237 254
224 237 254
224 237 254
224 237 254
224 237 254
224 237 254
224 237 254
224 237 254
224 237 254
224 237 254
224 237 254
224 237 254
224 237 254
224 237 254
224 237 254
224 237 254
224 237 254
224 237 254
224 237 254
224 237 254
224 237 254
224 237 254
224 237 254
224 237 254
224 237 254
224 237 254
224 237 254
224 237 254
224 237 254
224 237 254
224 237 254
224 237 254
224 237 254
224 237 254
224 237 254
215 227 244
50 53 70
0 0 42
0 0 42
0 0 42
0 0 42
0 0 42
0 0 42
0 0 42
0 0 42
0 0 42
0 0 42
0 0 42
0 0 42
0 0 42
0 0 42
0 0 42
0 0 42
0 0 42
0 0 42
0 0 42
0 0 42
0 0 42
0 0 42
0 0 42
0 0 42
0 0 42
0 0 42
0 0 42
0 0 42
0 0 42
0 0 42
0 0 42
0 0 42
0 0 42
0 0 42
0 0 42
0 0 42
0 0 42
0 0 42
0 0 42
0 0 42
0 0 42
0 0 42
0 0 42
0 0 42
0 0 42
0 0 42
0 0 42
0 0 42
0 0 42
0 0 42
0 0 42
0 0 42
0 0 42
0 0 42
0 0 42
0 0 42
0 0 42
0 0 42
0 0 42
0 0 42
0 0 42
0 0 42
0 0 42
0 0 42
0 0 42
0 0 42
0 0 42
0 0 42
0 0 42
0 0 42
0 0 42
0 0 42
0 0 42
0 0 42
0 0 42
0 0 42
0 0 42
0 0 42
0 0 42
0 0 42
0 0 42
0 0 42
0 0 42
0 0 42
0 0 42
0 0 42
0 0 42
0 0 42
0 0 42
0 0 42
0 0 42
0 0 42
0 0 42
0 0 42
0 0 42
0 0 43
0 0 43
0 0 43
0 0 44
0 0 44
0 0 43
0 0 42
0 0 43
0 0 45
0 0 49
0 0 51
0 0 52
0 0 51
0 0 51
0 0 56
0 0 61
0 0 64
0 0 62
0 0 62
0 0 66
0 0 67
0 0 69
9 15 67
58 59 42
119 115 103
163 153 145
120 101 78
104 93 60
135 115 88
133 116 88
100 88 62
73 69 42
70 66 39
74 70 42
86 79 50
97 94 62
82 86 51
85 88 53
81 87 50
74 83 44
62 72 30
73 83 39
69 78 36
61 73 29
62 73 29
68 77 37
62 73 31
59 70 27
56 70 29
51 64 25
45 61 36
14 54 97
0 16 79
0 4 57
0 0 48
0 0 46
0 0 46
0 0 47
0 0 47
0 0 48
0 0 48
0 0 47
0 0 46
0 0 45
0 0 45
0 0 45
0 0 45
0 0 45
0 0 44
0 0 43
0 0 45
0 0 45
0 0 45
0 0 44
0 0 45
31 33 57
206 218 235
224 237 254
224 237 254
224 237 254
224 237 254
224 237 254
224 237 254
224 237 254
224 237 254
224 237 254
224 237 254
224 237 254
224 237 254
224 237 254
224 237 254
224 237 254
224 237 254
224 237 254
224 237 254
224 237 254
224 237 254
224 237 254
224 237 254
224 237 254
224 237 254
224 237 254
224 237 254
224 237 254
224 237 254
224 237 254
224 237 254
224 237 254
224 237 254
224 237 254
224 237 254
224 237 254
224 237 254
224 237 254
224 237 254
224 237 254
224 237 254
224 237 254
224 237 254
224 237 254
224 237 254
224 237 254
224 237 254
224 237 254
224 237 254
224 237 254
224 237 254
224 237 254
224 237 254
224 237 254
224 237 254
224 237 254
224 237 254
224 237 254
224 237 254
224 237 254
224 237 254
224 237 254
224 237 254
224 237 254
224 237 254
224 237 254
224 237 254
224 237 254
224 237 254
224 237 254
224 237 254
224 237 254
224 237 254
224 237 254
224 237 254
224 237 254
224 237 254
224 237 254
224 237 254
224 237 254
224 237 254
224 237 254
224 237 254
224 237 254
224 237 254
224 237 254
224 237 254
224 237 254
224 237 254
224 237 254
224 237 254
224 237 254
224 237 254
224 237 254
224 237 254
224 237 254
224 237 254
224 237 254
224 237 254
224 237 254
224 237 254
224 237 254
224 237 254
224 237 254
224 237 254
224 237 254
224 237 254
224 237 254
224 237 254
224 237 254
224 237 254
224 237 254
224 237 254
224 237 254
224 237 254
224 237 254
224 237 254
224 237 254
224 237 254
224 237 254
224 237 254
224 237 254
224 237 254
224 237 254
224 237 254
224 237 254
224 237 254
224 237 254
224 237 254
224 237 254
224 237 254
224 237 254
224 237 254
224 237 254
224 237 254
224 237 254
224 237 254
224 237 254
224 237 254
224 237 254
224 237 254
224 237 254
224 237 254
224 237 254
224 237 254
224 237 254
224 237 254
224 237 254
224 237 254
224 237 254
224 237 254
224 237 254
224 237 254
224 237 254
224 237 254
224 237 254
224 237 254
224 237 254
224 237 254
224 237 254
224 237 254
224 237 254
224 237 254
224 237 254
224 237 254
224 237 254
224 237 254
224 237 254
224 237 254
224 237 254
224 237 254
224 237 254
224 237 254
224 237 254
224 237 254
224 237 254
224 237 254
224 237 254
224 237 254
224 237 254
224 237 254
224 237 254
224 237 254
224 237 254
224 237 254
224 237 254
224 237 254
224 237 254
224 237 254
224 237 254
224 237 254
224 237 254
224 237 254
224 237 254
224 237 254
224 237 254
224 237 254
224 237 254
224 237 254
224 237 254
224 237 254
224 237 254
224 237 254
224 237 254
224 237 254
224 237 254
224 237 254
224 237 254
224 237 254
224 237 254
224 237 254
224 237 254
224 237 254
224 237 254
224 237 254
224 237 254
224 237 254
224 237 254
224 237 254
224 237 254
224 237 254
224 237 254
224 237 254
224 237 254
224 237 254
224 237 254
224 237 254
224 237 254
195 206 223
0 0 42
0 0 42
0 0 42
0 0 42
0 0 42
0 0 42
0 0 42
0 0 42
0 0 42
0 0 42
0 0 42
0 0 42
0 0 42
0 0 42
0 0 42
0 0 42
0 0 42
0 0 42
0 0 42
0 0 42
0 0 42
0 0 42
0 0 42
0 0 42
0 0 42
0 0 42
0 0 42
0 0 42
0 0 42
0 0 42
0 0 42
0 0 42
0 0 42
0 0 42
0 0 42
0 0 42
0 0 42
0 0 42
0 0 42
0 0 42
0 0 42
0 0 42
0 0 42
0 0 42
0 0 42
0 0 42
0 0 42
0 0 42
0 0 42
0 0 42
0 0 42
0 0 42
0 0 42
0 0 42
0 0 42
0 0 42
0 0 42
0 0 42
0 0 42
0 0 42
0 0 42
0 0 42
0 0 42
0 0 42
0 0 42
0 0 42
0 0 42
0 0 42
0 0 42
0 0 42
0 0 42
0 0 42
0 0 42
0 0 42
0 0 42
0 0 42
0 0 42
0 0 42
0 0 42
0 0 42
0 0 43
0 0 43
0 0 42
0 0 42
0 0 42
0 0 42
0 0 42
0 0 42
0 0 42
0 0 42
0 0 42
0 0 42
0 0 42
0 0 42
0 0 42
0 0 43
0 0 45
0 0 45
0 0 45
0 0 44
0 0 44
0 0 45
0 0 46
0 0 49
0 0 51
0 0 54
0 0 52
0 0 52
0 0 53
0 0 59
0 0 65
0 0 65
0 0 65
0 0 66
0 3 70
0 9 72
0 3 68
12 23 63
54 57 29
131 131 126
178 173 177
108 94 73
109 96 69
104 88 63
109 94 69
71 67 40
77 72 46
87 78 51
87 81 50
97 89 59
92 89 57
81 85 51
86 88 54
82 87 49
74 83 40
42 51 9
60 69 29
61 76 37
57 74 29
67 76 32
71 78 35
71 79 34
61 73 30
52 66 24
39 57 41
14 52 95
0 21 78
0 3 60
0 0 49
0 0 47
0 0 47
0 0 47
0 0 48
0 0 50
0 0 51
0 0 49
0 0 46
0 0 47
0 0 47
0 0 47
0 0 45
0 0 45
0 0 45
0 0 45
0 0 45
0 0 45
0 0 45
0 0 45
0 0 45
0 0 46
181 191 207
224 237 254
224 237 254
224 237 254
224 237 254
224 237 254
224 237 254
224 237 254
224 237 254
224 237 254
224 237 254
224 237 254
224 237 254
224 237 254
224 237 254
224 237 254
224 237 254
224 237 254
224 237 254
224 237 254
224 237 254
224 237 254
224 237 254
224 237 254
224 237 254
224 237 254
224 237 254
224 237 254
224 237 254
224 237 254
224 237 254
224 237 254
224 237 254
224 237 254
224 237 254
224 237 254
224 237 254
224 237 254
224 237 254
224 237 254
224 237 254
224 237 254
224 237 254
224 237 254
224 237 254
224 237 254
224 237 254
224 237 254
224 237 254
224 237 254
224 237 254
224 237 254
224 237 254
224 237 254
224 237 254
224 237 254
224 237 254
224 237 254
224 237 254
224 237 254
224 237 254
224 237 254
224 237 254
224 237 254
224 237 254
224 237 254
224 237 254
224 237 254
224 237 254
224 237 254
224 237 254
224 237 254
224 237 254
224 237 254
224 237 254
224 237 254
224 237 254
224 237 254
224 237 254
224 237 254
224 237 254
224 237 254
224 237 254
224 237 254
224 237 254
224 237 254
224 237 254
224 237 254
224 237 254
224 237 254
224 237 254
224 237 254
224 237 254
224 237 254
224 237 254
224 237 254
224 237 254
224 237 254
224 237 254
224 237 254
224 237 254
224 237 254
224 237 254
224 237 254
224 237 254
224 237 254
224 237 254
224 237 254
224 237 254
224 237 254
224 237 254
224 237 254
224 237 254
224 237 254
224 237 254
224 237 254
224 237 254
224 237 254
224 237 254
224 237 254
224 237 254
224 237 254
224 237 254
224 237 254
224 237 254
224 237 254
224 237 254
224 237 254
224 237 254
224 237 254
224 237 254
224 237 254
224 237 254
224 237 254
224 237 254
224 237 254
224 237 254
224 237 254
224 237 254
224 237 254
224 237 254
224 237 254
224 237 254
224 237 254
224 237 254
224 237 254
224 237 254
224 237 254
224 237 254
224 237 254
224 237 254
224 237 254
224 237 254
224 237 254
224 237 254
224 237 254
224 237 254
224 237 254
224 237 254
224 237 254
224 237 254
224 237 254
224 237 254
224 237 254
224 237 254
224 237 254
224 237 254
224 237 254
224 237 254
224 237 254
224 237 254
224 237 254
224 237 254
224 237 254
224 237 254
224 237 254
224 237 254
224 237 254
224 237 254
224 237 254
224 237 254
224 237 254
224 237 254
224 237 254
224 237 254
224 237 254
224 237 254
224 237 254
224 237 254
224 237 254
224 237 254
224 237 254
224 237 254
224 237 254
224 237 254
224 237 254
224 237 254
224 237 254
224 237 254
224 237 254
224 237 254
224 237 254
224 237 254
224 237 254
224 237 254
224 237 254
224 237 254
224 237 254
224 237 254
224 237 254
224 237 254
224 237 254
224 237 254
224 237 254
224 237 254
224 237 254
224 237 254
224 237 254
224 237 254
224 237 254
224 237 254
224 237 254
224 237 254
224 237 254
224 237 254
224 237 254
224 237 254
224 237 254
224 237 254
224 237 254
150 159 173
0 0 43
0 0 43
0 0 42
0 0 43
0 0 43
0 0 42
0 0 42
0 0 42
0 0 42
0 0 42
0 0 42
0 0 42
0 0 42
0 0 42
0 0 42
0 0 42
0 0 42
0 0 42
0 0 42
0 0 42
0 0 42
0 0 42
0 0 42
0 0 42
0 0 42
0 0 41
0 0 42
0 0 42
0 0 42
0 0 42
0 0 42
0 0 42
0 0 42
0 0 42
0 0 42
0 0 42
0 0 42
0 0 42
0 0 42
0 0 42
0 0 42
0 0 42
0 0 42
0 0 42
0 0 42
0 0 42
0 0 42
0 0 42
0 0 42
0 0 42
0 0 42
0 0 42
0 0 42
0 0 42
0 0 42
0 0 42
0 0 42
0 0 42
0 0 42
0 0 42
0 0 42
0 0 42
0 0 42
0 0 42
0 0 42
0 0 42
0 0 42
0 0 42
0 0 42
0 0 42
0 0 42
0 0 42
0 0 42
0 0 42
0 0 42
0 0 42
0 0 42
0 0 42
0 0 42
0 0 45
0 0 45
0 0 44
0 0 44
0 0 44
0 0 42
0 0 42
0 0 42
0 0 42
0 0 42
0 0 44
0 0 44
0 0 44
0 0 44
0 0 44
0 0 43
0 0 45
0 0 45
0 0 45
0 0 44
0 0 44
0 0 46
0 0 48
0 0 50
0 0 52
0 0 53
0 0 53
0 0 54
0 0 56
0 0 61
0 0 68
0 0 68
0 0 67
0 5 69
0 15 75
0 18 80
0 13 78
24 43 51
59 60 28
141 147 148
181 179 184
85 77 53
92 82 57
85 78 53
82 75 50
66 69 40
86 78 51
100 88 58
94 88 56
98 89 58
86 81 48
79 82 45
79 81 44
77 81 41
74 84 40
59 69 28
43 53 15
46 73 36
67 78 29
74 79 35
67 80 32
64 74 31
54 69 25
42 64 50
8 45 100
0 25 82
0 4 55
0 0 50
0 0 48
0 0 49
0 0 48
0 0 48
0 0 49
0 0 52
0 0 51
0 0 49
0 0 48
0 0 50
0 0 51
0 0 46
0 0 47
0 0 45
0 0 45
0 0 45
0 0 46
0 0 46
0 0 45
0 0 45
0 0 46
157 166 182
224 237 254
224 237 254
224 237 254
224 237 254
224 237 254
224 237 254
224 237 254
224 237 254
224 237 254
224 237 254
224 237 254
224 237 254
224 237 254
224 237 254
224 237 254
224 237 254
224 237 254
224 237 254
224 237 254
224 237 254
224 237 254
224 237 254
224 237 254
224 237 254
224 237 254
224 237 254
224 237 254
224 237 254
224 237 254
224 237 254
224 237 254
224 237 254
224 237 254
224 237 254
224 237 254
224 237 254
224 237 254
224 237 254
224 237 254
224 237 254
224 237 254
224 237 254
224 237 254
224 237 254
224 237 254
224 237 254
224 237 254
224 237 254
224 237 254
224 237 254
224 237 254
224 237 254
224 237 254
224 237 254
224 237 254
224 237 254
224 237 254
224 237 254
224 237 254
224 237 254
224 237 254
224 237 254
224 237 254
224 237 254
224 237 254
224 237 254
224 237 254
224 237 254
224 237 254
224 237 254
224 237 254
224 237 254
224 237 254
224 237 254
224 237 254
224 237 254
224 237 254
224 237 254
224 237 254
224 237 254
224 237 254
224 237 254
224 237 254
224 237 254
224 237 254
224 237 254
224 237 254
224 237 254
224 237 254
224 237 254
224 237 254
224 237 254
224 237 254
224 237 254
224 237 254
224 237 254
224 237 254
224 237 254
224 237 254
224 237 254
224 237 254
224 237 254
224 237 254
224 237 254
224 237 254
224 237 254
224 237 254
224 237 254
224 237 254
224 237 254
224 237 254
224 237 254
224 237 254
224 237 254
224 237 254
224 237 254
224 237 254
224 237 254
224 237 254
224 237 254
224 237 254
224 237 254
224 237 254
224 237 254
224 237 254
224 237 254
224 237 254
224 237 254
224 237 254
224 237 254
224 237 254
224 237 254
224 237 254
224 237 254
224 237 254
224 237 254
224 237 254
224 237 254
224 237 254
224 237 254
224 237 254
224 237 254
224 237 254
224 237 254
224 237 254
224 237 254
224 237 254
224 237 254
224 237 254
224 237 254
224 237 254
224 237 254
224 237 254
224 237 254
224 237 254
224 237 254
224 237 254
224 237 254
224 237 254
224 237 254
224 237 254
224 237 254
224 237 254
224 237 254
224 237 254
224 237 254
224 237 254
224 237 254
224 237 254
224 237 254
224 237 254
224 237 254
224 237 254
224 237 254
224 237 254
224 237 254
224 237 254
224 237 254
224 237 254
224 237 254
224 237 254
224 237 254
224 237 254
224 237 254
224 237 254
224 237 254
224 237 254
224 237 254
224 237 254
224 237 254
224 237 254
224 237 254
224 237 254
224 237 254
224 237 254
224 237 254
224 237 254
224 237 254
224 237 254
224 237 254
224 237 254
224 237 254
224 237 254
224 237 254
224 237 254
224 237 254
224 237 254
224 237 254
224 237 254
224 237 254
224 237 254
224 237 254
224 237 254
224 237 254
224 237 254
224 237 254
224 237 254
224 237 254
224 237 254
224 237 254
224 237 254
224 237 254
224 237 254
224 237 254
224 237 254
224 237 254
224 237 254
224 237 254
224 237 254
224 237 254
222 234 252
118 125 140
0 0 45
0 0 45
0 0 44
0 0 43
0 0 42
0 0 42
0 0 42
0 0 42
0 0 42
0 0 43
0 0 42
0 0 42
0 0 42
0 0 42
0 0 42
0 0 42
0 0 42
0 0 42
0 0 42
0 0 42
0 0 42
0 0 42
0 0 42
0 0 42
0 0 42
0 0 42
0 0 42
0 0 42
0 0 42
0 0 42
0 0 42
0 0 42
0 0 42
0 0 42
0 0 42
0 0 42
0 0 42
0 0 42
0 0 42
0 0 42
0 0 42
0 0 42
0 0 42
0 0 42
0 0 42
0 0 42
0 0 42
0 0 42
0 0 42
0 0 42
0 0 42
0 0 42
0 0 42
0 0 42
0 0 42
0 0 42
0 0 42
0 0 42
0 0 42
0 0 42
0 0 42
0 0 42
0 0 42
0 0 42
0 0 42
0 0 42
0 0 42
0 0 42
0 0 42
0 0 42
0 0 42
0 0 42
0 0 42
0 0 45
0 0 45
0 0 45
0 0 45
0 0 45
0 0 43
0 0 44
0 0 45
0 0 45
0 0 45
0 0 45
0 0 45
0 0 45
0 0 45
0 0 45
0 0 45
0 0 45
0 0 45
0 0 45
0 0 45
0 0 45
0 0 45
0 0 45
0 0 45
0 0 45
0 0 45
0 0 46
0 0 48
0 0 49
0 0 52
0 0 54
0 0 55
0 0 56
0 0 58
0 0 62
0 5 69
0 14 74
0 18 78
0 19 79
0 26 84
0 17 84
13 26 74
44 60 21
63 63 42
168 176 185
171 170 169
82 72 49
83 76 49
78 73 53
75 70 45
78 75 45
96 84 57
93 86 55
92 86 54
79 76 41
72 75 38
63 69 35
70 76 41
68 76 35
69 80 36
65 75 33
58 68 36
31 98 109
44 95 95
51 71 31
52 68 38
55 68 40
32 69 78
7 42 100
0 16 74
0 0 55
0 0 49
0 0 50
0 0 52
0 0 53
0 0 51
0 0 50
0 0 51
0 0 52
0 0 52
0 0 51
0 0 52
0 0 53
0 0 53
0 0 48
0 0 47
0 0 45
0 0 45
0 0 46
0 0 46
0 0 47
0 0 48
0 0 49
140 148 164
223 236 253
224 237 254
224 237 254
224 237 254
224 237 254
224 237 254
224 237 254
224 237 254
224 237 254
224 237 254
224 237 254
224 237 254
224 237 254
224 237 254
224 237 254
224 237 254
224 237 254
224 237 254
224 237 254
224 237 254
224 237 254
224 237 254
224 237 254
224 237 254
224 237 254
224 237 254
224 237 254
224 237 254
224 237 254
224 237 254
224 237 254
224 237 254
224 237 254
224 237 254
224 237 254
224 237 254
224 237 254
224 237 254
224 237 254
224 237 254
224 237 254
224 237 254
224 237 254
224 237 254
224 237 254
224 237 254
224 237 254
224 237 254
224 237 254
224 237 254
224 237 254
224 237 254
224 237 254
224 237 254
224 237 254
224 237 254
224 237 254
224 237 254
224 237 254
224 237 254
224 237 254
224 237 254
224 237 254
224 237 254
224 237 254
224 237 254
224 237 254
224 237 254
224 237 254
224 237 254
224 237 254
224 237 254
224 237 254
224 237 254
224 237 254
224 237 254
224 237 254
224 237 254
224 237 254
224 237 254
224 237 254
224 237 254
224 237 254
224 237 254
224 237 254
224 237 254
224 237 254
224 237 254
224 237 254
224 237 254
224 237 254
224 237 254
224 237 254
224 237 254
224 237 254
224 237 254
224 237 254
224 237 254
224 237 254
224 237 254
224 237 254
224 237 254
224 237 254
224 237 254
224 237 254
224 237 254
224 237 254
224 237 254
224 237 254
224 237 254
224 237 254
224 237 254
224 237 254
224 237 254
224 237 254
224 237 254
224 237 254
224 237 254
224 237 254
224 237 254
224 237 254
224 237 254
224 237 254
224 237 254
224 237 254
224 237 254
224 237 254
224 237 254
224 237 254
224 237 254
224 237 254
224 237 254
224 237 254
224 237 254
224 237 254
224 237 254
224 237 254
224 237 254
224 237 254
224 237 254
224 237 254
224 237 254
224 237 254
224 237 254
224 237 254
224 237 254
224 237 254
224 237 254
224 237 254
224 237 254
224 237 254
224 237 254
224 237 254
224 237 254
224 237 254
224 237 254
224 237 254
224 237 254
224 237 254
224 237 254
224 237 254
224 237 254
224 237 254
224 237 254
224 237 254
224 237 254
224 237 254
224 237 254
224 237 254
224 237 254
224 237 254
224 237 254
224 237 254
224 237 254
224 237 254
224 237 254
224 237 254
224 237 254
224 237 254
224 237 254
224 237 254
224 237 254
224 237 254
224 237 254
224 237 254
224 237 254
224 237 254
224 237 254
224 237 254
224 237 254
224 237 254
224 237 254
224 237 254
224 237 254
224 237 254
224 237 254
224 237 254
224 237 254
224 237 254
224 237 254
224 237 254
224 237 254
224 237 254
224 237 254
224 237 254
224 237 254
224 237 254
224 237 254
224 237 254
224 237 254
224 237 254
224 237 254
224 237 254
224 237 254
224 237 254
224 237 254
224 237 254
224 237 254
224 237 254
224 237 254
224 237 254
224 237 254
224 237 254
224 237 254
224 237 254
224 237 254
224 237 254
224 237 254
224 237 254
224 237 254
224 237 254
224 237 254
215 227 244
105 111 126
0 0 45
0 0 45
0 0 44
0 0 42
0 0 42
0 0 42
0 0 41
0 0 42
0 0 43
0 0 43
0 0 42
0 0 42
0 0 42
0 0 42
0 0 42
0 0 42
0 0 42
0 0 42
0 0 42
0 0 42
0 0 42
0 0 42
0 0 42
0 0 42
0 0 42
0 0 42
0 0 45
0 0 44
0 0 43
0 0 43
0 0 42
0 0 42
0 0 42
0 0 42
0 0 42
0 0 42
0 0 42
0 0 42
0 0 42
0 0 42
0 0 42
0 0 42
0 0 42
0 0 42
0 0 42
0 0 42
0 0 42
0 0 42
0 0 42
0 0 42
0 0 42
0 0 42
0 0 42
0 0 42
0 0 42
0 0 42
0 0 42
0 0 42
0 0 42
0 0 42
0 0 42
0 0 42
0 0 42
0 0 42
0 0 42
0 0 42
0 0 42
0 0 42
0 0 42
0 0 43
0 0 44
0 0 45
0 0 45
0 0 45
0 0 45
0 0 45
0 0 45
0 0 43
0 0 43
0 0 44
0 0 45
0 0 45
0 0 45
0 0 45
0 0 45
0 0 45
0 0 45
0 0 45
0 0 45
0 0 45
0 0 45
0 0 45
0 0 45
0 0 46
0 0 47
0 0 47
0 0 46
0 0 47
0 0 49
0 0 50
0 0 52
0 0 53
0 0 53
0 0 53
0 0 55
0 0 59
0 7 67
0 13 74
0 18 81
0 26 88
0 25 88
0 25 86
0 14 83
34 53 35
45 55 19
110 112 109
204 210 219
127 122 103
89 77 54
79 75 47
79 72 53
82 78 48
90 82 53
88 79 52
87 84 53
80 81 46
70 75 38
64 73 36
45 55 18
47 56 20
58 68 25
58 70 28
58 69 28
61 76 37
39 78 77
10 88 130
11 95 125
3 78 120
6 57 102
0 39 98
0 16 74
0 1 55
0 0 49
0 0 49
0 0 51
0 0 53
0 0 53
0 0 51
0 0 50
0 0 52
0 0 53
0 0 54
0 0 55
0 0 56
0 0 58
0 0 53
0 0 48
0 0 46
0 0 47
0 0 48
0 0 48
0 0 48
0 0 49
0 0 50
102 108 125
221 233 251
224 237 254
224 237 254
224 237 254
224 237 254
224 237 254
224 237 254
224 237 254
224 237 254
224 237 254
224 237 254
224 237 254
224 237 254
224 237 254
224 237 254
224 237 254
224 237 254
224 237 254
224 237 254
224 237 254
224 237 254
224 237 254
224 237 254
224 237 254
224 237 254
224 237 254
224 237 254
224 237 254
224 237 254
224 237 254
224 237 254
224 237 254
224 237 254
224 237 254
224 237 254
224 237 254
224 237 254
224 237 254
224 237 254
224 237 254
224 237 254
224 237 254
224 237 254
224 237 254
224 237 254
224 237 254
224 237 254
224 237 254
224 237 254
224 237 254
224 237 254
224 237 254
224 237 254
224 237 254
224 237 254
224 237 254
224 237 254
224 237 254
224 237 254
224 237 254
224 237 254
224 237 254
224 237 254
224 237 254
224 237 254
224 237 254
224 237 254
224 237 254
224 237 254
224 237 254
224 237 254
224 237 254
224 237 254
224 237 254
224 237 254
224 237 254
224 237 254
224 237 254
224 237 254
224 237 254
224 237 254
224 237 254
224 237 254
224 237 254
224 237 254
224 237 254
224 237 254
224 237 254
224 237 254
224 237 254
224 237 254
224 237 254
224 237 254
224 237 254
224 237 254
224 237 254
224 237 254
224 237 254
224 237 254
224 237 254
224 237 254
224 237 254
224 237 254
224 237 254
224 237 254
224 237 254
224 237 254
224 237 254
224 237 254
224 237 254
224 237 254
224 237 254
224 237 254
224 237 254
224 237 254
224 237 254
224 237 254
224 237 254
224 237 254
224 237 254
224 237 254
224 237 254
224 237 254
224 237 254
224 237 254
224 237 254
224 237 254
224 237 254
224 237 254
224 237 254
224 237 254
224 237 254
224 237 254
224 237 254
224 237 254
224 237 254
224 237 254
224 237 254
224 237 254
224 237 254
224 237 254
224 237 254
224 237 254
224 237 254
224 237 254
224 237 254
224 237 254
224 237 254
224 237 254
224 237 254
224 237 254
224 237 254
224 237 254
224 237 254
224 237 254
224 237 254
224 237 254
224 237 254
224 237 254
224 237 254
224 237 254
224 237 254
224 237 254
224 237 254
224 237 254
224 237 254
224 237 254
224 237 254
224 237 254
224 237 254
224 237 254
224 237 254
224 237 254
224 237 254
224 237 254
224 237 254
224 237 254
224 237 254
224 237 254
224 237 254
224 237 254
224 237 254
224 237 254
224 237 254
224 237 254
224 237 254
224 237 254
224 237 254
224 237 254
224 237 254
224 237 254
224 237 254
224 237 254
224 237 254
224 237 254
224 237 254
224 237 254
224 237 254
224 237 254
224 237 254
224 237 254
224 237 254
224 237 254
224 237 254
224 237 254
224 237 254
224 237 254
224 237 254
224 237 254
224 237 254
224 237 254
224 237 254
224 237 254
224 237 254
224 237 254
224 237 254
224 237 254
224 237 254
224 237 254
224 237 254
224 237 254
224 237 254
224 237 254
224 237 254
224 237 254
224 237 254
224 237 254
224 237 254
224 237 254
224 237 254
224 237 254
224 237 254
224 237 254
224 237 254
210 222 239
77 82 97
0 0 45
0 0 45
0 0 44
0 0 43
0 0 42
0 0 43
0 0 42
0 0 43
0 0 42
0 0 42
0 0 42
0 0 42
0 0 42
0 0 42
0 0 42
0 0 42
0 0 42
0 0 42
0 0 42
0 0 42
0 0 42
0 0 42
0 0 42
0 0 42
0 0 42
0 0 45
0 0 45
0 0 45
0 0 45
0 0 45
0 0 44
0 0 42
0 0 42
0 0 42
0 0 42
0 0 42
0 0 42
0 0 42
0 0 42
0 0 42
0 0 42
0 0 42
0 0 42
0 0 42
0 0 42
0 0 42
0 0 42
0 0 42
0 0 42
0 0 42
0 0 42
0 0 42
0 0 42
0 0 42
0 0 42
0 0 42
0 0 42
0 0 42
0 0 42
0 0 42
0 0 42
0 0 42
0 0 42
0 0 42
0 0 42
0 0 42
0 0 42
0 0 42
0 0 42
0 0 42
0 0 42
0 0 44
0 0 45
0 0 45
0 0 45
0 0 45
0 0 45
0 0 45
0 0 45
0 0 45
0 0 45
0 0 45
0 0 45
0 0 45
0 0 45
0 0 45
0 0 45
0 0 45
0 0 45
0 0 45
0 0 45
0 0 46
0 0 47
0 0 47
0 0 47
0 0 47
0 0 47
0 0 50
0 0 50
0 0 52
0 0 54
0 0 56
0 0 57
0 0 59
0 0 64
0 10 71
0 9 74
0 21 84
0 26 88
0 23 84
0 18 83
14 29 56
39 58 9
59 65 41
192 196 204
153 151 144
100 87 56
84 73 44
77 74 49
83 78 53
83 76 45
83 76 48
76 73 45
78 80 46
70 76 40
64 73 35
57 68 31
48 59 20
46 57 17
51 62 23
53 65 24
50 59 21
49 61 24
41 86 77
8 107 136
0 76 117
0 40 101
0 22 82
0 6 68
0 0 55
0 0 49
0 0 49
0 0 48
0 0 51
0 0 53
0 0 55
0 0 54
0 0 53
0 0 56
0 0 57
0 0 56
0 0 59
0 0 62
0 0 57
0 0 52
0 0 49
0 0 45
0 0 48
0 0 51
0 0 51
0 0 51
0 0 52
71 75 95
209 221 238
224 237 254
224 237 254
224 237 254
224 237 254
224 237 254
224 237 254
224 237 254
224 237 254
224 237 254
224 237 254
224 237 254
224 237 254
224 237 254
224 237 254
224 237 254
224 237 254
224 237 254
224 237 254
224 237 254
224 237 254
224 237 254
224 237 254
224 237 254
224 237 254
224 237 254
224 237 254
224 237 254
224 237 254
224 237 254
224 237 254
224 237 254
224 237 254
224 237 254
224 237 254
224 237 254
224 237 254
224 237 254
224 237 254
224 237 254
224 237 254
224 237 254
224 237 254
224 237 254
224 237 254
224 237 254
224 237 254
224 237 254
224 237 254
224 237 254
224 237 254
224 237 254
224 237 254
224 237 254
224 237 254
224 237 254
224 237 254
224 237 254
224 237 254
224 237 254
224 237 254
224 237 254
224 237 254
224 237 254
224 237 254
224 237 254
224 237 254
224 237 254
224 237 254
224 237 254
224 237 254
224 237 254
224 237 254
224 237 254
224 237 254
224 237 254
224 237 254
224 237 254
224 237 254
224 237 254
224 237 254
224 237 254
224 237 254
224 237 254
224 237 254
224 237 254
224 237 254
224 237 254
224 237 254
224 237 254
224 237 254
224 237 254
224 237 254
224 237 254
224 237 254
224 237 254
224 237 254
224 237 254
224 237 254
224 237 254
224 237 254
224 237 254
224 237 254
224 237 254
224 237 254
224 237 254
224 237 254
224 237 254
224 237 254
224 237 254
224 237 254
224 237 254
224 237 254
224 237 254
224 237 254
224 237 254
224 237 254
224 237 254
224 237 254
224 237 254
224 237 254
224 237 254
224 237 254
224 237 254
224 237 254
224 237 254
224 237 254
224 237 254
224 237 254
224 237 254
224 237 254
224 237 254
224 237 254
224 237 254
224 237 254
224 237 254
224 237 254
224 237 254
224 237 254
224 237 254
224 237 254
224 237 254
224 237 254
224 237 254
224 237 254
224 237 254
224 237 254
224 237 254
224 237 254
224 237 254
224 237 254
224 237 254
224 237 254
224 237 254
224 237 254
224 237 254
224 237 254
224 237 254
224 237 254
224 237 254
224 237 254
224 237 254
224 237 254
224 237 254
224 237 254
224 237 254
224 237 254
224 237 254
224 237 254
224 237 254
224 237 254
224 237 254
224 237 254
224 237 254
224 237 254
224 237 254
224 237 254
224 237 254
224 237 254
224 237 254
224 237 254
224 237 254
224 237 254
224 237 254
224 237 254
224 237 254
224 237 254
224 237 254
224 237 254
224 237 254
224 237 254
224 237 254
224 237 254
224 237 254
224 237 254
224 237 254
224 237 254
224 237 254
224 237 254
224 237 254
224 237 254
224 237 254
224 237 254
224 237 254
224 237 254
224 237 254
224 237 254
224 237 254
224 237 254
224 237 254
224 237 254
224 237 254
224 237 254
224 237 254
224 237 254
224 237 254
224 237 254
224 237 254
224 237 254
224 237 254
224 237 254
224 237 254
224 237 254
224 237 254
224 237 254
224 237 254
224 237 254
224 237 254
224 237 254
224 237 254
224 237 254
224 237 254
224 237 254
224 237 254
224 237 254
224 237 254
201 212 229
44 47 68
0 0 45
0 0 45
0 0 45
0 0 45
0 0 45
0 0 44
0 0 45
0 0 43
0 0 42
0 0 42
0 0 42
0 0 42
0 0 42
0 0 42
0 0 42
0 0 42
0 0 42
0 0 42
0 0 42
0 0 42
0 0 44
0 0 44
0 0 43
0 0 43
0 0 44
0 0 45
0 0 45
0 0 45
0 0 45
0 0 45
0 0 42
0 0 42
0 0 42
0 0 42
0 0 42
0 0 42
0 0 42
0 0 42
0 0 42
0 0 42
0 0 42
0 0 42
0 0 42
0 0 42
0 0 42
0 0 42
0 0 42
0 0 42
0 0 42
0 0 42
0 0 42
0 0 42
0 0 42
0 0 42
0 0 42
0 0 42
0 0 42
0 0 42
0 0 42
0 0 42
0 0 42
0 0 42
0 0 42
0 0 42
0 0 42
0 0 42
0 0 42
0 0 42
0 0 44
0 0 44
0 0 44
0 0 45
0 0 45
0 0 45
0 0 45
0 0 45
0 0 45
0 0 45
0 0 45
0 0 45
0 0 45
0 0 45
0 0 45
0 0 45
0 0 45
0 0 45
0 0 45
0 0 45
0 0 45
0 0 45
0 0 45
0 0 47
0 0 47
0 0 47
0 0 47
0 0 48
0 0 50
0 0 51
0 0 53
0 0 60
0 0 61
0 0 62
0 0 63
0 7 68
0 13 73
0 12 75
0 21 82
0 18 80
0 10 73
4 19 62
35 52 21
44 53 19
145 151 150
220 223 232
121 113 86
106 90 58
89 81 51
82 77 51
93 85 58
90 80 53
72 70 43
69 70 41
73 75 40
75 79 42
72 79 40
62 70 32
53 62 26
48 57 19
40 51 11
42 55 17
42 57 13
48 63 21
34 77 77
7 59 112
0 36 95
0 24 82
0 5 67
0 0 60
0 0 55
0 0 55
0 0 51
0 0 51
0 0 54
0 0 59
0 0 59
0 0 57
0 0 58
0 0 60
0 0 57
0 0 58
0 0 61
0 0 59
0 0 54
0 0 54
0 0 50
0 0 49
0 0 51
0 0 52
0 0 54
0 0 54
55 58 83
192 202 219
224 237 254
224 237 254
224 237 254
224 237 254
224 237 254
224 237 254
224 237 254
224 237 254
224 237 254
224 237 254
224 237 254
224 237 254
224 237 254
224 237 254
224 237 254
224 237 254
224 237 254
224 237 254
224 237 254
224 237 254
224 237 254
224 237 254
224 237 254
224 237 254
224 237 254
224 237 254
224 237 254
224 237 254
224 237 254
224 237 254
224 237 254
224 237 254
224 237 254
224 237 254
224 237 254
224 237 254
224 237 254
224 237 254
224 237 254
224 237 254
224 237 254
224 237 254
224 237 254
224 237 254
224 237 254
224 237 254
224 237 254
224 237 254
224 237 254
224 237 254
224 237 254
224 237 254
224 237 254
224 237 254
224 237 254
224 237 254
224 237 254
224 237 254
224 237 254
224 237 254
224 237 254
224 237 254
224 237 254
224 237 254
224 237 254
224 237 254
224 237 254
224 237 254
224 237 254
224 237 254
224 237 254
224 237 254
224 237 254
224 237 254
224 237 254
224 237 254
224 237 254
224 237 254
224 237 254
224 237 254
224 237 254
224 237 254
224 237 254
224 237 254
224 237 254
224 237 254
224 237 254
224 237 254
224 237 254
224 237 254
224 237 254
224 237 254
224 237 254
224 237 254
224 237 254
224 237 254
224 237 254
224 237 254
224 237 254
224 237 254
224 237 254
224 237 254
224 237 254
224 237 254
224 237 254
224 237 254
224 237 254
224 237 254
224 237 254
224 237 254
224 237 254
224 237 254
224 237 254
224 237 254
224 237 254
224 237 254
224 237 254
224 237 254
224 237 254
224 237 254
224 237 254
224 237 254
224 237 254
224 237 254
224 237 254
224 237 254
224 237 254
224 237 254
224 237 254
224 237 254
224 237 254
224 237 254
224 237 254
224 237 254
224 237 254
224 237 254
224 237 254
224 237 254
224 237 254
224 237 254
224 237 254
224 237 254
224 237 254
224 237 254
224 237 254
224 237 254
224 237 254
224 237 254
224 237 254
224 237 254
224 237 254
224 237 254
224 237 254
224 237 254
224 237 254
224 237 254
224 237 254
224 237 254
224 237 254
224 237 254
224 237 254
224 237 254
224 237 254
224 237 254
224 237 254
224 237 254
224 237 254
224 237 254
224 237 254
224 237 254
224 237 254
224 237 254
224 237 254
224 237 254
224 237 254
224 237 254
224 237 254
224 237 254
224 237 254
224 237 254
224 237 254
224 237 254
224 237 254
224 237 254
224 237 254
224 237 254
224 237 254
224 237 254
224 237 254
224 237 254
224 237 254
224 237 254
224 237 254
224 237 254
224 237 254
224 237 254
224 237 254
224 237 254
224 237 254
224 237 254
224 237 254
224 237 254
224 237 254
224 237 254
224 237 254
224 237 254
224 237 254
224 237 254
224 237 254
224 237 254
224 237 254
224 237 254
224 237 254
224 237 254
224 237 254
224 237 254
224 237 254
224 237 254
224 237 254
224 237 254
224 237 254
224 237 254
224 237 254
224 237 254
224 237 254
224 237 254
224 237 254
224 237 254
224 237 254
224 237 254
224 237 254
224 237 254
224 237 254
224 237 254
224 237 254
224 237 254
224 237 254
186 197 213
0 0 47
0 0 45
0 0 45
0 0 45
0 0 45
0 0 45
0 0 44
0 0 44
0 0 44
0 0 43
0 0 44
0 0 44
0 0 42
0 0 42
0 0 42
0 0 43
0 0 42
0 0 42
0 0 42
0 0 42
0 0 44
0 0 45
0 0 45
0 0 45
0 0 45
0 0 45
0 0 45
0 0 45
0 0 45
0 0 44
0 0 43
0 0 43
0 0 42
0 0 43
0 0 43
0 0 42
0 0 42
0 0 42
0 0 42
0 0 42
0 0 42
0 0 42
0 0 42
0 0 42
0 0 42
0 0 42
0 0 42
0 0 42
0 0 42
0 0 42
0 0 42
0 0 42
0 0 42
0 0 42
0 0 42
0 0 42
0 0 42
0 0 42
0 0 42
0 0 42
0 0 42
0 0 42
0 0 42
0 0 42
0 0 42
0 0 42
0 0 42
0 0 42
0 0 45
0 0 45
0 0 45
0 0 45
0 0 45
0 0 45
0 0 45
0 0 45
0 0 45
0 0 45
0 0 45
0 0 45
0 0 45
0 0 45
0 0 45
0 0 45
0 0 45
0 0 47
0 0 47
0 0 47
0 0 47
0 0 47
0 0 46
0 0 47
0 0 47
0 0 47
0 0 47
0 0 48
0 0 50
0 0 51
0 0 54
0 0 60
0 0 62
0 0 62
0 0 63
0 4 68
0 5 73
0 9 75
0 19 81
0 11 76
0 7 68
28 46 31
45 57 17
92 95 92
207 216 225
181 178 178
111 97 68
106 90 56
94 85 55
87 83 55
88 79 50
81 72 44
66 64 38
69 69 38
74 75 42
74 77 44
73 77 39
74 79 38
68 76 39
57 66 28
55 65 25
51 65 25
50 63 21
46 60 23
27 53 77
0 36 93
0 17 76
0 4 68
0 0 59
0 0 56
0 0 58
0 0 58
0 0 54
0 0 56
0 0 59
0 0 61
0 0 59
0 0 57
0 0 60
0 0 59
0 0 58
0 0 59
0 0 61
0 0 55
0 0 56
0 0 56
0 0 54
0 0 52
0 0 55
0 0 57
0 0 56
31 33 67
190 201 218
224 237 254
224 237 254
224 237 254
224 237 254
224 237 254
224 237 254
224 237 254
224 237 254
224 237 254
224 237 254
224 237 254
224 237 254
224 237 254
224 237 254
224 237 254
224 237 254
224 237 254
224 237 254
224 237 254
224 237 254
224 237 254
224 237 254
224 237 254
224 237 254
224 237 254
224 237 254
224 237 254
224 237 254
224 237 254
224 237 254
224 237 254
224 237 254
224 237 254
224 237 254
224 237 254
224 237 254
224 237 254
224 237 254
224 237 254
224 237 254
224 237 254
224 237 254
224 237 254
224 237 254
224 237 254
224 237 254
224 237 254
224 237 254
224 237 254
224 237 254
224 237 254
224 237 254
224 237 254
224 237 254
224 237 254
224 237 254
224 237 254
224 237 254
224 237 254
224 237 254
224 237 254
224 237 254
224 237 254
224 237 254
224 237 254
224 237 254
224 237 254
224 237 254
224 237 254
224 237 254
224 237 254
224 237 254
224 237 254
224 237 254
224 237 254
224 237 254
224 237 254
224 237 254
224 237 254
224 237 254
224 237 254
224 237 254
224 237 254
224 237 254
224 237 254
224 237 254
224 237 254
224 237 254
224 237 254
224 237 254
224 237 254
224 237 254
224 237 254
224 237 254
224 237 254
224 237 254
224 237 254
224 237 254
224 237 254
224 237 254
224 237 254
224 237 254
224 237 254
224 237 254
224 237 254
224 237 254
224 237 254
224 237 254
224 237 254
224 237 254
224 237 254
224 237 254
224 237 254
224 237 254
224 237 254
224 237 254
224 237 254
224 237 254
224 237 254
224 237 254
224 237 254
224 237 254
224 237 254
224 237 254
224 237 254
224 237 254
224 237 254
224 237 254
224 237 254
224 237 254
224 237 254
224 237 254
224 237 254
224 237 254
224 237 254
224 237 254
224 237 254
224 237 254
224 237 254
224 237 254
224 237 254
224 237 254
224 237 254
224 237 254
224 237 254
224 237 254
224 237 254
224 237 254
224 237 254
224 237 254
224 237 254
224 237 254
224 237 254
224 237 254
224 237 254
224 237 254
224 237 254
224 237 254
224 237 254
224 237 254
224 237 254
224 237 254
224 237 254
224 237 254
224 237 254
224 237 254
224 237 254
224 237 254
224 237 254
224 237 254
224 237 254
224 237 254
224 237 254
224 237 254
224 237 254
224 237 254
224 237 254
224 237 254
224 237 254
224 237 254
224 237 254
224 237 254
224 237 254
224 237 254
224 237 254
224 237 254
224 237 254
224 237 254
224 237 254
224 237 254
224 237 254
224 237 254
224 237 254
224 237 254
224 237 254
224 237 254
224 237 254
224 237 254
224 237 254
224 237 254
224 237 254
224 237 254
224 237 254
224 237 254
224 237 254
224 237 254
224 237 254
224 237 254
224 237 254
224 237 254
224 237 254
224 237 254
224 237 254
224 237 254
224 237 254
224 237 254
224 237 254
224 237 254
224 237 254
224 237 254
224 237 254
224 237 254
224 237 254
224 237 254
224 237 254
224 237 254
224 237 254
224 237 254
224 237 254
224 237 254
224 237 254
224 237 254
224 237 254
224 237 254
224 237 254
224 237 254
224 237 254
224 237 254
224 237 254
171 180 196
22 23 53
0 0 46
0 0 47
0 0 46
0 0 45
0 0 45
0 0 44
0 0 45
0 0 45
0 0 45
0 0 45
0 0 44
0 0 42
0 0 42
0 0 44
0 0 45
0 0 45
0 0 44
0 0 44
0 0 44
0 0 45
0 0 45
0 0 45
0 0 45
0 0 45
0 0 45
0 0 45
0 0 45
0 0 45
0 0 44
0 0 45
0 0 42
0 0 42
0 0 44
0 0 42
0 0 42
0 0 42
0 0 42
0 0 44
0 0 43
0 0 42
0 0 42
0 0 42
0 0 42
0 0 42
0 0 42
0 0 44
0 0 45
0 0 43
0 0 42
0 0 42
0 0 42
0 0 42
0 0 42
0 0 44
0 0 42
0 0 43
0 0 44
0 0 44
0 0 43
0 0 42
0 0 42
0 0 42
0 0 42
0 0 42
0 0 42
0 0 42
0 0 43
0 0 43
0 0 44
0 0 45
0 0 45
0 0 45
0 0 45
0 0 42
0 0 42
0 0 43
0 0 44
0 0 44
0 0 45
0 0 45
0 0 45
0 0 45
0 0 45
0 0 46
0 0 47
0 0 47
0 0 47
0 0 47
0 0 47
0 0 47
0 0 47
0 0 47
0 0 47
0 0 50
0 0 50
0 0 50
0 0 54
0 0 57
0 0 59
0 0 62
0 0 65
0 0 69
0 2 66
0 15 72
0 19 87
0 13 77
17 31 49
38 50 17
43 53 26
173 176 184
166 160 153
117 108 84
96 81 55
90 80 51
84 77 50
73 69 42
84 78 51
74 68 40
68 67 40
71 70 43
67 70 34
68 67 36
68 73 38
71 81 35
63 73 30
59 71 31
62 69 31
56 66 29
44 63 36
25 52 86
0 26 89
0 16 76
0 5 69
0 0 63
0 0 57
0 0 58
0 0 62
0 0 61
0 0 60
0 0 59
0 0 60
0 0 58
0 0 57
0 0 60
0 0 61
0 0 60
0 0 60
0 0 61
0 0 61
0 0 57
0 0 58
0 0 59
0 0 59
0 0 58
0 0 59
0 0 58
0 1 60
179 189 207
224 237 254
224 237 254
224 237 254
224 237 254
224 237 254
224 237 254
224 237 254
224 237 254
224 237 254
224 237 254
224 237 254
224 237 254
224 237 254
224 237 254
224 237 254
224 237 254
224 237 254
224 237 254
224 237 254
224 237 254
224 237 254
224 237 254
224 237 254
224 237 254
224 237 254
224 237 254
224 237 254
224 237 254
224 237 254
224 237 254
224 237 254
224 237 254
224 237 254
224 237 254
224 237 254
224 237 254
224 237 254
224 237 254
224 237 254
224 237 254
224 237 254
224 237 254
224 237 254
224 237 254
224 237 254
224 237 254
224 237 254
224 237 254
224 237 254
224 237 254
224 237 254
224 237 254
224 237 254
224 237 254
224 237 254
224 237 254
224 237 254
224 237 254
224 237 254
224 237 254
224 237 254
224 237 254
224 237 254
224 237 254
224 237 254
224 237 254
224 237 254
224 237 254
224 237 254
224 237 254
224 237 254
224 237 254
224 237 254
224 237 254
224 237 254
224 237 254
224 237 254
224 237 254
224 237 254
224 237 254
224 237 254
224 237 254
224 237 254
224 237 254
224 237 254
224 237 254
224 237 254
224 237 254
224 237 254
224 237 254
224 237 254
224 237 254
224 237 254
224 237 254
224 237 254
224 237 254
224 237 254
224 237 254
224 237 254
224 237 254
224 237 254
224 237 254
224 237 254
224 237 254
224 237 254
224 237 254
224 237 254
224 237 254
224 237 254
224 237 254
224 237 254
224 237 254
224 237 254
224 237 254
224 237 254
224 237 254
224 237 254
224 237 254
224 237 254
224 237 254
224 237 254
224 237 254
224 237 254
224 237 254
224 237 254
224 237 254
224 237 254
224 237 254
224 237 254
224 237 254
224 237 254
224 237 254
224 237 254
224 237 254
224 237 254
224 237 254
224 237 254
224 237 254
224 237 254
224 237 254
224 237 254
224 237 254
224 237 254
224 237 254
224 237 254
224 237 254
224 237 254
224 237 254
224 237 254
224 237 254
224 237 254
224 237 254
224 237 254
224 237 254
224 237 254
224 237 254
224 237 254
224 237 254
224 237 254
224 237 254
224 237 254
224 237 254
224 237 254
224 237 254
224 237 254
224 237 254
224 237 254
224 237 254
224 237 254
224 237 254
224 237 254
224 237 254
224 237 254
224 237 254
224 237 254
224 237 254
224 237 254
224 237 254
224 237 254
224 237 254
224 237 254
224 237 254
224 237 254
224 237 254
224 237 254
224 237 254
224 237 254
224 237 254
224 237 254
224 237 254
224 237 254
224 237 254
224 237 254
224 237 254
224 237 254
224 237 254
224 237 254
224 237 254
224 237 254
224 237 254
224 237 254
224 237 254
224 237 254
224 237 254
224 237 254
224 237 254
224 237 254
224 237 254
224 237 254
224 237 254
224 237 254
224 237 254
224 237 254
224 237 254
224 237 254
224 237 254
224 237 254
224 237 254
224 237 254
224 237 254
224 237 254
224 237 254
224 237 254
224 237 254
224 237 254
224 237 254
224 237 254
224 237 254
224 237 254
224 237 254
224 237 254
224 237 254
225 237 254
224 237 254
224 237 254
225 237 254
225 237 254
225 237 254
225 237 254
225 237 254
225 237 254
168 177 193
0 0 47
0 0 46
0 0 46
0 0 45
0 0 45
0 0 45
0 0 45
0 0 45
0 0 45
0 0 45
0 0 44
0 0 44
0 0 43
0 0 43
0 0 45
0 0 45
0 0 45
0 0 45
0 0 45
0 0 45
0 0 45
0 0 45
0 0 45
0 0 45
0 0 45
0 0 45
0 0 45
0 0 45
0 0 45
0 0 45
0 0 43
0 0 42
0 0 43
0 0 43
0 0 43
0 0 42
0 0 42
0 0 44
0 0 45
0 0 44
0 0 42
0 0 42
0 0 42
0 0 42
0 0 42
0 0 43
0 0 45
0 0 44
0 0 42
0 0 42
0 0 42
0 0 42
0 0 42
0 0 44
0 0 43
0 0 42
0 0 45
0 0 44
0 0 42
0 0 42
0 0 42
0 0 42
0 0 42
0 0 42
0 0 42
0 0 42
0 0 42
0 0 42
0 0 44
0 0 45
0 0 45
0 0 45
0 0 45
0 0 44
0 0 44
0 0 44
0 0 44
0 0 44
0 0 45
0 0 45
0 0 45
0 0 45
0 0 45
0 0 45
0 0 46
0 0 47
0 0 47
0 0 47
0 0 47
0 0 47
0 0 47
0 0 47
0 0 48
0 0 50
0 0 50
0 0 51
0 0 52
0 0 54
0 0 57
0 0 61
0 0 64
0 0 66
0 3 71
0 16 79
0 22 86
8 28 44
26 39 11
37 46 12
95 100 91
159 159 155
96 87 62
101 84 58
110 91 63
93 82 53
84 75 48
80 75 49
77 72 45
64 64 34
59 63 33
64 67 36
65 73 34
74 79 42
78 77 38
69 72 39
59 66 31
63 66 32
62 65 36
48 64 48
24 46 75
0 19 77
0 0 73
0 6 68
0 0 64
0 0 59
0 0 58
0 0 60
0 0 62
0 0 64
0 0 61
0 0 59
0 0 60
0 0 59
0 0 62
0 0 62
0 0 60
0 0 59
0 0 58
0 0 64
0 0 65
0 0 63
0 0 64
0 0 62
0 0 62
0 0 62
0 0 61
0 0 62
166 176 193
225 237 254
225 237 254
225 237 254
225 237 254
225 237 254
224 237 254
225 237 254
225 237 254
224 237 254
224 237 254
224 237 254
224 237 254
224 237 254
224 237 254
224 237 254
224 237 254
224 237 254
224 237 254
224 237 254
224 237 254
224 237 254
224 237 254
224 237 254
224 237 254
224 237 254
224 237 254
224 237 254
224 237 254
224 237 254
224 237 254
224 237 254
224 237 254
224 237 254
224 237 254
224 237 254
224 237 254
224 237 254
224 237 254
224 237 254
224 237 254
224 237 254
224 237 254
224 237 254
224 237 254
224 237 254
224 237 254
224 237 254
224 237 254
224 237 254
224 237 254
224 237 254
224 237 254
224 237 254
224 237 254
224 237 254
224 237 254
224 237 254
224 237 254
224 237 254
224 237 254
224 237 254
224 237 254
224 237 254
224 237 254
224 237 254
224 237 254
224 237 254
224 237 254
224 237 254
224 237 254
224 237 254
224 237 254
224 237 254
224 237 254
224 237 254
224 237 254
224 237 254
224 237 254
224 237 254
224 237 254
224 237 254
224 237 254
224 237 254
224 237 254
224 237 254
224 237 254
224 237 254
224 237 254
224 237 254
224 237 254
224 237 254
224 237 254
224 237 254
224 237 254
224 237 254
224 237 254
224 237 254
224 237 254
224 237 254
224 237 254
224 237 254
224 237 254
224 237 254
224 237 254
224 237 254
224 237 254
224 237 254
224 237 254
224 237 254
224 237 254
224 237 254
224 237 254
224 237 254
224 237 254
224 237 254
224 237 254
224 237 254
224 237 254
224 237 254
224 237 254
224 237 254
224 237 254
224 237 254
224 237 254
224 237 254
224 237 254
224 237 254
224 237 254
224 237 254
224 237 254
224 237 254
224 237 254
224 237 254
224 237 254
224 237 254
224 237 254
224 237 254
224 237 254
224 237 254
224 237 254
224 237 254
224 237 254
224 237 254
224 237 254
224 237 254
224 237 254
224 237 254
224 237 254
224 237 254
224 237 254
224 237 254
224 237 254
224 237 254
224 237 254
224 237 254
224 237 254
224 237 254
224 237 254
224 237 254
224 237 254
224 237 254
224 237 254
224 237 254
224 237 254
224 237 254
224 237 254
224 237 254
224 237 254
224 237 254
224 237 254
224 237 254
224 237 254
224 237 254
224 237 254
224 237 254
224 237 254
224 237 254
224 237 254
224 237 254
224 237 254
224 237 254
224 237 254
224 237 254
225 237 254
225 237 254
225 237 254
225 237 254
225 237 254
225 237 254
225 237 254
225 237 254
225 237 254
225 237 254
225 237 254
225 237 254
225 237 254
225 237 254
225 237 254
225 237 254
225 237 254
225 237 254
225 237 254
225 237 254
225 237 254
225 237 254
225 237 254
225 237 254
225 237 254
225 237 254
225 237 254
225 237 254
225 237 254
225 237 254
225 237 254
225 237 254
225 237 254
225 237 254
225 237 254
225 237 254
225 237 254
225 237 254
225 237 254
225 237 254
225 237 254
225 237 254
225 237 254
225 237 254
225 237 254
225 237 254
225 237 254
225 237 254
225 237 254
225 237 254
225 237 254
225 237 254
225 237 254
225 237 254
225 237 254
225 237 254
225 237 254
225 237 254
225 237 254
225 237 254
155 164 180
0 0 47
0 0 48
0 0 47
0 0 45
0 0 45
0 0 44
0 0 45
0 0 47
0 0 46
0 0 46
0 0 44
0 0 45
0 0 45
0 0 45
0 0 45
0 0 45
0 0 44
0 0 45
0 0 45
0 0 43
0 0 43
0 0 45
0 0 45
0 0 45
0 0 45
0 0 45
0 0 45
0 0 45
0 0 45
0 0 44
0 0 42
0 0 42
0 0 44
0 0 44
0 0 45
0 0 43
0 0 43
0 0 45
0 0 44
0 0 43
0 0 42
0 0 42
0 0 42
0 0 42
0 0 44
0 0 45
0 0 45
0 0 42
0 0 42
0 0 42
0 0 42
0 0 43
0 0 45
0 0 44
0 0 44
0 0 45
0 0 45
0 0 43
0 0 43
0 0 43
0 0 43
0 0 43
0 0 43
0 0 42
0 0 42
0 0 42
0 0 42
0 0 44
0 0 45
0 0 45
0 0 45
0 0 45
0 0 45
0 0 45
0 0 45
0 0 45
0 0 45
0 0 45
0 0 45
0 0 45
0 0 45
0 0 45
0 0 45
0 0 45
0 0 46
0 0 47
0 0 47
0 0 47
0 0 47
0 0 47
0 0 47
0 0 51
0 0 50
0 0 51
0 0 52
0 0 52
0 0 53
0 0 56
0 0 59
0 0 62
0 0 61
0 3 69
0 20 76
0 20 80
21 34 33
37 45 14
44 51 28
119 123 116
130 124 112
98 86 57
100 80 53
107 91 64
94 83 55
76 68 44
75 69 46
69 67 43
67 69 40
58 64 30
51 57 28
63 73 34
65 81 43
70 78 42
63 68 41
46 61 61
38 55 64
23 37 86
5 26 81
0 16 83
0 15 73
0 5 69
0 0 65
0 0 60
0 0 58
0 0 57
0 0 60
0 0 62
0 0 66
0 0 66
0 0 61
0 0 62
0 0 63
0 0 63
0 0 64
0 0 64
0 0 63
0 0 67
0 3 70
0 2 69
0 0 67
0 0 66
0 0 64
0 0 65
0 0 64
0 0 63
160 169 186
225 237 254
225 237 254
225 237 254
225 237 254
225 237 254
225 237 254
225 237 254
225 237 254
225 237 254
225 237 254
225 237 254
225 237 254
225 237 254
225 237 254
225 237 254
225 237 254
225 237 254
225 237 254
225 237 254
225 237 254
225 237 254
225 237 254
225 237 254
225 237 254
225 237 254
225 237 254
225 237 254
225 237 254
225 237 254
225 237 254
225 237 254
225 237 254
225 237 254
225 237 254
225 237 254
225 237 254
225 237 254
225 237 254
225 237 254
225 237 254
225 237 254
225 237 254
225 237 254
225 237 254
225 237 254
225 237 254
225 237 254
225 237 254
225 237 254
225 237 254
225 237 254
225 237 254
225 237 254
225 237 254
225 237 254
225 237 254
225 237 254
225 237 254
224 237 254
224 237 254
224 237 254
224 237 254
224 237 254
224 237 254
224 237 254
224 237 254
224 237 254
224 237 254
224 237 254
224 237 254
224 237 254
224 237 254
224 237 254
224 237 254
224 237 254
224 237 254
224 237 254
224 237 254
224 237 254
224 237 254
224 237 254
224 237 254
224 237 254
224 237 254
224 237 254
224 237 254
224 237 254
224 237 254
224 237 254
224 237 254
224 237 254
224 237 254
224 237 254
224 237 254
224 237 254
224 237 254
224 237 254
224 237 254
224 237 254
224 237 254
224 237 254
224 237 254
224 237 254
224 237 254
224 237 254
224 237 254
224 237 254
224 237 254
224 237 254
224 237 254
224 237 254
224 237 254
224 237 254
224 237 254
224 237 254
224 237 254
224 237 254
224 237 254
224 237 254
224 237 254
224 237 254
224 237 254
224 237 254
224 237 254
224 237 254
224 237 254
224 237 254
224 237 254
224 237 254
224 237 254
224 237 254
224 237 254
224 237 254
224 237 254
224 237 254
224 237 254
224 237 254
224 237 254
224 237 254
224 237 254
224 237 254
224 237 254
224 237 254
224 237 254
224 237 254
224 237 254
224 237 254
224 237 254
225 237 254
225 237 254
225 237 254
225 237 254
225 237 254
225 237 254
225 237 254
225 237 254
225 237 254
225 237 254
225 237 254
225 237 254
225 237 254
225 237 254
225 237 254
225 237 254
225 237 254
225 237 254
225 237 254
225 237 254
225 237 254
225 237 254
225 237 254
225 237 254
225 237 254
225 237 254
225 237 254
225 237 254
225 237 254
225 237 254
225 237 254
225 237 254
225 237 254
225 237 254
225 237 254
225 237 254
225 237 254
225 237 254
225 237 254
225 237 254
225 237 254
225 237 254
225 237 254
225 237 254
225 237 254
225 237 254
225 237 254
225 237 254
225 237 254
225 237 254
225 237 254
225 237 254
225 237 254
225 237 254
225 237 254
225 237 254
225 237 254
225 237 254
225 237 254
225 237 254
225 237 254
225 237 254
225 237 254
225 237 254
225 237 254
225 237 254
225 237 254
225 237 254
225 237 254
225 237 254
225 237 254
225 237 254
225 237 254
225 237 254
225 237 254
225 237 254
225 237 254
225 237 254
225 237 254
225 237 254
225 237 254
225 237 254
225 237 254
225 237 254
225 237 254
225 237 254
225 237 254
225 237 254
225 237 254
225 237 254
225 237 254
225 237 254
225 237 254
225 237 254
225 237 254
225 237 254
225 237 254
166 176 192
0 0 47
0 0 49
0 0 48
0 0 45
0 0 45
0 0 45
0 0 47
0 0 47
0 0 47
0 0 47
0 0 46
0 0 45
0 0 44
0 0 44
0 0 45
0 0 43
0 0 45
0 0 45
0 0 45
0 0 45
0 0 47
0 0 46
0 0 45
0 0 45
0 0 49
0 0 45
0 0 45
0 0 44
0 0 43
0 0 43
0 0 43
0 0 44
0 0 43
0 0 43
0 0 44
0 0 43
0 0 43
0 0 42
0 0 42
0 0 42
0 0 42
0 0 42
0 0 42
0 0 44
0 0 45
0 0 45
0 0 43
0 0 42
0 0 42
0 0 42
0 0 43
0 0 45
0 0 43
0 0 42
0 0 42
0 0 42
0 0 42
0 0 44
0 0 45
0 0 45
0 0 45
0 0 45
0 0 45
0 0 45
0 0 45
0 0 45
0 0 45
0 0 45
0 0 45
0 0 45
0 0 45
0 0 45
0 0 45
0 0 45
0 0 45
0 0 45
0 0 45
0 0 45
0 0 45
0 0 45
0 0 45
0 0 45
0 0 45
0 0 45
0 0 47
0 0 47
0 0 47
0 0 47
0 0 47
0 0 47
0 0 50
0 0 51
0 0 52
0 0 52
0 0 54
0 0 56
0 0 57
0 0 58
0 0 62
0 0 67
0 0 76
0 8 76
3 18 75
31 46 19
48 57 25
67 75 60
140 142 138
129 123 108
99 87 57
107 89 62
98 86 58
84 75 48
77 70 44
72 66 42
66 64 38
62 62 35
55 60 34
52 57 29
74 75 36
33 82 89
12 48 97
0 26 87
0 25 90
0 23 85
0 19 81
0 16 78
0 15 77
0 9 71
0 0 66
0 0 66
0 0 62
0 0 58
0 0 58
0 0 63
0 0 65
0 0 68
0 0 68
0 0 67
0 0 66
0 0 63
0 0 66
0 0 66
0 0 67
0 0 69
0 8 72
0 8 72
0 4 69
0 0 69
0 0 67
0 0 66
0 0 66
0 0 64
151 159 176
225 237 254
225 237 254
225 237 254
225 237 254
225 237 254
225 237 254
225 237 254
225 237 254
225 237 254
225 237 254
225 237 254
225 237 254
225 237 254
225 237 254
225 237 254
225 237 254
225 237 254
225 237 254
225 237 254
225 237 254
225 237 254
225 237 254
225 237 254
225 237 254
225 237 254
225 237 254
225 237 254
225 237 254
225 237 254
225 237 254
225 237 254
225 237 254
225 237 254
225 237 254
225 237 254
225 237 254
225 237 254
225 237 254
225 237 254
225 237 254
225 237 254
225 237 254
225 237 254
225 237 254
225 237 254
225 237 254
225 237 254
225 237 254
225 237 254
225 237 254
225 237 254
225 237 254
225 237 254
225 237 254
225 237 254
225 237 254
225 237 254
225 237 254
225 237 254
225 237 254
225 237 254
225 237 254
225 237 254
225 237 254
225 237 254
225 237 254
225 237 254
225 237 254
225 237 254
225 237 254
225 237 254
225 237 254
225 237 254
225 237 254
225 237 254
225 237 254
225 237 254
225 237 254
225 237 254
225 237 254
225 237 254
225 237 254
225 237 254
225 237 254
225 237 254
225 237 254
225 237 254
225 237 254
225 237 254
225 237 254
225 237 254
225 237 254
225 237 254
225 237 254
225 237 254
225 237 254
224 237 254
224 237 254
224 237 254
224 237 254
224 237 254
224 237 254
224 237 254
224 237 254
224 237 254
224 237 254
224 237 254
224 237 254
224 237 254
224 237 254
224 237 254
224 237 254
224 237 254
224 237 254
224 237 254
224 237 254
224 237 254
224 237 254
224 237 254
224 237 254
224 237 254
224 237 254
224 237 254
225 237 254
225 237 254
225 237 254
225 237 254
225 237 254
225 237 254
225 237 254
225 237 254
225 237 254
225 237 254
225 237 254
225 237 254
225 237 254
225 237 254
225 237 254
225 237 254
225 237 254
225 237 254
225 237 254
225 237 254
225 237 254
225 237 254
225 237 254
225 237 254
225 237 254
225 237 254
225 237 254
225 237 254
225 237 254
225 237 254
225 237 254
225 237 254
225 237 254
225 237 254
225 237 254
225 237 254
225 237 254
225 237 254
225 237 254
225 237 254
225 237 254
225 237 254
225 237 254
225 237 254
225 237 254
225 237 254
225 237 254
225 237 254
225 237 254
225 237 254
225 237 254
225 237 254
225 237 254
225 237 254
225 237 254
225 237 254
225 237 254
225 237 254
225 237 254
225 237 254
225 237 254
225 237 254
225 237 254
225 237 254
225 237 254
225 237 254
225 237 254
225 237 254
225 237 254
225 237 254
225 237 254
225 237 254
225 237 254
225 237 254
225 237 254
225 237 254
225 237 254
225 237 254
225 237 254
225 237 254
225 237 254
225 237 254
225 237 254
225 237 254
225 237 254
225 237 254
225 237 254
225 237 254
225 237 254
225 237 254
225 237 254
225 237 254
225 237 254
225 237 254
225 237 254
225 237 254
225 237 254
225 237 254
225 237 254
225 237 254
225 237 254
225 237 254
225 237 254
225 237 254
225 237 254
225 237 254
225 237 254
225 237 254
225 237 254
225 237 254
225 237 254
225 237 254
225 237 254
225 237 254
225 237 254
225 237 254
225 237 254
225 237 254
225 237 254
225 237 254
225 237 254
225 237 254
225 237 254
225 237 254
125 132 147
0 0 47
0 0 50
0 0 48
0 0 46
0 0 45
0 0 45
0 0 48
0 0 47
0 0 48
0 0 49
0 0 50
0 0 48
0 0 45
0 0 46
0 0 47
0 0 47
0 0 45
0 0 45
0 0 44
0 0 45
0 0 45
0 0 45
0 0 45
0 0 46
0 0 47
0 0 45
0 0 44
0 0 44
0 0 45
0 0 45
0 0 43
0 0 42
0 0 42
0 0 42
0 0 42
0 0 42
0 0 42
0 0 42
0 0 42
0 0 42
0 0 42
0 0 42
0 0 42
0 0 42
0 0 42
0 0 42
0 0 42
0 0 42
0 0 43
0 0 42
0 0 43
0 0 43
0 0 44
0 0 43
0 0 43
0 0 42
0 0 43
0 0 45
0 0 45
0 0 45
0 0 45
0 0 45
0 0 45
0 0 45
0 0 45
0 0 45
0 0 45
0 0 45
0 0 45
0 0 45
0 0 45
0 0 45
0 0 45
0 0 45
0 0 45
0 0 45
0 0 45
0 0 45
0 0 45
0 0 45
0 0 45
0 0 46
0 0 47
0 0 47
0 0 47
0 0 47
0 0 47
0 0 47
0 0 48
0 0 51
0 0 52
0 0 52
0 0 54
0 0 57
0 0 58
0 0 58
0 0 58
0 0 62
0 1 67
0 8 64
0 0 62
0 18 77
30 44 32
41 53 27
74 77 65
95 91 85
88 82 55
92 82 53
87 76 50
95 85 56
96 85 56
80 73 49
74 69 46
64 64 39
62 62 35
53 57 32
57 63 35
55 78 69
7 57 102
0 22 86
0 21 84
0 24 85
0 21 82
0 17 77
0 16 78
0 8 70
0 0 66
0 1 67
0 8 70
0 0 66
0 0 57
0 0 62
0 0 65
0 0 67
0 0 68
0 0 70
0 0 69
0 0 67
0 0 66
0 0 67
0 0 67
0 0 68
0 2 69
0 4 70
0 0 70
0 1 70
0 0 68
0 0 65
0 0 64
0 0 64
154 162 180
225 237 254
225 237 254
225 237 254
225 237 254
225 237 254
225 237 254
225 237 254
225 237 254
225 237 254
225 237 254
225 237 254
225 237 254
225 237 254
225 237 254
225 237 254
225 237 254
225 237 254
225 237 254
225 237 254
225 237 254
225 237 254
225 237 254
225 237 254
225 237 254
225 237 254
225 237 254
225 237 254
225 237 254
225 237 254
225 237 254
225 237 254
225 237 254
225 237 254
225 237 254
225 237 254
225 237 254
225 237 254
225 237 254
225 237 254
225 237 254
225 237 254
225 237 254
225 237 254
225 237 254
225 237 254
225 237 254
225 237 254
225 237 254
225 237 254
225 237 254
225 237 254
225 237 254
225 237 254
225 237 254
225 237 254
225 237 254
225 237 254
225 237 254
225 237 254
225 237 254
225 237 254
225 237 254
225 237 254
225 237 254
225 237 254
225 237 254
225 237 254
225 237 254
225 237 254
225 237 254
225 237 254
225 237 254
225 237 254
225 237 254
225 237 254
225 237 254
225 237 254
225 237 254
225 237 254
225 237 254
225 237 254
225 237 254
225 237 254
225 237 254
225 237 254
225 237 254
225 237 254
225 237 254
225 237 254
225 237 254
225 237 254
225 237 254
225 237 254
225 237 254
225 237 254
225 237 254
225 237 254
225 237 254
225 237 254
225 237 254
225 237 254
225 237 254
225 237 254
225 237 254
225 237 254
225 237 254
225 237 254
225 237 254
225 237 254
225 237 254
225 237 254
225 237 254
225 237 254
225 237 254
225 237 254
225 237 254
225 237 254
225 237 254
225 237 254
225 237 254
225 237 254
225 237 254
225 237 254
225 237 254
225 237 254
225 237 254
225 237 254
225 237 254
225 237 254
225 237 254
225 237 254
225 237 254
225 237 254
225 237 254
225 237 254
225 237 254
225 237 254
225 237 254
225 237 254
225 237 254
225 237 254
225 237 254
225 237 254
225 237 254
225 237 254
225 237 254
225 237 254
225 237 254
225 237 254
225 237 254
225 237 254
225 237 254
225 237 254
225 237 254
225 237 254
225 237 254
225 237 254
225 237 254
225 237 254
225 237 254
225 237 254
225 237 254
225 237 254
225 237 254
225 237 254
225 237 254
225 237 254
225 237 254
225 237 254
225 237 254
225 237 254
225 237 254
225 237 254
225 237 254
225 237 254
225 237 254
225 237 254
225 237 254
225 237 254
225 237 254
225 237 254
225 237 254
225 237 254
225 237 254
225 237 254
225 237 254
225 237 254
225 237 254
225 237 254
225 237 254
225 237 254
225 237 254
225 237 254
225 237 254
225 237 254
225 237 254
225 237 254
225 237 254
225 237 254
225 237 254
225 237 254
225 237 254
225 237 254
225 237 254
225 237 254
225 237 254
225 237 254
225 237 254
225 237 254
225 237 254
225 237 254
225 237 254
225 237 254
225 237 254
225 237 254
225 237 254
225 237 254
225 237 254
225 237 254
225 237 254
225 237 254
225 237 254
225 237 254
225 237 254
225 237 254
225 237 254
225 237 254
225 237 254
225 237 254
225 237 254
225 237 254
225 237 254
225 237 254
225 237 254
225 237 254
225 237 254
225 237 254
225 237 254
225 237 254
225 237 254
225 237 254
225 237 254
225 237 254
225 237 254
225 237 254
225 237 254
225 237 254
225 237 254
225 237 254
170 179 195
0 0 48
0 0 51
0 0 48
0 0 48
0 0 45
0 0 45
0 0 48
0 0 47
0 0 48
0 0 52
0 0 53
0 0 49
0 0 48
0 0 48
0 0 47
0 0 47
0 0 45
0 0 46
0 0 46
0 0 46
0 0 45
0 0 45
0 0 45
0 0 45
0 0 45
0 0 44
0 0 45
0 0 45
0 0 45
0 0 44
0 0 42
0 0 42
0 0 42
0 0 42
0 0 42
0 0 42
0 0 42
0 0 42
0 0 42
0 0 42
0 0 42
0 0 42
0 0 42
0 0 42
0 0 42
0 0 42
0 0 43
0 0 45
0 0 43
0 0 43
0 0 44
0 0 45
0 0 45
0 0 45
0 0 45
0 0 45
0 0 45
0 0 45
0 0 45
0 0 45
0 0 45
0 0 45
0 0 45
0 0 45
0 0 45
0 0 45
0 0 45
0 0 45
0 0 45
0 0 45
0 0 45
0 0 45
0 0 45
0 0 45
0 0 45
0 0 45
0 0 45
0 0 45
0 0 46
0 0 47
0 0 47
0 0 47
0 0 47
0 0 47
0 0 47
0 0 47
0 0 47
0 0 48
0 0 51
0 0 52
0 0 52
0 0 53
0 0 58
0 0 59
0 0 59
0 0 60
0 0 65
0 0 64
0 0 72
0 5 65
16 34 24
39 53 18
55 68 58
101 104 97
72 64 36
83 72 44
84 71 45
93 76 51
97 79 52
93 79 52
87 77 47
82 73 44
64 68 44
59 67 36
59 66 32
61 70 42
29 60 87
0 22 86
0 25 88
0 29 90
0 23 85
0 21 81
0 17 77
0 10 70
0 6 70
0 0 68
0 10 71
0 8 71
0 0 62
0 0 64
0 0 68
0 0 68
0 6 68
0 3 69
0 0 68
0 5 70
0 0 68
0 0 66
0 0 68
0 10 71
0 6 70
0 8 71
0 0 70
0 0 69
0 0 67
0 0 62
0 0 63
0 0 64
162 171 189
225 237 254
225 237 254
225 237 254
225 237 254
225 237 254
225 237 254
225 237 254
225 237 254
225 237 254
225 237 254
225 237 254
225 237 254
225 237 254
225 237 254
225 237 254
225 237 254
225 237 254
225 237 254
225 237 254
225 237 254
225 237 254
225 237 254
225 237 254
225 237 254
225 237 254
225 237 254
225 237 254
225 237 254
225 237 254
225 237 254
225 237 254
225 237 254
225 237 254
225 237 254
225 237 254
225 237 254
225 237 254
225 237 254
225 237 254
225 237 254
225 237 254
225 237 254
225 237 254
225 237 254
225 237 254
225 237 254
225 237 254
225 237 254
225 237 254
225 237 254
225 237 254
225 237 254
225 237 254
225 237 254
225 237 254
225 237 254
225 237 254
225 237 254
225 237 254
225 237 254
225 237 254
225 237 254
225 237 254
225 237 254
225 237 254
225 237 254
225 237 254
225 237 254
225 237 254
225 237 254
225 237 254
225 237 254
225 237 254
225 237 254
225 237 254
225 237 254
225 237 254
225 237 254
225 237 254
225 237 254
225 237 254
225 237 254
225 237 254
225 237 254
225 237 254
225 237 254
225 237 254
225 237 254
225 237 254
225 237 254
225 237 254
225 237 254
225 237 254
225 237 254
225 237 254
225 237 254
225 237 254
225 237 254
225 237 254
225 237 254
225 237 254
225 237 254
225 237 254
225 237 254
225 237 254
225 237 254
225 237 254
225 237 254
225 237 254
225 237 254
225 237 254
225 237 254
225 237 254
225 237 254
225 237 254
225 237 254
225 237 254
225 237 254
225 237 254
225 237 254
225 237 254
225 237 254
225 237 254
225 237 254
225 237 254
225 237 254
225 237 254
225 237 254
225 237 254
225 237 254
225 237 254
225 237 254
225 237 254
225 237 254
225 237 254
225 237 254
225 237 254
225 237 254
225 237 254
225 237 254
225 237 254
225 237 254
225 237 254
225 237 254
225 237 254
225 237 254
225 237 254
225 237 254
225 237 254
225 237 254
225 237 254
225 237 254
225 237 254
225 237 254
225 237 254
225 237 254
225 237 254
225 237 254
225 237 254
225 237 254
225 237 254
225 237 254
225 237 254
225 237 254
225 237 254
225 237 254
225 237 254
225 237 254
225 237 254
225 237 254
225 237 254
225 237 254
225 237 254
225 237 254
225 237 254
225 237 254
225 237 254
225 237 254
225 237 254
225 237 254
225 237 254
225 237 254
225 237 254
225 237 254
225 237 254
225 237 254
225 237 254
225 237 254
225 237 254
225 237 254
225 237 254
225 237 254
225 237 254
225 237 254
225 237 254
225 237 254
225 237 254
225 237 254
225 237 254
225 237 254
225 237 254
225 237 254
225 237 254
225 237 254
225 237 254
225 237 254
225 237 254
225 237 254
225 237 254
225 237 254
225 237 254
225 237 254
225 237 254
225 237 254
225 237 254
225 237 254
225 237 254
225 237 254
225 237 254
225 237 254
225 237 254
225 237 254
225 237 254
225 237 254
225 237 254
225 237 254
225 237 254
225 237 254
225 237 254
225 237 254
225 237 254
225 237 254
225 237 254
225 237 254
225 237 254
225 237 254
225 237 254
225 237 254
225 237 254
225 237 254
225 237 254
225 237 254
225 237 254
225 237 254
225 237 254
225 237 254
225 237 254
225 237 254
225 237 254
225 237 254
225 237 254
171 180 196
22 23 56
0 0 52
0 0 49
0 0 49
0 0 47
0 0 47
0 0 48
0 0 47
0 0 48
0 0 54
0 0 53
0 0 52
0 0 53
0 0 50
0 0 48
0 0 47
0 0 47
0 0 47
0 0 47
0 0 45
0 0 45
0 0 45
0 0 45
0 0 45
0 0 44
0 0 45
0 0 45
0 0 45
0 0 45
0 0 44
0 0 44
0 0 42
0 0 42
0 0 42
0 0 44
0 0 45
0 0 45
0 0 44
0 0 44
0 0 44
0 0 44
0 0 44
0 0 43
0 0 42
0 0 42
0 0 42
0 0 43
0 0 45
0 0 45
0 0 45
0 0 43
0 0 45
0 0 45
0 0 45
0 0 45
0 0 45
0 0 45
0 0 45
0 0 45
0 0 45
0 0 45
0 0 45
0 0 45
0 0 45
0 0 45
0 0 45
0 0 45
0 0 45
0 0 44
0 0 45
0 0 45
0 0 45
0 0 45
0 0 45
0 0 45
0 0 45
0 0 45
0 0 46
0 0 47
0 0 47
0 0 47
0 0 47
0 0 47
0 0 47
0 0 47
0 0 47
0 0 49
0 0 52
0 0 52
0 0 52
0 0 53
0 0 57
0 0 59
0 0 60
0 0 61
0 0 61
0 3 69
0 5 65
8 24 40
43 59 23
42 59 36
106 119 118
92 93 82
79 66 44
83 71 45
88 75 48
91 77 49
87 74 45
80 68 48
85 78 49
84 74 56
23 24 70
25 32 72
34 52 69
19 36 85
2 21 81
0 22 85
0 24 87
0 24 86
0 19 82
0 14 75
0 5 69
0 13 73
0 8 71
0 0 67
0 16 76
0 8 67
0 0 66
0 3 70
0 7 72
0 3 72
0 3 71
0 0 69
0 0 69
0 1 70
0 3 68
0 5 67
0 9 71
0 14 74
0 10 71
0 0 66
0 0 67
0 0 66
0 0 61
0 0 64
22 23 69
177 187 204
225 237 254
225 237 254
225 237 254
225 237 254
225 237 254
225 237 254
225 237 254
225 237 254
225 237 254
225 237 254
225 237 254
225 237 254
225 237 254
225 237 254
225 237 254
225 237 254
225 237 254
225 237 254
225 237 254
225 237 254
225 237 254
225 237 254
225 237 254
225 237 254
225 237 254
225 237 254
225 237 254
225 237 254
225 237 254
225 237 254
225 237 254
225 237 254
225 237 254
225 237 254
225 237 254
225 237 254
225 237 254
225 237 254
225 237 254
225 237 254
225 237 254
225 237 254
225 237 254
225 237 254
225 237 254
225 237 254
225 237 254
225 237 254
225 237 254
225 237 254
225 237 254
225 237 254
225 237 254
225 237 254
225 237 254
225 237 254
225 237 254
225 237 254
225 237 254
225 237 254
225 237 254
225 237 254
225 237 254
225 237 254
225 237 254
225 237 254
225 237 254
225 237 254
225 237 254
225 237 254
225 237 254
225 237 254
225 237 254
225 237 254
225 237 254
225 237 254
225 237 254
225 237 254
225 237 254
225 237 254
225 237 254
225 237 254
225 237 254
225 237 254
225 237 254
225 237 254
225 237 254
225 237 254
225 237 254
225 237 254
225 237 254
225 237 254
225 237 254
225 237 254
225 237 254
225 237 254
225 237 254
225 237 254
225 237 254
225 237 254
225 237 254
225 237 254
225 237 254
225 237 254
225 237 254
225 237 254
225 237 254
225 237 254
225 237 254
225 237 254
225 237 254
225 237 254
225 237 254
225 237 254
225 237 254
225 237 254
225 237 254
225 237 254
225 237 254
225 237 254
225 237 254
225 237 254
225 237 254
225 237 254
225 237 254
225 237 254
225 237 254
225 237 254
225 237 254
225 237 254
225 237 254
225 237 254
225 237 254
225 237 254
225 237 254
225 237 254
225 237 254
225 237 254
225 237 254
225 237 254
225 237 254
225 237 254
225 237 254
225 237 254
225 237 254
225 237 254
225 237 254
225 237 254
225 237 254
225 237 254
225 237 254
225 237 254
225 237 254
225 237 254
225 237 254
225 237 254
225 237 254
225 237 254
225 237 254
225 237 254
225 237 254
225 237 254
225 237 254
225 237 254
225 237 254
225 237 254
225 237 254
225 237 254
225 237 254
225 237 254
225 237 254
225 237 254
225 237 254
225 237 254
225 237 254
225 237 254
225 237 254
225 237 254
225 237 254
225 237 254
225 237 254
225 237 254
225 237 254
225 237 254
225 237 254
225 237 254
225 237 254
225 237 254
225 237 254
225 237 254
225 237 254
225 237 254
225 237 254
225 237 254
225 237 254
225 237 254
225 237 254
225 237 254
225 237 254
225 237 254
225 237 254
225 237 254
225 237 254
225 237 254
225 237 254
225 237 254
225 237 254
225 237 254
225 237 254
225 237 254
225 237 254
225 237 254
225 237 254
225 237 254
225 237 254
225 237 254
225 237 254
225 237 254
225 237 254
225 237 254
225 237 254
225 237 254
225 237 254
225 237 254
225 237 254
225 237 254
225 237 254
225 237 254
225 237 254
225 237 254
225 237 254
225 237 254
225 237 254
225 237 254
225 237 254
225 237 254
225 237 254
225 237 254
225 237 254
225 237 254
225 237 254
225 237 254
225 237 254
225 237 254
225 237 254
225 237 254
225 237 254
225 237 254
225 237 254
225 237 254
225 237 254
225 237 254
225 237 254
187 197 213
0 0 51
0 0 52
0 0 50
0 0 50
0 0 47
0 0 47
0 0 48
0 0 47
0 0 48
0 0 54
0 0 50
0 0 53
0 0 54
0 0 50
0 0 47
0 0 47
0 0 46
0 0 46
0 0 47
0 0 47
0 0 45
0 0 45
0 0 45
0 0 45
0 0 45
0 0 45
0 0 44
0 0 44
0 0 44
0 0 45
0 0 43
0 0 43
0 0 43
0 0 43
0 0 45
0 0 45
0 0 45
0 0 45
0 0 45
0 0 45
0 0 45
0 0 44
0 0 44
0 0 45
0 0 45
0 0 45
0 0 45
0 0 45
0 0 45
0 0 45
0 0 45
0 0 45
0 0 45
0 0 45
0 0 45
0 0 45
0 0 45
0 0 45
0 0 45
0 0 45
0 0 45
0 0 45
0 0 45
0 0 45
0 0 45
0 0 45
0 0 45
0 0 45
0 0 45
0 0 45
0 0 46
0 0 46
0 0 46
0 0 46
0 0 46
0 0 46
0 0 47
0 0 47
0 0 47
0 0 47
0 0 47
0 0 49
0 0 49
0 0 49
0 0 49
0 0 50
0 0 51
0 0 52
0 0 53
0 0 55
0 0 57
0 0 57
0 0 59
0 0 60
0 0 68
0 7 75
0 7 65
18 38 27
21 43 35
69 82 72
111 115 112
110 105 88
95 79 54
92 79 51
109 96 69
87 75 49
80 72 42
89 74 48
97 82 55
75 65 55
19 23 65
16 29 81
0 21 82
0 19 82
0 18 80
0 20 83
0 20 83
0 14 75
0 8 70
0 8 71
0 14 78
0 15 78
0 10 74
0 10 72
0 7 70
0 12 70
0 10 74
0 14 74
0 10 74
0 2 72
0 0 69
0 7 70
0 11 72
0 8 70
0 13 72
0 19 78
0 14 74
0 5 70
0 0 65
0 0 64
0 0 64
0 1 65
0 0 62
39 41 79
178 188 205
225 237 254
225 237 254
225 237 254
225 237 254
225 237 254
225 237 254
225 237 254
225 237 254
225 237 254
225 237 254
225 237 254
225 237 254
225 237 254
225 237 254
225 237 254
225 237 254
225 237 254
225 237 254
225 237 254
225 237 254
225 237 254
225 237 254
225 237 254
225 237 254
225 237 254
225 237 254
225 237 254
225 237 254
225 237 254
225 237 254
225 237 254
225 237 254
225 237 254
225 237 254
225 237 254
225 237 254
225 237 254
225 237 254
225 237 254
225 237 254
225 237 254
225 237 254
225 237 254
225 237 254
225 237 254
225 237 254
225 237 254
225 237 254
225 237 254
225 237 254
225 237 254
225 237 254
225 237 254
225 237 254
225 237 254
225 237 254
225 237 254
225 237 254
225 237 254
225 237 254
225 237 254
225 237 254
225 237 254
225 237 254
225 237 254
225 237 254
225 237 254
225 237 254
225 237 254
225 237 254
225 237 254
225 237 254
225 237 254
225 237 254
225 237 254
225 237 254
225 237 254
225 237 254
225 237 254
225 237 254
225 237 254
225 237 254
225 237 254
225 237 254
225 237 254
225 237 254
225 237 254
225 237 254
225 237 254
225 237 254
225 237 254
225 237 254
225 237 254
225 237 254
225 237 254
225 237 254
225 237 254
225 237 254
225 237 254
225 237 254
225 237 254
225 237 254
225 237 254
225 237 254
225 237 254
225 237 254
225 237 254
225 237 254
225 237 254
225 237 254
225 237 254
225 237 254
225 237 254
225 237 254
225 237 254
225 237 254
225 237 254
225 237 254
225 237 254
225 237 254
225 237 254
225 237 254
225 237 254
225 237 254
225 237 254
225 237 254
225 237 254
225 237 254
225 237 254
225 237 254
225 237 254
225 237 254
225 237 254
225 237 254
225 237 254
225 237 254
225 237 254
225 237 254
225 237 254
225 237 254
225 237 254
225 237 254
225 237 254
225 237 254
225 237 254
225 237 254
225 237 254
225 237 254
225 237 254
225 237 254
225 237 254
225 237 254
225 237 254
225 237 254
225 237 254
225 237 254
225 237 254
225 237 254
225 237 254
225 237 254
225 237 254
225 237 254
225 237 254
225 237 254
225 237 254
225 237 254
225 237 254
225 237 254
225 237 254
225 237 254
225 237 254
225 237 254
225 237 254
225 237 254
225 237 254
225 237 254
225 237 254
225 237 254
225 237 254
225 237 254
225 237 254
225 237 254
225 237 254
225 237 254
225 237 254
225 237 254
225 237 254
225 237 254
225 237 254
225 237 254
225 237 254
225 237 254
225 237 254
225 237 254
225 237 254
225 237 254
225 237 254
225 237 254
225 237 254
225 237 254
225 237 254
225 237 254
225 237 254
225 237 254
225 237 254
225 237 254
225 237 254
225 237 254
225 237 254
225 237 254
225 237 254
225 237 254
225 237 254
225 237 254
225 237 254
225 237 254
225 237 254
225 237 254
225 237 254
225 237 254
225 237 254
225 237 254
225 237 254
225 237 254
225 237 254
225 237 254
225 237 254
225 237 254
225 237 254
225 237 254
225 237 254
225 237 254
225 237 254
225 237 254
225 237 254
225 237 254
225 237 254
225 237 254
225 237 254
225 237 254
225 237 254
225 237 254
225 237 254
225 237 254
225 237 254
225 237 254
225 237 254
225 237 254
225 237 254
225 237 254
225 237 254
225 237 254
225 237 254
225 237 254
225 237 254
191 201 218
39 41 69
0 0 54
0 0 50
0 0 48
0 0 47
0 0 47
0 0 48
0 0 48
0 0 50
0 0 52
0 0 52
0 0 53
0 0 52
0 0 49
0 0 48
0 0 47
0 0 47
0 0 47
0 0 50
0 0 47
0 0 45
0 0 45
0 0 45
0 0 47
0 0 45
0 0 45
0 0 45
0 0 45
0 0 45
0 0 44
0 0 43
0 0 45
0 0 45
0 0 45
0 0 45
0 0 45
0 0 45
0 0 45
0 0 45
0 0 45
0 0 45
0 0 45
0 0 45
0 0 45
0 0 45
0 0 45
0 0 44
0 0 45
0 0 45
0 0 45
0 0 45
0 0 45
0 0 45
0 0 45
0 0 45
0 0 46
0 0 46
0 0 45
0 0 44
0 0 45
0 0 45
0 0 45
0 0 45
0 0 45
0 0 45
0 0 45
0 0 45
0 0 46
0 0 47
0 0 47
0 0 47
0 0 47
0 0 47
0 0 47
0 0 47
0 0 47
0 0 47
0 0 47
0 0 48
0 0 48
0 0 50
0 0 50
0 0 50
0 0 50
0 0 51
0 0 52
0 0 52
0 0 52
0 0 54
0 0 54
0 0 57
0 0 59
0 0 62
0 5 71
0 12 72
3 25 56
5 27 49
28 38 70
145 159 161
91 88 70
92 80 52
98 83 54
103 88 58
116 103 76
94 81 54
95 81 51
90 76 49
83 76 50
49 50 61
43 54 67
15 28 79
0 13 73
0 17 76
0 20 82
0 17 79
0 11 72
0 5 67
0 14 75
0 19 82
0 20 81
0 15 76
0 14 74
0 5 72
0 11 73
0 15 79
0 10 74
0 10 74
0 14 75
0 5 70
0 0 69
0 8 71
0 14 75
0 9 72
0 13 74
0 11 72
0 7 69
0 5 67
0 9 69
0 2 65
0 7 68
0 3 66
63 67 94
199 209 227
225 237 254
225 237 254
225 237 254
225 237 254
225 237 254
225 237 254
225 237 254
225 237 254
225 237 254
225 237 254
225 237 254
225 237 254
225 237 254
225 237 254
225 237 254
225 237 254
225 237 254
225 237 254
225 237 254
225 237 254
225 237 254
225 237 254
225 237 254
225 237 254
225 237 254
225 237 254
225 237 254
225 237 254
225 237 254
225 237 254
225 237 254
225 237 254
225 237 254
225 237 254
225 237 254
225 237 254
225 237 254
225 237 254
225 237 254
225 237 254
225 237 254
225 237 254
225 237 254
225 237 254
225 237 254
225 237 254
225 237 254
225 237 254
225 237 254
225 237 254
225 237 254
225 237 254
225 237 254
225 237 254
225 237 254
225 237 254
225 237 254
225 237 254
225 237 254
225 237 254
225 237 254
225 237 254
225 237 254
225 237 254
225 237 254
225 237 254
225 237 254
225 237 254
225 237 254
225 237 254
225 237 254
225 237 254
225 237 254
225 237 254
225 237 254
225 237 254
225 237 254
225 237 254
225 237 254
225 237 254
225 237 254
225 237 254
225 237 254
225 237 254
225 237 254
225 237 254
225 237 254
225 237 254
225 237 254
225 237 254
225 237 254
225 237 254
225 237 254
225 237 254
225 237 254
225 237 254
225 237 254
225 237 254
225 237 254
225 237 254
225 237 254
225 237 254
225 237 254
225 237 254
225 237 254
225 237 254
225 237 254
225 237 254
225 237 254
225 237 254
225 237 254
225 237 254
225 237 254
225 237 254
225 237 254
225 237 254
225 237 254
225 237 254
225 237 254
225 237 254
225 237 254
225 237 254
225 237 254
225 237 254
225 237 254
225 237 254
225 237 254
225 237 254
225 237 254
225 237 254
225 237 254
225 237 254
225 237 254
225 237 254
225 237 254
225 237 254
225 237 254
225 237 254
225 237 254
225 237 254
225 237 254
225 237 254
225 237 254
225 237 254
225 237 254
225 237 254
225 237 254
225 237 254
225 237 254
225 237 254
225 237 254
225 237 254
225 237 254
225 237 254
225 237 254
225 237 254
225 237 254
225 237 254
225 237 254
225 237 254
225 237 254
225 237 254
225 237 254
225 237 254
225 237 254
225 237 254
225 237 254
225 237 254
225 237 254
225 237 254
225 237 254
225 237 254
225 237 254
225 237 254
225 237 254
225 237 254
225 237 254
225 237 254
225 237 254
225 237 254
225 237 254
225 237 254
225 237 254
225 237 254
225 237 254
225 237 254
225 237 254
225 237 254
225 237 254
225 237 254
225 237 254
225 237 254
225 237 254
225 237 254
225 237 254
225 237 254
225 237 254
225 237 254
225 237 254
225 237 254
225 237 254
225 237 254
225 237 254
225 237 254
225 237 254
225 237 254
225 237 254
225 237 254
225 237 254
225 237 254
225 237 254
225 237 254
225 237 254
225 237 254
225 237 254
225 237 254
225 237 254
225 237 254
225 237 254
225 237 254
225 237 254
225 237 254
225 237 254
225 237 254
225 237 254
225 237 254
225 237 254
225 237 254
225 237 254
225 237 254
225 237 254
225 237 254
225 237 254
225 237 254
225 237 254
225 237 254
225 237 254
225 237 254
225 237 254
225 237 254
225 237 254
225 237 254
225 237 254
225 237 254
225 237 254
225 237 254
225 237 254
225 237 254
225 237 254
225 237 254
225 237 254
225 237 254
225 237 254
225 237 254
225 237 254
225 237 254
225 237 254
215 226 243
63 67 90
0 0 57
0 0 49
0 0 48
0 0 48
0 0 49
0 0 50
0 0 49
0 0 49
0 0 51
0 0 52
0 0 52
0 0 51
0 0 49
0 0 48
0 0 47
0 0 47
0 0 50
0 0 52
0 0 47
0 0 45
0 0 45
0 0 45
0 0 47
0 0 47
0 0 47
0 0 47
0 0 46
0 0 45
0 0 45
0 0 45
0 0 45
0 0 45
0 0 45
0 0 45
0 0 45
0 0 45
0 0 45
0 0 45
0 0 45
0 0 45
0 0 45
0 0 43
0 0 45
0 0 45
0 0 45
0 0 47
0 0 47
0 0 46
0 0 47
0 0 47
0 0 45
0 0 45
0 0 47
0 0 50
0 0 50
0 0 47
0 0 45
0 0 46
0 0 45
0 0 45
0 0 45
0 0 45
0 0 46
0 0 46
0 0 47
0 0 48
0 0 47
0 0 47
0 0 47
0 0 47
0 0 47
0 0 47
0 0 47
0 0 47
0 0 47
0 0 47
0 0 50
0 0 50
0 0 50
0 0 50
0 0 51
0 0 52
0 0 53
0 0 53
0 0 52
0 0 52
0 0 53
0 0 55
0 0 58
0 0 63
0 0 69
0 12 75
0 15 70
0 31 25
6 14 65
81 93 91
113 123 123
89 78 55
90 79 52
93 80 51
103 88 59
100 85 56
109 92 67
102 89 54
90 78 49
57 64 64
18 31 75
0 12 77
0 19 77
0 19 81
0 20 81
0 9 74
0 5 69
0 0 63
0 14 75
0 18 81
0 15 79
0 15 77
0 14 75
0 13 75
0 12 74
0 13 73
0 13 76
0 12 74
0 12 73
0 8 70
0 0 69
0 6 72
0 12 73
0 10 72
0 4 70
0 11 72
0 13 74
0 9 71
0 11 74
0 8 70
0 9 71
0 7 69
67 71 95
202 213 231
225 237 254
225 237 254
225 237 254
225 237 254
225 237 254
225 237 254
225 237 254
225 237 254
225 237 254
225 237 254
225 237 254
225 237 254
225 237 254
225 237 254
225 237 254
225 237 254
225 237 254
225 237 254
225 237 254
225 237 254
225 237 254
225 237 254
225 237 254
225 237 254
225 237 254
225 237 254
225 237 254
225 237 254
225 237 254
225 237 254
225 237 254
225 237 254
225 237 254
225 237 254
225 237 254
225 237 254
225 237 254
225 237 254
225 237 254
225 237 254
225 237 254
225 237 254
225 237 254
225 237 254
225 237 254
225 237 254
225 237 254
225 237 254
225 237 254
225 237 254
225 237 254
225 237 254
225 237 254
225 237 254
225 237 254
225 237 254
225 237 254
225 237 254
225 237 254
225 237 254
225 237 254
225 237 254
225 237 254
225 237 254
225 237 254
225 237 254
225 237 254
225 237 254
225 237 254
225 237 254
225 237 254
225 237 254
225 237 254
225 237 254
225 237 254
225 237 254
225 237 254
225 237 254
225 237 254
225 237 254
225 237 254
225 237 254
225 237 254
225 237 254
225 237 254
225 237 254
225 237 254
225 237 254
225 237 254
225 237 254
225 237 254
225 237 254
225 237 254
225 237 254
225 237 254
225 237 254
225 237 254
225 237 254
225 237 254
225 237 254
225 237 254
225 237 254
225 237 254
225 237 254
225 237 254
225 237 254
225 237 254
225 237 254
225 237 254
225 237 254
225 237 254
225 237 254
225 237 254
225 237 254
225 237 254
225 237 254
225 237 254
225 237 254
225 237 254
225 237 254
225 237 254
225 237 254
225 237 254
225 237 254
225 237 254
225 237 254
225 237 254
225 237 254
225 237 254
225 237 254
225 237 254
225 237 254
225 237 254
225 237 254
225 237 254
225 237 254
225 237 254
225 237 254
225 237 254
225 237 254
225 237 254
225 237 254
225 237 254
225 237 254
225 237 254
225 237 254
225 237 254
225 237 254
225 237 254
225 237 254
225 237 254
225 237 254
225 237 254
225 237 254
225 237 254
225 237 254
225 237 254
225 237 254
225 237 254
225 237 254
225 237 254
225 237 254
225 237 254
225 237 254
225 237 254
225 237 254
225 237 254
225 237 254
225 237 254
225 237 254
225 237 254
225 237 254
225 237 254
225 237 254
225 237 254
225 237 254
225 237 254
225 237 254
225 237 254
225 237 254
225 237 254
225 237 254
225 237 254
225 237 254
225 237 254
225 237 254
225 237 254
225 237 254
225 237 254
225 237 254
225 237 254
225 237 254
225 237 254
225 237 254
225 237 254
225 237 254
225 237 254
225 237 254
225 237 254
225 237 254
225 237 254
225 237 254
225 237 254
225 237 254
225 237 254
225 237 254
225 237 254
225 237 254
225 237 254
225 237 254
225 237 254
225 237 254
225 237 254
225 237 254
225 237 254
225 237 254
225 237 254
225 237 254
225 237 254
225 237 254
225 237 254
225 237 254
225 237 254
225 237 254
225 237 254
225 237 254
225 237 254
225 237 254
225 237 254
225 237 254
225 237 254
225 237 254
225 237 254
225 237 254
225 237 254
225 237 254
225 237 254
225 237 254
225 237 254
225 237 254
225 237 254
225 237 254
225 237 254
225 237 254
225 237 254
225 237 254
225 237 254
225 237 254
225 237 254
225 237 254
225 237 254
225 237 254
225 237 254
225 237 254
225 237 254
225 237 254
225 237 254
225 237 254
225 237 254
212 224 241
81 85 108
0 0 59
0 0 52
0 0 50
0 0 52
0 0 50
0 0 51
0 0 52
0 0 51
0 0 51
0 0 53
0 0 56
0 0 53
0 0 51
0 0 49
0 0 48
0 0 49
0 0 52
0 0 49
0 0 45
0 0 46
0 0 45
0 0 44
0 0 45
0 0 47
0 0 49
0 0 49
0 0 46
0 0 45
0 0 45
0 0 45
0 0 45
0 0 45
0 0 45
0 0 45
0 0 45
0 0 45
0 0 45
0 0 45
0 0 46
0 0 46
0 0 45
0 0 47
0 0 47
0 0 46
0 0 47
0 0 47
0 0 48
0 0 47
0 0 47
0 0 47
0 0 47
0 0 50
0 0 51
0 0 50
0 0 47
0 0 49
0 0 51
0 0 49
0 0 48
0 0 47
0 0 47
0 0 47
0 0 47
0 0 47
0 0 47
0 0 47
0 0 47
0 0 47
0 0 49
0 0 49
0 0 49
0 0 49
0 0 48
0 0 48
0 0 50
0 0 50
0 0 50
0 0 51
0 0 51
0 0 52
0 0 53
0 0 53
0 0 52
0 0 52
0 0 53
0 0 56
0 0 58
0 0 62
0 0 65
0 0 72
0 9 66
0 13 64
0 13 64
56 67 67
124 136 132
114 119 113
90 77 51
94 82 52
94 81 52
109 95 63
116 98 64
109 89 57
83 77 53
64 61 60
13 22 78
0 15 72
0 14 80
0 16 76
0 16 81
0 15 77
0 7 69
0 0 60
0 1 65
0 10 73
0 11 73
0 12 74
0 13 74
0 8 72
0 10 71
0 7 68
0 5 70
0 6 70
0 2 68
0 0 67
0 0 67
0 6 71
0 14 79
0 11 74
0 9 72
0 14 76
0 15 77
0 9 73
0 5 71
0 7 71
0 10 71
0 6 69
108 114 133
213 225 242
225 237 254
225 237 254
225 237 254
225 237 254
225 237 254
225 237 254
225 237 254
225 237 254
225 237 254
225 237 254
225 237 254
225 237 254
225 237 254
225 237 254
225 237 254
225 237 254
225 237 254
225 237 254
225 237 254
225 237 254
225 237 254
225 237 254
225 237 254
225 237 254
225 237 254
225 237 254
225 237 254
225 237 254
225 237 254
225 237 254
225 237 254
225 237 254
225 237 254
225 237 254
225 237 254
225 237 254
225 237 254
225 237 254
225 237 254
225 237 254
225 237 254
225 237 254
225 237 254
225 237 254
225 237 254
225 237 254
225 237 254
225 237 254
225 237 254
225 237 254
225 237 254
225 237 254
225 237 254
225 237 254
225 237 254
225 237 254
225 237 254
225 237 254
225 237 254
225 237 254
225 237 254
225 237 254
225 237 254
225 237 254
225 237 254
225 237 254
225 237 254
225 237 254
225 237 254
225 237 254
225 237 254
225 237 254
225 237 254
225 237 254
225 237 254
225 237 254
225 237 254
225 237 254
225 237 254
225 237 254
225 237 254
225 237 254
225 237 254
225 237 254
225 237 254
225 237 254
225 237 254
225 237 254
225 237 254
225 237 254
225 237 254
225 237 254
225 237 254
225 237 254
225 237 254
225 237 254
225 237 254
225 237 254
225 237 254
225 237 254
225 237 254
225 237 254
225 237 254
225 237 254
225 237 254
225 237 254
225 237 254
225 237 254
225 237 254
225 237 254
225 237 254
225 237 254
225 237 254
225 237 254
225 237 254
225 237 254
225 237 254
225 237 254
225 237 254
225 237 254
225 237 254
225 237 254
225 237 254
225 237 254
225 237 254
225 237 254
225 237 254
225 237 254
225 237 254
225 237 254
225 237 254
225 237 254
225 237 254
225 237 254
225 237 254
225 237 254
225 237 254
225 237 254
225 237 254
225 237 254
225 237 254
225 237 254
225 237 254
225 237 254
225 237 254
225 237 254
225 237 254
225 237 254
225 237 254
225 237 254
225 237 254
225 237 254
225 237 254
225 237 254
225 237 254
225 237 254
225 237 254
225 237 254
225 237 254
225 237 254
225 237 254
225 237 254
225 237 254
225 237 254
225 237 254
225 237 254
225 237 254
225 237 254
225 237 254
225 237 254
225 237 254
225 237 254
225 237 254
225 237 254
225 237 254
225 237 254
225 237 254
225 237 254
225 237 254
225 237 254
225 237 254
225 237 254
225 237 254
225 237 254
225 237 254
225 237 254
225 237 254
225 237 254
225 237 254
225 237 254
225 237 254
225 237 254
225 237 254
225 237 254
225 237 254
225 237 254
225 237 254
225 237 254
225 237 254
225 237 254
225 237 254
225 237 254
225 237 254
225 237 254
225 237 254
225 237 254
225 237 254
225 237 254
225 237 254
225 237 254
225 237 254
225 237 254
225 237 254
225 237 254
225 237 254
225 237 254
225 237 254
225 237 254
225 237 254
225 237 254
225 237 254
225 237 254
225 237 254
225 237 254
225 237 254
225 237 254
225 237 254
225 237 254
225 237 254
225 237 254
225 237 254
225 237 254
225 237 254
225 237 254
225 237 254
225 237 254
225 237 254
225 237 254
225 237 254
225 237 254
225 237 254
225 237 254
225 237 254
225 237 254
225 237 254
225 237 254
225 237 254
225 237 254
225 237 254
225 237 254
225 237 254
225 237 254
225 237 254
225 237 254
225 237 254
225 237 254
225 237 254
225 237 254
225 237 254
225 237 254
225 237 254
219 231 248
133 140 158
0 5 62
0 0 53
0 0 57
0 0 59
0 0 53
0 0 53
0 0 54
0 0 54
0 0 54
0 0 56
0 0 58
0 0 56
0 0 53
0 0 51
0 0 51
0 0 50
0 0 51
0 0 49
0 0 48
0 0 47
0 0 48
0 0 47
0 0 46
0 0 48
0 0 49
0 0 50
0 0 45
0 0 46
0 0 45
0 0 45
0 0 44
0 0 45
0 0 45
0 0 44
0 0 45
0 0 45
0 0 47
0 0 47
0 0 46
0 0 47
0 0 47
0 0 47
0 0 47
0 0 47
0 0 47
0 0 49
0 0 46
0 0 47
0 0 49
0 0 52
0 0 53
0 0 51
0 0 48
0 0 48
0 0 49
0 0 49
0 0 49
0 0 48
0 0 47
0 0 47
0 0 47
0 0 47
0 0 47
0 0 47
0 0 47
0 0 47
0 0 47
0 0 50
0 0 51
0 0 51
0 0 50
0 0 49
0 0 50
0 0 50
0 0 50
0 0 51
0 0 51
0 0 52
0 0 53
0 0 55
0 0 56
0 0 56
0 0 56
0 0 56
0 0 57
0 0 61
0 0 64
0 0 65
0 7 61
0 11 69
0 26 47
16 40 58
95 112 108
138 147 147
107 98 79
92 79 47
91 77 47
96 83 52
103 88 54
113 100 62
86 75 51
65 67 54
20 27 74
0 12 74
0 21 84
0 16 75
0 15 78
0 15 78
0 9 71
0 0 59
0 0 60
0 3 66
0 13 74
0 10 74
0 9 71
0 3 68
0 0 68
0 4 67
0 0 67
0 5 68
0 7 72
0 6 71
0 4 67
0 7 70
0 15 78
0 14 76
0 12 73
0 15 78
0 17 78
0 10 71
0 3 69
0 1 68
0 10 70
0 6 66
151 159 177
221 232 250
225 237 254
225 237 254
225 237 254
225 237 254
225 237 254
225 237 254
225 237 254
225 237 254
225 237 254
225 237 254
225 237 254
225 237 254
225 237 254
225 237 254
225 237 254
225 237 254
225 237 254
225 237 254
225 237 254
225 237 254
225 237 254
225 237 254
225 237 254
225 237 254
225 237 254
225 237 254
225 237 254
225 237 254
225 237 254
225 237 254
225 237 254
225 237 254
225 237 254
225 237 254
225 237 254
225 237 254
225 237 254
225 237 254
225 237 254
225 237 254
225 237 254
225 237 254
225 237 254
225 237 254
225 237 254
225 237 254
225 237 254
225 237 254
225 237 254
225 237 254
225 237 254
225 237 254
225 237 254
225 237 254
225 237 254
225 237 254
225 237 254
225 237 254
225 237 254
225 237 254
225 237 254
225 237 254
225 237 254
225 237 254
225 237 254
225 237 254
225 237 254
225 237 254
225 237 254
225 237 254
225 237 254
225 237 254
225 237 254
225 237 254
225 237 254
225 237 254
225 237 254
225 237 254
225 237 254
225 237 254
225 237 254
225 237 254
225 237 254
225 237 254
225 237 254
225 237 254
225 237 254
225 237 254
225 237 254
225 237 254
225 237 254
225 237 254
225 237 254
225 237 254
225 237 254
225 237 254
225 237 254
225 237 254
225 237 254
225 237 254
225 237 254
225 237 254
225 237 254
225 237 254
225 237 254
225 237 254
225 237 254
225 237 254
225 237 254
225 237 254
225 237 254
225 237 254
225 237 254
225 237 254
225 237 254
225 237 254
225 237 254
225 237 254
225 237 254
225 237 254
225 237 254
225 237 254
225 237 254
225 237 254
225 237 254
225 237 254
225 237 254
225 237 254
225 237 254
225 237 254
225 237 254
225 237 254
225 237 254
225 237 254
225 237 254
225 237 254
225 237 254
225 237 254
225 237 254
225 237 254
225 237 254
225 237 254
225 237 254
225 237 254
225 237 254
225 237 254
225 237 254
225 237 254
225 237 254
225 237 254
225 237 254
225 237 254
225 237 254
225 237 254
225 237 254
225 237 254
225 237 254
225 237 254
225 237 254
225 237 254
225 237 254
225 237 254
225 237 254
225 237 254
225 237 254
225 237 254
225 237 254
225 237 254
225 237 254
225 237 254
225 237 254
225 237 254
225 237 254
225 237 254
225 237 254
225 237 254
225 237 254
225 237 254
225 237 254
225 237 254
225 237 254
225 237 254
225 237 254
225 237 254
225 237 254
225 237 254
225 237 254
225 237 254
225 237 254
225 237 254
225 237 254
225 237 254
225 237 254
225 237 254
225 237 254
225 237 254
225 237 254
225 237 254
225 237 254
225 237 254
225 237 254
225 237 254
225 237 254
225 237 254
225 237 254
225 237 254
225 237 254
225 237 254
225 237 254
225 237 254
225 237 254
225 237 254
225 237 254
225 237 254
225 237 254
225 237 254
225 237 254
225 237 254
225 237 254
225 237 254
225 237 254
225 237 254
225 237 254
225 237 254
225 237 254
225 237 254
225 237 254
225 237 254
225 237 254
225 237 254
225 237 254
225 237 254
225 237 254
225 237 254
225 237 254
225 237 254
225 237 254
225 237 254
225 237 254
225 237 254
225 237 254
225 237 254
225 237 254
225 237 254
225 237 254
225 237 254
225 237 254
225 237 254
225 237 254
225 237 254
225 237 254
225 237 254
225 237 254
225 237 254
225 237 254
225 237 254
225 237 254
225 237 254
225 237 254
225 237 254
225 237 254
225 237 254
225 237 254
225 237 254
176 185 203
31 33 75
0 3 60
0 0 63
0 0 63
0 0 60
0 0 58
0 0 57
0 0 58
0 0 57
0 0 58
0 0 59
0 0 60
0 0 58
0 0 54
0 0 54
0 0 53
0 0 52
0 0 50
0 0 50
0 0 53
0 0 54
0 0 50
0 0 45
0 0 45
0 0 47
0 0 46
0 0 45
0 0 45
0 0 45
0 0 45
0 0 44
0 0 45
0 0 43
0 0 45
0 0 46
0 0 47
0 0 47
0 0 47
0 0 47
0 0 47
0 0 47
0 0 47
0 0 47
0 0 47
0 0 47
0 0 46
0 0 47
0 0 46
0 0 49
0 0 51
0 0 50
0 0 48
0 0 48
0 0 48
0 0 47
0 0 46
0 0 46
0 0 47
0 0 49
0 0 49
0 0 49
0 0 48
0 0 48
0 0 48
0 0 48
0 0 48
0 0 52
0 0 52
0 0 52
0 0 51
0 0 50
0 0 50
0 0 50
0 0 52
0 0 52
0 0 52
0 0 52
0 0 52
0 0 54
0 0 54
0 0 56
0 0 57
0 0 57
0 0 60
0 0 60
0 0 63
0 0 68
0 9 74
0 21 63
11 34 54
74 96 95
118 129 130
93 91 76
94 82 51
97 81 48
95 84 49
98 86 50
99 85 57
49 52 71
11 25 81
0 15 71
0 7 71
0 9 71
0 12 73
0 12 73
0 15 75
0 13 74
0 2 62
0 0 62
0 0 64
0 10 71
0 18 79
0 15 75
0 2 68
0 0 69
0 0 68
0 5 68
0 13 73
0 14 74
0 15 75
0 15 77
0 12 73
0 11 73
0 8 73
0 13 74
0 15 76
0 12 73
0 0 66
0 0 67
0 3 67
0 4 68
31 33 73
170 179 196
225 237 254
225 237 254
225 237 254
225 237 254
225 237 254
225 237 254
225 237 254
225 237 254
225 237 254
225 237 254
225 237 254
225 237 254
225 237 254
225 237 254
225 237 254
225 237 254
225 237 254
225 237 254
225 237 254
225 237 254
225 237 254
225 237 254
225 237 254
225 237 254
225 237 254
225 237 254
225 237 254
225 237 254
225 237 254
225 237 254
225 237 254
225 237 254
225 237 254
225 237 254
225 237 254
225 237 254
225 237 254
225 237 254
225 237 254
225 237 254
225 237 254
225 237 254
225 237 254
225 237 254
225 237 254
225 237 254
225 237 254
225 237 254
225 237 254
225 237 254
225 237 254
225 237 254
225 237 254
225 237 254
225 237 254
225 237 254
225 237 254
225 237 254
225 237 254
225 237 254
225 237 254
225 237 254
225 237 254
225 237 254
225 237 254
225 237 254
225 237 254
225 237 254
225 237 254
225 237 254
225 237 254
225 237 254
225 237 254
225 237 254
225 237 254
225 237 254
225 237 254
225 237 254
225 237 254
225 237 254
225 237 254
225 237 254
225 237 254
225 237 254
225 237 254
225 237 254
225 237 254
225 237 254
225 237 254
225 237 254
225 237 254
225 237 254
225 237 254
225 237 254
225 237 254
225 237 254
225 237 254
225 237 254
225 237 254
225 237 254
225 237 254
225 237 254
225 237 254
225 237 254
225 237 254
225 237 254
225 237 254
225 237 254
225 237 254
225 237 254
225 237 254
225 237 254
225 237 254
225 237 254
225 237 254
225 237 254
225 237 254
225 237 254
225 237 254
225 237 254
225 237 254
225 237 254
225 237 254
225 237 254
225 237 254
225 237 254
225 237 254
225 237 254
225 237 254
225 237 254
225 237 254
225 237 254
225 237 254
225 237 254
225 237 254
225 237 254
225 237 254
225 237 254
225 237 254
225 237 254
225 237 254
225 237 254
225 237 254
225 237 254
225 237 254
225 237 254
225 237 254
225 237 254
225 237 254
225 237 254
225 237 254
225 237 254
225 237 254
225 237 254
225 237 254
225 237 254
225 237 254
225 237 254
225 237 254
225 237 254
225 237 254
225 237 254
225 237 254
225 237 254
225 237 254
225 237 254
225 237 254
225 237 254
225 237 254
225 237 254
225 237 254
225 237 254
225 237 254
225 237 254
225 237 254
225 237 254
225 237 254
225 237 254
225 237 254
225 237 254
225 237 254
225 237 254
225 237 254
225 237 254
225 237 254
225 237 254
225 237 254
225 237 254
225 237 254
225 237 254
225 237 254
225 237 254
225 237 254
225 237 254
225 237 254
225 237 254
225 237 254
225 237 254
225 237 254
225 237 254
225 237 254
225 237 254
225 237 254
225 237 254
225 237 254
225 237 254
225 237 254
225 237 254
225 237 254
225 237 254
225 237 254
225 237 254
225 237 254
225 237 254
225 237 254
225 237 254
225 237 254
225 237 254
225 237 254
225 237 254
225 237 254
225 237 254
225 237 254
225 237 254
225 237 254
225 237 254
225 237 254
225 237 254
225 237 254
225 237 254
225 237 254
225 237 254
225 237 254
225 237 254
225 237 254
225 237 254
225 237 254
225 237 254
225 237 254
225 237 254
225 237 254
225 237 254
225 237 254
225 237 254
225 237 254
225 237 254
225 237 254
225 237 254
225 237 254
225 237 254
225 237 254
225 237 254
225 237 254
225 237 254
225 237 254
225 237 254
225 237 254
225 237 254
225 237 254
225 237 254
225 237 254
225 237 254
225 237 254
225 237 254
225 237 254
225 237 254
225 237 254
209 220 237
95 101 125
0 8 64
0 0 62
0 0 66
0 6 69
0 4 64
0 0 61
0 0 63
0 0 63
0 0 64
0 0 64
0 0 63
0 0 62
0 0 59
0 0 56
0 0 59
0 0 54
0 0 51
0 0 55
0 0 54
0 0 54
0 0 52
0 0 50
0 0 48
0 0 47
0 0 45
0 0 45
0 0 47
0 0 46
0 0 46
0 0 46
0 0 47
0 0 47
0 0 45
0 0 47
0 0 47
0 0 47
0 0 48
0 0 49
0 0 49
0 0 49
0 0 48
0 0 48
0 0 48
0 0 48
0 0 47
0 0 47
0 0 47
0 0 48
0 0 49
0 0 49
0 0 49
0 0 49
0 0 50
0 0 50
0 0 50
0 0 51
0 0 50
0 0 50
0 0 48
0 0 48
0 0 50
0 0 50
0 0 51
0 0 51
0 0 51
0 0 51
0 0 54
0 0 53
0 0 51
0 0 51
0 0 51
0 0 52
0 0 52
0 0 51
0 0 52
0 0 52
0 0 52
0 0 54
0 0 55
0 0 57
0 0 58
0 0 60
0 0 63
0 0 65
0 5 70
11 23 57
21 40 34
65 83 85
158 169 173
133 138 135
94 88 74
89 75 42
96 80 46
102 89 52
88 80 46
49 52 66
2 23 86
0 17 81
0 10 70
0 0 67
0 0 66
0 6 70
0 7 71
0 6 70
0 3 66
0 0 66
0 0 66
0 0 67
0 9 71
0 10 73
0 11 73
0 7 70
0 0 68
0 0 67
0 6 69
0 10 72
0 10 71
0 3 70
0 4 68
0 6 69
0 7 70
0 2 69
0 9 71
0 5 67
0 0 64
0 0 66
0 3 67
0 5 69
87 92 115
211 223 240
225 237 254
225 237 254
225 237 254
225 237 254
225 237 254
225 237 254
225 237 254
225 237 254
225 237 254
225 237 254
225 237 254
225 237 254
225 237 254
225 237 254
225 237 254
225 237 254
225 237 254
225 237 254
225 237 254
225 237 254
225 237 254
225 237 254
225 237 254
225 237 254
225 237 254
225 237 254
225 237 254
225 237 254
225 237 254
225 237 254
225 237 254
225 237 254
225 237 254
225 237 254
225 237 254
225 237 254
225 237 254
225 237 254
225 237 254
225 237 254
225 237 254
225 237 254
225 237 254
225 237 254
225 237 254
225 237 254
225 237 254
225 237 254
225 237 254
225 237 254
225 237 254
225 237 254
225 237 254
225 237 254
225 237 254
225 237 254
225 237 254
225 237 254
225 237 254
225 237 254
225 237 254
225 237 254
225 237 254
225 237 254
225 237 254
225 237 254
225 237 254
225 237 254
225 237 254
225 237 254
225 237 254
225 237 254
225 237 254
225 237 254
225 237 254
225 237 254
225 237 254
225 237 254
225 237 254
225 237 254
225 237 254
225 237 254
225 237 254
225 237 254
225 237 254
225 237 254
225 237 254
225 237 254
225 237 254
225 237 254
225 237 254
225 237 254
225 237 254
225 237 254
225 237 254
225 237 254
225 237 254
225 237 254
225 237 254
225 237 254
225 237 254
225 237 254
225 237 254
225 237 254
225 237 254
225 237 254
225 237 254
225 237 254
225 237 254
225 237 254
225 237 254
225 237 254
225 237 254
225 237 254
225 237 254
225 237 254
225 237 254
225 237 254
225 237 254
225 237 254
225 237 254
225 237 254
225 237 254
225 237 254
225 237 254
225 237 254
225 237 254
225 237 254
225 237 254
225 237 254
225 237 254
225 237 254
225 237 254
225 237 254
225 237 254
225 237 254
225 237 254
225 237 254
225 237 254
225 237 254
225 237 254
225 237 254
225 237 254
225 237 254
225 237 254
225 237 254
225 237 254
225 237 254
225 237 254
225 237 254
225 237 254
225 237 254
225 237 254
225 237 254
225 237 254
225 237 254
225 237 254
225 237 254
225 237 254
225 237 254
225 237 254
225 237 254
225 237 254
225 237 254
225 237 254
225 237 254
225 237 254
225 237 254
225 237 254
225 237 254
225 237 254
225 237 254
225 237 254
225 237 254
225 237 254
225 237 254
225 237 254
225 237 254
225 237 254
225 237 254
225 237 254
225 237 254
225 237 254
225 237 254
225 237 254
225 237 254
225 237 254
225 237 254
225 237 254
225 237 254
225 237 254
225 237 254
225 237 254
225 237 254
225 237 254
225 237 254
225 237 254
225 237 254
225 237 254
225 237 254
225 237 254
225 237 254
225 237 254
225 237 254
225 237 254
225 237 254
225 237 254
225 237 254
225 237 254
225 237 254
225 237 254
225 237 254
225 237 254
225 237 254
225 237 254
225 237 254
225 237 254
225 237 254
225 237 254
225 237 254
225 237 254
225 237 254
225 237 254
225 237 254
225 237 254
225 237 254
225 237 254
225 237 254
225 237 254
225 237 254
225 237 254
225 237 254
225 237 254
225 237 254
225 237 254
225 237 254
225 237 254
225 237 254
225 237 254
225 237 254
225 237 254
225 237 254
225 237 254
225 237 254
225 237 254
225 237 254
225 237 254
225 237 254
225 237 254
225 237 254
225 237 254
225 237 254
225 237 254
225 237 254
225 237 254
225 237 254
225 237 254
225 237 254
225 237 254
225 237 254
225 237 254
225 237 254
225 237 254
225 237 254
225 237 254
225 237 254
225 237 254
225 237 254
225 237 254
215 226 244
123 130 151
0 6 68
0 0 62
0 0 66
0 8 69
0 4 66
0 0 65
0 0 66
0 0 65
0 0 64
0 0 64
0 0 66
0 2 65
0 0 61
0 0 62
0 0 59
0 0 58
0 0 55
0 0 56
0 0 57
0 0 57
0 0 58
0 0 57
0 0 54
0 0 51
0 0 49
0 0 47
0 0 48
0 0 47
0 0 47
0 0 47
0 0 47
0 0 47
0 0 48
0 0 48
0 0 48
0 0 49
0 0 50
0 0 50
0 0 50
0 0 50
0 0 50
0 0 51
0 0 50
0 0 48
0 0 48
0 0 48
0 0 48
0 0 51
0 0 52
0 0 51
0 0 52
0 0 53
0 0 52
0 0 52
0 0 53
0 0 53
0 0 52
0 0 52
0 0 51
0 0 52
0 0 50
0 0 51
0 0 52
0 0 51
0 0 51
0 0 54
0 0 54
0 0 53
0 0 52
0 0 52
0 0 52
0 0 52
0 0 52
0 0 54
0 0 53
0 0 52
0 0 55
0 0 55
0 0 57
0 0 60
0 0 63
0 0 65
0 4 69
2 22 58
10 28 45
123 131 136
190 202 213
124 135 144
174 181 181
113 107 88
102 84 53
103 88 55
107 91 53
96 84 51
80 75 51
48 51 69
11 28 82
0 4 73
0 0 70
0 5 71
0 0 69
0 0 67
0 0 66
0 0 65
0 0 68
0 0 68
0 0 63
0 8 69
0 11 73
0 9 70
0 0 67
0 0 65
0 0 65
0 0 66
0 0 68
0 4 70
0 5 66
0 0 64
0 0 66
0 6 68
0 5 68
0 5 67
0 7 69
0 2 69
0 0 66
0 3 68
119 125 146
220 231 248
225 237 254
225 237 254
225 237 254
225 237 254
225 237 254
225 237 254
225 237 254
225 237 254
225 237 254
225 237 254
225 237 254
225 237 254
225 237 254
225 237 254
225 237 254
225 237 254
225 237 254
225 237 254
225 237 254
225 237 254
225 237 254
225 237 254
225 237 254
225 237 254
225 237 254
225 237 254
225 237 254
225 237 254
225 237 254
225 237 254
225 237 254
225 237 254
225 237 254
225 237 254
225 237 254
225 237 254
225 237 254
225 237 254
225 237 254
225 237 254
225 237 254
225 237 254
225 237 254
225 237 254
225 237 254
225 237 254
225 237 254
225 237 254
225 237 254
225 237 254
225 237 254
225 237 254
225 237 254
225 237 254
225 237 254
225 237 254
225 237 254
225 237 254
225 237 254
225 237 254
225 237 254
225 237 254
225 237 254
225 237 254
225 237 254
225 237 254
225 237 254
225 237 254
225 237 254
225 237 254
225 237 254
225 237 254
225 237 254
225 237 254
225 237 254
225 237 254
225 237 254
225 237 254
225 237 254
225 237 254
225 237 254
225 237 254
225 237 254
225 237 254
225 237 254
225 237 254
225 237 254
225 237 254
225 237 254
225 237 254
225 237 254
225 237 254
225 237 254
225 237 254
225 237 254
225 237 254
225 237 254
225 237 254
225 237 254
225 237 254
225 237 254
225 237 254
225 237 254
225 237 254
225 237 254
225 237 254
225 237 254
225 237 254
225 237 254
225 237 254
225 237 254
225 237 254
225 237 254
225 237 254
225 237 254
225 237 254
225 237 254
225 237 254
225 237 254
225 237 254
225 237 254
225 237 254
225 237 254
225 237 254
225 237 254
225 237 254
225 237 254
225 237 254
225 237 254
225 237 254
225 237 254
225 237 254
225 237 254
225 237 254
225 237 254
225 237 254
225 237 254
225 237 254
225 237 254
225 237 254
225 237 254
225 237 254
225 237 254
225 237 254
225 237 254
225 237 254
225 237 254
225 237 254
225 237 254
225 237 254
225 237 254
225 237 254
225 237 254
225 237 254
225 237 254
225 237 254
225 237 254
225 237 254
225 237 254
225 237 254
225 237 254
225 237 254
225 237 254
225 237 254
225 237 254
225 237 254
225 237 254
225 237 254
225 237 254
225 237 254
225 237 254
225 237 254
225 237 254
225 237 254
225 237 254
225 237 254
225 237 254
225 237 254
225 237 254
225 237 254
225 237 254
225 237 254
225 237 254
225 237 254
225 237 254
225 237 254
225 237 254
225 237 254
225 237 254
225 237 254
225 237 254
225 237 254
225 237 254
225 237 254
225 237 254
225 237 254
225 237 254
225 237 254
225 237 254
225 237 254
225 237 254
225 237 254
225 237 254
225 237 254
225 237 254
225 237 254
225 237 254
225 237 254
225 237 254
225 237 254
225 237 254
225 237 254
225 237 254
225 237 254
225 237 254
225 237 254
225 237 254
225 237 254
225 237 254
225 237 254
225 237 254
225 237 254
225 237 254
225 237 254
225 237 254
225 237 254
225 237 254
225 237 254
225 237 254
225 237 254
225 237 254
225 237 254
225 237 254
225 237 254
225 237 254
225 237 254
225 237 254
225 237 254
225 237 254
225 237 254
225 237 254
225 237 254
225 237 254
225 237 254
225 237 254
225 237 254
225 237 254
225 237 254
225 237 254
225 237 254
225 237 254
225 237 254
225 237 254
225 237 254
225 237 254
225 237 254
225 237 254
225 237 254
225 237 254
225 237 254
225 237 254
225 237 254
225 237 254
225 237 254
225 237 254
225 237 254
225 237 254
225 237 254
225 237 254
225 237 254
225 237 254
225 237 254
184 194 212
55 59 93
0 4 67
0 8 67
0 7 67
0 6 69
0 0 68
0 0 67
0 0 67
0 0 65
0 0 65
0 4 65
0 0 68
0 0 66
0 0 65
0 0 59
0 0 59
0 0 62
0 0 60
0 0 56
0 0 61
0 0 62
0 0 64
0 0 60
0 0 56
0 0 52
0 0 52
0 0 48
0 0 46
0 0 48
0 0 49
0 0 49
0 0 54
0 0 52
0 0 54
0 0 55
0 0 52
0 0 52
0 0 52
0 0 52
0 0 52
0 0 51
0 0 53
0 0 52
0 0 50
0 0 50
0 0 50
0 0 52
0 0 54
0 0 53
0 0 53
0 0 55
0 0 55
0 0 53
0 0 54
0 0 57
0 0 55
0 0 53
0 0 52
0 0 52
0 0 51
0 0 52
0 0 52
0 0 51
0 0 50
0 0 51
0 0 54
0 0 53
0 0 53
0 0 53
0 0 53
0 0 54
0 0 53
0 0 55
0 0 54
0 0 52
0 0 54
0 0 56
0 0 58
0 0 62
0 6 68
0 11 74
0 15 78
4 27 75
23 42 80
141 156 164
183 193 200
175 182 193
142 139 122
119 100 70
111 94 62
109 96 59
113 95 57
108 89 51
83 76 46
43 47 75
0 14 76
0 8 72
0 0 68
0 0 67
0 0 67
0 0 66
0 0 63
0 0 64
0 0 67
0 0 68
0 0 63
0 0 61
0 0 61
0 0 64
0 0 63
0 0 61
0 0 64
0 0 65
0 0 64
0 0 64
0 0 64
0 1 67
0 7 70
0 12 73
0 11 73
0 0 67
0 3 67
0 0 65
45 47 82
171 181 198
225 237 254
225 237 254
225 237 254
225 237 254
225 237 254
225 237 254
225 237 254
225 237 254
225 237 254
225 237 254
225 237 254
225 237 254
225 237 254
225 237 254
225 237 254
225 237 254
225 237 254
225 237 254
225 237 254
225 237 254
225 237 254
225 237 254
225 237 254
225 237 254
225 237 254
225 237 254
225 237 254
225 237 254
225 237 254
225 237 254
225 237 254
225 237 254
225 237 254
225 237 254
225 237 254
225 237 254
225 237 254
225 237 254
225 237 254
225 237 254
225 237 254
225 237 254
225 237 254
225 237 254
225 237 254
225 237 254
225 237 254
225 237 254
225 237 254
225 237 254
225 237 254
225 237 254
225 237 254
225 237 254
225 237 254
225 237 254
225 237 254
225 237 254
225 237 254
225 237 254
225 237 254
225 237 254
225 237 254
225 237 254
225 237 254
225 237 254
225 237 254
225 237 254
225 237 254
225 237 254
225 237 254
225 237 254
225 237 254
225 237 254
225 237 254
225 237 254
225 237 254
225 237 254
225 237 254
225 237 254
225 237 254
225 237 254
225 237 254
225 237 254
225 237 254
225 237 254
225 237 254
225 237 254
225 237 254
225 237 254
225 237 254
225 237 254
225 237 254
225 237 254
225 237 254
225 237 254
225 237 254
225 237 254
225 237 254
225 237 254
225 237 254
225 237 254
225 237 254
225 237 254
225 237 254
225 237 254
225 237 254
225 237 254
225 237 254
225 237 254
225 237 254
225 237 254
225 237 254
225 237 254
225 237 254
225 237 254
225 237 254
225 237 254
225 237 254
225 237 254
225 237 254
225 237 254
225 237 254
225 237 254
225 237 254
225 237 254
225 237 254
225 237 254
225 237 254
225 237 254
225 237 254
225 237 254
225 237 254
225 237 254
225 237 254
225 237 254
225 237 254
225 237 254
225 237 254
225 237 254
225 237 254
225 237 254
225 237 254
225 237 254
225 237 254
225 237 254
225 237 254
225 237 254
225 237 254
225 237 254
225 237 254
225 237 254
225 237 254
225 237 254
225 237 254
225 237 254
225 237 254
225 237 254
225 237 254
225 237 254
225 237 254
225 237 254
225 237 254
225 237 254
225 237 254
225 237 254
225 237 254
225 237 254
225 237 254
225 237 254
225 237 254
225 237 254
225 237 254
225 237 254
225 237 254
225 237 254
225 237 254
225 237 254
225 237 254
225 237 254
225 237 254
225 237 254
225 237 254
225 237 254
225 237 254
225 237 254
225 237 254
225 237 254
225 237 254
225 237 254
225 237 254
225 237 254
225 237 254
225 237 254
225 237 254
225 237 254
225 237 254
225 237 254
225 237 254
225 237 254
225 237 254
225 237 254
225 237 254
225 237 254
225 237 254
225 237 254
225 237 254
225 237 254
225 237 254
225 237 254
225 237 254
225 237 254
225 237 254
225 237 254
225 237 254
225 237 254
225 237 254
225 237 254
225 237 254
225 237 254
225 237 254
225 237 254
225 237 254
225 237 254
225 237 254
225 237 254
225 237 254
225 237 254
225 237 254
225 237 254
225 237 254
225 237 254
225 237 254
225 237 254
225 237 254
225 237 254
225 237 254
225 237 254
225 237 254
225 237 254
225 237 254
225 237 254
225 237 254
225 237 254
225 237 254
225 237 254
225 237 254
225 237 254
225 237 254
225 237 254
225 237 254
225 237 254
225 237 254
225 237 254
225 237 254
225 237 254
225 237 254
225 237 254
225 237 254
225 237 254
225 237 254
225 237 254
225 237 254
225 237 254
225 237 254
225 237 254
225 237 254
225 237 254
225 237 254
225 237 254
225 237 254
225 237 254
225 237 254
225 237 254
225 237 254
203 214 231
84 90 118
0 14 76
0 16 77
0 12 72
0 9 72
0 10 71
0 5 69
0 4 68
0 0 66
0 0 63
0 0 64
0 0 67
0 4 69
0 8 69
0 0 61
0 0 60
0 0 63
0 0 61
0 0 60
0 0 56
0 0 58
0 0 59
0 0 57
0 0 57
0 0 56
0 0 53
0 0 50
0 0 47
0 0 48
0 0 52
0 0 56
0 0 55
0 0 55
0 0 54
0 0 54
0 0 56
0 0 55
0 0 55
0 0 54
0 0 54
0 0 53
0 0 56
0 0 54
0 0 52
0 0 54
0 0 53
0 0 53
0 0 56
0 0 56
0 0 57
0 0 55
0 0 55
0 0 57
0 0 57
0 0 56
0 0 56
0 0 56
0 0 54
0 0 52
0 0 51
0 0 52
0 0 49
0 0 51
0 0 52
0 0 53
0 0 55
0 0 57
0 0 54
0 0 56
0 0 58
0 0 57
0 0 58
0 0 57
0 0 57
0 0 56
0 0 59
0 0 59
0 0 64
0 8 71
0 15 78
9 24 68
33 52 60
93 110 121
182 195 209
168 183 193
177 177 163
115 107 74
108 90 42
113 89 47
107 93 60
86 75 59
59 54 70
6 18 75
0 10 71
0 11 75
0 2 70
0 0 67
0 0 67
0 0 67
0 6 68
0 7 67
0 0 66
0 0 68
0 0 64
0 0 60
0 0 60
0 0 61
0 0 61
0 0 60
0 0 60
0 0 61
0 0 62
0 0 63
0 0 65
0 4 67
0 10 73
0 12 73
0 8 70
0 5 68
0 0 67
0 1 66
117 123 144
200 211 228
225 237 254
225 237 254
225 237 254
225 237 254
225 237 254
225 237 254
225 237 254
225 237 254
225 237 254
225 237 254
225 237 254
225 237 254
225 237 254
225 237 254
225 237 254
225 237 254
225 237 254
225 237 254
225 237 254
225 237 254
225 237 254
225 237 254
225 237 254
225 237 254
225 237 254
225 237 254
225 237 254
225 237 254
225 237 254
225 237 254
225 237 254
225 237 254
225 237 254
225 237 254
225 237 254
225 237 254
225 237 254
225 237 254
225 237 254
225 237 254
225 237 254
225 237 254
225 237 254
225 237 254
225 237 254
225 237 254
225 237 254
225 237 254
225 237 254
225 237 254
225 237 254
225 237 254
225 237 254
225 237 254
225 237 254
225 237 254
225 237 254
225 237 254
225 237 254
225 237 254
225 237 254
225 237 254
225 237 254
225 237 254
225 237 254
225 237 254
225 237 254
225 237 254
225 237 254
225 237 254
225 237 254
225 237 254
225 237 254
225 237 254
225 237 254
225 237 254
225 237 254
225 237 254
225 237 254
225 237 254
225 237 254
225 237 254
225 237 254
225 237 254
225 237 254
225 237 254
225 237 254
225 237 254
225 237 254
225 237 254
225 237 254
225 237 254
225 237 254
225 237 254
225 237 254
225 237 254
225 237 254
225 237 254
225 237 254
225 237 254
225 237 254
225 237 254
225 237 254
225 237 254
225 237 254
225 237 254
225 237 254
225 237 254
225 237 254
225 237 254
225 237 254
225 237 254
225 237 254
225 237 254
225 237 254
225 237 254
225 237 254
225 237 254
225 237 254
225 237 254
225 237 254
225 237 254
225 237 254
225 237 254
225 237 254
225 237 254
225 237 254
225 237 254
225 237 254
225 237 254
225 237 254
225 237 254
225 237 254
225 237 254
225 237 254
225 237 254
225 237 254
225 237 254
225 237 254
225 237 254
225 237 254
225 237 254
225 237 254
225 237 254
225 237 254
225 237 254
225 237 254
225 237 254
225 237 254
225 237 254
225 237 254
225 237 254
225 237 254
225 237 254
225 237 254
225 237 254
225 237 254
225 237 254
225 237 254
225 237 254
225 237 254
225 237 254
225 237 254
225 237 254
225 237 254
225 237 254
225 237 254
225 237 254
225 237 254
225 237 254
225 237 254
225 237 254
225 237 254
225 237 254
225 237 254
225 237 254
225 237 254
225 237 254
225 237 254
225 237 254
225 237 254
225 237 254
225 237 254
225 237 254
225 237 254
225 237 254
225 237 254
225 237 254
225 237 254
225 237 254
225 237 254
225 237 254
225 237 254
225 237 254
225 237 254
225 237 254
225 237 254
225 237 254
225 237 254
225 237 254
225 237 254
225 237 254
225 237 254
225 237 254
225 237 254
225 237 254
225 237 254
225 237 254
225 237 254
225 237 254
225 237 254
225 237 254
225 237 254
225 237 254
225 237 254
225 237 254
225 237 254
225 237 254
225 237 254
225 237 254
225 237 254
225 237 254
225 237 254
225 237 254
225 237 254
225 237 254
225 237 254
225 237 254
225 237 254
225 237 254
225 237 254
225 237 254
225 237 254
225 237 254
225 237 254
225 237 254
225 237 254
225 237 254
225 237 254
225 237 254
225 237 254
225 237 254
225 237 254
225 237 254
225 237 254
225 237 254
225 237 254
225 237 254
225 237 254
225 237 254
225 237 254
225 237 254
225 237 254
225 237 254
225 237 254
225 237 254
225 237 254
225 237 254
225 237 254
225 237 254
225 237 254
225 237 254
225 237 254
225 237 254
225 237 254
225 237 254
225 237 254
225 237 254
225 237 254
225 237 254
225 237 254
225 237 254
225 237 254
225 237 254
225 237 254
225 237 254
225 237 254
225 237 254
173 183 202
45 52 95
0 23 83
0 17 78
0 12 72
0 10 72
0 9 69
0 7 70
0 0 65
0 0 65
0 0 67
0 0 63
0 4 66
0 4 68
0 0 65
0 0 63
0 0 61
0 0 63
0 0 63
0 0 60
0 0 58
0 0 56
0 0 54
0 0 52
0 0 56
0 0 54
0 0 52
0 0 50
0 0 48
0 0 52
0 0 60
0 0 58
0 0 56
0 0 53
0 0 54
0 0 61
0 0 60
0 0 57
0 0 57
0 0 56
0 0 58
0 0 55
0 0 55
0 0 57
0 0 61
0 0 59
0 0 57
0 0 54
0 0 56
0 0 57
0 0 57
0 0 57
0 0 57
0 0 57
0 0 60
0 0 61
0 0 58
0 0 56
0 0 55
0 0 53
0 0 50
0 0 50
0 0 51
0 0 52
0 0 53
0 0 55
0 0 57
0 0 57
0 0 57
0 0 57
0 0 57
0 0 56
0 0 57
0 0 57
0 0 59
0 0 59
0 0 64
0 0 68
0 14 77
35 53 73
98 118 136
177 186 202
202 217 225
135 146 136
119 105 72
116 99 59
107 93 50
98 84 45
80 74 55
23 36 77
0 10 74
0 12 74
0 13 76
0 0 70
0 0 68
0 0 67
0 0 67
0 2 69
0 6 71
0 2 69
0 0 69
0 0 65
0 0 61
0 0 62
0 0 63
0 0 64
0 0 64
0 0 64
0 0 64
0 0 64
0 0 64
0 1 67
0 5 70
0 13 75
0 12 74
0 0 66
0 7 71
0 4 69
63 67 95
164 173 191
225 237 254
225 237 254
225 237 254
225 237 254
225 237 254
225 237 254
225 237 254
225 237 254
225 237 254
225 237 254
225 237 254
225 237 254
225 237 254
225 237 254
225 237 254
225 237 254
225 237 254
225 237 254
225 237 254
225 237 254
225 237 254
225 237 254
225 237 254
225 237 254
225 237 254
225 237 254
225 237 254
225 237 254
225 237 254
225 237 254
225 237 254
225 237 254
225 237 254
225 237 254
225 237 254
225 237 254
225 237 254
225 237 254
225 237 254
225 237 254
225 237 254
225 237 254
225 237 254
225 237 254
225 237 254
225 237 254
225 237 254
225 237 254
225 237 254
225 237 254
225 237 254
225 237 254
225 237 254
225 237 254
225 237 254
225 237 254
225 237 254
225 237 254
225 237 254
225 237 254
225 237 254
225 237 254
225 237 254
225 237 254
225 237 254
225 237 254
225 237 254
225 237 254
225 237 254
225 237 254
225 237 254
225 237 254
225 237 254
225 237 254
225 237 254
225 237 254
225 237 254
225 237 254
225 237 254
225 237 254
225 237 254
225 237 254
225 237 254
225 237 254
225 237 254
225 237 254
225 237 254
225 237 254
225 237 254
225 237 254
225 237 254
225 237 254
225 237 254
225 237 254
225 237 254
225 237 254
225 237 254
225 237 254
225 237 254
225 237 254
225 237 254
225 237 254
225 237 254
225 237 254
225 237 254
225 237 254
225 237 254
225 237 254
225 237 254
225 237 254
225 237 254
225 237 254
225 237 254
225 237 254
225 237 254
225 237 254
225 237 254
225 237 254
225 237 254
225 237 254
225 237 254
225 237 254
225 237 254
225 237 254
225 237 254
225 237 254
225 237 254
225 237 254
225 237 254
225 237 254
225 237 254
225 237 254
225 237 254
225 237 254
225 237 254
225 237 254
225 237 254
225 237 254
225 237 254
225 237 254
225 237 254
225 237 254
225 237 254
225 237 254
225 237 254
225 237 254
225 237 254
225 237 254
225 237 254
225 237 254
225 237 254
225 237 254
225 237 254
225 237 254
225 237 254
225 237 254
225 237 254
225 237 254
225 237 254
225 237 254
225 237 254
225 237 254
225 237 254
225 237 254
225 237 254
225 237 254
225 237 254
225 237 254
225 237 254
225 237 254
225 237 254
225 237 254
225 237 254
225 237 254
225 237 254
225 237 254
225 237 254
225 237 254
225 237 254
225 237 254
225 237 254
225 237 254
225 237 254
225 237 254
225 237 254
225 237 254
225 237 254
225 237 254
225 237 254
225 237 254
225 237 254
225 237 254
225 237 254
225 237 254
225 237 254
225 237 254
225 237 254
225 237 254
225 237 254
225 237 254
225 237 254
225 237 254
225 237 254
225 237 254
225 237 254
225 237 254
225 237 254
225 237 254
225 237 254
225 237 254
225 237 254
225 237 254
225 237 254
225 237 254
225 237 254
225 237 254
225 237 254
225 237 254
225 237 254
225 237 254
225 237 254
225 237 254
225 237 254
225 237 254
225 237 254
225 237 254
225 237 254
225 237 254
225 237 254
225 237 254
225 237 254
225 237 254
225 237 254
225 237 254
225 237 254
225 237 254
225 237 254
225 237 254
225 237 254
225 237 254
225 237 254
225 237 254
225 237 254
225 237 254
225 237 254
225 237 254
225 237 254
225 237 254
225 237 254
225 237 254
225 237 254
225 237 254
225 237 254
225 237 254
225 237 254
225 237 254
225 237 254
225 237 254
225 237 254
225 237 254
225 237 254
225 237 254
225 237 254
225 237 254
225 237 254
225 237 254
225 237 254
225 237 254
225 237 254
225 237 254
225 237 254
225 237 254
225 237 254
225 237 254
225 237 254
225 237 254
225 237 254
225 237 254
225 237 254
225 237 254
225 237 254
208 219 237
115 123 149
0 24 85
0 21 81
0 14 75
0 13 73
0 11 72
0 11 73
0 5 68
0 2 69
0 3 68
0 4 67
0 4 67
0 4 69
0 0 65
0 0 65
0 0 65
0 0 64
0 0 64
0 0 60
0 0 57
0 0 55
0 0 53
0 0 52
0 0 54
0 0 52
0 0 54
0 0 55
0 0 53
0 0 53
0 0 58
0 0 62
0 0 62
0 0 62
0 0 55
0 0 54
0 0 62
0 0 61
0 0 58
0 0 61
0 0 61
0 0 59
0 0 60
0 0 59
0 0 58
0 0 59
0 0 59
0 0 59
0 0 61
0 0 61
0 0 61
0 1 64
0 0 63
0 0 61
0 0 65
0 0 65
0 0 61
0 0 57
0 0 55
0 0 53
0 0 52
0 0 52
0 0 51
0 0 52
0 0 54
0 0 57
0 0 58
0 0 60
0 0 59
0 0 57
0 0 56
0 0 55
0 0 58
0 0 59
0 0 59
0 0 64
0 0 66
5 17 77
29 49 74
108 129 152
193 205 219
157 174 175
121 120 98
112 101 61
100 86 42
86 74 52
38 44 79
9 21 79
0 14 78
0 16 79
0 10 72
0 7 71
0 0 67
0 3 66
3 7 68
25 37 65
32 34 67
18 22 68
0 3 70
0 0 65
0 0 63
0 0 63
0 0 63
0 0 65
0 0 63
0 0 63
0 0 66
0 0 66
0 0 66
0 2 69
0 14 76
13 23 80
16 23 75
0 1 67
0 9 70
0 9 71
125 132 152
211 223 240
225 237 254
225 237 254
225 237 254
225 237 254
225 237 254
225 237 254
225 237 254
225 237 254
225 237 254
225 237 254
225 237 254
225 237 254
225 237 254
225 237 254
225 237 254
225 237 254
225 237 254
225 237 254
225 237 254
225 237 254
225 237 254
225 237 254
225 237 254
225 237 254
225 237 254
225 237 254
225 237 254
225 237 254
225 237 254
225 237 254
225 237 254
225 237 254
225 237 254
225 237 254
225 237 254
225 237 254
225 237 254
225 237 254
225 237 254
225 237 254
225 237 254
225 237 254
225 237 254
225 237 254
225 237 254
225 237 254
225 237 254
225 237 254
225 237 254
225 237 254
225 237 254
225 237 254
225 237 254
225 237 254
225 237 254
225 237 254
225 237 254
225 237 254
225 237 254
225 237 254
225 237 254
225 237 254
225 237 254
225 237 254
225 237 254
225 237 254
225 237 254
225 237 254
225 237 254
225 237 254
225 237 254
225 237 254
225 237 254
225 237 254
225 237 254
225 237 254
225 237 254
225 237 254
225 237 254
225 237 254
225 237 254
225 237 254
225 237 254
225 237 254
225 237 254
225 237 254
225 237 254
225 237 254
225 237 254
225 237 254
225 237 254
225 237 254
225 237 254
225 237 254
225 237 254
225 237 254
225 237 254
225 237 254
225 237 254
225 237 254
225 237 254
225 237 254
225 237 254
225 237 254
225 237 254
225 237 254
225 237 254
225 237 254
225 237 254
225 237 254
225 237 254
225 237 254
225 237 254
225 237 254
225 237 254
225 237 254
225 237 254
225 237 254
225 237 254
225 237 254
225 237 254
225 237 254
225 237 254
225 237 254
225 237 254
225 237 254
225 237 254
225 237 254
225 237 254
225 237 254
225 237 254
225 237 254
225 237 254
225 237 254
225 237 254
225 237 254
225 237 254
225 237 254
225 237 254
225 237 254
225 237 254
225 237 254
225 237 254
225 237 254
225 237 254
225 237 254
225 237 254
225 237 254
225 237 254
225 237 254
225 237 254
225 237 254
225 237 254
225 237 254
225 237 254
225 237 254
225 237 254
225 237 254
225 237 254
225 237 254
225 237 254
225 237 254
225 237 254
225 237 254
225 237 254
225 237 254
225 237 254
225 237 254
225 237 254
225 237 254
225 237 254
225 237 254
225 237 254
225 237 254
225 237 254
225 237 254
225 237 254
225 237 254
225 237 254
225 237 254
225 237 254
225 237 254
225 237 254
225 237 254
225 237 254
225 237 254
225 237 254
225 237 254
225 237 254
225 237 254
225 237 254
225 237 254
225 237 254
225 237 254
225 237 254
225 237 254
225 237 254
225 237 254
225 237 254
225 237 254
225 237 254
225 237 254
225 237 254
225 237 254
225 237 254
225 237 254
225 237 254
225 237 254
225 237 254
225 237 254
225 237 254
225 237 254
225 237 254
225 237 254
225 237 254
225 237 254
225 237 254
225 237 254
225 237 254
225 237 254
225 237 254
225 237 254
225 237 254
225 237 254
225 237 254
225 237 254
225 237 254
225 237 254
225 237 254
225 237 254
225 237 254
225 237 254
225 238 254
225 238 254
225 238 254
225 238 254
225 238 254
225 238 254
225 238 254
225 238 254
225 238 254
225 238 254
225 238 254
225 238 254
225 238 254
225 238 254
225 238 254
225 238 254
225 238 254
225 238 254
225 238 254
225 238 254
225 238 254
225 238 254
225 238 254
225 238 254
225 238 254
225 238 254
225 238 254
225 238 254
225 238 254
225 238 254
225 238 254
225 238 254
225 238 254
225 238 254
225 238 254
225 238 254
225 238 254
225 238 254
225 238 254
226 238 254
225 238 254
226 238 254
226 238 254
226 238 254
226 238 254
226 238 254
226 238 254
226 238 254
226 238 254
226 238 254
226 238 254
226 238 254
175 185 205
63 72 111
0 22 84
0 17 79
0 19 78
0 15 76
0 11 72
0 5 68
0 0 66
0 0 65
0 8 70
0 7 67
0 3 66
0 6 68
0 5 67
0 0 65
0 0 65
0 5 67
0 11 70
0 9 68
0 0 61
0 0 53
0 0 52
0 0 53
0 0 54
0 0 57
0 0 60
0 0 63
0 0 61
0 0 57
0 0 58
0 0 63
0 0 62
0 0 59
0 0 57
0 0 56
0 0 59
0 0 62
0 0 64
0 0 64
0 0 61
0 0 62
0 0 59
0 0 58
0 0 62
0 0 63
0 0 64
0 0 65
0 0 65
0 5 65
0 2 66
0 0 64
0 0 60
0 0 62
0 0 65
0 0 63
0 0 62
0 0 61
0 0 58
0 0 54
0 0 55
0 0 54
0 0 53
0 0 55
0 0 58
0 0 62
0 0 65
0 0 64
0 0 63
0 0 61
0 0 63
0 0 65
0 0 62
0 0 64
0 4 68
5 21 81
39 65 92
108 126 142
155 167 173
116 108 88
109 97 58
87 75 36
75 66 32
35 45 80
0 20 81
0 18 80
0 16 79
0 16 78
0 10 72
0 2 70
0 7 71
4 14 71
22 35 62
42 55 61
30 40 63
6 13 67
0 3 68
0 0 65
0 0 63
0 0 64
0 4 66
0 4 68
0 5 67
0 7 69
0 8 70
0 5 69
0 8 70
0 8 71
0 14 77
52 63 105
9 18 74
0 17 77
55 61 99
182 192 210
224 236 253
226 238 254
226 238 254
226 238 254
226 238 254
226 238 254
226 238 254
226 238 254
226 238 254
226 238 254
226 238 254
226 238 254
226 238 254
225 238 254
225 238 254
225 238 254
225 238 254
225 238 254
225 238 254
225 238 254
225 238 254
225 238 254
225 238 254
225 238 254
225 238 254
225 238 254
225 238 254
225 238 254
225 238 254
225 238 254
225 238 254
225 238 254
225 238 254
225 238 254
225 238 254
225 238 254
225 238 254
225 238 254
225 238 254
225 238 254
225 238 254
225 238 254
225 238 254
225 238 254
225 238 254
225 238 254
225 238 254
225 238 254
225 238 254
225 238 254
225 238 254
225 237 254
225 237 254
225 237 254
225 237 254
225 237 254
225 237 254
225 237 254
225 237 254
225 237 254
225 237 254
225 237 254
225 237 254
225 237 254
225 237 254
225 237 254
225 237 254
225 237 254
225 237 254
225 237 254
225 237 254
225 237 254
225 237 254
225 237 254
225 237 254
225 237 254
225 237 254
225 237 254
225 237 254
225 237 254
225 237 254
225 237 254
225 237 254
225 237 254
225 237 254
225 237 254
225 237 254
225 237 254
225 237 254
225 237 254
225 237 254
225 237 254
225 237 254
225 237 254
225 237 254
225 237 254
225 237 254
225 237 254
225 237 254
225 237 254
225 237 254
225 237 254
225 237 254
225 237 254
225 237 254
225 237 254
225 237 254
225 237 254
225 237 254
225 237 254
225 237 254
225 237 254
225 237 254
225 237 254
225 237 254
225 237 254
225 237 254
225 237 254
225 237 254
225 237 254
225 237 254
225 237 254
225 237 254
225 237 254
225 237 254
225 237 254
225 237 254
225 237 254
225 237 254
225 237 254
225 237 254
225 237 254
225 237 254
225 237 254
225 237 254
225 237 254
225 237 254
225 237 254
225 237 254
225 237 254
225 237 254
225 237 254
225 237 254
225 237 254
225 237 254
225 237 254
225 237 254
225 237 254
225 237 254
225 237 254
225 237 254
225 237 254
225 237 254
225 237 254
225 237 254
225 237 254
225 237 254
225 237 254
225 237 254
225 237 254
225 237 254
225 237 254
225 237 254
225 237 254
225 237 254
225 237 254
225 237 254
225 237 254
225 237 254
225 237 254
225 237 254
225 237 254
225 237 254
225 237 254
225 237 254
225 237 254
225 237 254
225 237 254
225 237 254
225 237 254
225 237 254
225 237 254
225 237 254
225 237 254
225 237 254
225 237 254
225 237 254
225 237 254
225 237 254
225 237 254
225 237 254
225 237 254
225 237 254
225 237 254
225 237 254
225 237 254
225 237 254
225 238 254
225 238 254
225 238 254
225 238 254
225 238 254
225 238 254
225 238 254
225 238 254
225 238 254
225 238 254
225 238 254
225 238 254
225 238 254
225 238 254
225 238 254
225 238 254
225 238 254
225 238 254
225 238 254
225 238 254
225 238 254
225 238 254
225 238 254
225 238 254
225 238 254
225 238 254
225 238 254
225 238 254
225 238 254
226 238 254
225 238 254
226 238 254
226 238 254
226 238 254
226 238 254
226 238 254
226 238 254
226 238 254
226 238 254
226 238 254
226 238 254
226 238 254
226 238 254
226 238 254
226 238 254
226 238 254
226 238 254
226 238 254
226 238 254
226 238 254
226 238 254
226 238 254
226 238 254
226 238 254
226 238 254
226 238 254
226 238 254
226 238 254
226 238 254
226 238 254
226 238 254
226 238 254
226 238 254
226 238 254
226 238 254
226 238 254
226 238 254
226 238 254
226 238 254
226 238 254
226 238 254
226 238 254
226 238 254
226 238 254
226 238 254
226 238 254
226 238 254
226 238 254
226 238 254
226 238 254
226 238 254
226 238 254
226 238 254
226 238 254
226 238 254
226 238 254
226 238 254
226 238 254
226 238 254
226 238 254
219 230 248
148 157 181
22 38 94
0 22 83
0 14 75
0 16 78
0 20 81
0 13 73
0 7 67
0 2 66
0 10 73
0 11 74
0 11 73
0 13 72
0 7 69
0 0 65
0 0 66
0 5 68
0 6 70
0 4 68
0 0 61
0 0 53
0 0 53
0 0 57
0 0 57
0 0 57
0 0 63
0 0 64
0 0 62
0 0 57
0 0 55
0 0 59
0 0 60
0 0 63
0 0 64
0 0 63
0 0 65
0 0 68
0 5 70
0 0 66
0 0 66
0 0 62
0 0 57
0 0 59
0 0 64
0 0 62
0 0 63
0 0 67
0 5 67
0 8 65
0 0 61
0 5 67
0 0 67
0 0 67
0 0 66
0 0 66
0 0 65
0 0 62
0 0 57
0 0 58
0 0 58
0 0 56
0 0 54
0 0 57
0 0 63
0 0 67
0 0 66
0 0 64
0 0 63
0 0 64
0 0 67
0 8 71
0 12 72
0 14 75
16 35 85
28 54 83
93 111 126
85 101 113
96 97 77
85 72 41
70 69 51
52 60 60
19 40 81
0 19 81
0 16 80
0 14 75
0 4 69
0 3 68
0 2 69
0 5 69
0 9 73
0 14 74
0 14 74
0 11 75
0 0 65
0 0 66
0 0 62
0 0 63
0 0 67
0 3 70
0 9 71
0 3 71
0 10 71
0 5 68
0 4 68
0 11 73
0 10 71
0 15 76
0 17 78
22 29 82
151 160 181
218 229 246
226 238 254
226 238 254
226 238 254
226 238 254
226 238 254
226 238 254
226 238 254
226 238 254
226 238 254
226 238 254
226 238 254
226 238 254
226 238 254
226 238 254
226 238 254
226 238 254
226 238 254
226 238 254
226 238 254
226 238 254
226 238 254
226 238 254
226 238 254
226 238 254
226 238 254
226 238 254
226 238 254
226 238 254
226 238 254
226 238 254
226 238 254
226 238 254
226 238 254
226 238 254
226 238 254
226 238 254
226 238 254
226 238 254
226 238 254
226 238 254
226 238 254
226 238 254
226 238 254
226 238 254
226 238 254
226 238 254
226 238 254
226 238 254
226 238 254
226 238 254
226 238 254
226 238 254
226 238 254
226 238 254
226 238 254
226 238 254
226 238 254
226 238 254
226 238 254
226 238 254
226 238 254
226 238 254
225 238 254
225 238 254
225 238 254
225 238 254
225 238 254
225 238 254
225 238 254
225 238 254
225 238 254
225 238 254
225 238 254
225 238 254
225 238 254
225 238 254
225 238 254
225 238 254
225 238 254
225 238 254
225 238 254
225 238 254
225 238 254
225 238 254
225 238 254
225 238 254
225 238 254
225 238 254
225 237 254
225 238 254
225 237 254
225 237 254
225 237 254
225 237 254
225 237 254
225 237 254
225 237 254
225 237 254
225 237 254
225 237 254
225 237 254
225 237 254
225 237 254
225 237 254
225 237 254
225 237 254
225 237 254
225 237 254
225 237 254
225 237 254
225 237 254
225 237 254
225 237 254
225 237 254
225 237 254
225 237 254
225 237 254
225 237 254
225 237 254
225 237 254
225 237 254
225 237 254
225 237 254
225 237 254
225 237 254
225 237 254
225 237 254
225 237 254
225 237 254
225 237 254
225 237 254
225 237 254
225 237 254
225 237 254
225 237 254
225 237 254
225 237 254
225 237 254
225 237 254
225 237 254
225 237 254
225 237 254
225 237 254
225 237 254
225 237 254
225 237 254
225 237 254
225 237 254
225 237 254
225 237 254
225 237 254
225 237 254
225 237 254
225 237 254
225 237 254
225 237 254
225 237 254
225 237 254
225 237 254
225 237 254
225 237 254
225 237 254
225 237 254
225 237 254
225 237 254
225 237 254
225 237 254
225 237 254
225 237 254
225 237 254
225 237 254
225 238 254
225 238 254
225 238 254
225 238 254
225 238 254
225 238 254
225 238 254
225 238 254
225 238 254
225 238 254
225 238 254
225 238 254
225 238 254
225 238 254
225 238 254
225 238 254
225 238 254
225 238 254
225 238 254
225 238 254
225 238 254
225 238 254
226 238 254
226 238 254
226 238 254
226 238 254
226 238 254
226 238 254
226 238 254
226 238 254
226 238 254
226 238 254
226 238 254
226 238 254
226 238 254
226 238 254
226 238 254
226 238 254
226 238 254
226 238 254
226 238 254
226 238 254
226 238 254
226 238 254
226 238 254
226 238 254
226 238 254
226 238 254
226 238 254
226 238 254
226 238 254
226 238 254
226 238 254
226 238 254
226 238 254
226 238 254
226 238 254
226 238 254
226 238 254
226 238 254
226 238 254
226 238 254
226 238 254
226 238 254
226 238 254
226 238 254
226 238 254
226 238 254
226 238 254
226 238 254
226 238 254
226 238 254
226 238 254
226 238 254
226 238 254
226 238 254
226 238 254
226 238 254
226 238 254
226 238 254
226 238 254
226 238 254
226 238 254
226 238 254
226 238 254
226 238 254
226 238 254
226 238 254
226 238 254
226 238 254
226 238 254
226 238 254
226 238 254
226 238 254
226 238 254
226 238 254
226 238 254
226 238 254
226 238 254
226 238 254
226 238 254
226 238 254
226 238 254
226 238 254
226 238 254
226 238 254
226 238 254
226 238 254
226 238 254
226 238 254
226 238 254
226 238 254
226 238 254
226 238 254
226 238 254
226 238 254
226 238 254
226 238 254
226 238 254
198 209 228
133 144 169
0 31 91
0 24 85
0 21 82
0 22 84
0 18 80
0 10 72
0 7 67
0 11 71
0 12 74
0 15 73
0 14 75
0 11 74
0 3 67
0 7 68
0 3 69
0 4 67
0 7 71
0 7 68
0 0 64
0 0 56
0 0 59
0 0 57
0 0 58
0 0 59
0 0 60
0 0 63
0 0 61
0 0 61
0 0 61
0 0 59
0 0 61
0 0 63
0 0 65
0 0 67
0 5 69
0 1 66
0 0 62
0 0 61
0 0 61
0 0 56
0 0 56
0 0 62
0 0 66
0 0 66
0 3 68
0 16 78
0 5 70
0 6 67
0 3 66
0 0 65
0 0 65
0 0 65
0 0 63
0 0 60
0 0 58
0 0 60
0 0 64
0 0 58
0 0 56
0 0 61
0 0 65
0 0 67
0 0 67
0 0 64
0 0 63
0 3 65
0 9 71
0 13 73
0 12 73
0 14 74
6 27 82
24 52 91
108 129 149
101 118 141
87 107 113
45 56 67
63 66 49
79 74 50
22 39 90
0 18 81
0 14 76
0 7 70
0 8 70
0 10 72
0 7 69
0 4 69
0 10 73
0 8 71
0 9 70
0 0 70
0 5 70
0 0 64
0 0 62
0 0 63
0 0 66
0 8 68
0 13 74
0 9 73
0 11 72
0 13 74
0 18 79
0 15 77
0 21 82
3 19 80
137 145 167
213 224 242
226 238 254
226 238 254
226 238 254
226 238 254
226 238 254
226 238 254
226 238 254
226 238 254
226 238 254
226 238 254
226 238 254
226 238 254
226 238 254
226 238 254
226 238 254
226 238 254
226 238 254
226 238 254
226 238 254
226 238 254
226 238 254
226 238 254
226 238 254
226 238 254
226 238 254
226 238 254
226 238 254
226 238 254
226 238 254
226 238 254
226 238 254
226 238 254
226 238 254
226 238 254
226 238 254
226 238 254
226 238 254
226 238 254
226 238 254
226 238 254
226 238 254
226 238 254
226 238 254
226 238 254
226 238 254
226 238 254
226 238 254
226 238 254
226 238 254
226 238 254
226 238 254
226 238 254
226 238 254
226 238 254
226 238 254
226 238 254
226 238 254
226 238 254
226 238 254
226 238 254
226 238 254
226 238 254
226 238 254
226 238 254
226 238 254
226 238 254
226 238 254
226 238 254
226 238 254
226 238 254
226 238 254
226 238 254
226 238 254
226 238 254
226 238 254
226 238 254
226 238 254
226 238 254
226 238 254
226 238 254
226 238 254
226 238 254
226 238 254
226 238 254
226 238 254
226 238 254
226 238 254
226 238 254
226 238 254
226 238 254
226 238 254
226 238 254
226 238 254
226 238 254
226 238 254
226 238 254
226 238 254
225 238 254
225 238 254
225 238 254
225 238 254
225 238 254
225 238 254
225 238 254
225 238 254
225 238 254
225 238 254
225 238 254
225 238 254
225 238 254
225 238 254
225 238 254
225 238 254
225 238 254
225 238 254
225 238 254
225 238 254
225 238 254
225 238 254
225 237 254
225 237 254
225 237 254
225 237 254
225 237 254
225 237 254
225 237 254
225 237 254
225 237 254
225 237 254
225 237 254
225 237 254
225 237 254
225 237 254
225 237 254
225 237 254
225 237 254
225 237 254
225 237 254
225 237 254
225 237 254
225 237 254
225 237 254
225 237 254
225 237 254
225 237 254
225 237 254
225 237 254
225 237 254
225 238 254
225 238 254
225 238 254
225 238 254
225 238 254
225 238 254
225 238 254
225 238 254
225 238 254
225 238 254
225 238 254
225 238 254
225 238 254
225 238 254
225 238 254
225 238 254
225 238 254
225 238 254
225 238 254
226 238 254
226 238 254
226 238 254
226 238 254
226 238 254
226 238 254
226 238 254
226 238 254
226 238 254
226 238 254
226 238 254
226 238 254
226 238 254
226 238 254
226 238 254
226 238 254
226 238 254
226 238 254
226 238 254
226 238 254
226 238 254
226 238 254
226 238 254
226 238 254
226 238 254
226 238 254
226 238 254
226 238 254
226 238 254
226 238 254
226 238 254
226 238 254
226 238 254
226 238 254
226 238 254
226 238 254
226 238 254
226 238 254
226 238 254
226 238 254
226 238 254
226 238 254
226 238 254
226 238 254
226 238 254
226 238 254
226 238 254
226 238 254
226 238 254
226 238 254
226 238 254
226 238 254
226 238 254
226 238 254
226 238 254
226 238 254
226 238 254
226 238 254
226 238 254
226 238 254
226 238 254
226 238 254
226 238 254
226 238 254
226 238 254
226 238 254
226 238 254
226 238 254
226 238 254
226 238 254
226 238 254
226 238 254
226 238 254
226 238 254
226 238 254
226 238 254
226 238 254
226 238 254
226 238 254
226 238 254
226 238 254
226 238 254
226 238 254
226 238 254
226 238 254
226 238 254
226 238 254
226 238 254
226 238 254
226 238 254
226 238 254
226 238 254
226 238 254
226 238 254
226 238 254
226 238 254
226 238 254
226 238 254
226 238 254
226 238 254
226 238 254
226 238 254
226 238 254
226 238 254
226 238 254
226 238 254
226 238 254
226 238 254
226 238 254
226 238 254
226 238 254
226 238 254
226 238 254
226 238 254
226 238 254
226 238 254
226 238 254
226 238 254
226 238 254
226 238 254
226 238 254
226 238 254
226 238 254
226 238 254
226 238 254
226 238 254
226 238 254
201 212 230
98 109 142
0 33 93
0 24 85
0 23 84
0 26 85
0 16 78
0 11 72
0 11 70
0 16 77
0 18 78
0 16 78
0 18 80
0 11 72
0 10 72
0 8 72
0 2 70
0 13 75
0 11 72
0 7 68
0 3 59
0 0 60
0 1 63
0 1 61
0 1 64
0 6 69
0 4 63
0 2 62
0 0 58
0 0 63
0 0 62
0 1 65
0 1 64
0 0 68
0 0 67
0 0 69
0 0 67
0 0 63
0 0 62
0 0 60
0 0 58
0 0 61
0 0 66
0 0 68
0 0 70
0 13 73
0 9 73
0 7 71
0 3 68
0 0 68
0 0 65
0 0 66
0 0 63
0 0 61
0 0 58
0 0 62
0 0 64
0 0 61
0 0 60
0 0 67
0 0 68
0 0 65
0 0 63
0 0 65
0 0 65
0 0 69
0 9 71
0 7 66
0 0 67
0 1 68
0 13 78
12 37 83
78 97 124
92 112 139
105 121 146
111 131 144
103 113 113
82 83 56
55 63 49
22 33 67
3 18 77
0 11 70
0 11 71
0 12 74
0 7 71
0 5 69
0 13 75
0 15 76
0 11 72
0 0 67
0 0 64
0 5 68
0 6 68
0 5 69
0 3 69
0 10 73
0 21 82
0 24 83
0 14 74
0 17 78
0 15 77
0 16 79
98 104 131
197 207 225
226 238 254
226 238 254
226 238 254
226 238 254
226 238 254
226 238 254
226 238 254
226 238 254
226 238 254
226 238 254
226 238 254
226 238 254
226 238 254
226 238 254
226 238 254
226 238 254
226 238 254
226 238 254
226 238 254
226 238 254
226 238 254
226 238 254
226 238 254
226 238 254
226 238 254
226 238 254
226 238 254
226 238 254
226 238 254
226 238 254
226 238 254
226 238 254
226 238 254
226 238 254
226 238 254
226 238 254
226 238 254
226 238 254
226 238 254
226 238 254
226 238 254
226 238 254
226 238 254
226 238 254
226 238 254
226 238 254
226 238 254
226 238 254
226 238 254
226 238 254
226 238 254
226 238 254
226 238 254
226 238 254
226 238 254
226 238 254
226 238 254
226 238 254
226 238 254
226 238 254
226 238 254
226 238 254
226 238 254
226 238 254
226 238 254
226 238 254
226 238 254
226 238 254
226 238 254
226 238 254
226 238 254
226 238 254
226 238 254
226 238 254
226 238 254
226 238 254
226 238 254
226 238 254
226 238 254
226 238 254
226 238 254
226 238 254
226 238 254
226 238 254
226 238 254
226 238 254
226 238 254
226 238 254
226 238 254
226 238 254
226 238 254
226 238 254
226 238 254
226 238 254
226 238 254
226 238 254
226 238 254
226 238 254
226 238 254
226 238 254
226 238 254
226 238 254
226 238 254
226 238 254
226 238 254
226 238 254
226 238 254
226 238 254
226 238 254
226 238 254
226 238 254
226 238 254
226 238 254
226 238 254
226 238 254
226 238 254
226 238 254
226 238 254
226 238 254
226 238 254
226 238 254
226 238 254
226 238 254
226 238 254
226 238 254
226 238 254
226 238 254
225 238 254
225 238 254
225 238 254
225 238 254
225 238 254
225 238 254
225 238 254
225 238 254
225 238 254
225 238 254
225 238 254
225 238 254
225 238 254
225 238 254
225 238 254
225 238 254
225 238 254
225 238 254
225 238 254
225 238 254
225 237 254
226 238 254
226 238 254
226 238 254
226 238 254
226 238 254
226 238 254
226 238 254
226 238 254
226 238 254
226 238 254
226 238 254
226 238 254
226 238 254
226 238 254
226 238 254
226 238 254
226 238 254
226 238 254
226 238 254
226 238 254
226 238 254
226 238 254
226 238 254
226 238 254
226 238 254
226 238 254
226 238 254
226 238 254
226 238 254
226 238 254
226 238 254
226 238 254
226 238 254
226 238 254
226 238 254
226 238 254
226 238 254
226 238 254
226 238 254
226 238 254
226 238 254
226 238 254
226 238 254
226 238 254
226 238 254
226 238 254
226 238 254
226 238 254
226 238 254
226 238 254
226 238 254
226 238 254
226 238 254
226 238 254
226 238 254
226 238 254
226 238 254
226 238 254
226 238 254
226 238 254
226 238 254
226 238 254
226 238 254
226 238 254
226 238 254
226 238 254
226 238 254
226 238 254
226 238 254
226 238 254
226 238 254
226 238 254
226 238 254
226 238 254
226 238 254
226 238 254
226 238 254
226 238 254
226 238 254
226 238 254
226 238 254
226 238 254
226 238 254
226 238 254
226 238 254
226 238 254
226 238 254
226 238 254
226 238 254
226 238 254
226 238 254
226 238 254
226 238 254
226 238 254
226 238 254
226 238 254
226 238 254
226 238 254
226 238 254
226 238 254
226 238 254
226 238 254
226 238 254
226 238 254
226 238 254
226 238 254
226 238 254
226 238 254
226 238 254
226 238 254
226 238 254
226 238 254
226 238 254
226 238 254
226 238 254
226 238 254
226 238 254
226 238 254
226 238 254
226 238 254
226 238 254
226 238 254
226 238 254
226 238 254
226 238 254
226 238 254
226 238 254
226 238 254
226 238 254
226 238 254
226 238 254
226 238 254
226 238 254
226 238 254
226 238 254
226 238 254
226 238 254
226 238 254
226 238 254
226 238 254
226 238 254
226 238 254
226 238 254
226 238 254
226 238 254
226 238 254
226 238 254
226 238 254
226 238 254
225 236 253
182 192 213
116 124 152
36 49 100
0 30 90
0 23 86
0 23 85
0 25 86
0 25 86
0 22 84
0 19 83
0 20 82
0 21 81
0 19 80
0 16 77
0 21 82
0 18 79
0 17 80
0 19 81
0 15 75
0 12 71
0 13 73
0 9 69
0 1 67
0 10 72
0 11 72
0 11 74
0 13 74
0 12 72
0 4 69
0 0 68
0 5 67
0 0 68
0 2 70
0 6 70
0 7 71
0 0 67
0 0 65
0 0 62
0 0 59
0 0 67
0 2 67
0 0 64
0 3 68
0 3 69
0 12 72
0 8 71
0 0 67
0 0 70
0 0 68
0 0 65
0 0 63
0 0 61
0 0 61
0 0 61
0 0 64
0 0 63
0 0 63
0 0 66
0 0 67
0 0 65
0 4 67
0 0 65
0 0 66
0 0 63
0 0 62
0 12 71
0 6 72
0 6 66
0 8 69
0 13 76
4 18 75
23 40 89
51 71 104
73 92 114
37 67 89
30 47 73
10 24 79
3 11 72
0 9 70
0 5 70
0 4 69
0 5 70
0 11 72
0 16 79
0 15 78
0 14 73
0 8 71
0 10 73
0 9 73
0 7 72
0 14 74
0 19 80
0 17 79
0 21 81
0 27 88
0 28 90
5 24 83
7 19 80
96 102 129
178 187 206
226 238 254
226 238 254
226 238 254
226 238 254
226 238 254
226 238 254
226 238 254
226 238 254
226 238 254
226 238 254
226 238 254
226 238 254
226 238 254
226 238 254
226 238 254
226 238 254
226 238 254
226 238 254
226 238 254
226 238 254
226 238 254
226 238 254
226 238 254
226 238 254
226 238 254
226 238 254
226 238 254
226 238 254
226 238 254
226 238 254
226 238 254
226 238 254
226 238 254
226 238 254
226 238 254
226 238 254
226 238 254
226 238 254
226 238 254
226 238 254
226 238 254
226 238 254
226 238 254
226 238 254
226 238 254
226 238 254
226 238 254
226 238 254
226 238 254
226 238 254
226 238 254
226 238 254
226 238 254
226 238 254
226 238 254
226 238 254
226 238 254
226 238 254
226 238 254
226 238 254
226 238 254
226 238 254
226 238 254
226 238 254
226 238 254
226 238 254
226 238 254
226 238 254
226 238 254
226 238 254
226 238 254
226 238 254
226 238 254
226 238 254
226 238 254
226 238 254
226 238 254
226 238 254
226 238 254
226 238 254
226 238 254
226 238 254
226 238 254
226 238 254
226 238 254
226 238 254
226 238 254
226 238 254
226 238 254
226 238 254
226 238 254
226 238 254
226 238 254
226 238 254
226 238 254
226 238 254
226 238 254
226 238 254
226 238 254
226 238 254
226 238 254
226 238 254
226 238 254
226 238 254
226 238 254
226 238 254
226 238 254
226 238 254
226 238 254
226 238 254
226 238 254
226 238 254
226 238 254
226 238 254
226 238 254
226 238 254
226 238 254
226 238 254
226 238 254
226 238 254
226 238 254
226 238 254
226 238 254
226 238 254
226 238 254
226 238 254
226 238 254
226 238 254
226 238 254
226 238 254
226 238 254
226 238 254
226 238 254
226 238 254
226 238 254
226 238 254
226 238 254
226 238 254
226 238 254
226 238 254
226 238 254
226 238 254
226 238 254
226 238 254
226 238 254
226 238 254
226 238 254
226 238 254
226 238 254
226 238 254
226 238 254
226 238 254
226 238 254
226 238 254
226 238 254
226 238 254
226 238 254
226 238 254
226 238 254
226 238 254
226 238 254
226 238 254
226 238 254
226 238 254
226 238 254
226 238 254
226 238 254
226 238 254
226 238 254
226 238 254
226 238 254
226 238 254
226 238 254
226 238 254
226 238 254
226 238 254
226 238 254
226 238 254
226 238 254
226 238 254
226 238 254
226 238 254
226 238 254
226 238 254
226 238 254
226 238 254
226 238 254
226 238 254
226 238 254
226 238 254
226 238 254
226 238 254
226 238 254
226 238 254
226 238 254
226 238 254
226 238 254
226 238 254
226 238 254
226 238 254
226 238 254
226 238 254
226 238 254
226 238 254
226 238 254
226 238 254
226 238 254
226 238 254
226 238 254
226 238 254
226 238 254
226 238 254
226 238 254
226 238 254
226 238 254
226 238 254
226 238 254
226 238 254
226 238 254
226 238 254
226 238 254
226 238 254
226 238 254
226 238 254
226 238 254
226 238 254
226 238 254
226 238 254
226 238 254
226 238 254
226 238 254
226 238 254
226 238 254
226 238 254
226 238 254
226 238 254
226 238 254
226 238 254
226 238 254
226 238 254
226 238 254
226 238 254
226 238 254
226 238 254
226 238 254
226 238 254
226 238 254
226 238 254
226 238 254
226 238 254
226 238 254
226 238 254
226 238 254
226 238 254
226 238 254
226 238 254
226 238 254
226 238 254
226 238 254
226 238 254
226 238 254
226 238 254
226 238 254
226 238 254
226 238 254
226 238 254
226 238 254
226 238 254
226 238 254
226 238 254
226 238 254
226 238 254
226 238 254
226 238 254
226 238 254
226 238 254
226 238 254
226 238 254
226 238 254
226 238 254
226 238 254
226 238 254
226 238 254
226 238 254
226 238 254
226 238 254
226 238 254
226 238 254
226 238 254
226 238 254
226 238 254
226 238 254
226 238 254
226 238 254
226 238 254
226 238 254
226 238 254
226 238 254
226 238 254
226 238 254
226 238 254
224 235 252
194 205 223
121 130 157
9 36 94
0 28 89
0 28 89
0 27 89
0 27 88
0 23 85
0 23 84
0 23 85
0 24 85
0 24 84
0 19 81
0 28 88
0 25 85
0 21 81
0 19 80
0 19 80
0 19 80
0 12 72
0 3 65
0 0 64
0 1 67
0 6 65
0 8 69
0 10 70
0 5 64
0 6 66
0 7 68
0 5 70
0 10 72
0 12 72
0 9 73
0 7 71
0 9 68
0 11 69
0 4 63
0 4 68
0 9 72
0 0 69
0 7 70
0 8 68
0 0 67
0 5 70
0 7 72
0 0 71
0 0 67
0 0 63
0 0 64
0 0 63
0 0 63
0 10 70
0 11 70
0 0 63
0 0 62
0 0 65
0 0 65
0 7 66
0 8 71
0 7 68
0 6 67
0 0 63
0 6 66
0 18 79
0 11 73
0 6 71
0 7 71
0 4 69
0 3 67
0 5 68
0 8 73
0 19 81
0 23 83
0 17 78
0 9 72
0 12 72
0 19 79
0 17 77
0 17 77
0 19 80
0 17 80
0 18 77
0 13 73
0 4 70
0 10 74
0 14 76
0 16 78
0 15 77
0 19 81
0 20 81
0 27 88
0 28 88
86 91 125
128 136 162
140 149 174
177 186 205
226 238 254
226 238 254
226 238 254
226 238 254
226 238 254
226 238 254
226 238 254
226 238 254
226 238 254
226 238 254
226 238 254
226 238 254
226 238 254
226 238 254
226 238 254
226 238 254
226 238 254
226 238 254
226 238 254
226 238 254
226 238 254
226 238 254
226 238 254
226 238 254
226 238 254
226 238 254
226 238 254
226 238 254
226 238 254
226 238 254
226 238 254
226 238 254
226 238 254
226 238 254
226 238 254
226 238 254
226 238 254
226 238 254
226 238 254
226 238 254
226 238 254
226 238 254
226 238 254
226 238 254
226 238 254
226 238 254
226 238 254
226 238 254
226 238 254
226 238 254
226 238 254
226 238 254
226 238 254
226 238 254
226 238 254
226 238 254
226 238 254
226 238 254
226 238 254
226 238 254
226 238 254
226 238 254
226 238 254
226 238 254
226 238 254
226 238 254
226 238 254
226 238 254
226 238 254
226 238 254
226 238 254
226 238 254
226 238 254
226 238 254
226 238 254
226 238 254
226 238 254
226 238 254
226 238 254
226 238 254
226 238 254
226 238 254
226 238 254
226 238 254
226 238 254
226 238 254
226 238 254
226 238 254
226 238 254
226 238 254
226 238 254
226 238 254
226 238 254
226 238 254
226 238 254
226 238 254
226 238 254
226 238 254
226 238 254
226 238 254
226 238 254
226 238 254
226 238 254
226 238 254
226 238 254
226 238 254
226 238 254
226 238 254
226 238 254
226 238 254
226 238 254
226 238 254
226 238 254
226 238 254
226 238 254
226 238 254
226 238 254
226 238 254
226 238 254
226 238 254
226 238 254
226 238 254
226 238 254
226 238 254
226 238 254
226 238 254
226 238 254
226 238 254
226 238 254
226 238 254
226 238 254
226 238 254
226 238 254
226 238 254
226 238 254
226 238 254
226 238 254
226 238 254
226 238 254
226 238 254
226 238 254
226 238 254
226 238 254
226 238 254
226 238 254
226 238 254
226 238 254
226 238 254
226 238 254
226 238 254
226 238 254
226 238 254
226 238 254
226 238 254
226 238 254
226 238 254
226 238 254
226 238 254
226 238 254
226 238 254
226 238 254
226 238 254
226 238 254
226 238 254
226 238 254
226 238 254
226 238 254
226 238 254
226 238 254
226 238 254
226 238 254
226 238 254
226 238 254
226 238 254
226 238 254
226 238 254
226 238 254
226 238 254
226 238 254
226 238 254
226 238 254
226 238 254
226 238 254
226 238 254
226 238 254
226 238 254
226 238 254
226 238 254
226 238 254
226 238 254
226 238 254
226 238 254
226 238 254
226 238 254
226 238 254
226 238 254
226 238 254
226 238 254
226 238 254
226 238 254
226 238 254
226 238 254
226 238 254
226 238 254
226 238 254
226 238 254
226 238 254
226 238 254
226 238 254
226 238 254
226 238 254
226 238 254
226 238 254
226 238 254
226 238 254
226 238 254
226 238 254
226 238 254
226 238 254
226 238 254
226 238 254
226 238 254
226 238 254
226 238 254
226 238 254
226 238 254
226 238 254
226 238 254
226 238 254
226 238 254
226 238 254
226 238 254
226 238 254
226 238 254
226 238 254
226 238 254
226 238 254
226 238 254
226 238 254
226 238 254
226 238 254
226 238 254
226 238 254
226 238 254
226 238 254
226 238 254
226 238 254
226 238 254
226 238 254
226 238 254
226 238 254
226 238 254
226 238 254
226 238 254
226 238 254
226 238 254
226 238 254
226 238 254
226 238 254
226 238 254
226 238 254
226 238 254
226 238 254
226 238 254
226 238 254
226 238 254
226 238 254
226 238 254
226 238 254
226 238 254
226 238 254
226 238 254
226 238 254
226 238 254
226 238 254
226 238 254
226 238 254
226 238 254
226 238 254
226 238 254
226 238 254
226 238 254
226 238 254
226 238 254
226 238 254
226 238 254
226 238 254
226 238 254
226 238 254
226 238 254
226 238 254
226 238 254
226 238 254
226 238 254
226 238 254
226 238 254
226 238 254
226 238 254
226 238 254
226 238 254
226 238 254
226 238 254
226 238 254
226 238 254
226 238 254
226 238 254
193 205 224
150 161 185
104 115 145
9 31 90
41 50 95
0 21 83
0 22 84
0 23 83
0 25 86
0 26 87
0 27 87
0 30 89
0 38 97
0 34 94
0 32 91
0 21 81
0 20 81
0 17 78
0 16 77
0 12 71
0 6 67
0 9 69
0 4 68
0 16 76
0 12 73
0 11 71
0 9 72
0 12 74
0 5 67
0 12 72
0 11 72
0 11 73
0 16 74
0 14 74
0 8 71
0 11 72
0 9 71
0 0 66
0 8 70
0 15 75
0 12 73
0 8 71
0 12 74
0 7 70
0 4 70
0 9 71
0 11 71
0 9 70
0 1 65
0 10 70
0 11 72
0 12 74
0 14 76
0 7 68
0 5 66
0 11 71
0 12 72
0 16 78
0 15 76
0 14 73
0 11 73
0 8 72
0 4 70
0 12 73
0 11 75
0 12 73
0 11 73
0 10 72
0 10 72
0 11 73
0 16 77
0 23 84
0 16 77
0 16 77
0 26 83
0 16 77
0 18 79
0 11 72
0 4 69
0 3 69
0 10 70
0 10 73
0 12 73
0 15 75
10 27 84
33 44 95
109 113 139
150 155 173
138 144 167
198 204 217
223 231 244
203 214 232
224 236 253
226 238 254
226 238 254
226 238 254
226 238 254
226 238 254
226 238 254
226 238 254
226 238 254
226 238 254
226 238 254
226 238 254
226 238 254
226 238 254
226 238 254
226 238 254
226 238 254
226 238 254
226 238 254
226 238 254
226 238 254
226 238 254
226 238 254
226 238 254
226 238 254
226 238 254
226 238 254
226 238 254
226 238 254
226 238 254
226 238 254
226 238 254
226 238 254
226 238 254
226 238 254
226 238 254
226 238 254
226 238 254
226 238 254
226 238 254
226 238 254
226 238 254
226 238 254
226 238 254
226 238 254
226 238 254
226 238 254
226 238 254
226 238 254
226 238 254
226 238 254
226 238 254
226 238 254
226 238 254
226 238 254
226 238 254
226 238 254
226 238 254
226 238 254
226 238 254
226 238 254
226 238 254
226 238 254
226 238 254
226 238 254
226 238 254
226 238 254
226 238 254
226 238 254
226 238 254
226 238 254
226 238 254
226 238 254
226 238 254
226 238 254
226 238 254
226 238 254
226 238 254
226 238 254
226 238 254
226 238 254
226 238 254
226 238 254
226 238 254
226 238 254
226 238 254
226 238 254
226 238 254
226 238 254
226 238 254
226 238 254
226 238 254
226 238 254
226 238 254
226 238 254
226 238 254
226 238 254
226 238 254
226 238 254
226 238 254
226 238 254
226 238 254
226 238 254
226 238 254
226 238 254
226 238 254
226 238 254
226 238 254
226 238 254
226 238 254
226 238 254
226 238 254
226 238 254
226 238 254
226 238 254
226 238 254
226 238 254
226 238 254
226 238 254
226 238 254
226 238 254
226 238 254
226 238 254
226 238 254
226 238 254
226 238 254
226 238 254
226 238 254
226 238 254
226 238 254
226 238 254
226 238 254
226 238 254
226 238 254
226 238 254
226 238 254
226 238 254
226 238 254
226 238 254
226 238 254
226 238 254
226 238 254
226 238 254
226 238 254
226 238 254
226 238 254
226 238 254
226 238 254
226 238 254
226 238 254
226 238 254
226 238 254
226 238 254
226 238 254
226 238 254
226 238 254
226 238 254
226 238 254
226 238 254
226 238 254
226 238 254
226 238 254
226 238 254
226 238 254
226 238 254
226 238 254
226 238 254
226 238 254
226 238 254
226 238 254
226 238 254
226 238 254
226 238 254
226 238 254
226 238 254
226 238 254
226 238 254
226 238 254
226 238 254
226 238 254
226 238 254
226 238 254
226 238 254
226 238 254
226 238 254
226 238 254
226 238 254
226 238 254
226 238 254
226 238 254
226 238 254
226 238 254
226 238 254
226 238 254
226 238 254
226 238 254
226 238 254
226 238 254
226 238 254
226 238 254
226 238 254
226 238 254
226 238 254
226 238 254
226 238 254
226 238 254
226 238 254
226 238 254
226 238 254
226 238 254
226 238 254
226 238 254
226 238 254
226 238 254
226 238 254
226 238 254
226 238 254
226 238 254
226 238 254
226 238 254
226 238 254
226 238 254
226 238 254
226 238 254
226 238 254
226 238 254
226 238 254
226 238 254
226 238 254
226 238 254
226 238 254
226 238 254
226 238 254
226 238 254
226 238 254
226 238 254
226 238 254
226 238 254
226 238 254
226 238 254
226 238 254
226 238 254
226 238 254
226 238 254
226 238 254
226 238 254
226 238 254
226 238 254
226 238 254
226 238 254
226 238 254
226 238 254
226 238 254
226 238 254
226 238 254
226 238 254
226 238 254
226 238 254
226 238 254
226 238 254
226 238 254
226 238 254
226 238 254
226 238 254
226 238 254
226 238 254
226 238 254
226 238 254
226 238 254
226 238 254
226 238 254
226 238 254
226 238 254
226 238 254
226 238 254
226 238 254
226 238 254
226 238 254
226 238 254
226 238 254
226 238 254
226 238 254
226 238 254
226 238 254
226 238 254
226 238 254
226 238 254
226 238 254
226 238 254
226 238 254
226 238 254
226 238 254
226 238 254
226 238 254
226 238 254
226 238 254
226 238 254
226 238 254
226 238 254
226 238 254
226 238 254
226 238 254
226 238 254
226 238 254
226 238 254
226 238 254
226 238 254
226 238 254
226 238 254
226 238 254
226 237 253
214 223 237
182 189 203
117 126 154
84 96 129
65 73 110
14 33 92
2 31 92
0 29 90
0 27 89
0 35 95
0 38 97
0 38 96
0 39 98
0 28 89
0 25 88
0 23 85
0 26 85
0 28 87
0 19 77
0 15 76
0 24 83
0 19 80
0 29 87
0 25 83
0 8 70
0 12 70
0 11 72
0 14 75
0 17 79
0 30 90
0 25 87
0 24 85
0 18 80
0 13 73
0 2 61
0 1 66
0 15 75
0 20 81
0 20 83
0 15 78
0 18 80
0 14 78
0 19 81
0 22 84
0 18 79
0 15 76
0 20 79
0 24 84
0 25 87
0 31 92
0 20 82
0 13 74
0 16 77
0 15 76
0 16 77
0 19 82
0 22 85
0 25 85
0 22 84
0 28 88
0 23 83
0 23 84
0 18 80
0 17 79
0 23 85
0 23 84
0 28 88
0 21 83
0 17 79
0 21 83
0 20 82
0 21 82
0 18 79
0 20 80
4 19 78
3 13 73
65 70 105
110 115 145
122 126 150
125 131 154
99 103 130
174 179 195
214 222 234
221 228 238
239 244 252
235 243 252
229 239 254
226 238 254
226 238 254
226 238 254
226 238 254
226 238 254
226 238 254
226 238 254
226 238 254
226 238 254
226 238 254
226 238 254
226 238 254
226 238 254
226 238 254
226 238 254
226 238 254
226 238 254
226 238 254
226 238 254
226 238 254
226 238 254
226 238 254
226 238 254
226 238 254
226 238 254
226 238 254
226 238 254
226 238 254
226 238 254
226 238 254
226 238 254
226 238 254
226 238 254
226 238 254
226 238 254
226 238 254
226 238 254
226 238 254
226 238 254
226 238 254
226 238 254
226 238 254
226 238 254
226 238 254
226 238 254
226 238 254
226 238 254
226 238 254
226 238 254
226 238 254
226 238 254
226 238 254
226 238 254
226 238 254
226 238 254
226 238 254
226 238 254
226 238 254
226 238 254
226 238 254
226 238 254
226 238 254
226 238 254
226 238 254
226 238 254
226 238 254
226 238 254
226 238 254
226 238 254
226 238 254
226 238 254
226 238 254
226 238 254
226 238 254
226 238 254
226 238 254
226 238 254
226 238 254
226 238 254
226 238 254
226 238 254
226 238 254
226 238 254
226 238 254
226 238 254
226 238 254
226 238 254
226 238 254
226 238 254
226 238 254
226 238 254
226 238 254
226 238 254
226 238 254
226 238 254
226 238 254
226 238 254
226 238 254
226 238 254
226 238 254
226 238 254
226 238 254
226 238 254
226 238 254
226 238 254
226 238 254
226 238 254
226 238 254
226 238 254
226 238 254
226 238 254
226 238 254
226 238 254
226 238 254
226 238 254
226 238 254
226 238 254
226 238 254
226 238 254
226 238 254
226 238 254
226 238 254
226 238 254
226 238 254
226 238 254
226 238 254
226 238 254
226 238 254
226 238 254
226 238 254
226 238 254
226 238 254
226 238 254
226 238 254
226 238 254
226 238 254
226 238 254
226 238 254
226 238 254
226 238 254
226 238 254
226 238 254
226 238 254
226 238 254
226 238 254
226 238 254
226 238 254
226 238 254
226 238 254
226 238 254
226 238 254
226 238 254
226 238 254
226 238 254
226 238 254
226 238 254
226 238 254
226 238 254
226 238 254
226 238 254
226 238 254
226 238 254
226 238 254
226 238 254
226 238 254
226 238 254
226 238 254
226 238 254
226 238 254
226 238 254
226 238 254
226 238 254
226 238 254
226 238 254
226 238 254
226 238 254
226 238 254
226 238 254
226 238 254
226 238 254
226 238 254
226 238 254
226 238 254
226 238 254
226 238 254
226 238 254
226 238 254
226 238 254
226 238 254
226 238 254
226 238 254
226 238 254
226 238 254
226 238 254
226 238 254
226 238 254
226 238 254
226 238 254
226 238 254
226 238 254
226 238 254
226 238 254
226 238 254
226 238 254
226 238 254
226 238 254
226 238 254
226 238 254
226 238 254
226 238 254
226 238 254
226 238 254
226 238 254
226 238 254
226 238 254
226 238 254
226 238 254
226 238 254
226 238 254
226 238 254
226 238 254
226 238 254
226 238 254
226 238 254
226 238 254
226 238 254
226 238 254
226 238 254
226 238 254
226 238 254
226 238 254
226 238 254
226 238 254
226 238 254
226 238 254
226 238 254
226 238 254
226 238 254
226 238 254
226 238 254
226 238 254
226 238 254
226 238 254
226 238 254
226 238 254
226 238 254
226 238 254
226 238 254
226 238 254
226 238 254
226 238 254
226 238 254
226 238 254
226 238 254
226 238 254
226 238 254
226 238 254
226 238 254
226 238 254
226 238 254
226 238 254
226 238 254
226 238 254
226 238 254
226 238 254
226 238 254
226 238 254
226 238 254
226 238 254
226 238 254
226 238 254
226 238 254
226 238 254
226 238 254
226 238 254
226 238 254
226 238 254
226 238 254
226 238 254
226 238 254
226 238 254
226 238 254
226 238 254
226 238 254
226 238 254
226 238 254
226 238 254
226 238 254
226 238 254
226 238 254
226 238 254
226 238 254
226 238 254
226 238 254
226 238 254
226 238 254
226 238 254
226 238 254
226 238 254
226 238 254
226 238 254
226 238 254
226 238 254
226 238 254
226 238 254
226 238 254
226 238 254
226 238 254
226 238 254
226 238 254
226 238 254
226 238 254
226 238 254
226 238 254
227 238 254
229 237 250
194 202 217
185 193 208
199 210 222
175 181 198
136 146 167
21 46 104
0 37 97
0 33 92
0 28 88
0 26 86
5 26 85
0 25 86
0 29 91
0 28 89
0 28 90
0 36 96
0 42 101
0 42 100
0 37 94
0 19 80
0 22 82
0 18 80
0 20 81
0 16 77
0 19 82
0 21 82
0 17 78
0 20 82
0 20 82
0 23 84
0 13 74
0 6 68
0 5 66
0 6 70
0 15 77
0 23 83
0 21 83
0 22 82
0 25 85
0 23 84
0 25 85
0 26 88
0 28 87
0 32 93
0 29 89
0 26 85
0 36 94
0 32 90
0 18 80
0 22 83
0 23 83
0 23 84
0 27 89
0 22 86
0 22 84
0 26 85
0 25 85
0 19 81
0 18 81
0 26 86
0 24 85
0 22 83
0 22 84
0 33 91
0 23 84
0 21 82
0 28 88
0 25 86
9 31 89
36 49 102
36 50 99
106 116 150
166 173 190
221 227 239
215 221 234
225 231 241
239 245 253
238 244 252
240 245 253
238 244 253
235 243 254
226 238 254
226 238 254
226 238 254
226 238 254
226 238 254
226 238 254
226 238 254
226 238 254
226 238 254
226 238 254
226 238 254
226 238 254
226 238 254
226 238 254
226 238 254
226 238 254
226 238 254
226 238 254
226 238 254
226 238 254
226 238 254
226 238 254
226 238 254
226 238 254
226 238 254
226 238 254
226 238 254
226 238 254
226 238 254
226 238 254
226 238 254
226 238 254
226 238 254
226 238 254
226 238 254
226 238 254
226 238 254
226 238 254
226 238 254
226 238 254
226 238 254
226 238 254
226 238 254
226 238 254
226 238 254
226 238 254
226 238 254
226 238 254
226 238 254
226 238 254
226 238 254
226 238 254
226 238 254
226 238 254
226 238 254
226 238 254
226 238 254
226 238 254
226 238 254
226 238 254
226 238 254
226 238 254
226 238 254
226 238 254
226 238 254
226 238 254
226 238 254
226 238 254
226 238 254
226 238 254
226 238 254
226 238 254
226 238 254
226 238 254
226 238 254
226 238 254
226 238 254
226 238 254
226 238 254
226 238 254
226 238 254
226 238 254
226 238 254
226 238 254
226 238 254
226 238 254
226 238 254
226 238 254
226 238 254
226 238 254
226 238 254
226 238 254
226 238 254
226 238 254
226 238 254
226 238 254
226 238 254
226 238 254
226 238 254
226 238 254
226 238 254
226 238 254
226 238 254
226 238 254
226 238 254
226 238 254
226 238 254
226 238 254
226 238 254
226 238 254
226 238 254
226 238 254
226 238 254
226 238 254
226 238 254
226 238 254
226 238 254
226 238 254
226 238 254
226 238 254
226 238 254
226 238 254
226 238 254
226 238 254
226 238 254
226 238 254
226 238 254
226 238 254
226 238 254
226 238 254
226 238 254
226 238 254
226 238 254
226 238 254
226 238 254
226 238 254
226 238 254
226 238 254
226 238 254
226 238 254
226 238 254
226 238 254
226 238 254
226 238 254
226 238 254
226 238 254
226 238 254
226 238 254
226 238 254
226 238 254
226 238 254
226 238 254
226 238 254
226 238 254
226 238 254
226 238 254
226 238 254
226 238 254
226 238 254
226 238 254
226 238 254
226 238 254
226 238 254
226 238 254
226 238 254
226 238 254
226 238 254
226 238 254
226 238 254
226 238 254
226 238 254
226 238 254
226 238 254
226 238 254
226 238 254
226 238 254
226 238 254
226 238 254
226 238 254
226 238 254
226 238 254
226 238 254
226 238 254
226 238 254
226 238 254
226 238 254
226 238 254
226 238 254
226 238 254
226 238 254
226 238 254
226 238 254
226 238 254
226 238 254
226 238 254
226 238 254
226 238 254
226 238 254
226 238 254
226 238 254
226 238 254
226 238 254
226 238 254
226 238 254
226 238 254
226 238 254
226 238 254
226 238 254
226 238 254
226 238 254
226 238 254
226 238 254
226 238 254
226 238 254
226 238 254
226 238 254
226 238 254
226 238 254
226 238 254
226 238 254
226 238 254
226 238 254
226 238 254
226 238 254
226 238 254
226 238 254
226 238 254
226 238 254
226 238 254
226 238 254
226 238 254
226 238 254
226 238 254
226 238 254
226 238 254
226 238 254
226 238 254
226 238 254
226 238 254
226 238 254
226 238 254
226 238 254
226 238 254
226 238 254
226 238 254
226 238 254
226 238 254
226 238 254
226 238 254
226 238 254
226 238 254
226 238 254
226 238 254
226 238 254
226 238 254
226 238 254
226 238 254
226 238 254
226 238 254
226 238 254
226 238 254
226 238 254
226 238 254
226 238 254
226 238 254
226 238 254
226 238 254
226 238 254
226 238 254
226 238 254
226 238 254
226 238 254
226 238 254
226 238 254
226 238 254
226 238 254
226 238 254
226 238 254
226 238 254
226 238 254
226 238 254
226 238 254
226 238 254
226 238 254
226 238 254
226 238 254
226 238 254
226 238 254
226 238 254
226 238 254
226 238 254
226 238 254
226 238 254
226 238 254
226 238 254
226 238 254
226 238 254
226 238 254
226 238 254
226 238 254
226 238 254
226 238 254
226 238 254
226 238 254
226 238 254
226 238 254
226 238 254
226 238 254
226 238 254
226 238 254
226 238 254
226 238 254
226 238 254
226 238 254
226 238 254
226 238 254
226 238 254
226 238 254
226 238 254
226 238 254
230 240 254
236 243 254
240 246 253
240 246 253
239 244 252
212 221 233
174 181 199
130 140 165
86 100 134
126 137 162
103 111 138
52 61 102
3 24 85
4 27 88
4 31 91
0 29 87
11 30 90
15 32 91
0 30 89
0 25 85
0 22 82
8 22 83
3 23 83
0 20 80
0 23 84
0 20 82
0 17 79
0 16 78
0 17 78
0 21 82
0 15 75
19 32 87
14 22 76
0 11 73
0 17 76
0 22 82
0 21 80
0 19 78
0 15 75
0 20 81
52 69 112
89 99 130
89 99 133
83 93 127
47 59 106
45 54 103
17 27 85
5 23 83
0 21 83
0 26 86
0 25 88
0 28 89
0 32 92
0 29 90
0 29 87
9 28 87
5 27 88
14 34 91
0 28 88
0 33 92
8 46 102
72 83 123
101 109 136
100 112 142
58 76 122
39 54 102
103 113 142
143 152 175
189 197 214
210 216 228
235 241 250
239 244 252
241 246 254
241 247 254
240 246 254
241 246 254
238 245 254
231 241 254
226 238 254
226 238 254
226 238 254
226 238 254
226 238 254
226 238 254
226 238 254
226 238 254
226 238 254
226 238 254
226 238 254
226 238 254
226 238 254
226 238 254
226 238 254
226 238 254
226 238 254
226 238 254
226 238 254
226 238 254
226 238 254
226 238 254
226 238 254
226 238 254
226 238 254
226 238 254
226 238 254
226 238 254
226 238 254
226 238 254
226 238 254
226 238 254
226 238 254
226 238 254
226 238 254
226 238 254
226 238 254
226 238 254
226 238 254
226 238 254
226 238 254
226 238 254
226 238 254
226 238 254
226 238 254
226 238 254
226 238 254
226 238 254
226 238 254
226 238 254
226 238 254
226 238 254
226 238 254
226 238 254
226 238 254
226 238 254
226 238 254
226 238 254
226 238 254
226 238 254
226 238 254
226 238 254
226 238 254
226 238 254
226 238 254
226 238 254
226 238 254
226 238 254
226 238 254
226 238 254
226 238 254
226 238 254
226 238 254
226 238 254
226 238 254
226 238 254
226 238 254
226 238 254
226 238 254
226 238 254
226 238 254
226 238 254
226 238 254
226 238 254
226 238 254
226 238 254
226 238 254
226 238 254
226 238 254
226 238 254
226 238 254
226 238 254
226 238 254
226 238 254
226 238 254
226 238 254
226 238 254
226 238 254
226 238 254
226 238 254
226 238 254
226 238 254
226 238 254
226 238 254
226 238 254
226 238 254
226 238 254
226 238 254
226 238 254
226 238 254
226 238 254
226 238 254
226 238 254
226 238 254
226 238 254
226 238 254
226 238 254
226 238 254
226 238 254
226 238 254
226 238 254
226 238 254
226 238 254
226 238 254
226 238 254
226 238 254
226 238 254
226 238 254
226 238 254
226 238 254
226 238 254
226 238 254
226 238 254
226 238 254
226 238 254
226 238 254
226 238 254
226 238 254
226 238 254
226 238 254
226 238 254
226 238 254
226 238 254
226 238 254
226 238 254
226 238 254
226 238 254
226 238 254
226 238 254
226 238 254
226 238 254
226 238 254
226 238 254
226 238 254
226 238 254
226 238 254
226 238 254
226 238 254
226 238 254
226 238 254
226 238 254
226 238 254
226 238 254
226 238 254
226 238 254
226 238 254
226 238 254
226 238 254
226 238 254
226 238 254
226 238 254
226 238 254
226 238 254
226 238 254
226 238 254
226 238 254
226 238 254
226 238 254
226 238 254
226 238 254
226 238 254
226 238 254
226 238 254
226 238 254
226 238 254
226 238 254
226 238 254
226 238 254
226 238 254
226 238 254
226 238 254
226 238 254
226 238 254
226 238 254
226 238 254
226 238 254
226 238 254
226 238 254
226 238 254
226 238 254
226 238 254
226 238 254
226 238 254
226 238 254
226 238 254
226 238 254
226 238 254
226 238 254
226 238 254
226 238 254
226 238 254
226 238 254
226 238 254
226 238 254
226 238 254
226 238 254
226 238 254
226 238 254
226 238 254
226 238 254
226 238 254
226 238 254
226 238 254
226 238 254
226 238 254
226 238 254
226 238 254
226 238 254
226 238 254
226 238 254
226 238 254
226 238 254
226 238 254
226 238 254
226 238 254
226 238 254
226 238 254
226 238 254
226 238 254
226 238 254
226 238 254
226 238 254
226 238 254
226 238 254
226 238 254
226 238 254
226 238 254
226 238 254
226 238 254
226 238 254
226 238 254
226 238 254
226 238 254
226 238 254
226 238 254
226 238 254
226 238 254
226 238 254
226 238 254
226 238 254
226 238 254
226 238 254
226 238 254
226 238 254
226 238 254
226 238 254
226 238 254
226 238 254
226 238 254
226 238 254
226 238 254
226 238 254
226 238 254
226 238 254
226 238 254
226 238 254
226 238 254
226 238 254
226 238 254
226 238 254
226 238 254
226 238 254
226 238 254
226 238 254
226 238 254
226 238 254
226 238 254
226 238 254
226 238 254
226 238 254
226 238 254
226 238 254
226 238 254
226 238 254
226 238 254
226 238 254
226 238 254
226 238 254
226 238 254
226 238 254
226 238 254
226 238 254
226 238 254
226 238 254
226 238 254
226 238 254
226 238 254
226 238 254
226 238 254
226 238 254
226 238 254
226 238 254
226 238 254
226 238 254
226 238 254
226 238 254
226 238 254
226 238 254
226 238 254
226 238 254
226 238 254
226 238 254
226 238 254
226 238 254
227 238 254
232 241 254
240 246 254
242 247 254
241 246 254
241 246 254
242 247 254
241 247 253
239 245 253
232 237 245
217 222 232
195 201 213
171 178 196
143 151 174
139 147 169
171 180 196
140 149 171
110 121 149
170 178 192
171 177 193
166 177 199
152 161 183
199 206 219
176 183 197
134 141 164
123 130 152
75 85 119
52 67 112
67 80 124
99 111 146
147 157 182
152 160 180
153 163 184
107 113 142
130 136 152
131 135 156
84 91 119
34 45 92
116 123 156
191 199 214
231 238 249
207 212 226
206 214 224
165 171 187
93 105 137
107 118 146
129 138 164
26 49 101
90 104 137
113 124 151
89 98 133
48 59 106
31 50 100
34 55 106
42 64 110
6 49 104
11 42 99
84 103 138
204 218 228
221 228 239
194 206 222
223 232 242
226 232 242
228 235 243
236 242 250
242 247 253
240 246 254
243 247 254
242 247 254
242 247 254
240 246 254
237 244 254
231 240 254
227 238 254
226 238 254
226 238 254
226 238 254
226 238 254
226 238 254
226 238 254
226 238 254
226 238 254
226 238 254
226 238 254
226 238 254
226 238 254
226 238 254
226 238 254
226 238 254
226 238 254
226 238 254
226 238 254
226 238 254
226 238 254
226 238 254
226 238 254
226 238 254
226 238 254
226 238 254
226 238 254
226 238 254
226 238 254
226 238 254
226 238 254
226 238 254
226 238 254
226 238 254
226 238 254
226 238 254
226 238 254
226 238 254
226 238 254
226 238 254
226 238 254
226 238 254
226 238 254
226 238 254
226 238 254
226 238 254
226 238 254
226 238 254
226 238 254
226 238 254
226 238 254
226 238 254
226 238 254
226 238 254
226 238 254
226 238 254
226 238 254
226 238 254
226 238 254
226 238 254
226 238 254
226 238 254
226 238 254
226 238 254
226 238 254
226 238 254
226 238 254
226 238 254
226 238 254
226 238 254
226 238 254
226 238 254
226 238 254
226 238 254
226 238 254
226 238 254
226 238 254
226 238 254
226 238 254
226 238 254
226 238 254
226 238 254
226 238 254
226 238 254
226 238 254
226 238 254
226 238 254
226 238 254
226 238 254
226 238 254
226 238 254
226 238 254
226 238 254
226 238 254
226 238 254
226 238 254
226 238 254
226 238 254
226 238 254
226 238 254
226 238 254
226 238 254
226 238 254
226 238 254
226 238 254
226 238 254
226 238 254
226 238 254
226 238 254
226 238 254
226 238 254
226 238 254
226 238 254
226 238 254
226 238 254
226 238 254
226 238 254
226 238 254
226 238 254
226 238 254
226 238 254
226 238 254
226 238 254
226 238 254
226 238 254
226 238 254
226 238 254
226 238 254
226 238 254
226 238 254
226 238 254
226 238 254
226 238 254
226 238 254
226 238 254
226 238 254
226 238 254
226 238 254
226 238 254
226 238 254
226 238 254
226 238 254
226 238 254
226 238 254
226 238 254
226 238 254
226 238 254
226 238 254
226 238 254
226 238 254
226 238 254
226 238 254
226 238 254
226 238 254
226 238 254
226 238 254
226 238 254
226 238 254
226 238 254
226 238 254
226 238 254
226 238 254
226 238 254
226 238 254
226 238 254
226 238 254
226 238 254
226 238 254
226 238 254
226 238 254
226 238 254
226 238 254
226 238 254
226 238 254
226 238 254
226 238 254
226 238 254
226 238 254
226 238 254
226 238 254
226 238 254
226 238 254
226 238 254
226 238 254
226 238 254
226 238 254
226 238 254
226 238 254
226 238 254
226 238 254
226 238 254
226 238 254
226 238 254
226 238 254
226 238 254
226 238 254
226 238 254
226 238 254
226 238 254
226 238 254
226 238 254
226 238 254
226 238 254
226 238 254
226 238 254
226 238 254
226 238 254
226 238 254
226 238 254
226 238 254
226 238 254
226 238 254
226 238 254
226 238 254
226 238 254
226 238 254
226 238 254
226 238 254
226 238 254
226 238 254
226 238 254
226 238 254
226 238 254
226 238 254
226 238 254
226 238 254
226 238 254
226 238 254
226 238 254
226 238 254
226 238 254
226 238 254
226 238 254
226 238 254
226 238 254
226 238 254
226 238 254
226 238 254
226 238 254
226 238 254
226 238 254
226 238 254
226 238 254
226 238 254
226 238 254
226 238 254
226 238 254
226 238 254
226 238 254
226 238 254
226 238 254
226 238 254
226 238 254
226 238 254
226 238 254
226 238 254
226 238 254
226 238 254
226 238 254
226 238 254
226 238 254
226 238 254
226 238 254
226 238 254
226 238 254
226 238 254
226 238 254
226 238 254
226 238 254
226 238 254
226 238 254
226 238 254
226 238 254
226 238 254
226 238 254
226 238 254
226 238 254
226 238 254
226 238 254
226 238 254
226 238 254
226 238 254
226 238 254
226 238 254
226 238 254
226 238 254
226 238 254
226 238 254
226 238 254
226 238 254
226 238 254
226 238 254
226 238 254
226 238 254
226 238 254
226 238 254
226 238 254
226 238 254
226 238 254
226 238 254
226 238 254
226 238 254
226 238 254
226 238 254
226 238 254
226 238 254
226 238 254
226 238 254
226 238 254
226 238 254
226 238 254
226 238 254
226 238 254
226 238 254
226 238 254
226 238 254
226 238 254
226 238 254
226 238 254
226 238 254
226 238 254
226 238 254
226 238 254
226 238 254
226 238 254
226 238 254
226 238 254
226 238 254
226 238 254
226 238 254
226 238 254
233 242 254
237 244 254
241 246 254
242 247 254
243 248 254
242 247 254
242 247 254
243 247 254
241 247 254
242 247 254
242 247 254
241 246 254
239 245 253
243 247 254
241 246 253
241 246 253
239 245 253
239 245 252
240 245 253
242 246 253
240 246 252
239 245 252
239 245 252
238 245 252
228 235 244
223 231 242
223 229 240
208 217 228
220 226 237
207 214 225
168 177 197
150 158 179
157 165 184
225 230 239
234 240 248
241 246 252
241 246 253
232 239 247
231 237 245
214 220 233
201 208 219
204 209 220
200 208 220
226 235 245
239 245 253
238 245 253
239 246 253
238 243 251
234 240 250
228 236 246
232 238 246
226 235 245
224 230 240
224 232 243
211 224 237
224 234 245
235 242 251
241 246 254
239 246 254
242 247 254
242 247 254
243 248 254
241 247 254
241 247 254
236 243 254
232 241 254
227 238 254
226 238 254
226 238 254
226 238 254
226 238 254
226 238 254
226 238 254
226 238 254
226 238 254
226 238 254
226 238 254
226 238 254
226 238 254
226 238 254
226 238 254
226 238 254
226 238 254
226 238 254
226 238 254
226 238 254
226 238 254
226 238 254
226 238 254
226 238 254
226 238 254
226 238 254
226 238 254
226 238 254
226 238 254
226 238 254
226 238 254
226 238 254
226 238 254
226 238 254
226 238 254
226 238 254
226 238 254
226 238 254
226 238 254
226 238 254
226 238 254
226 238 254
226 238 254
226 238 254
226 238 254
226 238 254
226 238 254
226 238 254
226 238 254
226 238 254
226 238 254
226 238 254
226 238 254
226 238 254
226 238 254
226 238 254
226 238 254
226 238 254
226 238 254
226 238 254
226 238 254
226 238 254
226 238 254
226 238 254
226 238 254
226 238 254
226 238 254
226 238 254
226 238 254
226 238 254
226 238 254
226 238 254
226 238 254
226 238 254
226 238 254
226 238 254
226 238 254
226 238 254
226 238 254
226 238 254
226 238 254
226 238 254
226 238 254
226 238 254
226 238 254
226 238 254
226 238 254
226 238 254
226 238 254
226 238 254
226 238 254
226 238 254
226 238 254
226 238 254
226 238 254
226 238 254
226 238 254
226 238 254
226 238 254
226 238 254
226 238 254
226 238 254
226 238 254
226 238 254
226 238 254
226 238 254
226 238 254
226 238 254
226 238 254
226 238 254
226 238 254
226 238 254
226 238 254
226 238 254
226 238 254
226 238 254
226 238 254
226 238 254
226 238 254
226 238 254
226 238 254
226 238 254
226 238 254
226 238 254
226 238 254
226 238 254
226 238 254
226 238 254
226 238 254
226 238 254
226 238 254
226 238 254
226 238 254
226 238 254
226 238 254
226 238 254
226 238 254
226 238 254
226 238 254
226 238 254
226 238 254
226 238 254
226 238 254
226 238 254
226 238 254
226 238 254
226 238 254
226 238 254
226 238 254
226 238 254
226 238 254
226 238 254
226 238 254
226 238 254
226 238 254
226 238 254
226 238 254
226 238 254
226 238 254
226 238 254
226 238 254
226 238 254
226 238 254
226 238 254
226 238 254
226 238 254
226 238 254
226 238 254
226 238 254
226 238 254
226 238 254
226 238 254
226 238 254
226 238 254
226 238 254
226 238 254
226 238 254
226 238 254
226 238 254
226 238 254
226 238 254
226 238 254
226 238 254
226 238 254
226 238 254
226 238 254
226 238 254
226 238 254
226 238 254
226 238 254
226 238 254
226 238 254
226 238 254
226 238 254
226 238 254
226 238 254
226 238 254
226 238 254
226 238 254
226 238 254
226 238 254
226 238 254
226 238 254
226 238 254
226 238 254
226 238 254
226 238 254
226 238 254
226 238 254
226 238 254
226 238 254
226 238 254
226 238 254
226 238 254
226 238 254
226 238 254
226 238 254
226 238 254
226 238 254
226 238 254
226 238 254
226 238 254
226 238 254
226 238 254
226 238 254
226 238 254
226 238 254
226 238 254
226 238 254
226 238 254
226 238 254
226 238 254
226 238 254
226 238 254
226 238 254
226 238 254
226 238 254
226 238 254
226 238 254
226 238 254
226 238 254
226 238 254
226 238 254
226 238 254
226 238 254
226 238 254
226 238 254
226 238 254
226 238 254
226 238 254
226 238 254
226 238 254
226 238 254
226 238 254
226 238 254
226 238 254
226 238 254
226 238 254
226 238 254
226 238 254
226 238 254
226 238 254
226 238 254
226 238 254
226 238 254
226 238 254
226 238 254
226 238 254
226 238 254
226 238 254
226 238 254
226 238 254
226 238 254
226 238 254
226 238 254
226 238 254
226 238 254
226 238 254
226 238 254
226 238 254
226 238 254
226 238 254
226 238 254
226 238 254
226 238 254
226 238 254
226 238 254
226 238 254
226 238 254
226 238 254
226 238 254
226 238 254
226 238 254
226 238 254
226 238 254
226 238 254
226 238 254
226 238 254
226 238 254
226 238 254
226 238 254
226 238 254
226 238 254
226 238 254
226 238 254
226 238 254
226 238 254
226 238 254
226 238 254
226 238 254
226 238 254
226 238 254
226 238 254
226 238 254
226 238 254
226 238 254
226 238 254
226 238 254
226 238 254
226 238 254
226 238 254
226 238 254
226 238 254
226 238 254
226 238 254
226 238 254
226 238 254
226 238 254
226 238 254
226 238 254
226 238 254
226 238 254
226 238 254
226 238 254
226 238 254
226 238 254
226 238 254
230 240 254
237 244 254
239 246 254
242 247 254
242 247 254
241 246 254
241 247 254
244 248 254
242 247 254
241 246 254
240 246 254
243 247 254
242 247 254
240 246 254
242 247 254
242 247 254
242 247 254
242 247 254
242 247 254
244 248 254
243 248 254
239 246 254
242 247 254
243 248 254
243 248 254
242 247 254
243 247 254
241 246 254
241 247 254
243 248 254
242 247 254
241 247 254
242 247 254
242 247 254
243 247 254
240 246 254
241 247 254
241 246 254
241 246 254
241 247 254
242 247 254
242 247 254
242 247 254
240 246 254
240 246 254
238 244 252
228 236 246
228 237 247
227 237 246
231 239 249
238 244 252
241 246 254
243 248 254
242 247 254
241 247 254
242 247 254
242 247 254
238 245 254
235 243 254
232 241 254
226 238 254
226 238 254
226 238 254
226 238 254
226 238 254
226 238 254
226 238 254
226 238 254
226 238 254
226 238 254
226 238 254
226 238 254
226 238 254
226 238 254
226 238 254
226 238 254
226 238 254
226 238 254
226 238 254
226 238 254
226 238 254
226 238 254
226 238 254
226 238 254
226 238 254
226 238 254
226 238 254
226 238 254
226 238 254
226 238 254
226 238 254
226 238 254
226 238 254
226 238 254
226 238 254
226 238 254
226 238 254
226 238 254
226 238 254
226 238 254
226 238 254
226 238 254
226 238 254
226 238 254
226 238 254
226 238 254
226 238 254
226 238 254
226 238 254
226 238 254
226 238 254
226 238 254
226 238 254
226 238 254
226 238 254
226 238 254
226 238 254
226 238 254
226 238 254
226 238 254
226 238 254
226 238 254
226 238 254
226 238 254
226 238 254
226 238 254
226 238 254
226 238 254
226 238 254
226 238 254
226 238 254
226 238 254
226 238 254
226 238 254
226 238 254
226 238 254
226 238 254
226 238 254
226 238 254
226 238 254
226 238 254
226 238 254
226 238 254
226 238 254
226 238 254
226 238 254
226 238 254
226 238 254
226 238 254
226 238 254
226 238 254
226 238 254
226 238 254
226 238 254
226 238 254
226 238 254
226 238 254
226 238 254
226 238 254
226 238 254
226 238 254
226 238 254
226 238 254
226 238 254
226 238 254
226 238 254
226 238 254
226 238 254
226 238 254
226 238 254
226 238 254
226 238 254
226 238 254
226 238 254
226 238 254
226 238 254
226 238 254
226 238 254
226 238 254
226 238 254
226 238 254
226 238 254
226 238 254
226 238 254
226 238 254
226 238 254
226 238 254
226 238 254
226 238 254
226 238 254
226 238 254
226 238 254
226 238 254
226 238 254
226 238 254
226 238 254
226 238 254
226 238 254
226 238 254
226 238 254
226 238 254
226 238 254
226 238 254
226 238 254
226 238 254
226 238 254
226 238 254
226 238 254
226 238 254
226 238 254
226 238 254
226 238 254
226 238 254
226 238 254
226 238 254
226 238 254
226 238 254
226 238 254
226 238 254
226 238 254
226 238 254
226 238 254
226 238 254
226 238 254
226 238 254
226 238 254
226 238 254
226 238 254
226 238 254
226 238 254
226 238 254
226 238 254
226 238 254
226 238 254
226 238 254
226 238 254
226 238 254
226 238 254
226 238 254
226 238 254
226 238 254
226 238 254
226 238 254
226 238 254
226 238 254
226 238 254
226 238 254
226 238 254
226 238 254
226 238 254
226 238 254
226 238 254
226 238 254
226 238 254
226 238 254
226 238 254
226 238 254
226 238 254
226 238 254
226 238 254
226 238 254
226 238 254
226 238 254
226 238 254
226 238 254
226 238 254
226 238 254
226 238 254
226 238 254
226 238 254
226 238 254
226 238 254
226 238 254
226 238 254
226 238 254
226 238 254
226 238 254
226 238 254
226 238 254
226 238 254
226 238 254
226 238 254
226 238 254
226 238 254
226 238 254
226 238 254
226 238 254
226 238 254
226 238 254
226 238 254
226 238 254
226 238 254
226 238 254
226 238 254
226 238 254
226 238 254
226 238 254
226 238 254
226 238 254
226 238 254
226 238 254
226 238 254
226 238 254
226 238 254
226 238 254
226 238 254
226 238 254
226 238 254
226 238 254
226 238 254
226 238 254
226 238 254
226 238 254
226 238 254
226 238 254
226 238 254
226 238 254
226 238 254
226 238 254
226 238 254
226 238 254
226 238 254
226 238 254
226 238 254
226 238 254
226 238 254
226 238 254
226 238 254
226 238 254
226 238 254
226 238 254
226 238 254
226 238 254
226 238 254
226 238 254
226 238 254
226 238 254
226 238 254
226 238 254
226 238 254
226 238 254
226 238 254
226 238 254
226 238 254
226 238 254
226 238 254
226 238 254
226 238 254
226 238 254
226 238 254
226 238 254
226 238 254
226 238 254
226 238 254
226 238 254
226 238 254
226 238 254
226 238 254
226 238 254
226 238 254
226 238 254
226 238 254
226 238 254
226 238 254
226 238 254
226 238 254
226 238 254
226 238 254
226 238 254
226 238 254
226 238 254
226 238 254
226 238 254
226 238 254
226 238 254
226 238 254
226 238 254
226 238 254
226 238 254
226 238 254
226 238 254
226 238 254
226 238 254
226 238 254
226 238 254
226 238 254
226 238 254
226 238 254
226 238 254
226 238 254
226 238 254
226 238 254
226 238 254
226 238 254
226 238 254
226 238 254
226 238 254
226 238 254
226 238 254
226 238 254
226 238 254
226 238 254
226 238 254
227 238 254
231 241 254
234 243 254
238 245 254
242 247 254
243 248 254
242 247 254
243 248 254
241 247 254
243 247 254
241 247 254
241 247 254
241 246 254
243 248 254
242 247 254
240 246 254
242 247 254
241 247 254
242 247 254
242 247 254
242 247 254
244 248 254
242 247 254
242 247 254
242 247 254
241 246 254
242 246 254
241 246 254
241 246 254
241 246 254
243 248 254
241 247 254
241 246 254
241 246 254
241 247 254
243 248 254
242 247 254
241 246 254
241 246 254
236 243 250
234 241 250
236 243 251
229 238 248
219 231 241
221 233 243
235 242 250
241 246 254
241 247 254
243 248 254
242 247 254
237 244 254
233 242 254
231 241 254
227 238 254
226 238 254
226 238 254
226 238 254
226 238 254
226 238 254
226 238 254
226 238 254
226 238 254
226 238 254
226 238 254
226 238 254
226 238 254
226 238 254
226 238 254
226 238 254
226 238 254
226 238 254
226 238 254
226 238 254
226 238 254
226 238 254
226 238 254
226 238 254
226 238 254
226 238 254
226 238 254
226 238 254
226 238 254
226 238 254
226 238 254
226 238 254
226 238 254
226 238 254
226 238 254
226 238 254
226 238 254
226 238 254
226 238 254
226 238 254
226 238 254
226 238 254
226 238 254
226 238 254
226 238 254
226 238 254
226 238 254
226 238 254
226 238 254
226 238 254
226 238 254
226 238 254
226 238 254
226 238 254
226 238 254
226 238 254
226 238 254
226 238 254
226 238 254
226 238 254
226 238 254
226 238 254
226 238 254
226 238 254
226 238 254
226 238 254
226 238 254
226 238 254
226 238 254
226 238 254
226 238 254
226 238 254
226 238 254
226 238 254
226 238 254
226 238 254
226 238 254
226 238 254
226 238 254
226 238 254
226 238 254
226 238 254
226 238 254
226 238 254
226 238 254
226 238 254
226 238 254
226 238 254
226 238 254
226 238 254
226 238 254
226 238 254
226 238 254
226 238 254
226 238 254
226 238 254
226 238 254
226 238 254
226 238 254
226 238 254
226 238 254
226 238 254
226 238 254
226 238 254
226 238 254
226 238 254
226 238 254
226 238 254
226 238 254
226 238 254
226 238 254
226 238 254
226 238 254
226 238 254
226 238 254
226 238 254
226 238 254
226 238 254
226 238 254
226 238 254
226 238 254
226 238 254
226 238 254
226 238 254
226 238 254
226 238 254
226 238 254
226 238 254
226 238 254
226 238 254
226 238 254
226 238 254
226 238 254
226 238 254
226 238 254
226 238 254
226 238 254
226 238 254
226 238 254
226 238 254
226 238 254
226 238 254
226 238 254
226 238 254
226 238 254
226 238 254
226 238 254
226 238 254
226 238 254
226 238 254
226 238 254
226 238 254
226 238 254
226 238 254
226 238 254
226 238 254
226 238 254
226 238 254
226 238 254
226 238 254
226 238 254
226 238 254
226 238 254
226 238 254
226 238 254
226 238 254
226 238 254
226 238 254
226 238 254
226 238 254
226 238 254
226 238 254
226 238 254
226 238 254
226 238 254
226 238 254
226 238 254
226 238 254
226 238 254
226 238 254
226 238 254
226 238 254
226 238 254
226 238 254
226 238 254
226 238 254
226 238 254
226 238 254
226 238 254
226 238 254
226 238 254
226 238 254
226 238 254
226 238 254
226 238 254
226 238 254
226 238 254
226 238 254
226 238 254
226 238 254
226 238 254
226 238 254
226 238 254
226 238 254
226 238 254
226 238 254
226 238 254
226 238 254
226 238 254
226 238 254
226 238 254
226 238 254
226 238 254
226 238 254
226 238 254
226 238 254
226 238 254
226 238 254
226 238 254
226 238 254
226 238 254
226 238 254
226 238 254
226 238 254
226 238 254
226 238 254
226 238 254
226 238 254
226 238 254
226 238 254
226 238 254
226 238 254
226 238 254
226 238 254
226 238 254
226 238 254
226 238 254
226 238 254
226 238 254
226 238 254
226 238 254
226 238 254
226 238 254
226 238 254
226 238 254
226 238 254
226 238 254
226 238 254
226 238 254
226 238 254
226 238 254
226 238 254
226 238 254
226 238 254
226 238 254
226 238 254
226 238 254
226 238 254
226 238 254
226 238 254
226 238 254
226 238 254
226 238 254
226 238 254
226 238 254
226 238 254
226 238 254
226 238 254
226 238 254
226 238 254
226 238 254
226 238 254
226 238 254
226 238 254
226 238 254
226 238 254
226 238 254
226 238 254
226 238 254
226 238 254
226 238 254
226 238 254
226 238 254
226 238 254
226 238 254
226 238 254
226 238 254
226 238 254
226 238 254
226 238 254
226 238 254
226 238 254
226 238 254
226 238 254
226 238 254
226 238 254
226 238 254
226 238 254
226 238 254
226 238 254
226 238 254
226 238 254
226 238 254
226 238 254
226 238 254
226 238 254
226 238 254
226 238 254
226 238 254
226 238 254
226 238 254
226 238 254
226 238 254
226 238 254
226 238 254
226 238 254
226 238 254
226 238 254
226 238 254
226 238 254
226 238 254
226 238 254
226 238 254
226 238 254
226 238 254
226 238 254
226 238 254
226 238 254
226 238 254
226 238 254
226 238 254
226 238 254
226 238 254
226 238 254
226 238 254
226 238 254
226 238 254
226 238 254
226 238 254
226 238 254
226 238 254
226 238 254
226 238 254
226 238 254
226 238 254
226 238 254
226 238 254
226 238 254
226 238 254
226 238 254
226 238 254
226 238 254
230 240 254
231 241 254
234 242 253
235 242 252
237 243 252
239 245 253
240 245 253
241 247 254
243 247 254
242 247 254
242 247 254
242 247 254
242 247 254
243 247 254
242 247 254
241 246 253
241 246 253
242 247 254
241 247 254
241 247 254
242 247 254
241 246 253
243 247 254
241 247 254
241 246 254
241 246 254
242 247 254
242 247 254
242 247 254
242 247 254
241 246 254
233 240 249
236 242 249
231 239 247
222 233 243
225 235 245
222 233 242
225 235 243
231 239 248
238 245 253
238 245 254
237 244 254
232 241 254
229 239 254
227 238 254
226 238 254
226 238 254
226 238 254
226 238 254
226 238 254
226 238 254
226 238 254
226 238 254
226 238 254
226 238 254
226 238 254
226 238 254
226 238 254
226 238 254
226 238 254
226 238 254
226 238 254
226 238 254
226 238 254
226 238 254
226 238 254
226 238 254
226 238 254
226 238 254
226 238 254
226 238 254
226 238 254
226 238 254
226 238 254
226 238 254
226 238 254
226 238 254
226 238 254
226 238 254
226 238 254
226 238 254
226 238 254
226 238 254
226 238 254
226 238 254
226 238 254
226 238 254
226 238 254
226 238 254
226 238 254
226 238 254
226 238 254
226 238 254
226 238 254
226 238 254
226 238 254
226 238 254
226 238 254
226 238 254
226 238 254
226 238 254
226 238 254
226 238 254
226 238 254
226 238 254
226 238 254
226 238 254
226 238 254
226 238 254
226 238 254
226 238 254
226 238 254
226 238 254
226 238 254
226 238 254
226 238 254
226 238 254
226 238 254
226 238 254
226 238 254
226 238 254
226 238 254
226 238 254
226 238 254
226 238 254
226 238 254
226 238 254
226 238 254
226 238 254
226 238 254
226 238 254
226 238 254
226 238 254
226 238 254
226 238 254
226 238 254
226 238 254
226 238 254
226 238 254
226 238 254
226 238 254
226 238 254
226 238 254
226 238 254
226 238 254
226 238 254
226 238 254
226 238 254
226 238 254
226 238 254
226 238 254
226 238 254
226 238 254
226 238 254
226 238 254
226 238 254
226 238 254
226 238 254
226 238 254
226 238 254
226 238 254
226 238 254
226 238 254
226 238 254
226 238 254
226 238 254
226 238 254
226 238 254
226 238 254
226 238 254
226 238 254
226 238 254
226 238 254
226 238 254
226 238 254
226 238 254
226 238 254
226 238 254
226 238 254
226 238 254
226 238 254
226 238 254
226 238 254
226 238 254
226 238 254
226 238 254
226 238 254
226 238 254
226 238 254
226 238 254
226 238 254
226 238 254
226 238 254
226 238 254
226 238 254
226 238 254
226 238 254
226 238 254
226 238 254
226 238 254
226 238 254
226 238 254
226 238 254
226 238 254
226 238 254
226 238 254
226 238 254
226 238 254
226 238 254
226 238 254
226 238 254
226 238 254
226 238 254
226 238 254
226 238 254
226 238 254
226 238 254
226 238 254
226 238 254
226 238 254
226 238 254
226 238 254
226 238 254
226 238 254
226 238 254
226 238 254
226 238 254
226 238 254
226 238 254
226 238 254
226 238 254
226 238 254
226 238 254
226 238 254
226 238 254
226 238 254
226 238 254
226 238 254
226 238 254
226 238 254
226 238 254
226 238 254
226 238 254
226 238 254
226 238 254
226 238 254
226 238 254
226 238 254
226 238 254
226 238 254
226 238 254
226 238 254
226 238 254
226 238 254
226 238 254
226 238 254
226 238 254
226 238 254
226 238 254
226 238 254
226 238 254
226 238 254
226 238 254
226 238 254
226 238 254
226 238 254
226 238 254
226 238 254
226 238 254
226 238 254
226 238 254
226 238 254
226 238 254
226 238 254
226 238 254
226 238 254
226 238 254
226 238 254
226 238 254
226 238 254
226 238 254
226 238 254
226 238 254
226 238 254
226 238 254
226 238 254
226 238 254
226 238 254
226 238 254
226 238 254
226 238 254
226 238 254
226 238 254
226 238 254
226 238 254
226 238 254
226 238 254
226 238 254
226 238 254
226 238 254
226 238 254
226 238 254
226 238 254
226 238 254
226 238 254
226 238 254
226 238 254
226 238 254
226 238 254
226 238 254
226 238 254
226 238 254
226 238 254
226 238 254
226 238 254
226 238 254
226 238 254
226 238 254
226 238 254
226 238 254
226 238 254
226 238 254
226 238 254
226 238 254
226 238 254
226 238 254
226 238 254
226 238 254
226 238 254
226 238 254
226 238 254
226 238 254
226 238 254
226 238 254
226 238 254
226 238 254
226 238 254
226 238 254
226 238 254
226 238 254
226 238 254
226 238 254
226 238 254
226 238 254
226 238 254
226 238 254
226 238 254
226 238 254
226 238 254
226 238 254
226 238 254
226 238 254
226 238 254
226 238 254
226 238 254
226 238 254
226 238 254
226 238 254
226 238 254
226 238 254
226 238 254
226 238 254
226 238 254
226 238 254
226 238 254
226 238 254
226 238 254
226 238 254
226 238 254
226 238 254
226 238 254
226 238 254
226 238 254
226 238 254
226 238 254
226 238 254
226 238 254
226 238 254
226 238 254
226 238 254
226 238 254
226 238 254
226 238 254
226 238 254
226 238 254
226 238 254
226 238 254
226 238 254
226 238 254
226 238 254
226 238 254
226 238 254
226 238 254
226 238 254
226 238 254
226 238 254
226 238 254
226 238 254
226 238 254
226 238 254
226 238 254
226 238 254
226 238 254
226 238 254
226 238 254
227 238 254
226 237 252
225 236 250
226 236 249
226 237 249
230 239 249
229 238 248
235 242 250
234 241 249
234 240 248
231 238 248
225 234 243
225 234 244
229 237 247
229 238 246
230 238 247
225 234 244
230 238 247
233 241 249
233 240 249
232 239 248
231 239 247
230 238 246
224 234 244
227 236 245
229 238 246
231 239 247
227 236 246
230 239 249
229 238 249
226 237 250
229 239 253
230 240 254
227 238 254
226 238 254
226 238 254
226 238 254
226 238 254
226 238 254
226 238 254
226 238 254
226 238 254
226 238 254
226 238 254
226 238 254
226 238 254
226 238 254
226 238 254
226 238 254
226 238 254
226 238 254
226 238 254
226 238 254
226 238 254
226 238 254
226 238 254
226 238 254
226 238 254
226 238 254
226 238 254
226 238 254
226 238 254
226 238 254
226 238 254
226 238 254
226 238 254
226 238 254
226 238 254
226 238 254
226 238 254
226 238 254
226 238 254
226 238 254
226 238 254
226 238 254
226 238 254
226 238 254
226 238 254
226 238 254
226 238 254
226 238 254
226 238 254
226 238 254
226 238 254
226 238 254
226 238 254
226 238 254
226 238 254
226 238 254
226 238 254
226 238 254
226 238 254
226 238 254
226 238 254
226 238 254
226 238 254
226 238 254
226 238 254
226 238 254
226 238 254
226 238 254
226 238 254
226 238 254
226 238 254
226 238 254
226 238 254
226 238 254
226 238 254
226 238 254
226 238 254
226 238 254
226 238 254
226 238 254
226 238 254
226 238 254
226 238 254
226 238 254
226 238 254
226 238 254
226 238 254
226 238 254
226 238 254
226 238 254
226 238 254
226 238 254
226 238 254
226 238 254
226 238 254
226 238 254
226 238 254
226 238 254
226 238 254
226 238 254
226 238 254
226 238 254
226 238 254
226 238 254
226 238 254
226 238 254
226 238 254
226 238 254
226 238 254
226 238 254
226 238 254
226 238 254
226 238 254
226 238 254
226 238 254
226 238 254
226 238 254
226 238 254
226 238 254
226 238 254
226 238 254
226 238 254
226 238 254
226 238 254
226 238 254
226 238 254
226 238 254
226 238 254
226 238 254
226 238 254
226 238 254
226 238 254
226 238 254
226 238 254
226 238 254
226 238 254
226 238 254
226 238 254
226 238 254
226 238 254
226 238 254
226 238 254
226 238 254
226 238 254
226 238 254
226 238 254
226 238 254
226 238 254
226 238 254
226 238 254
226 238 254
226 238 254
226 238 254
226 238 254
226 238 254
226 238 254
226 238 254
226 238 254
226 238 254
226 238 254
226 238 254
226 238 254
226 238 254
226 238 254
226 238 254
226 238 254
226 238 254
226 238 254
226 238 254
226 238 254
226 238 254
226 238 254
226 238 254
226 238 254
226 238 254
226 238 254
226 238 254
226 238 254
226 238 254
226 238 254
226 238 254
226 238 254
226 238 254
226 238 254
226 238 254
226 238 254
226 238 254
226 238 254
226 238 254
226 238 254
226 238 254
226 238 254
226 238 254
226 238 254
226 238 254
226 238 254
226 238 254
226 238 254
226 238 254
226 238 254
226 238 254
226 238 254
226 238 254
226 238 254
226 238 254
226 238 254
226 238 254
226 238 254
226 238 254
226 238 254
226 238 254
226 238 254
226 238 254
226 238 254
226 238 254
226 238 254
226 238 254
226 238 254
226 238 254
226 238 254
226 238 254
226 238 254
226 238 254
226 238 254
226 238 254
226 238 254
226 238 254
226 238 254
226 238 254
226 238 254
226 238 254
226 238 254
226 238 254
226 238 254
226 238 254
226 238 254
226 238 254
226 238 254
226 238 254
226 238 254
226 238 254
226 238 254
226 238 254
226 238 254
226 238 254
226 238 254
226 238 254
226 238 254
226 238 254
226 238 254
226 238 254
226 238 254
226 238 254
226 238 254
226 238 254
226 238 254
226 238 254
226 238 254
226 238 254
226 238 254
226 238 254
226 238 254
226 238 254
226 238 254
226 238 254
226 238 254
226 238 254
226 238 254
226 238 254
226 238 254
226 238 254
226 238 254
226 238 254
226 238 254
226 238 254
226 238 254
226 238 254
226 238 254
226 238 254
226 238 254
226 238 254
226 238 254
226 238 254
226 238 254
226 238 254
226 238 254
226 238 254
226 238 254
226 238 254
226 238 254
226 238 254
226 238 254
226 238 254
226 238 254
226 238 254
226 238 254
226 238 254
226 238 254
226 238 254
226 238 254
226 238 254
226 238 254
226 238 254
226 238 254
226 238 254
226 238 254
226 238 254
226 238 254
226 238 254
226 238 254
226 238 254
226 238 254
226 238 254
226 238 254
226 238 254
226 238 254
226 238 254
226 238 254
226 238 254
226 238 254
226 238 254
226 238 254
226 238 254
226 238 254
226 238 254
226 238 254
226 238 254
226 238 254
226 238 254
226 238 254
226 238 254
226 238 254
226 238 254
226 238 254
226 238 254
226 238 254
226 238 254
226 238 254
226 238 254
226 238 254
226 238 254
226 238 254
226 238 254
226 238 254
226 238 254
226 238 254
226 238 254
226 238 254
226 238 254
226 238 254
226 238 254
226 238 254
226 238 254
226 238 254
226 238 254
226 238 254
226 238 254
226 238 254
226 238 254
226 238 254
226 238 254
226 238 254
226 238 254
226 238 254
226 238 254
226 238 254
226 238 254
226 238 254
226 238 254
226 238 254
226 238 254
226 238 254
226 238 254
226 238 254
226 238 254
226 238 254
226 238 253
226 238 253
225 237 252
223 235 249
226 237 251
225 236 250
225 236 250
223 235 249
224 235 250
223 235 249
223 235 250
224 236 250
225 237 252
227 237 252
227 238 254
227 238 254
226 238 254
226 238 254
226 238 254
226 238 254
226 238 254
226 238 254
226 238 254
226 238 254
226 238 254
226 238 254
226 238 254
226 238 254
226 238 254
226 238 254
226 238 254
226 238 254
226 238 254
226 238 254
226 238 254
226 238 254
226 238 254
226 238 254
226 238 254
226 238 254
226 238 254
226 238 254
226 238 254
226 238 254
226 238 254
226 238 254
226 238 254
226 238 254
226 238 254
226 238 254
226 238 254
226 238 254
226 238 254
226 238 254
226 238 254
226 238 254
226 238 254
226 238 254
226 238 254
226 238 254
226 238 254
226 238 254
226 238 254
226 238 254
226 238 254
226 238 254
226 238 254
226 238 254
226 238 254
226 238 254
226 238 254
226 238 254
226 238 254
226 238 254
226 238 254
226 238 254
226 238 254
226 238 254
226 238 254
226 238 254
226 238 254
226 238 254
226 238 254
226 238 254
226 238 254
226 238 254
226 238 254
226 238 254
226 238 254
226 238 254
226 238 254
226 238 254
226 238 254
226 238 254
226 238 254
226 238 254
226 238 254
226 238 254
226 238 254
226 238 254
226 238 254
226 238 254
226 238 254
226 238 254
226 238 254
226 238 254
226 238 254
226 238 254
226 238 254
226 238 254
226 238 254
226 238 254
226 238 254
226 238 254
226 238 254
226 238 254
226 238 254
226 238 254
226 238 254
226 238 254
226 238 254
226 238 254
226 238 254
226 238 254
226 238 254
226 238 254
226 238 254
226 238 254
226 238 254
226 238 254
226 238 254
226 238 254
226 238 254
226 238 254
226 238 254
226 238 254
226 238 254
226 238 254
226 238 254
226 238 254
226 238 254
226 238 254
226 238 254
226 238 254
226 238 254
226 238 254
226 238 254
226 238 254
226 238 254
226 238 254
226 238 254
226 238 254
226 238 254
226 238 254
226 238 254
226 238 254
226 238 254
226 238 254
226 238 254
226 238 254
226 238 254
226 238 254
226 238 254
226 238 254
226 238 254
226 238 254
226 238 254
226 238 254
226 238 254
226 238 254
226 238 254
226 238 254
226 238 254
226 238 254
226 238 254
226 238 254
226 238 254
226 238 254
226 238 254
226 238 254
226 238 254
226 238 254
226 238 254
226 238 254
226 238 254
226 238 254
226 238 254
226 238 254
226 238 254
226 238 254
226 238 254
226 238 254
226 238 254
226 238 254
226 238 254
226 238 254
226 238 254
226 238 254
226 238 254
226 238 254
226 238 254
226 238 254
226 238 254
226 238 254
226 238 254
226 238 254
226 238 254
226 238 254
226 238 254
226 238 254
226 238 254
226 238 254
226 238 254
226 238 254
226 238 254
226 238 254
226 238 254
226 238 254
226 238 254
226 238 254
226 238 254
226 238 254
226 238 254
226 238 254
226 238 254
226 238 254
226 238 254
226 238 254
226 238 254
226 238 254
226 238 254
226 238 254
226 238 254
226 238 254
226 238 254
226 238 254
226 238 254
226 238 254
226 238 254
226 238 254
226 238 254
226 238 254
226 238 254
226 238 254
226 238 254
226 238 254
226 238 254
226 238 254
226 238 254
226 238 254
226 238 254
226 238 254
226 238 254
226 238 254
226 238 254
226 238 254
226 238 254
226 238 254
226 238 254
226 238 254
226 238 254
226 238 254
226 238 254
226 238 254
226 238 254
226 238 254
226 238 254
226 238 254
226 238 254
226 238 254
226 238 254
226 238 254
226 238 254
226 238 254
226 238 254
226 238 254
226 238 254
226 238 254
226 238 254
226 238 254
226 238 254
226 238 254
226 238 254
226 238 254
226 238 254
226 238 254
226 238 254
226 238 254
226 238 254
226 238 254
226 238 254
226 238 254
226 238 254
226 238 254
226 238 254
226 238 254
226 238 254
226 238 254
226 238 254
226 238 254
226 238 254
226 238 254
226 238 254
226 238 254
226 238 254
226 238 254
226 238 254
226 238 254
226 238 254
226 238 254
226 238 254
226 238 254
226 238 254
226 238 254
226 238 254
226 238 254
226 238 254
226 238 254
226 238 254
226 238 254
226 238 254
226 238 254
226 238 254
226 238 254
226 238 254
226 238 254
226 238 254
226 238 254
226 238 254
226 238 254
226 238 254
226 238 254
226 238 254
226 238 254
226 238 254
226 238 254
226 238 254
226 238 254
226 238 254
226 238 254
226 238 254
226 238 254
226 238 254
226 238 254
226 238 254
226 238 254
226 238 254
226 238 254
226 238 254
226 238 254
226 238 254
226 238 254
226 238 254
226 238 254
226 238 254
226 238 254
226 238 254
226 238 254
226 238 254
226 238 254
226 238 254
226 238 254
226 238 254
226 238 254
226 238 254
226 238 254
226 238 254
226 238 254
226 238 254
226 238 254
226 238 254
226 238 254
226 238 254
226 238 254
226 238 254
226 238 254
226 238 254
226 238 254
226 238 254
226 238 254
226 238 254
226 238 254
226 238 254
226 238 254
226 238 254
226 238 254
226 238 254
226 238 254
226 238 254
226 238 254
226 238 254
226 238 254
226 238 254
226 238 254
226 238 254
226 238 254
226 238 254
226 238 254
226 238 254
226 238 254
226 238 254
226 238 254
226 238 254
226 238 254
226 238 254
226 238 254
226 238 254
226 238 254
226 238 254
226 238 254
226 238 254
226 238 254
226 238 254
226 238 254
226 238 254
226 238 254
226 238 254
226 238 254
226 238 254
226 238 254
226 238 254
226 238 254
226 238 254
226 238 254
226 238 254
226 238 254
226 238 254
226 238 254
226 238 254
226 238 254
226 238 254
226 238 254
226 238 254
226 238 254
226 238 254
226 238 254
226 238 254
226 238 254
226 238 254
226 238 254
226 238 254
226 238 254
226 238 254
226 238 254
226 238 254
226 238 254
226 238 254
226 238 254
226 238 254
226 238 254
226 238 254
226 238 254
226 238 254
226 238 254
226 238 254
226 238 254
226 238 254
226 238 254
226 238 254
226 238 254
226 238 254
226 238 254
226 238 254
226 238 254
226 238 254
226 238 254
226 238 254
226 238 254
226 238 254
226 238 254
226 238 254
226 238 254
226 238 254
226 238 254
226 238 254
226 238 254
226 238 254
226 238 254
226 238 254
226 238 254
226 238 254
226 238 254
226 238 254
226 238 254
226 238 254
226 238 254
226 238 254
226 238 254
226 238 254
226 238 254
226 238 254
226 238 254
226 238 254
226 238 254
226 238 254
226 238 254
226 238 254
226 238 254
226 238 254
226 238 254
226 238 254
226 238 254
226 238 254
226 238 254
226 238 254
226 238 254
226 238 254
226 238 254
226 238 254
226 238 254
226 238 254
226 238 254
226 238 254
226 238 254
226 238 254
226 238 254
226 238 254
226 238 254
226 238 254
226 238 254
226 238 254
226 238 254
226 238 254
226 238 254
226 238 254
226 238 254
226 238 254
226 238 254
226 238 254
226 238 254
226 238 254
226 238 254
226 238 254
226 238 254
226 238 254
226 238 254
226 238 254
226 238 254
226 238 254
226 238 254
226 238 254
226 238 254
226 238 254
226 238 254
226 238 254
226 238 254
226 238 254
226 238 254
226 238 254
226 238 254
226 238 254
226 238 254
226 238 254
226 238 254
226 238 254
226 238 254
226 238 254
226 238 254
226 238 254
226 238 254
226 238 254
226 238 254
226 238 254
226 238 254
226 238 254
226 238 254
226 238 254
226 238 254
226 238 254
226 238 254
226 238 254
226 238 254
226 238 254
226 238 254
226 238 254
226 238 254
226 238 254
226 238 254
226 238 254
226 238 254
226 238 254
226 238 254
226 238 254
226 238 254
226 238 254
226 238 254
226 238 254
226 238 254
226 238 254
226 238 254
226 238 254
226 238 254
226 238 254
226 238 254
226 238 254
226 238 254
226 238 254
226 238 254
226 238 254
226 238 254
226 238 254
226 238 254
226 238 254
226 238 254
226 238 254
226 238 254
226 238 254
226 238 254
226 238 254
226 238 254
226 238 254
226 238 254
226 238 254
226 238 254
226 238 254
226 238 254
226 238 254
226 238 254
226 238 254
226 238 254
226 238 254
226 238 254
226 238 254
226 238 254
226 238 254
226 238 254
226 238 254
226 238 254
226 238 254
226 238 254
226 238 254
226 238 254
226 238 254
226 238 254
226 238 254
226 238 254
226 238 254
226 238 254
226 238 254
226 238 254
226 238 254
226 238 254
226 238 254
226 238 254
226 238 254
226 238 254
226 238 254
226 238 254
226 238 254
226 238 254
226 238 254
226 238 254
226 238 254
226 238 254
226 238 254
226 238 254
226 238 254
226 238 254
226 238 254
226 238 254
226 238 254
226 238 254
226 238 254
226 238 254
226 238 254
226 238 254
226 238 254
226 238 254
226 238 254
226 238 254
226 238 254
226 238 254
226 238 254
226 238 254
226 238 254
226 238 254
226 238 254
226 238 254
226 238 254
226 238 254
226 238 254
226 238 254
226 238 254
226 238 254
226 238 254
226 238 254
226 238 254
226 238 254
226 238 254
226 238 254
226 238 254
226 238 254
226 238 254
226 238 254
226 238 254
226 238 254
226 238 254
226 238 254
226 238 254
226 238 254
226 238 254
226 238 254
226 238 254
226 238 254
226 238 254
226 238 254
226 238 254
226 238 254
226 238 254
226 238 254
226 238 254
226 238 254
226 238 254
226 238 254
226 238 254
226 238 254
226 238 254
226 238 254
226 238 254
226 238 254
226 238 254
226 238 254
226 238 254
226 238 254
226 238 254
226 238 254
226 238 254
226 238 254
226 238 254
226 238 254
226 238 254
226 238 254
226 238 254
226 238 254
226 238 254
226 238 254
226 238 254
226 238 254
226 238 254
226 238 254
226 238 254
226 238 254
226 238 254
226 238 254
226 238 254
226 238 254
226 238 254
226 238 254
226 238 254
226 238 254
226 238 254
226 238 254
226 238 254
226 238 254
226 238 254
226 238 254
226 238 254
226 238 254
226 238 254
226 238 254
226 238 254
226 238 254
226 238 254
226 238 254
226 238 254
226 238 254
226 238 254
226 238 254
226 238 254
226 238 254
226 238 254
226 238 254
226 238 254
226 238 254
226 238 254
226 238 254
226 238 254
226 238 254
226 238 254
226 238 254
226 238 254
226 238 254
226 238 254
226 238 254
226 238 254
227 238 254
227 238 254
227 238 254
227 238 254
227 238 254
227 238 254
227 238 254
227 238 254
227 238 254
227 238 254
227 238 254
227 238 254
227 238 254
227 238 254
227 238 254
227 238 254
227 238 254
227 238 254
227 238 254
227 238 254
227 238 254
227 238 254
227 238 254
227 238 254
227 238 254
227 238 254
227 238 254
226 238 254
227 238 254
227 238 254
227 238 254
227 238 254
227 238 254
227 238 254
227 238 254
227 238 254
227 238 254
227 238 254
227 238 254
226 238 254
226 238 254
227 238 254
227 238 254
226 238 254
227 238 254
227 238 254
226 238 254
227 238 254
227 238 254
226 238 254
226 238 254
226 238 254
226 238 254
226 238 254
226 238 254
226 238 254
226 238 254
226 238 254
226 238 254
226 238 254
226 238 254
226 238 254
226 238 254
226 238 254
226 238 254
226 238 254
226 238 254
226 238 254
226 238 254
226 238 254
226 238 254
226 238 254
226 238 254
226 238 254
226 238 254
226 238 254
226 238 254
226 238 254
226 238 254
226 238 254
226 238 254
226 238 254
226 238 254
226 238 254
226 238 254
226 238 254
226 238 254
226 238 254
226 238 254
226 238 254
226 238 254
226 238 254
226 238 254
226 238 254
226 238 254
226 238 254
226 238 254
226 238 254
226 238 254
226 238 254
226 238 254
226 238 254
226 238 254
226 238 254
226 238 254
226 238 254
226 238 254
226 238 254
226 238 254
226 238 254
226 238 254
226 238 254
226 238 254
226 238 254
226 238 254
226 238 254
226 238 254
226 238 254
226 238 254
226 238 254
226 238 254
226 238 254
226 238 254
226 238 254
226 238 254
226 238 254
226 238 254
226 238 254
226 238 254
226 238 254
226 238 254
226 238 254
226 238 254
226 238 254
226 238 254
226 238 254
226 238 254
226 238 254
226 238 254
226 238 254
226 238 254
226 238 254
226 238 254
226 238 254
226 238 254
226 238 254
226 238 254
226 238 254
226 238 254
226 238 254
226 238 254
226 238 254
226 238 254
226 238 254
226 238 254
226 238 254
226 238 254
226 238 254
226 238 254
226 238 254
226 238 254
226 238 254
226 238 254
226 238 254
226 238 254
226 238 254
226 238 254
226 238 254
226 238 254
226 238 254
226 238 254
226 238 254
226 238 254
226 238 254
226 238 254
226 238 254
226 238 254
226 238 254
226 238 254
226 238 254
226 238 254
226 238 254
226 238 254
226 238 254
226 238 254
226 238 254
226 238 254
226 238 254
226 238 254
226 238 254
226 238 254
226 238 254
226 238 254
226 238 254
226 238 254
226 238 254
226 238 254
226 238 254
226 238 254
226 238 254
226 238 254
226 238 254
226 238 254
226 238 254
226 238 254
226 238 254
226 238 254
226 238 254
226 238 254
226 238 254
226 238 254
226 238 254
226 238 254
226 238 254
226 238 254
226 238 254
226 238 254
226 238 254
226 238 254
226 238 254
226 238 254
226 238 254
226 238 254
226 238 254
226 238 254
226 238 254
226 238 254
226 238 254
226 238 254
226 238 254
226 238 254
226 238 254
226 238 254
226 238 254
226 238 254
226 238 254
226 238 254
226 238 254
226 238 254
226 238 254
226 238 254
226 238 254
226 238 254
226 238 254
226 238 254
226 238 254
226 238 254
226 238 254
226 238 254
226 238 254
226 238 254
226 238 254
226 238 254
226 238 254
226 238 254
226 238 254
226 238 254
226 238 254
226 238 254
226 238 254
226 238 254
226 238 254
226 238 254
226 238 254
226 238 254
226 238 254
226 238 254
226 238 254
226 238 254
226 238 254
226 238 254
226 238 254
226 238 254
226 238 254
226 238 254
226 238 254
226 238 254
226 238 254
226 238 254
226 238 254
226 238 254
226 238 254
226 238 254
226 238 254
226 238 254
226 238 254
226 238 254
226 238 254
226 238 254
226 238 254
226 238 254
226 238 254
226 238 254
226 238 254
226 238 254
226 238 254
226 238 254
226 238 254
226 238 254
226 238 254
226 238 254
226 238 254
226 238 254
226 238 254
226 238 254
226 238 254
226 238 254
226 238 254
226 238 254
226 238 254
226 238 254
226 238 254
226 238 254
226 238 254
226 238 254
226 238 254
226 238 254
226 238 254
226 238 254
226 238 254
226 238 254
226 238 254
226 238 254
226 238 254
226 238 254
226 238 254
226 238 254
226 238 254
226 238 254
226 238 254
226 238 254
226 238 254
226 238 254
226 238 254
227 238 254
227 238 254
227 238 254
227 238 254
227 238 254
227 238 254
227 238 254
227 238 254
227 238 254
227 238 254
227 238 254
227 238 254
227 238 254
227 238 254
227 238 254
227 238 254
227 238 254
227 238 254
227 238 254
227 238 254
227 238 254
227 238 254
227 238 254
227 238 254
227 238 254
227 238 254
227 238 254
227 238 254
227 238 254
227 238 254
227 238 254
227 238 254
227 238 254
227 238 254
227 238 254
227 238 254
227 238 254
227 238 254
227 238 254
227 238 254
227 238 254
227 238 254
227 238 254
227 238 254
227 238 254
227 238 254
227 238 254
227 238 254
227 238 254
227 238 254
227 238 254
227 238 254
227 238 254
227 238 254
227 238 254
227 238 254
227 238 254
227 238 254
227 238 254
227 238 254
227 238 254
227 238 254
227 238 254
227 238 254
227 238 254
227 238 254
227 238 254
227 238 254
227 238 254
227 238 254
227 238 254
227 238 254
227 238 254
227 238 254
227 238 254
227 238 254
227 238 254
227 238 254
227 238 254
227 238 254
227 238 254
227 238 254
227 238 254
227 238 254
227 238 254
227 238 254
227 238 254
227 238 254
227 238 254
227 238 254
227 238 254
227 238 254
227 238 254
227 238 254
227 238 254
227 238 254
227 238 254
227 238 254
227 238 254
227 238 254
227 238 254
227 238 254
227 238 254
227 238 254
227 238 254
227 238 254
227 238 254
227 238 254
227 238 254
227 238 254
227 238 254
227 238 254
227 238 254
227 238 254
227 238 254
227 238 254
227 238 254
227 238 254
227 238 254
227 238 254
227 238 254
227 238 254
227 238 254
227 238 254
227 238 254
227 238 254
227 238 254
227 238 254
227 238 254
227 238 254
227 238 254
227 238 254
227 238 254
227 238 254
227 238 254
227 238 254
227 238 254
227 238 254
227 238 254
227 238 254
227 238 254
227 238 254
227 238 254
227 238 254
227 238 254
227 238 254
227 238 254
227 238 254
227 238 254
227 238 254
227 238 254
227 238 254
227 238 254
227 238 254
227 238 254
227 238 254
227 238 254
227 238 254
227 238 254
227 238 254
227 238 254
227 238 254
227 238 254
227 238 254
227 238 254
227 238 254
227 238 254
227 238 254
227 238 254
227 238 254
227 238 254
227 238 254
227 238 254
227 238 254
227 238 254
227 238 254
227 238 254
227 238 254
227 238 254
226 238 254
226 238 254
226 238 254
226 238 254
226 238 254
226 238 254
226 238 254
226 238 254
226 238 254
226 238 254
226 238 254
226 238 254
226 238 254
226 238 254
226 238 254
226 238 254
226 238 254
226 238 254
226 238 254
226 238 254
226 238 254
226 238 254
226 238 254
226 238 254
226 238 254
226 238 254
226 238 254
226 238 254
226 238 254
226 238 254
226 238 254
226 238 254
226 238 254
226 238 254
226 238 254
226 238 254
226 238 254
226 238 254
226 238 254
226 238 254
226 238 254
226 238 254
226 238 254
226 238 254
226 238 254
226 238 254
226 238 254
226 238 254
226 238 254
226 238 254
226 238 254
226 238 254
226 238 254
226 238 254
226 238 254
226 238 254
226 238 254
226 238 254
226 238 254
226 238 254
226 238 254
226 238 254
226 238 254
226 238 254
226 238 254
226 238 254
226 238 254
226 238 254
226 238 254
226 238 254
226 238 254
226 238 254
226 238 254
226 238 254
226 238 254
226 238 254
226 238 254
226 238 254
226 238 254
226 238 254
226 238 254
226 238 254
226 238 254
226 238 254
226 238 254
226 238 254
226 238 254
226 238 254
226 238 254
226 238 254
226 238 254
226 238 254
226 238 254
226 238 254
226 238 254
226 238 254
226 238 254
226 238 254
226 238 254
226 238 254
226 238 254
226 238 254
226 238 254
226 238 254
226 238 254
226 238 254
226 238 254
226 238 254
226 238 254
226 238 254
226 238 254
226 238 254
226 238 254
226 238 254
226 238 254
226 238 254
226 238 254
226 238 254
226 238 254
226 238 254
226 238 254
226 238 254
226 238 254
226 238 254
226 238 254
226 238 254
226 238 254
226 238 254
226 238 254
226 238 254
226 238 254
226 238 254
226 238 254
226 238 254
226 238 254
226 238 254
226 238 254
226 238 254
226 238 254
226 238 254
226 238 254
226 238 254
226 238 254
226 238 254
226 238 254
226 238 254
226 238 254
226 238 254
226 238 254
226 238 254
226 238 254
226 238 254
226 238 254
226 238 254
226 238 254
226 238 254
226 238 254
226 238 254
226 238 254
226 238 254
226 238 254
226 238 254
226 238 254
226 238 254
226 238 254
226 238 254
226 238 254
226 238 254
226 238 254
226 238 254
226 238 254
226 238 254
226 238 254
226 238 254
226 238 254
226 238 254
226 238 254
226 238 254
226 238 254
226 238 254
226 238 254
226 238 254
226 238 254
226 238 254
226 238 254
227 238 254
227 238 254
227 238 254
227 238 254
227 238 254
227 238 254
227 238 254
227 238 254
227 238 254
227 238 254
227 238 254
227 238 254
227 238 254
227 238 254
227 238 254
227 238 254
227 238 254
227 238 254
227 238 254
227 238 254
227 238 254
227 238 254
227 238 254
227 238 254
227 238 254
227 238 254
227 238 254
227 238 254
227 238 254
227 238 254
227 238 254
227 238 254
227 238 254
227 238 254
227 238 254
227 238 254
227 238 254
227 238 254
227 238 254
227 238 254
227 238 254
227 238 254
227 238 254
227 238 254
227 238 254
227 238 254
227 238 254
227 238 254
227 238 254
227 238 254
227 238 254
227 238 254
227 238 254
227 238 254
227 238 254
227 238 254
227 238 254
227 238 254
227 238 254
227 238 254
227 238 254
227 238 254
227 238 254
227 238 254
227 238 254
227 238 254
227 238 254
227 238 254
227 238 254
227 238 254
227 238 254
227 238 254
227 238 254
227 238 254
227 238 254
227 238 254
227 238 254
227 238 254
227 238 254
227 238 254
227 238 254
227 238 254
227 238 254
227 238 254
227 238 254
227 238 254
227 238 254
227 238 254
227 238 254
227 238 254
227 238 254
227 238 254
227 238 254
227 238 254
227 238 254
227 238 254
227 238 254
227 238 254
227 238 254
227 238 254
227 238 254
227 238 254
227 238 254
227 238 254
227 238 254
227 238 254
227 238 254
227 238 254
227 238 254
227 238 254
227 238 254
227 238 254
227 238 254
227 238 254
227 238 254
227 238 254
227 238 254
227 238 254
227 238 254
227 238 254
227 238 254
227 238 254
227 238 254
227 238 254
227 238 254
227 238 254
227 238 254
227 238 254
227 238 254
227 238 254
227 238 254
227 238 254
227 238 254
227 238 254
227 238 254
227 238 254
227 238 254
227 238 254
227 238 254
227 238 254
227 238 254
227 238 254
227 238 254
227 238 254
227 238 254
227 238 254
227 238 254
227 238 254
227 238 254
227 238 254
227 238 254
227 238 254
227 238 254
227 238 254
227 238 254
227 238 254
227 238 254
227 238 254
227 238 254
227 238 254
227 238 254
227 238 254
227 238 254
227 238 254
227 238 254
227 238 254
227 238 254
227 238 254
227 238 254
227 238 254
227 238 254
227 238 254
227 238 254
227 238 254
227 238 254
227 238 254
227 238 254
227 238 254
227 238 254
227 238 254
227 238 254
227 238 254
227 238 254
227 238 254
227 238 254
227 238 254
227 238 254
227 238 254
227 238 254
227 238 254
227 238 254
227 238 254
227 238 254
227 238 254
227 238 254
227 238 254
227 238 254
227 238 254
227 238 254
227 238 254
227 238 254
227 238 254
227 238 254
227 238 254
227 238 254
227 238 254
227 238 254
227 238 254
227 238 254
227 238 254
227 238 254
227 238 254
227 238 254
227 238 254
227 238 254
227 238 254
227 238 254
227 238 254
227 238 254
227 238 254
227 238 254
227 238 254
227 238 254
227 238 254
227 238 254
227 238 254
227 238 254
227 238 254
227 238 254
227 238 254
227 238 254
227 238 254
227 238 254
227 238 254
227 238 254
227 238 254
227 238 254
227 238 254
227 238 254
227 238 254
227 238 254
227 238 254
227 238 254
227 238 254
227 238 254
227 238 254
227 238 254
227 238 254
227 238 254
226 238 254
226 238 254
226 238 254
226 238 254
226 238 254
226 238 254
226 238 254
226 238 254
226 238 254
226 238 254
226 238 254
226 238 254
226 238 254
226 238 254
226 238 254
226 238 254
226 238 254
226 238 254
226 238 254
226 238 254
226 238 254
226 238 254
226 238 254
226 238 254
226 238 254
226 238 254
226 238 254
226 238 254
226 238 254
226 238 254
226 238 254
226 238 254
226 238 254
226 238 254
226 238 254
226 238 254
226 238 254
226 238 254
226 238 254
226 238 254
226 238 254
226 238 254
226 238 254
226 238 254
226 238 254
226 238 254
226 238 254
226 238 254
226 238 254
226 238 254
226 238 254
226 238 254
226 238 254
226 238 254
226 238 254
226 238 254
226 238 254
226 238 254
226 238 254
226 238 254
226 238 254
226 238 254
226 238 254
226 238 254
226 238 254
226 238 254
226 238 254
226 238 254
226 238 254
226 238 254
226 238 254
226 238 254
226 238 254
226 238 254
226 238 254
226 238 254
