P3
400 225
255
219 234 254
219 234 254
219 234 254
219 234 254
219 234 254
219 234 254
219 234 254
219 234 254
219 234 254
219 234 254
219 234 254
219 234 254
219 234 254
219 234 254
219 234 254
219 234 254
219 234 254
219 234 254
219 234 254
219 234 254
219 234 254
219 234 254
219 234 254
219 234 254
219 234 254
219 234 254
219 234 254
219 234 254
219 234 254
219 234 254
219 234 254
219 234 254
219 234 254
219 234 254
219 234 254
219 234 254
219 234 254
219 234 254
219 234 254
219 234 254
219 234 254
219 234 254
219 234 254
219 234 254
219 234 254
219 234 254
219 234 254
219 234 254
219 234 254
219 234 254
219 234 254
219 234 254
219 234 254
219 234 254
219 234 254
219 234 254
219 234 254
219 234 254
219 234 254
219 234 254
219 234 254
219 234 254
219 234 254
219 234 254
219 234 254
219 234 254
219 234 254
219 234 254
219 234 254
219 234 254
219 234 254
219 234 254
219 234 254
219 234 254
219 234 254
219 234 254
219 234 254
219 234 254
219 234 254
219 234 254
219 234 254
219 234 254
219 234 254
219 234 254
219 234 254
219 234 254
219 234 254
219 234 254
219 234 254
219 234 254
219 234 254
219 234 254
219 234 254
219 234 254
219 234 254
219 234 254
219 234 254
219 234 254
219 234 254
219 234 254
219 234 254
219 234 254
219 234 254
95 102 113
70 78 88
82 92 105
90 99 112
90 100 113
102 112 126
99 109 123
93 104 117
87 97 110
97 107 121
89 99 112
92 102 114
91 100 113
80 89 101
72 80 90
69 77 87
65 72 81
48 54 61
38 43 48
28 31 35
20 22 25
28 31 35
33 36 41
41 45 50
41 45 51
41 46 52
51 56 64
51 56 64
51 57 64
62 68 77
56 62 70
60 66 75
60 66 75
58 64 72
54 60 68
55 61 69
48 53 60
50 55 61
46 51 58
40 45 51
46 51 58
48 54 61
47 52 58
28 31 35
17 18 21
29 32 36
44 49 56
62 68 77
72 80 90
79 87 98
79 87 98
78 86 96
81 90 101
84 94 106
85 93 105
84 93 106
85 95 107
79 87 99
75 82 93
69 76 86
64 70 78
69 77 87
68 76 86
70 78 88
76 85 96
79 88 99
82 91 102
90 100 113
77 85 97
81 90 102
73 81 91
77 86 97
71 79 89
62 69 78
58 65 73
45 50 57
39 43 48
25 28 32
16 18 20
17 19 22
21 24 27
27 30 34
31 34 38
39 43 49
42 46 52
37 42 47
37 41 46
38 42 47
32 35 40
21 23 27
12 13 15
23 26 29
28 31 35
32 35 40
30 33 37
16 18 20
21 23 26
34 38 43
44 49 56
45 50 57
54 59 67
57 63 71
53 59 67
55 61 69
58 64 73
54 60 68
56 62 70
58 64 72
57 63 71
63 70 79
64 70 80
67 75 84
64 71 80
75 83 94
74 82 92
79 88 99
74 83 94
74 83 94
74 83 94
69 77 87
69 77 87
64 71 80
66 73 83
63 70 79
59 66 75
63 70 78
58 65 73
54 60 68
59 65 74
62 68 77
57 63 71
55 61 68
46 51 58
37 41 46
37 41 47
34 38 43
32 35 40
30 34 38
28 31 35
28 31 36
27 30 34
30 34 38
39 43 49
52 57 64
59 66 75
65 73 83
73 82 93
87 97 109
95 106 120
98 108 122
109 120 136
105 117 132
111 123 138
113 125 141
110 122 138
119 132 150
112 124 141
104 115 130
110 122 138
120 133 150
109 121 136
105 117 132
98 110 125
93 102 115
84 93 106
74 81 92
68 75 86
66 74 83
59 65 74
61 68 77
65 72 81
67 75 84
71 78 88
68 75 85
57 63 72
45 50 57
32 35 40
21 23 26
29 33 37
35 39 44
33 36 41
26 29 32
39 43 49
57 63 71
59 65 73
54 60 67
36 40 45
22 24 28
51 57 64
67 74 84
87 96 108
91 100 113
79 88 100
103 110 121
219 234 254
219 234 254
219 234 254
219 234 254
219 234 254
219 234 254
219 234 254
219 234 254
219 234 254
219 234 254
219 234 254
219 234 254
219 234 254
219 234 254
219 234 254
219 234 254
219 234 254
219 234 254
219 234 254
219 234 254
219 234 254
219 234 254
219 234 254
219 234 254
219 234 254
219 234 254
219 234 254
219 234 254
219 234 254
219 234 254
219 234 254
219 234 254
219 234 254
219 234 254
219 234 254
219 234 254
219 234 254
219 234 254
219 234 254
219 234 254
219 234 254
219 234 254
219 234 254
219 234 254
219 234 254
219 234 254
219 234 254
219 234 254
219 234 254
219 234 254
219 234 254
219 234 254
219 234 254
219 234 254
219 234 254
219 234 254
219 234 254
219 234 254
219 234 254
219 234 254
219 234 254
219 234 254
219 234 254
219 234 254
219 234 254
219 234 254
219 234 254
219 234 254
219 234 254
219 234 254
219 234 254
219 234 254
219 234 254
219 234 254
219 234 254
219 234 254
219 234 254
219 234 254
219 234 254
219 234 254
219 234 254
219 234 254
219 234 254
219 234 254
219 234 254
219 234 254
219 234 254
219 234 254
219 234 254
219 234 254
219 234 254
219 234 254
219 234 254
219 234 254
219 234 254
219 234 254
219 234 254
219 234 254
219 234 254
219 234 254
219 234 254
219 234 254
219 234 254
220 234 254
220 234 254
220 234 254
220 234 254
220 234 254
220 234 254
220 234 254
220 234 254
220 234 254
220 234 254
220 234 254
220 234 254
220 234 254
220 234 254
220 234 254
220 234 254
220 234 254
220 234 254
220 234 254
219 234 254
220 234 254
220 234 254
220 234 254
220 234 254
220 234 254
220 234 254
219 234 254
220 234 254
220 234 254
220 234 254
220 234 254
219 234 254
219 234 254
220 234 254
219 234 254
219 234 254
219 234 254
219 234 254
219 234 254
219 234 254
219 234 254
219 234 254
219 234 254
219 234 254
219 234 254
219 234 254
219 234 254
219 234 254
219 234 254
219 234 254
219 234 254
219 234 254
219 234 254
219 234 254
219 234 254
219 234 254
219 234 254
219 234 254
219 234 254
219 234 254
219 234 254
219 234 254
219 234 254
219 234 254
219 234 254
219 234 254
219 234 254
219 234 254
219 234 254
219 234 254
219 234 254
219 234 254
219 234 254
219 234 254
219 234 254
219 234 254
219 234 254
219 234 254
219 234 254
219 234 254
219 234 254
219 234 254
219 234 254
219 234 254
219 234 254
219 234 254
219 234 254
219 234 254
219 234 254
219 234 254
219 234 254
219 234 254
219 234 254
219 234 254
219 234 254
219 234 254
219 234 254
219 234 254
219 234 254
219 234 254
219 234 254
219 234 254
218 233 253
71 78 87
73 80 91
82 91 103
90 99 111
91 101 115
97 107 120
101 111 126
88 98 112
88 98 111
84 93 105
91 100 113
85 94 106
88 97 110
76 85 96
67 74 84
61 68 77
55 61 69
50 56 63
39 43 48
25 28 31
24 27 30
30 33 38
31 34 38
44 49 55
43 48 55
42 47 53
54 60 68
52 57 65
50 55 63
46 51 58
52 58 65
55 60 68
57 63 72
59 65 74
57 63 71
49 55 62
49 55 62
47 53 60
50 55 62
45 50 56
49 54 61
53 59 67
44 49 55
29 32 37
16 18 20
25 28 31
42 46 52
61 67 75
68 75 85
77 86 97
77 85 96
84 93 105
81 90 101
84 93 106
81 89 101
77 85 96
78 86 97
75 83 94
65 72 82
67 74 84
65 72 81
67 74 84
63 71 80
71 79 89
74 82 93
85 94 107
85 94 106
79 88 100
79 87 98
81 90 102
75 83 94
76 84 95
68 75 85
60 67 75
56 62 70
45 50 56
43 48 54
38 42 47
26 29 34
13 14 16
15 17 19
22 25 28
20 22 25
21 24 27
27 30 34
30 33 38
27 30 33
23 25 28
16 18 20
13 14 16
20 23 26
28 31 35
33 37 41
38 42 48
36 40 45
22 25 28
12 13 15
26 29 32
32 36 41
40 45 51
45 50 56
51 56 63
47 53 60
46 51 57
47 52 59
53 58 66
53 58 65
52 57 65
56 62 70
56 62 70
58 64 73
58 65 73
65 72 82
74 82 93
72 81 91
75 83 94
74 83 94
77 85 96
82 91 102
74 82 93
72 80 91
71 80 90
71 78 89
66 73 83
63 69 77
61 67 75
60 66 74
57 63 72
57 63 71
61 68 77
57 64 72
49 54 61
37 42 47
32 35 40
32 36 40
33 36 41
34 38 43
29 32 37
25 28 32
25 28 32
26 29 33
29 32 36
36 40 46
53 59 67
65 73 82
63 70 80
81 90 102
87 96 109
91 101 114
91 101 114
107 118 132
105 116 131
101 112 127
115 126 142
115 127 143
118 131 149
114 126 142
112 126 143
108 120 136
102 113 128
113 124 141
103 115 130
103 115 130
96 107 122
88 97 110
76 85 96
74 82 93
68 76 85
63 69 78
65 72 82
67 75 85
71 79 89
69 77 87
70 77 86
59 65 73
51 57 64
33 37 42
22 25 28
28 31 35
27 31 35
17 19 21
38 42 47
48 53 60
60 67 76
62 68 76
57 62 70
37 41 47
26 28 32
43 48 54
58 64 72
75 83 94
99 109 123
87 96 108
59 64 71
218 233 253
219 234 254
219 234 254
219 234 254
219 234 254
219 234 254
219 234 254
219 234 254
219 234 254
219 234 254
219 234 254
219 234 254
219 234 254
219 234 254
219 234 254
219 234 254
219 234 254
219 234 254
219 234 254
219 234 254
219 234 254
219 234 254
219 234 254
219 234 254
219 234 254
219 234 254
219 234 254
219 234 254
219 234 254
219 234 254
219 234 254
219 234 254
219 234 254
219 234 254
219 234 254
219 234 254
219 234 254
219 234 254
219 234 254
219 234 254
219 234 254
219 234 254
219 234 254
219 234 254
219 234 254
219 234 254
219 234 254
219 234 254
219 234 254
219 234 254
219 234 254
219 234 254
219 234 254
219 234 254
219 234 254
219 234 254
219 234 254
219 234 254
219 234 254
219 234 254
219 234 254
219 234 254
219 234 254
219 234 254
219 234 254
219 234 254
219 234 254
219 234 254
219 234 254
219 234 254
220 234 254
220 234 254
220 234 254
220 234 254
219 234 254
220 234 254
220 234 254
219 234 254
220 234 254
220 234 254
220 234 254
220 234 254
220 234 254
220 234 254
220 234 254
220 234 254
220 234 254
220 234 254
220 234 254
220 234 254
220 234 254
220 234 254
220 234 254
220 234 254
220 234 254
220 234 254
220 234 254
220 234 254
220 234 254
220 234 254
220 234 254
220 234 254
220 234 254
220 234 254
220 234 254
220 234 254
220 234 254
220 234 254
220 234 254
220 234 254
220 234 254
220 234 254
220 234 254
220 234 254
220 234 254
220 234 254
220 234 254
220 234 254
220 234 254
220 234 254
220 234 254
220 234 254
220 234 254
220 234 254
220 234 254
220 234 254
220 234 254
220 234 254
220 234 254
220 234 254
220 234 254
220 234 254
220 234 254
220 234 254
220 234 254
220 234 254
220 234 254
220 234 254
220 234 254
220 234 254
220 234 254
220 234 254
220 234 254
220 234 254
220 234 254
220 234 254
220 234 254
220 234 254
220 234 254
220 234 254
220 234 254
220 234 254
220 234 254
220 234 254
220 234 254
220 234 254
220 234 254
220 234 254
220 234 254
220 234 254
220 234 254
220 234 254
220 234 254
220 234 254
220 234 254
220 234 254
220 234 254
220 234 254
220 234 254
220 234 254
220 234 254
220 234 254
220 234 254
220 234 254
220 234 254
220 234 254
220 234 254
220 234 254
220 234 254
220 234 254
220 234 254
220 234 254
220 234 254
220 234 254
220 234 254
220 234 254
220 234 254
220 234 254
220 234 254
220 234 254
220 234 254
220 234 254
220 234 254
220 234 254
220 234 254
220 234 254
220 234 254
220 234 254
220 234 254
220 234 254
220 234 254
220 234 254
220 234 254
220 234 254
220 234 254
209 223 242
58 64 72
75 83 94
88 97 110
86 96 108
85 94 107
96 106 120
89 98 110
79 88 99
82 91 102
85 94 107
80 89 101
82 91 103
84 93 105
82 91 103
75 83 94
63 70 79
56 62 70
56 61 69
40 44 50
19 21 24
29 32 36
32 35 40
36 40 45
48 53 59
47 52 58
44 49 56
56 61 69
51 56 64
49 54 62
47 51 58
45 51 58
50 55 63
52 58 65
58 65 73
59 65 73
55 61 69
52 57 65
54 60 68
53 59 67
51 57 64
54 60 67
56 62 70
47 52 59
28 31 35
11 13 14
24 27 31
43 48 54
56 62 71
64 72 81
75 83 94
80 88 100
76 84 95
77 85 96
76 83 94
74 82 93
70 79 89
75 82 92
68 75 85
61 68 77
62 69 78
62 68 76
65 72 82
65 72 81
69 77 88
71 79 90
81 90 101
80 89 100
76 84 95
76 84 95
75 82 92
70 78 88
72 80 90
74 82 92
63 71 80
58 63 71
54 59 67
54 60 68
49 55 63
41 46 52
26 29 33
19 22 25
13 14 16
22 25 28
25 28 31
20 23 26
20 22 25
24 26 30
22 24 27
25 27 31
24 27 30
31 35 39
37 41 46
42 46 52
42 46 52
37 41 47
30 33 38
15 16 18
21 23 26
28 31 35
36 40 45
42 47 53
41 45 51
42 46 53
42 46 52
44 49 55
50 55 62
50 55 62
53 59 66
57 63 72
59 66 74
56 62 70
55 61 69
64 70 79
66 73 83
73 80 91
72 81 92
72 80 90
79 87 98
83 91 103
82 91 103
78 86 96
75 82 93
70 78 88
63 70 80
59 66 75
63 70 79
62 69 77
59 65 74
62 68 77
62 68 77
52 58 65
46 51 58
46 51 57
38 43 49
31 34 39
32 36 40
34 37 42
27 30 34
19 21 24
23 25 29
21 24 27
23 26 29
36 40 45
48 53 60
58 64 72
69 77 87
77 85 97
94 104 118
97 107 121
93 103 117
102 112 127
103 114 129
107 119 135
113 125 141
111 124 140
118 131 147
125 138 155
113 125 141
117 130 147
113 125 142
117 129 146
105 117 132
108 119 134
97 107 120
87 97 110
74 82 92
72 79 89
64 71 81
69 76 86
67 75 85
75 83 94
74 82 92
73 81 91
72 79 89
60 67 75
55 61 69
33 37 42
14 15 17
19 22 24
21 23 26
30 33 37
41 45 51
55 61 70
66 73 83
59 66 75
50 55 63
48 53 60
27 30 34
37 41 47
60 66 74
72 80 90
91 101 115
93 102 114
46 52 59
208 222 242
220 234 254
220 234 254
220 234 254
220 234 254
220 234 254
220 234 254
220 234 254
220 234 254
220 234 254
220 234 254
220 234 254
220 234 254
220 234 254
220 234 254
220 234 254
220 234 254
220 234 254
220 234 254
220 234 254
220 234 254
220 234 254
220 234 254
220 234 254
220 234 254
220 234 254
220 234 254
220 234 254
220 234 254
220 234 254
220 234 254
220 234 254
220 234 254
220 234 254
220 234 254
220 234 254
220 234 254
220 234 254
220 234 254
220 234 254
220 234 254
220 234 254
220 234 254
220 234 254
220 234 254
220 234 254
220 234 254
220 234 254
220 234 254
220 234 254
220 234 254
220 234 254
220 234 254
220 234 254
220 234 254
220 234 254
220 234 254
220 234 254
220 234 254
220 234 254
220 234 254
220 234 254
220 234 254
220 234 254
220 234 254
220 234 254
220 234 254
220 234 254
220 234 254
220 234 254
220 234 254
220 234 254
220 234 254
220 234 254
220 234 254
220 234 254
220 234 254
220 234 254
220 234 254
220 234 254
220 234 254
220 234 254
220 234 254
220 234 254
220 234 254
220 234 254
220 234 254
220 234 254
220 234 254
220 234 254
220 234 254
220 234 254
220 234 254
220 234 254
220 234 254
220 234 254
220 234 254
220 234 254
220 234 254
220 234 254
220 234 254
220 234 254
220 234 254
220 234 254
220 234 254
220 234 254
220 234 254
220 234 254
220 234 254
220 234 254
220 234 254
220 234 254
220 234 254
220 234 254
220 234 254
220 234 254
220 234 254
220 234 254
220 234 254
220 234 254
220 234 254
220 234 254
220 234 254
220 234 254
220 234 254
220 234 254
220 234 254
220 234 254
220 234 254
220 234 254
220 234 254
220 234 254
220 234 254
220 234 254
220 234 254
220 234 254
220 234 254
220 234 254
220 234 254
220 234 254
220 234 254
220 234 254
220 234 254
220 234 254
220 234 254
220 234 254
220 234 254
220 234 254
220 234 254
220 234 254
220 234 254
220 234 254
220 234 254
220 234 254
220 234 254
220 234 254
220 234 254
220 234 254
220 234 254
220 234 254
220 234 254
220 234 254
220 234 254
220 234 254
220 234 254
220 234 254
220 234 254
220 234 254
220 234 254
220 234 254
220 234 254
220 234 254
220 234 254
220 234 254
220 234 254
220 234 254
220 234 254
220 234 254
220 234 254
220 234 254
220 234 254
220 234 254
220 234 254
220 234 254
220 234 254
220 234 254
220 234 254
220 234 254
220 234 254
220 234 254
220 234 254
220 234 254
220 234 254
220 234 254
220 234 254
220 234 254
220 234 254
220 234 254
220 234 254
220 234 254
220 234 254
220 234 254
220 234 254
220 234 254
220 234 254
194 207 225
58 65 74
81 89 101
84 93 105
85 94 106
95 104 117
91 101 114
82 91 102
63 70 80
74 82 93
81 89 100
74 82 93
69 77 87
74 82 93
75 83 94
66 73 83
64 70 79
51 57 64
54 60 68
41 45 51
19 21 23
28 31 35
38 43 48
42 46 53
51 56 63
52 57 64
53 59 66
53 59 67
50 56 63
53 58 65
49 54 62
51 57 64
54 60 68
57 63 71
60 66 74
60 66 75
62 68 78
65 72 81
66 73 82
62 68 77
52 57 65
53 59 67
56 62 69
42 47 53
26 29 32
9 10 11
29 32 36
48 54 61
57 63 71
64 71 80
78 86 97
79 87 99
81 90 101
77 85 97
76 84 94
67 74 83
62 69 77
66 74 83
64 71 80
61 68 76
54 60 68
54 60 68
58 64 72
63 70 79
66 73 82
73 81 91
77 86 97
74 81 92
72 80 91
72 80 91
71 78 88
67 74 84
68 76 85
71 79 89
66 73 83
62 69 79
63 70 78
64 71 80
60 66 74
45 50 56
37 41 46
33 37 42
33 37 41
43 47 53
41 46 52
42 46 53
41 45 51
41 45 51
38 42 47
36 40 46
40 44 50
42 47 53
45 50 57
45 50 56
44 48 54
37 40 45
33 37 42
19 21 24
10 11 13
16 18 20
27 29 33
32 35 40
34 38 43
33 36 41
36 40 45
38 43 48
46 51 57
47 52 59
57 63 72
59 66 75
63 70 78
54 59 67
52 57 65
53 59 67
59 65 74
61 68 77
64 71 81
73 81 92
79 88 99
82 91 103
83 92 104
86 95 108
76 84 95
74 82 92
70 78 88
64 72 82
62 69 78
58 65 74
57 64 72
59 65 73
57 63 72
59 65 73
51 56 63
52 57 64
47 52 58
39 43 49
37 41 47
36 39 45
28 31 35
23 25 28
25 27 31
24 27 31
26 29 33
34 37 42
45 50 57
53 59 66
70 77 87
81 90 101
92 102 115
95 106 120
95 105 119
106 118 133
105 116 132
103 115 132
110 123 139
109 122 138
110 122 139
124 138 156
115 127 143
114 126 143
114 127 144
112 123 139
116 128 143
106 118 133
103 114 129
90 99 112
77 85 96
70 77 87
68 75 85
69 77 87
68 75 86
70 78 88
72 79 89
75 83 93
72 79 88
63 71 80
58 65 74
47 52 58
31 34 39
27 29 33
22 24 27
41 46 52
46 51 57
60 66 75
66 72 82
66 73 83
56 62 69
48 53 60
34 38 43
31 34 39
57 64 73
68 75 85
88 98 112
94 104 119
59 65 74
198 211 229
220 234 254
220 234 254
220 234 254
220 234 254
220 234 254
220 234 254
220 234 254
220 234 254
220 234 254
220 234 254
220 234 254
220 234 254
220 234 254
220 234 254
220 234 254
220 234 254
220 234 254
220 234 254
220 234 254
220 234 254
220 234 254
220 234 254
220 234 254
220 234 254
220 234 254
220 234 254
220 234 254
220 234 254
220 234 254
220 234 254
220 234 254
220 234 254
220 234 254
220 234 254
220 234 254
220 234 254
220 234 254
220 234 254
220 234 254
220 234 254
220 234 254
220 234 254
220 234 254
220 234 254
220 234 254
220 234 254
220 234 254
220 234 254
220 234 254
220 234 254
220 234 254
220 234 254
220 234 254
220 234 254
220 234 254
220 234 254
220 234 254
220 234 254
220 234 254
220 234 254
220 234 254
220 234 254
220 234 254
220 234 254
220 234 254
220 234 254
220 234 254
220 234 254
220 234 254
220 234 254
220 234 254
220 234 254
220 234 254
220 234 254
220 234 254
220 234 254
220 234 254
220 234 254
220 234 254
220 234 254
220 234 254
220 234 254
220 234 254
220 234 254
220 234 254
220 234 254
220 234 254
220 234 254
220 234 254
220 234 254
220 234 254
220 234 254
220 234 254
220 234 254
220 234 254
220 234 254
220 234 254
220 234 254
220 234 254
220 234 254
220 234 254
220 234 254
220 234 254
220 234 254
220 234 254
220 234 254
220 234 254
220 234 254
220 234 254
220 234 254
220 234 254
220 234 254
220 234 254
220 234 254
220 234 254
220 234 254
220 234 254
220 234 254
220 234 254
220 234 254
220 234 254
220 234 254
220 234 254
220 234 254
220 234 254
220 234 254
220 234 254
220 234 254
220 234 254
220 234 254
220 234 254
220 234 254
220 234 254
220 234 254
220 234 254
220 234 254
220 234 254
220 234 254
220 234 254
220 234 254
220 234 254
220 234 254
220 234 254
220 234 254
220 234 254
220 234 254
220 234 254
220 234 254
220 234 254
220 234 254
220 234 254
220 234 254
220 234 254
220 234 254
220 234 254
220 234 254
220 234 254
220 234 254
220 234 254
220 234 254
220 234 254
220 234 254
220 234 254
220 234 254
220 234 254
220 234 254
220 234 254
220 234 254
220 234 254
220 234 254
220 234 254
220 234 254
220 234 254
220 234 254
220 234 254
220 234 254
220 234 254
220 234 254
220 234 254
220 234 254
220 234 254
220 234 254
220 234 254
220 234 254
220 234 254
220 234 254
220 234 254
220 234 254
220 234 254
220 234 254
220 234 254
220 234 254
220 234 254
220 234 254
220 234 254
220 234 254
220 234 254
220 234 254
220 234 254
220 234 254
220 234 254
220 234 254
220 234 254
220 234 254
181 193 210
60 67 75
80 89 101
79 87 99
89 99 112
91 100 114
94 104 118
75 83 94
62 69 77
65 72 80
69 76 86
68 76 86
65 71 81
73 81 91
73 82 93
66 73 82
65 72 81
60 66 75
57 64 73
46 51 58
25 28 31
26 29 32
44 48 55
51 56 64
55 61 68
54 60 67
52 58 66
53 59 67
53 59 67
54 60 68
57 63 70
51 57 64
54 60 68
58 65 73
61 68 76
67 74 83
68 75 85
68 76 86
65 73 82
62 69 78
58 64 72
55 61 69
53 58 66
43 48 54
25 28 31
22 25 28
35 39 44
53 59 66
61 67 76
73 81 91
76 84 95
76 84 95
79 87 98
74 82 93
72 79 89
66 73 82
64 71 80
64 70 79
62 69 77
58 64 73
55 61 69
58 64 72
61 68 77
58 64 72
61 68 77
68 75 85
74 83 94
73 82 93
69 76 85
69 76 86
71 78 88
67 73 83
69 77 87
67 74 84
63 70 79
67 74 83
66 73 83
62 69 78
61 68 77
54 60 67
48 53 60
46 51 58
44 49 55
48 53 60
50 55 63
51 57 64
53 58 66
51 57 64
46 51 58
48 53 60
50 56 63
50 55 62
48 53 59
49 54 62
47 52 59
42 47 53
34 38 43
23 25 28
19 21 23
13 14 16
19 21 24
18 20 23
20 22 25
21 23 26
26 29 33
36 40 45
36 40 46
49 55 62
60 66 75
61 68 76
56 62 70
54 60 68
54 60 68
52 58 65
55 60 68
58 64 72
56 62 70
69 76 85
73 81 92
79 88 101
85 94 106
75 83 95
79 87 98
74 81 92
73 80 90
69 76 86
60 67 76
61 68 77
57 63 72
60 66 75
59 65 74
57 62 70
54 59 67
54 60 68
45 49 55
40 44 50
45 49 56
40 45 51
43 48 54
36 40 46
35 39 44
33 37 42
31 35 39
40 45 51
52 57 65
60 66 75
66 73 83
81 90 101
88 98 111
98 108 122
99 110 125
102 113 127
103 115 130
104 115 130
108 119 134
105 117 133
113 126 143
118 130 148
119 131 147
118 131 148
107 119 135
109 121 136
115 126 142
110 121 137
96 106 120
87 95 107
75 83 94
66 73 82
70 77 87
69 76 85
71 78 88
78 86 97
77 85 96
73 80 91
71 79 90
67 74 83
62 69 77
58 64 71
43 48 55
41 45 52
34 37 42
43 48 54
51 56 64
56 62 70
68 76 86
66 73 83
59 65 73
48 53 60
45 50 56
26 28 32
58 64 72
67 75 85
88 98 111
101 111 125
63 70 79
164 175 191
220 234 254
220 234 254
220 234 254
220 234 254
220 234 254
220 234 254
220 234 254
220 234 254
220 234 254
220 234 254
220 234 254
220 234 254
220 234 254
220 234 254
220 234 254
220 234 254
220 234 254
220 234 254
220 234 254
220 234 254
220 234 254
220 234 254
220 234 254
220 234 254
220 234 254
220 234 254
220 234 254
220 234 254
220 234 254
220 234 254
220 234 254
220 234 254
220 234 254
220 234 254
220 234 254
220 234 254
220 234 254
220 234 254
220 234 254
220 234 254
220 234 254
220 234 254
220 234 254
220 234 254
220 234 254
220 234 254
220 234 254
220 234 254
220 234 254
220 234 254
220 234 254
220 234 254
220 234 254
220 234 254
220 234 254
220 234 254
220 234 254
220 234 254
220 234 254
220 234 254
220 234 254
220 234 254
220 234 254
220 234 254
220 234 254
220 234 254
220 234 254
220 234 254
220 234 254
220 234 254
220 234 254
220 234 254
220 234 254
220 234 254
220 234 254
220 234 254
220 234 254
220 234 254
220 234 254
220 234 254
220 234 254
220 234 254
220 234 254
220 234 254
220 234 254
220 234 254
220 234 254
220 234 254
220 234 254
220 234 254
220 234 254
220 234 254
220 234 254
220 234 254
220 234 254
220 234 254
220 234 254
220 234 254
220 234 254
220 234 254
220 234 254
220 234 254
220 234 254
220 234 254
220 234 254
220 234 254
220 234 254
220 234 254
220 234 254
220 234 254
220 234 254
220 234 254
220 234 254
220 234 254
220 234 254
220 234 254
220 234 254
220 234 254
220 234 254
220 234 254
220 234 254
220 234 254
220 234 254
220 234 254
220 234 254
220 234 254
220 234 254
220 234 254
220 234 254
220 234 254
220 234 254
220 234 254
220 234 254
220 234 254
220 234 254
220 234 254
220 234 254
220 234 254
220 234 254
220 234 254
220 234 254
220 234 254
220 234 254
220 234 254
220 234 254
220 234 254
220 234 254
220 234 254
220 234 254
220 234 254
220 234 254
220 234 254
220 234 254
220 234 254
220 234 254
220 234 254
220 234 254
220 234 254
220 234 254
220 234 254
220 234 254
220 234 254
220 234 254
220 234 254
220 234 254
220 234 254
220 234 254
220 234 254
220 234 254
220 234 254
220 234 254
220 234 254
220 234 254
220 234 254
220 234 254
220 234 254
220 234 254
220 234 254
220 234 254
220 234 254
220 234 254
220 234 254
220 234 254
220 234 254
220 234 254
220 234 254
220 234 254
220 234 254
220 234 254
220 234 254
220 234 254
220 234 254
220 234 254
220 234 254
220 234 254
220 234 254
220 234 254
220 234 254
220 234 254
220 234 254
220 234 254
220 234 254
220 234 254
220 234 254
160 171 186
69 76 86
79 87 98
82 90 102
81 89 101
86 95 107
88 98 111
66 73 83
50 56 63
53 59 67
54 60 67
57 62 70
61 68 77
68 75 85
69 77 87
69 76 86
63 71 80
63 69 78
61 68 77
48 53 60
36 40 45
29 32 36
46 51 57
61 68 76
59 65 74
60 67 76
57 63 72
58 64 72
57 62 70
53 59 66
53 59 67
58 64 72
57 64 72
59 65 74
60 67 76
68 75 85
65 72 82
68 75 84
68 75 84
58 64 73
62 69 78
59 66 74
55 61 69
44 48 54
30 33 37
20 23 26
40 45 51
55 60 68
65 72 82
74 81 92
78 86 97
70 79 90
82 90 102
75 84 95
73 81 91
68 76 86
68 74 84
69 77 87
64 72 81
66 73 82
61 67 76
57 64 72
59 65 74
58 64 72
59 66 75
63 70 79
70 77 87
72 79 89
69 77 87
71 78 88
70 77 86
66 74 84
67 74 84
68 75 85
69 77 87
64 71 80
70 77 87
66 73 82
66 73 82
58 64 72
54 61 69
53 59 67
48 54 60
50 55 63
54 60 68
54 60 67
57 63 72
54 60 67
52 58 65
54 60 68
57 63 71
49 54 62
49 55 62
50 55 63
50 56 63
45 50 56
42 46 52
33 37 42
31 35 40
28 31 35
14 16 18
11 12 14
13 15 17
22 25 28
27 30 34
37 41 47
43 47 53
51 57 64
57 64 73
59 65 73
58 64 72
55 60 68
50 55 62
48 54 61
52 57 65
50 56 63
53 59 66
60 66 74
67 74 84
76 84 95
75 83 94
78 86 97
73 81 92
70 78 89
71 79 90
69 76 86
67 75 84
62 69 79
55 61 69
58 64 72
54 60 68
56 62 70
56 62 70
46 51 58
43 48 54
40 44 50
48 53 59
48 53 60
47 53 60
45 50 56
43 47 53
38 42 47
39 43 49
46 50 57
58 64 73
59 65 74
67 75 85
78 86 97
88 97 110
96 106 119
96 106 120
101 112 127
103 114 129
111 123 138
101 112 126
98 110 125
120 133 150
113 125 141
118 131 149
113 126 143
116 129 146
113 125 141
114 126 143
103 114 128
95 106 120
85 94 107
73 81 91
63 70 79
68 75 86
72 80 90
77 86 97
75 83 94
80 89 100
74 83 94
78 85 96
69 76 85
69 76 85
57 64 72
49 54 61
46 51 58
37 41 46
38 43 48
51 56 64
57 63 71
60 67 76
64 71 80
62 68 77
52 57 65
46 51 58
27 30 34
55 61 68
72 80 90
87 96 108
98 109 123
69 77 87
169 181 196
220 234 254
220 234 254
220 234 254
220 234 254
220 234 254
220 234 254
220 234 254
220 234 254
220 234 254
220 234 254
220 234 254
220 234 254
220 234 254
220 234 254
220 234 254
220 234 254
220 234 254
220 234 254
220 234 254
220 234 254
220 234 254
220 234 254
220 234 254
220 234 254
220 234 254
220 234 254
220 234 254
220 234 254
220 234 254
220 234 254
220 234 254
220 234 254
220 234 254
220 234 254
220 234 254
220 234 254
220 234 254
220 234 254
220 234 254
220 234 254
220 234 254
220 234 254
220 234 254
220 234 254
220 234 254
220 234 254
220 234 254
220 234 254
220 234 254
220 234 254
220 234 254
220 234 254
220 234 254
220 234 254
220 234 254
220 234 254
220 234 254
220 234 254
220 234 254
220 234 254
220 234 254
220 234 254
220 234 254
220 234 254
220 234 254
220 234 254
220 234 254
220 234 254
220 234 254
220 234 254
220 234 254
220 234 254
220 234 254
220 234 254
220 234 254
220 234 254
220 234 254
220 234 254
220 234 254
220 234 254
220 234 254
220 234 254
220 234 254
220 234 254
220 234 254
220 234 254
220 234 254
220 234 254
220 234 254
220 234 254
220 234 254
220 234 254
220 234 254
220 234 254
220 234 254
220 234 254
220 234 254
220 234 254
220 234 254
220 234 254
220 234 254
220 234 254
220 234 254
220 234 254
220 234 254
220 234 254
220 234 254
220 234 254
220 234 254
220 234 254
220 234 254
220 234 254
220 234 254
220 234 254
220 234 254
220 234 254
220 234 254
220 234 254
220 234 254
220 234 254
220 234 254
220 234 254
220 234 254
220 234 254
220 234 254
220 234 254
220 234 254
220 234 254
220 234 254
220 234 254
220 234 254
220 234 254
220 234 254
220 234 254
220 234 254
220 234 254
220 234 254
220 234 254
220 234 254
220 234 254
220 234 254
220 234 254
220 234 254
220 234 254
220 234 254
220 234 254
220 234 254
220 234 254
220 234 254
220 234 254
220 234 254
220 234 254
220 234 254
220 234 254
220 234 254
220 234 254
220 234 254
220 234 254
220 234 254
220 234 254
220 234 254
220 234 254
220 234 254
220 234 254
220 234 254
220 234 254
220 234 254
220 234 254
220 234 254
220 234 254
220 234 254
220 234 254
220 234 254
220 234 254
220 234 254
220 234 254
220 234 254
220 234 254
220 234 254
220 234 254
220 234 254
220 234 254
220 234 254
220 234 254
220 234 254
220 234 254
220 234 254
220 234 254
220 234 254
220 234 254
220 234 254
220 234 254
220 234 254
220 234 254
220 234 254
220 234 254
220 234 254
220 234 254
220 234 254
220 234 254
220 234 254
220 234 254
220 234 254
220 234 254
145 155 169
69 77 87
84 93 104
81 89 101
74 82 93
93 103 116
82 92 104
62 69 79
41 45 51
41 46 52
47 52 59
49 54 61
55 61 68
58 64 72
64 71 80
64 70 79
60 67 76
66 72 82
61 67 76
50 56 63
32 36 41
28 31 35
53 58 66
61 67 76
65 72 80
69 76 86
66 73 83
66 74 84
54 60 67
56 62 71
58 64 72
58 64 72
58 64 72
66 73 82
67 74 84
69 76 86
71 79 88
66 73 83
61 67 77
62 69 77
66 73 83
54 60 68
48 54 61
41 45 51
30 33 37
23 25 29
46 50 57
58 64 73
68 76 86
74 82 93
74 82 92
77 86 97
74 82 93
75 84 95
73 81 91
74 82 93
73 80 91
72 80 91
66 73 82
64 70 79
63 70 80
59 65 74
58 64 73
57 63 72
59 66 74
57 63 71
65 72 82
64 71 80
70 77 86
65 72 82
64 72 82
67 74 83
69 77 86
71 79 89
66 73 82
70 78 89
65 72 81
67 74 84
66 73 82
60 67 75
57 63 71
56 62 70
54 60 68
48 53 60
52 58 65
58 64 72
55 61 69
51 56 63
53 59 66
56 62 70
57 63 72
54 59 67
55 61 68
53 58 66
55 61 69
48 53 61
47 52 59
44 48 54
44 49 55
39 43 49
28 31 35
16 18 20
10 12 13
23 26 29
34 38 43
43 48 54
47 52 58
53 59 67
59 65 74
57 63 72
54 60 68
50 56 63
41 45 52
46 52 58
51 56 63
50 55 62
52 58 65
60 66 74
68 76 85
69 76 87
69 76 86
70 78 88
68 75 84
73 80 91
72 80 91
70 78 88
59 66 76
62 70 79
57 63 71
51 57 64
52 57 64
57 63 71
51 56 64
44 48 55
41 45 51
43 47 53
52 58 66
58 64 72
49 54 61
43 48 55
42 47 53
37 41 47
39 43 48
48 53 60
55 62 70
63 70 79
73 81 91
85 93 104
87 97 111
95 105 118
91 101 114
93 104 117
106 118 133
102 112 127
104 115 129
107 118 134
112 124 139
120 132 148
114 126 142
120 132 148
111 123 138
112 124 140
109 121 137
95 106 120
88 97 110
81 90 102
73 81 92
66 73 82
67 75 85
74 82 93
78 86 97
73 81 91
72 80 90
73 82 93
75 83 93
74 82 93
68 76 85
61 68 77
54 60 68
47 52 58
42 46 52
47 52 59
49 54 61
59 65 74
60 66 75
63 70 79
57 63 71
54 59 67
48 54 61
32 35 40
47 52 59
72 80 90
82 91 103
91 100 113
68 75 85
161 172 187
220 234 254
220 234 254
220 234 254
220 234 254
220 234 254
220 234 254
220 234 254
220 234 254
220 234 254
220 234 254
220 234 254
220 234 254
220 234 254
220 234 254
220 234 254
220 234 254
220 234 254
220 234 254
220 234 254
220 234 254
220 234 254
220 234 254
220 234 254
220 234 254
220 234 254
220 234 254
220 234 254
220 234 254
220 234 254
220 234 254
220 234 254
220 234 254
220 234 254
220 234 254
220 234 254
220 234 254
220 234 254
220 234 254
220 234 254
220 234 254
220 234 254
220 234 254
220 234 254
220 234 254
220 234 254
220 234 254
220 234 254
220 234 254
220 234 254
220 234 254
220 234 254
220 234 254
220 234 254
220 234 254
220 234 254
220 234 254
220 234 254
220 234 254
220 234 254
220 234 254
220 234 254
220 234 254
220 234 254
220 234 254
220 234 254
220 234 254
220 234 254
220 234 254
220 234 254
220 234 254
220 234 254
220 234 254
220 234 254
220 234 254
220 234 254
220 234 254
220 234 254
220 234 254
220 234 254
220 234 254
220 234 254
220 234 254
220 234 254
220 234 254
220 234 254
220 234 254
220 234 254
220 234 254
220 234 254
220 234 254
220 234 254
220 234 254
220 234 254
220 234 254
220 234 254
220 234 254
220 234 254
220 234 254
220 234 254
220 234 254
220 234 254
220 234 254
220 234 254
220 234 254
220 234 254
220 234 254
220 234 254
220 234 254
220 234 254
220 234 254
220 234 254
220 234 254
220 234 254
220 234 254
220 234 254
220 234 254
220 234 254
220 234 254
220 234 254
220 234 254
220 234 254
220 234 254
220 234 254
220 234 254
220 234 254
220 234 254
220 234 254
220 234 254
220 234 254
220 234 254
220 234 254
220 234 254
220 234 254
220 234 254
220 234 254
220 234 254
220 234 254
220 234 254
220 234 254
220 234 254
220 234 254
220 234 254
220 234 254
220 234 254
220 234 254
220 234 254
220 234 254
220 234 254
220 234 254
220 234 254
220 234 254
220 234 254
220 234 254
220 234 254
220 234 254
220 234 254
220 234 254
220 234 254
220 234 254
220 234 254
220 234 254
220 234 254
220 234 254
220 234 254
220 234 254
220 234 254
220 234 254
220 234 254
220 234 254
220 234 254
220 234 254
220 234 254
220 234 254
220 234 254
220 234 254
220 234 254
220 234 254
220 234 254
220 234 254
220 234 254
220 234 254
220 234 254
220 234 254
220 234 254
220 234 254
220 234 254
220 234 254
220 234 254
220 234 254
220 234 254
220 234 254
220 234 254
220 234 254
220 234 254
220 234 254
220 234 254
220 234 254
220 234 254
220 234 254
220 234 254
220 234 254
220 234 254
220 234 254
220 234 254
156 166 181
68 76 86
77 85 97
76 84 95
82 91 102
85 93 105
76 84 95
52 57 65
22 24 27
19 21 24
34 37 42
37 41 47
46 50 57
50 55 62
51 57 64
61 67 76
60 66 75
63 70 79
60 67 76
49 54 61
27 30 34
31 35 40
51 56 63
66 73 83
72 79 89
77 85 96
74 82 93
69 77 87
60 67 75
59 65 74
57 63 72
59 66 75
61 68 77
64 71 81
66 73 83
74 81 92
72 79 89
69 76 86
59 66 75
63 70 80
62 68 76
50 55 63
47 52 59
37 41 47
28 31 35
23 25 28
48 54 61
60 66 75
71 79 89
73 81 92
75 83 94
78 87 98
79 87 98
74 82 93
72 80 90
76 83 94
74 81 91
70 78 88
67 74 84
62 68 77
58 65 73
57 63 72
59 65 73
55 61 69
50 56 63
51 57 64
60 67 76
60 67 76
66 74 83
68 75 86
66 73 83
67 75 85
71 78 88
74 82 92
72 79 89
68 76 87
64 71 80
64 71 80
65 72 81
64 71 80
59 65 74
55 60 68
51 57 64
41 45 51
45 50 56
49 54 61
46 51 58
45 50 56
50 56 63
57 63 72
60 66 74
55 61 69
57 63 72
58 65 73
60 66 74
54 59 67
52 57 65
50 56 63
46 52 59
44 49 55
36 40 45
15 17 19
6 7 8
20 22 25
35 39 44
43 47 53
44 49 55
44 49 55
53 59 66
52 58 65
44 49 55
39 43 49
39 43 48
39 43 49
43 48 54
46 51 57
46 51 58
54 60 68
52 59 67
64 71 80
67 74 83
61 68 77
64 71 80
63 71 80
64 70 79
68 75 85
65 72 81
62 68 77
55 61 69
52 57 64
49 55 63
45 50 56
49 54 61
44 49 55
42 47 53
47 52 58
49 54 61
55 60 68
51 56 63
44 49 56
44 49 56
38 42 47
41 45 51
51 56 64
61 67 77
65 72 81
77 86 97
78 87 99
90 100 113
94 104 117
96 107 121
102 112 127
102 113 127
100 111 126
105 117 133
106 117 132
117 129 146
108 120 137
119 132 149
121 134 151
114 126 143
103 114 129
105 116 131
99 110 124
85 94 106
85 94 106
74 83 94
67 74 84
71 78 88
74 82 93
80 88 99
81 89 101
76 84 95
68 75 85
70 78 89
75 83 93
70 77 86
63 69 78
58 65 73
56 62 69
49 54 62
48 53 60
50 55 63
54 60 68
56 61 69
58 65 73
59 65 74
57 64 72
51 57 64
31 34 38
49 54 60
72 80 90
85 94 106
92 102 115
72 80 90
132 141 153
220 234 254
220 234 254
220 234 254
220 234 254
220 234 254
220 234 254
220 234 254
220 234 254
220 234 254
220 234 254
220 234 254
220 234 254
220 234 254
220 234 254
220 234 254
220 234 254
220 234 254
220 234 254
220 234 254
220 234 254
220 234 254
220 234 254
220 234 254
220 234 254
220 234 254
220 234 254
220 234 254
220 234 254
220 234 254
220 234 254
220 234 254
220 234 254
220 234 254
220 234 254
220 234 254
220 234 254
220 234 254
220 234 254
220 234 254
220 234 254
220 234 254
220 234 254
220 234 254
220 234 254
220 234 254
220 234 254
220 234 254
220 234 254
220 234 254
220 234 254
220 234 254
220 234 254
220 234 254
220 234 254
220 234 254
220 234 254
220 234 254
220 234 254
220 234 254
220 234 254
220 234 254
220 234 254
220 234 254
220 234 254
220 234 254
220 234 254
220 234 254
220 234 254
220 234 254
220 234 254
220 234 254
220 234 254
220 234 254
220 234 254
220 234 254
220 234 254
220 234 254
220 234 254
220 234 254
220 234 254
220 234 254
220 234 254
220 234 254
220 234 254
220 234 254
220 234 254
220 234 254
220 234 254
220 234 254
220 234 254
220 234 254
220 234 254
220 234 254
220 234 254
220 234 254
220 234 254
220 234 254
220 234 254
220 234 254
220 234 254
220 234 254
220 234 254
220 234 254
220 234 254
220 234 254
220 234 254
220 234 254
220 234 254
220 234 254
220 234 254
220 234 254
220 234 254
220 234 254
220 234 254
220 234 254
220 234 254
220 234 254
220 234 254
220 234 254
220 234 254
220 234 254
220 234 254
220 234 254
220 234 254
220 234 254
220 234 254
220 234 254
220 234 254
220 234 254
220 234 254
220 234 254
220 234 254
220 234 254
220 234 254
220 234 254
220 234 254
220 234 254
220 234 254
220 234 254
220 234 254
220 234 254
220 234 254
220 234 254
220 234 254
220 234 254
220 234 254
220 234 254
220 234 254
220 234 254
220 234 254
220 234 254
220 234 254
220 234 254
220 234 254
220 234 254
220 234 254
220 234 254
220 234 254
220 234 254
220 234 254
220 234 254
220 234 254
220 234 254
220 234 254
220 234 254
220 234 254
220 234 254
220 234 254
220 234 254
220 234 254
220 234 254
220 234 254
220 234 254
220 234 254
220 234 254
220 234 254
220 234 254
220 234 254
220 234 254
220 234 254
220 234 254
220 234 254
220 234 254
220 234 254
220 234 254
220 234 254
220 234 254
220 234 254
220 234 254
220 234 254
220 234 254
220 234 254
220 234 254
220 234 254
220 234 254
220 234 254
220 234 254
220 234 254
220 234 254
220 234 254
220 234 254
220 234 254
220 234 254
220 234 254
134 143 156
62 68 77
74 82 93
78 86 97
78 86 98
77 84 94
59 65 74
43 47 53
25 28 32
29 32 36
18 20 23
27 30 34
36 39 44
38 43 49
41 46 52
51 56 64
55 61 68
57 63 71
53 59 67
47 52 59
23 26 29
38 41 47
54 59 67
62 69 78
72 79 89
78 86 97
76 85 96
71 78 89
67 75 85
66 73 82
62 69 77
64 70 79
64 70 79
65 72 81
67 74 84
70 78 87
68 76 86
67 74 84
64 71 81
67 74 84
60 67 76
52 58 66
46 51 58
42 46 52
29 32 36
22 25 28
48 53 59
60 66 75
69 76 86
73 81 91
74 82 92
82 91 103
78 86 97
83 91 103
77 85 96
68 76 87
73 81 92
63 70 79
63 70 79
64 70 79
62 69 78
58 64 72
57 63 72
52 58 65
44 49 56
46 51 57
50 56 64
61 67 76
67 75 85
71 78 88
67 75 85
70 77 87
73 80 90
70 77 86
75 83 93
76 83 93
67 74 83
65 72 82
63 70 80
63 70 79
58 64 72
51 57 64
50 55 62
42 46 53
43 47 53
34 38 43
39 44 50
44 49 56
56 61 69
60 66 74
59 65 74
57 63 71
65 72 81
63 70 79
61 68 77
57 63 72
53 59 67
52 57 65
45 50 57
46 51 58
39 43 48
19 21 24
12 13 15
25 27 31
35 38 43
39 43 48
34 38 43
36 40 46
40 45 51
40 44 50
33 36 41
29 32 36
30 33 38
39 43 48
43 47 53
41 45 51
43 47 53
56 62 70
54 60 68
53 59 67
57 62 70
54 60 68
52 58 65
58 65 73
62 68 77
59 66 75
58 65 73
62 69 77
52 58 66
49 55 62
43 48 54
39 44 49
39 43 49
40 45 51
40 44 50
45 51 58
54 60 68
52 58 66
52 57 65
50 56 63
42 47 53
47 52 59
49 54 61
52 58 65
61 68 77
69 76 86
74 81 91
80 89 100
87 96 108
93 103 117
96 106 119
97 107 120
102 113 128
101 112 126
104 115 130
111 123 139
110 123 139
121 133 149
122 135 152
122 135 152
114 126 143
111 123 140
107 119 134
96 106 120
96 105 119
86 95 107
67 74 84
64 72 82
67 74 83
74 83 94
77 85 96
79 87 98
74 82 93
71 79 90
69 76 86
72 79 89
67 75 85
64 71 80
66 73 83
58 64 72
53 58 66
51 57 65
44 48 54
51 56 64
57 64 72
53 59 67
58 64 72
63 70 79
49 55 62
27 30 34
50 55 62
68 75 85
84 94 106
82 91 103
74 82 92
125 134 145
220 234 254
220 234 254
220 234 254
220 234 254
220 234 254
220 234 254
220 234 254
220 234 254
220 234 254
220 234 254
220 234 254
220 234 254
220 234 254
220 234 254
220 234 254
220 234 254
220 234 254
220 234 254
220 234 254
220 234 254
220 234 254
220 234 254
220 234 254
220 234 254
220 234 254
220 234 254
220 234 254
220 234 254
220 234 254
220 234 254
220 234 254
220 234 254
220 234 254
220 234 254
220 234 254
220 234 254
220 234 254
220 234 254
220 234 254
220 234 254
220 234 254
220 234 254
220 234 254
220 234 254
220 234 254
220 234 254
220 234 254
220 234 254
220 234 254
220 234 254
220 234 254
220 234 254
220 234 254
220 234 254
220 234 254
220 234 254
220 234 254
220 234 254
220 234 254
220 234 254
220 234 254
220 234 254
220 234 254
220 234 254
220 234 254
220 234 254
220 234 254
220 234 254
220 234 254
220 234 254
220 234 254
220 234 254
220 234 254
220 234 254
220 234 254
220 234 254
220 234 254
220 234 254
220 234 254
220 234 254
220 234 254
220 234 254
220 234 254
220 234 254
220 234 254
220 234 254
220 234 254
220 234 254
220 234 254
220 234 254
220 234 254
220 234 254
220 234 254
220 234 254
220 234 254
220 234 254
220 234 254
220 234 254
220 234 254
220 234 254
220 234 254
220 234 254
220 234 254
220 234 254
220 234 254
220 234 254
220 234 254
220 234 254
220 234 254
220 234 254
220 234 254
220 234 254
220 234 254
220 234 254
220 234 254
220 234 254
220 234 254
220 234 254
220 234 254
220 234 254
220 234 254
220 234 254
220 234 254
220 234 254
220 234 254
220 234 254
220 234 254
220 234 254
220 234 254
220 234 254
220 234 254
220 234 254
220 234 254
220 234 254
220 234 254
220 234 254
220 234 254
220 234 254
220 234 254
220 234 254
220 234 254
220 234 254
220 234 254
220 234 254
220 234 254
220 234 254
220 234 254
220 234 254
220 234 254
220 234 254
220 234 254
220 234 254
220 234 254
220 234 254
220 234 254
220 234 254
220 234 254
220 234 254
220 234 254
220 234 254
220 234 254
220 234 254
220 234 254
220 234 254
220 234 254
220 234 254
220 234 254
220 234 254
220 234 254
220 234 254
220 234 254
220 234 254
220 234 254
220 234 254
220 234 254
220 234 254
220 234 254
220 234 254
220 234 254
220 234 254
220 234 254
220 234 254
220 234 254
220 234 254
220 234 254
220 234 254
220 234 254
220 234 254
220 234 254
220 234 254
220 234 254
220 234 254
220 234 254
220 234 254
220 234 254
220 234 254
220 234 254
220 234 254
220 234 254
220 234 254
220 234 254
220 234 254
220 234 254
220 234 254
113 121 132
64 71 80
70 78 88
77 85 96
76 84 95
61 68 77
47 52 59
31 34 39
35 38 43
42 46 52
36 40 45
19 21 23
24 27 30
32 36 41
34 38 42
46 51 57
49 55 62
50 56 63
44 49 55
38 42 47
21 24 27
37 41 46
52 57 65
64 71 81
69 77 87
78 86 97
77 85 95
75 83 94
73 81 92
74 83 94
72 79 89
67 74 83
67 74 83
60 66 74
58 64 73
61 67 76
66 73 82
65 72 82
65 72 82
63 70 79
60 67 75
52 58 65
44 49 55
42 46 52
26 29 32
24 26 30
47 52 59
60 67 76
71 79 89
73 81 92
83 92 105
80 88 100
79 87 98
73 81 91
68 76 86
66 73 82
67 75 85
74 82 92
67 74 84
63 69 78
58 65 73
57 63 71
57 63 71
52 57 64
45 50 57
42 47 53
52 58 65
55 61 69
65 72 82
71 79 89
74 83 93
72 80 90
70 77 87
67 74 84
74 82 92
73 81 91
72 79 90
63 69 78
57 63 71
59 65 73
55 61 69
50 55 61
38 42 48
34 38 43
30 34 38
29 32 36
39 43 49
54 60 67
57 63 71
61 67 76
60 67 76
58 65 73
63 69 77
62 69 78
59 65 73
55 61 68
50 55 62
50 55 63
50 55 63
44 49 55
35 39 44
23 25 28
12 13 15
21 23 26
27 30 34
31 34 39
28 31 36
27 30 34
19 21 23
19 21 23
19 21 23
15 16 18
16 17 20
29 32 36
34 38 42
39 43 49
41 45 51
45 49 55
49 54 61
51 57 64
46 51 57
44 49 55
43 48 54
52 58 65
52 57 64
51 56 63
52 57 65
51 57 64
51 56 63
41 45 51
36 40 45
30 33 38
28 31 35
30 33 37
38 42 48
37 41 46
48 53 61
52 58 66
51 56 64
56 62 70
52 58 66
52 58 65
51 56 63
56 62 70
60 66 75
73 80 90
77 86 97
78 86 97
88 97 109
94 104 117
97 108 121
105 116 131
101 111 125
109 120 135
107 118 133
115 127 143
106 117 132
116 128 144
115 127 143
116 129 146
116 128 145
113 125 140
104 116 131
102 113 127
93 103 117
86 95 107
73 81 92
66 73 83
67 74 84
75 83 94
74 82 93
74 81 92
76 84 94
69 76 86
67 73 82
64 71 81
63 69 79
62 69 78
67 74 84
58 64 73
56 62 70
54 59 67
42 46 51
53 58 66
53 58 66
55 61 69
64 71 80
57 63 71
48 53 60
26 29 33
49 54 60
66 73 83
86 95 107
86 96 108
75 83 94
130 138 151
220 234 254
220 234 254
220 234 254
220 234 254
220 234 254
220 234 254
220 234 254
220 234 254
220 234 254
220 234 254
220 234 254
220 234 254
220 234 254
220 234 254
220 234 254
220 234 254
220 234 254
220 234 254
220 234 254
220 234 254
220 234 254
220 234 254
220 234 254
220 234 254
220 234 254
220 234 254
220 234 254
220 234 254
220 234 254
220 234 254
220 234 254
220 234 254
220 234 254
220 234 254
220 234 254
220 234 254
220 234 254
220 234 254
220 234 254
220 234 254
220 234 254
220 234 254
220 234 254
220 234 254
220 234 254
220 234 254
220 234 254
220 234 254
220 234 254
220 234 254
220 234 254
220 234 254
220 234 254
220 234 254
220 234 254
220 234 254
220 234 254
220 234 254
220 234 254
220 234 254
220 234 254
220 234 254
220 234 254
220 234 254
220 234 254
220 234 254
220 234 254
220 234 254
220 234 254
220 234 254
220 234 254
220 234 254
220 234 254
220 234 254
220 234 254
220 234 254
220 234 254
220 234 254
220 234 254
220 234 254
220 234 254
220 234 254
220 234 254
220 234 254
220 234 254
220 234 254
220 234 254
220 234 254
220 234 254
220 234 254
220 234 254
220 234 254
220 234 254
220 234 254
220 234 254
220 234 254
220 234 254
220 234 254
220 234 254
220 234 254
220 234 254
220 234 254
220 234 254
220 234 254
220 234 254
220 234 254
220 234 254
220 234 254
220 234 254
220 234 254
220 234 254
220 234 254
220 234 254
220 234 254
220 234 254
220 234 254
220 234 254
220 234 254
220 234 254
220 234 254
220 234 254
220 234 254
220 234 254
220 234 254
220 234 254
220 234 254
220 234 254
220 234 254
220 234 254
220 234 254
220 234 254
220 234 254
220 234 254
220 234 254
220 234 254
220 234 254
220 234 254
220 234 254
220 234 254
220 234 254
220 234 254
220 234 254
220 234 254
220 234 254
220 234 254
220 234 254
220 234 254
220 234 254
220 234 254
220 234 254
220 234 254
220 234 254
220 234 254
220 234 254
220 234 254
220 234 254
220 234 254
220 234 254
220 234 254
220 234 254
220 234 254
220 234 254
220 234 254
220 234 254
220 234 254
220 234 254
220 234 254
220 234 254
220 234 254
220 234 254
220 234 254
220 234 254
220 234 254
220 234 254
220 234 254
220 234 254
220 234 254
220 234 254
220 234 254
220 234 254
220 234 254
220 234 254
220 234 254
220 234 254
220 234 254
220 234 254
220 234 254
220 234 254
220 234 254
220 234 254
220 234 254
220 234 254
220 234 254
220 234 254
220 234 254
220 234 254
220 234 254
220 234 254
220 234 254
220 234 254
220 234 254
220 234 254
220 234 254
220 234 254
95 102 111
60 67 76
69 77 87
78 86 96
68 75 84
54 60 68
37 41 46
22 24 28
40 45 51
52 58 65
46 51 57
24 26 30
16 17 19
22 25 28
26 29 32
34 37 42
43 47 53
50 56 63
38 42 47
19 21 23
21 23 26
38 42 47
51 57 64
63 69 78
65 72 82
65 72 82
78 86 98
77 85 96
75 83 94
75 84 95
72 80 90
70 77 87
66 73 82
62 69 78
59 66 75
58 63 71
57 63 70
62 68 76
63 69 78
61 68 76
57 63 71
47 52 58
41 45 51
33 37 42
25 28 32
28 31 34
46 51 57
61 67 76
69 76 86
70 77 88
73 81 91
78 86 97
75 83 94
73 80 91
73 81 92
67 74 83
65 72 82
64 71 81
65 72 82
61 67 76
57 63 71
57 63 71
55 61 68
49 54 61
49 54 61
45 50 56
51 56 63
60 67 76
66 72 81
68 76 86
75 84 95
66 73 83
64 71 80
67 74 84
68 75 84
73 80 91
68 76 85
60 67 76
60 66 75
53 59 67
48 53 60
42 47 53
36 39 45
24 27 31
19 20 23
27 30 34
42 46 52
50 55 62
52 57 65
54 60 68
57 63 71
53 59 67
54 60 68
58 64 72
58 64 73
54 59 67
48 53 60
47 52 59
47 52 59
41 45 51
28 31 35
14 15 17
10 11 13
20 22 25
23 26 30
31 34 39
26 29 32
16 18 20
8 9 10
13 14 16
16 17 20
22 24 27
12 13 15
23 25 29
30 33 37
36 40 45
40 45 50
44 49 56
48 52 59
42 47 53
35 39 44
38 42 48
37 41 47
45 50 56
44 48 55
45 50 56
43 48 54
42 47 53
41 46 51
27 30 34
24 26 30
19 21 24
15 16 18
13 15 17
23 26 29
31 35 39
42 46 52
47 52 59
52 57 65
60 66 75
59 66 74
60 66 74
61 67 77
60 66 74
70 78 89
76 83 94
78 87 98
86 96 109
85 93 105
89 99 111
103 114 129
94 105 119
109 120 135
105 117 133
111 123 138
110 122 139
100 111 126
115 127 143
115 127 144
119 131 148
118 131 148
113 126 143
107 119 133
95 106 120
88 97 110
80 89 100
76 84 95
71 78 88
71 79 88
75 83 94
70 77 87
66 73 82
68 75 85
67 74 83
60 67 76
64 71 80
62 69 78
62 69 78
69 76 86
57 63 71
51 56 64
52 57 64
41 46 51
51 57 65
49 54 62
47 52 59
58 65 73
49 54 62
38 43 48
29 32 36
50 56 63
64 71 80
90 99 111
85 94 105
73 81 92
114 122 133
220 234 254
220 234 254
220 234 254
220 234 254
220 234 254
220 234 254
220 234 254
220 234 254
220 234 254
220 234 254
220 234 254
220 234 254
220 234 254
220 234 254
220 234 254
220 234 254
220 234 254
220 234 254
220 234 254
220 234 254
220 234 254
220 234 254
220 234 254
220 234 254
220 234 254
220 234 254
220 234 254
220 234 254
220 234 254
220 234 254
220 234 254
220 234 254
220 234 254
220 234 254
220 234 254
220 234 254
220 234 254
220 234 254
220 234 254
220 234 254
220 234 254
220 234 254
220 234 254
220 234 254
220 234 254
220 234 254
220 234 254
220 234 254
220 234 254
220 234 254
220 234 254
220 234 254
220 234 254
220 234 254
220 234 254
220 234 254
220 234 254
220 234 254
220 234 254
220 234 254
220 234 254
220 234 254
220 234 254
220 234 254
220 234 254
220 234 254
220 234 254
220 234 254
220 234 254
220 234 254
220 234 254
220 234 254
220 234 254
220 234 254
220 234 254
220 234 254
220 234 254
220 234 254
220 234 254
220 234 254
220 234 254
220 234 254
220 234 254
220 234 254
220 234 254
220 234 254
220 234 254
220 234 254
220 234 254
220 234 254
220 234 254
220 234 254
220 234 254
220 234 254
220 234 254
220 234 254
220 234 254
220 234 254
220 234 254
220 234 254
220 234 254
220 234 254
220 234 254
220 234 254
220 234 254
220 234 254
220 234 254
220 234 254
220 234 254
220 234 254
220 234 254
220 234 254
220 234 254
220 234 254
220 234 254
220 234 254
220 234 254
220 234 254
220 234 254
220 234 254
220 234 254
220 234 254
220 234 254
220 234 254
220 234 254
220 234 254
220 234 254
220 234 254
220 234 254
220 234 254
220 234 254
220 234 254
220 234 254
220 234 254
220 234 254
220 234 254
220 234 254
220 234 254
220 234 254
220 234 254
220 234 254
220 234 254
220 234 254
220 234 254
220 234 254
220 234 254
220 234 254
220 234 254
220 234 254
220 234 254
220 234 254
220 234 254
220 234 254
220 234 254
220 234 254
220 234 254
220 234 254
220 234 254
220 234 254
220 234 254
220 234 254
220 234 254
220 234 254
220 234 254
220 234 254
220 234 254
220 234 254
220 234 254
220 234 254
220 234 254
220 234 254
220 234 254
220 234 254
220 234 254
220 234 254
220 234 254
220 234 254
220 234 254
220 234 254
220 234 254
220 234 254
220 234 254
220 234 254
220 234 254
220 234 254
220 234 254
220 234 254
220 234 254
220 234 254
220 234 254
220 234 254
220 234 254
220 234 254
220 234 254
220 234 254
220 234 254
220 234 254
220 234 254
220 234 254
220 234 254
220 234 254
220 234 254
220 234 254
220 234 254
100 107 117
57 63 71
68 75 85
73 80 91
71 78 89
38 42 48
21 24 27
35 39 44
55 60 68
65 71 81
58 64 73
38 42 47
28 31 35
13 14 16
24 26 30
28 31 35
40 44 50
42 47 53
27 30 33
15 16 18
27 30 34
45 49 56
51 56 63
60 67 75
68 75 85
78 86 97
73 81 91
80 89 101
82 91 102
76 84 96
66 74 83
62 69 77
65 72 81
64 71 80
58 64 72
54 60 68
56 62 70
55 61 69
57 63 71
52 57 64
53 58 66
43 48 54
40 44 49
32 35 40
20 23 26
25 28 31
43 47 54
58 64 73
69 76 86
75 83 93
68 75 85
72 80 90
74 82 93
74 82 93
67 75 84
66 73 83
65 72 81
65 71 80
66 72 81
63 69 78
57 63 71
53 58 66
50 55 63
48 54 61
49 55 62
51 56 63
57 63 71
62 69 77
65 72 81
64 71 80
65 72 81
66 73 82
62 69 77
68 75 84
70 77 88
72 80 90
71 78 88
63 70 80
58 64 71
52 57 65
46 50 56
35 39 44
30 34 38
14 16 18
12 13 15
29 32 36
42 46 52
44 49 55
45 50 57
49 54 61
50 55 63
52 58 65
47 52 59
50 56 63
52 57 65
50 56 63
47 52 59
42 46 52
40 44 50
29 33 37
17 19 21
23 26 29
27 30 34
28 31 35
32 35 40
30 33 37
19 21 23
13 15 17
17 18 21
22 24 27
23 26 29
26 29 33
14 16 18
20 22 25
24 26 29
31 34 39
38 42 48
38 42 47
37 42 47
39 42 48
33 37 42
33 36 40
34 38 43
38 43 48
38 42 47
37 40 45
30 34 38
21 23 26
26 28 32
18 20 22
23 26 30
26 29 33
25 28 32
19 21 24
15 17 19
27 30 34
38 42 47
50 56 63
53 59 66
60 66 75
61 67 75
62 68 77
63 70 79
70 78 89
77 85 97
76 84 94
84 93 105
85 94 106
86 95 107
93 102 115
97 107 121
101 111 125
98 108 123
104 115 129
105 116 131
109 121 138
97 108 122
117 129 146
118 130 147
116 127 143
120 132 148
117 129 146
106 118 134
100 110 124
93 104 117
83 92 105
76 84 94
72 79 89
75 82 93
70 78 88
69 76 86
65 72 82
71 79 89
66 73 83
61 68 77
64 70 79
62 69 78
64 71 81
62 69 78
53 59 67
51 57 64
48 53 60
43 48 54
44 49 55
38 42 48
40 44 50
43 48 54
38 42 48
22 24 28
40 44 50
55 61 68
59 66 75
83 92 104
80 89 101
72 80 90
113 121 132
220 234 254
220 234 254
220 234 254
220 234 254
220 234 254
220 234 254
220 234 254
220 234 254
220 234 254
220 234 254
220 234 254
220 234 254
220 234 254
220 234 254
220 234 254
220 234 254
220 234 254
220 234 254
220 234 254
220 234 254
220 234 254
220 234 254
220 234 254
220 234 254
220 234 254
220 234 254
220 234 254
220 234 254
220 234 254
220 234 254
220 234 254
220 234 254
220 234 254
220 234 254
220 234 254
220 234 254
220 234 254
220 234 254
220 234 254
220 234 254
220 234 254
220 234 254
220 234 254
220 234 254
220 234 254
220 234 254
220 234 254
220 234 254
220 234 254
220 234 254
220 234 254
220 234 254
220 234 254
220 234 254
220 234 254
220 234 254
220 234 254
220 234 254
220 234 254
220 234 254
220 234 254
220 234 254
220 234 254
220 234 254
220 234 254
220 234 254
220 234 254
220 234 254
220 234 254
220 234 254
220 234 254
220 234 254
220 234 254
220 234 254
220 234 254
220 234 254
220 234 254
220 234 254
220 234 254
220 234 254
220 234 254
220 234 254
220 234 254
220 234 254
220 234 254
220 234 254
220 234 254
220 234 254
220 234 254
220 234 254
220 234 254
220 234 254
220 234 254
220 234 254
220 234 254
220 234 254
220 234 254
220 234 254
220 234 254
220 234 254
220 234 254
220 234 254
220 234 254
220 234 254
220 234 254
220 234 254
220 234 254
220 234 254
220 234 254
220 234 254
220 234 254
220 234 254
220 234 254
220 234 254
220 234 254
220 234 254
220 234 254
220 234 254
220 234 254
220 234 254
220 234 254
220 234 254
220 234 254
220 234 254
220 234 254
220 234 254
220 234 254
220 234 254
220 234 254
220 234 254
220 234 254
220 234 254
220 234 254
220 234 254
220 234 254
220 234 254
220 234 254
220 234 254
220 234 254
220 234 254
220 234 254
220 234 254
220 234 254
220 234 254
220 234 254
220 234 254
220 234 254
220 234 254
220 234 254
220 234 254
220 234 254
220 234 254
220 234 254
220 234 254
220 234 254
220 234 254
220 234 254
220 234 254
220 234 254
220 234 254
220 234 254
220 234 254
220 234 254
220 234 254
220 234 254
220 234 254
220 234 254
220 234 254
220 234 254
220 234 254
220 234 254
220 234 254
220 234 254
220 234 254
220 234 254
220 234 254
220 234 254
220 234 254
220 234 254
220 234 254
220 234 254
220 234 254
220 234 254
220 234 254
220 234 254
220 234 254
220 234 254
220 234 254
220 234 254
220 234 254
220 234 254
220 234 254
220 234 254
220 234 254
220 234 254
220 234 254
220 234 254
220 234 254
220 234 254
220 234 254
220 234 254
220 234 254
220 234 254
220 234 254
102 109 119
54 60 67
70 77 86
67 75 85
60 67 76
27 30 34
26 29 33
47 52 58
65 72 81
69 76 86
64 71 79
54 60 67
39 43 49
18 20 22
14 15 17
18 20 23
27 30 34
29 32 36
14 15 17
19 21 24
35 39 44
44 49 55
53 58 66
59 65 74
63 69 78
74 82 92
83 92 104
76 84 95
80 88 99
79 87 98
67 74 83
57 63 71
63 69 78
63 69 78
58 65 73
49 55 62
48 53 60
46 52 58
49 55 62
50 56 63
47 52 58
39 43 48
35 39 44
35 38 44
23 25 29
26 29 33
44 49 56
56 62 70
65 72 81
62 69 78
66 73 83
65 71 80
67 75 85
69 76 85
72 79 90
72 79 89
59 65 74
60 66 75
63 70 79
61 67 76
58 65 74
57 63 72
51 56 64
50 55 62
52 58 65
53 59 66
58 64 73
58 64 73
63 70 79
58 65 74
67 74 83
62 68 77
61 68 77
71 79 89
66 73 83
69 77 87
65 72 81
60 66 74
54 59 66
48 53 59
38 42 47
30 33 37
18 20 22
10 11 12
14 16 18
28 31 34
34 38 44
42 47 53
41 45 52
48 53 59
50 56 63
52 57 64
46 51 57
46 51 57
48 53 59
49 54 61
41 46 52
36 40 44
34 37 42
23 26 29
18 20 22
32 35 40
39 43 48
34 38 44
34 38 43
27 30 34
10 11 13
15 16 18
23 25 29
28 30 34
30 33 38
31 34 38
21 23 26
13 15 16
17 18 21
22 25 28
31 34 39
32 36 41
36 40 45
35 39 44
35 39 44
34 37 42
30 33 37
30 33 38
28 31 35
28 31 35
21 23 26
14 16 18
24 26 30
30 33 37
35 39 44
35 38 43
33 37 41
29 32 36
16 17 19
28 31 35
37 41 46
44 49 55
51 56 63
55 61 68
55 61 69
57 63 71
68 75 85
76 84 95
79 88 99
75 83 94
80 89 100
85 94 105
88 97 110
95 105 118
97 108 122
101 112 127
106 117 132
104 114 129
100 111 125
105 116 131
107 119 134
104 115 131
117 129 145
114 126 143
117 129 146
114 126 142
105 117 132
102 113 127
92 102 116
90 99 112
83 92 104
72 80 90
73 81 91
68 75 85
68 75 85
65 72 81
71 78 87
60 67 76
65 72 81
64 71 79
64 70 79
64 71 80
57 64 72
49 54 61
44 49 56
45 50 56
44 49 55
40 45 50
38 42 48
32 36 40
33 36 41
17 19 22
24 27 30
51 56 64
63 69 78
65 72 82
83 92 103
82 91 103
70 78 88
104 111 122
220 234 254
220 234 254
220 234 254
220 234 254
220 234 254
220 234 254
220 234 254
220 234 254
220 234 254
220 234 254
220 234 254
220 234 254
220 234 254
220 234 254
220 234 254
220 234 254
220 234 254
220 234 254
220 234 254
220 234 254
220 234 254
220 234 254
220 234 254
220 234 254
220 234 254
220 234 254
220 234 254
220 234 254
220 234 254
220 234 254
220 234 254
220 234 254
220 234 254
220 234 254
220 234 254
220 234 254
220 234 254
220 234 254
220 234 254
220 234 254
220 234 254
220 234 254
220 234 254
220 234 254
220 234 254
220 234 254
220 234 254
220 234 254
220 234 254
220 234 254
220 234 254
220 234 254
220 234 254
220 234 254
220 234 254
220 234 254
220 234 254
220 234 254
220 234 254
220 234 254
220 234 254
220 234 254
220 234 254
220 234 254
220 234 254
220 234 254
220 234 254
220 234 254
220 234 254
220 234 254
220 234 254
220 234 254
220 234 254
220 234 254
220 234 254
220 234 254
220 234 254
220 234 254
220 234 254
220 234 254
220 234 254
220 234 254
220 234 254
220 234 254
220 234 254
220 234 254
220 234 254
220 234 254
220 234 254
220 234 254
220 234 254
220 234 254
220 234 254
220 234 254
220 234 254
220 234 254
220 234 254
220 234 254
220 234 254
220 234 254
220 234 254
220 234 254
220 234 254
220 234 254
220 234 254
220 234 254
220 234 254
220 234 254
220 234 254
220 234 254
220 234 254
220 234 254
220 234 254
220 234 254
220 234 254
220 234 254
220 234 254
220 234 254
220 234 254
220 234 254
220 234 254
220 234 254
220 234 254
220 234 254
220 234 254
220 234 254
220 234 254
220 234 254
220 234 254
220 234 254
220 234 254
220 234 254
220 234 254
220 234 254
220 234 254
220 234 254
220 234 254
220 234 254
220 234 254
220 234 254
220 234 254
220 234 254
220 234 254
220 234 254
220 234 254
220 234 254
220 234 254
220 234 254
220 234 254
220 234 254
220 234 254
220 234 254
220 234 254
220 234 254
220 234 254
220 234 254
220 234 254
220 234 254
220 234 254
220 234 254
220 234 254
220 234 254
220 234 254
220 234 254
220 234 254
220 234 254
220 234 254
220 234 254
220 234 254
220 234 254
220 234 254
220 234 254
220 234 254
220 234 254
220 234 254
220 234 254
220 234 254
220 234 254
220 234 254
220 234 254
220 234 254
220 234 254
220 234 254
220 234 254
220 234 254
220 234 254
220 234 254
220 234 254
220 234 254
220 234 254
220 234 254
220 234 254
220 234 254
220 234 254
220 234 254
220 234 254
220 234 254
220 234 254
220 234 254
220 234 254
220 234 254
220 234 254
220 234 254
220 234 254
102 110 120
58 64 71
65 72 81
61 68 77
52 57 64
27 30 34
42 46 52
55 61 69
67 74 84
77 86 97
62 69 78
61 68 77
48 53 59
20 23 26
17 19 21
18 20 22
19 22 24
18 20 22
14 16 18
27 31 35
37 41 46
45 49 55
54 60 68
65 72 81
70 77 87
71 79 89
74 82 93
76 83 94
70 77 87
72 80 90
69 76 86
63 70 78
57 63 71
61 67 75
60 67 75
49 55 62
40 44 50
41 45 51
39 44 50
40 45 51
39 43 49
41 45 51
41 46 51
36 40 45
23 26 29
24 26 30
40 44 49
47 51 58
56 62 71
61 68 77
65 71 80
65 72 81
68 76 86
76 84 94
79 87 97
76 84 95
71 78 88
69 76 86
62 69 77
62 69 78
60 66 74
56 62 69
54 60 67
53 59 66
53 59 67
52 58 65
63 69 78
62 69 77
58 65 74
61 67 75
67 74 83
59 66 74
64 71 80
71 78 88
70 78 88
63 69 77
60 66 74
56 62 69
51 57 64
43 48 54
35 39 44
25 27 31
11 12 14
13 14 16
20 22 25
27 30 34
36 40 45
41 45 51
40 45 50
45 51 58
54 59 67
48 53 60
46 51 57
40 44 50
39 43 48
41 45 51
32 35 40
30 33 37
25 27 31
18 20 23
18 20 22
33 37 42
39 44 49
36 40 45
35 39 44
25 28 32
10 11 13
14 15 17
24 27 31
34 38 43
37 41 46
38 41 47
28 31 35
15 17 19
16 18 20
23 26 29
32 36 40
27 29 33
28 30 34
28 31 35
29 32 36
33 37 42
27 30 34
25 28 31
23 25 29
22 24 28
11 12 13
18 20 23
22 25 28
26 29 32
31 34 39
39 43 48
32 36 41
29 32 36
16 18 21
29 32 36
42 46 52
49 54 61
53 59 66
60 66 75
55 61 69
60 67 75
71 78 88
72 80 91
76 84 95
75 83 94
77 85 96
83 91 103
87 97 110
92 102 115
97 107 120
102 112 126
102 113 128
95 105 118
99 110 124
106 117 132
110 121 137
113 125 141
108 120 136
115 127 144
120 132 149
113 125 142
101 113 128
100 111 125
96 107 121
87 97 109
80 87 98
77 86 96
76 84 95
74 81 92
69 76 86
66 74 84
70 78 88
74 82 93
74 81 91
74 82 92
71 78 88
59 65 74
59 65 74
47 53 60
42 46 52
38 42 48
37 41 46
34 38 43
29 32 36
21 24 27
20 23 25
22 24 28
38 42 47
56 62 70
63 70 80
70 77 88
86 95 108
88 97 110
74 82 93
80 86 95
220 234 254
220 234 254
220 234 254
220 234 254
220 234 254
220 234 254
220 234 254
220 234 254
220 234 254
220 234 254
220 234 254
220 234 254
220 234 254
220 234 254
220 234 254
220 234 254
220 234 254
220 234 254
220 234 254
220 234 254
220 234 254
220 234 254
220 234 254
220 234 254
220 234 254
220 234 254
220 234 254
220 234 254
220 234 254
220 234 254
220 234 254
220 234 254
220 234 254
220 234 254
220 234 254
220 234 254
220 234 254
220 234 254
220 234 254
220 234 254
220 234 254
220 234 254
220 234 254
220 234 254
220 234 254
220 234 254
220 234 254
220 234 254
220 234 254
220 234 254
220 234 254
220 234 254
220 234 254
220 234 254
220 234 254
220 234 254
220 234 254
220 234 254
220 234 254
220 234 254
220 234 254
220 234 254
220 234 254
220 234 254
220 234 254
220 234 254
220 234 254
220 234 254
220 234 254
220 234 254
220 234 254
220 234 254
220 234 254
220 234 254
220 234 254
220 234 254
220 234 254
220 234 254
220 234 254
220 234 254
220 234 254
220 234 254
220 234 254
220 234 254
220 234 254
220 234 254
220 234 254
220 234 254
220 234 254
220 234 254
220 234 254
220 234 254
220 234 254
220 234 254
220 234 254
220 234 254
220 234 254
220 234 254
220 234 254
220 234 254
220 234 254
220 234 254
220 235 254
220 235 254
220 235 254
220 235 254
220 235 254
220 235 254
220 235 254
220 235 254
220 235 254
220 235 254
220 235 254
220 235 254
220 235 254
220 235 254
220 235 254
220 235 254
220 235 254
220 235 254
220 235 254
220 235 254
220 235 254
220 235 254
220 235 254
220 235 254
220 235 254
220 235 254
220 235 254
220 235 254
220 235 254
220 235 254
220 235 254
220 235 254
220 235 254
220 235 254
220 235 254
220 235 254
220 235 254
220 235 254
220 235 254
220 235 254
220 235 254
220 235 254
220 235 254
220 235 254
220 235 254
220 235 254
220 235 254
220 235 254
220 235 254
220 235 254
220 235 254
220 235 254
220 235 254
220 235 254
220 235 254
220 235 254
220 235 254
220 235 254
220 235 254
220 235 254
220 235 254
220 235 254
220 235 254
220 235 254
220 235 254
220 235 254
220 235 254
220 235 254
220 235 254
220 235 254
220 235 254
220 235 254
220 235 254
220 235 254
220 235 254
220 235 254
220 235 254
220 235 254
220 235 254
220 235 254
220 235 254
220 235 254
220 235 254
220 235 254
220 235 254
220 235 254
220 235 254
220 235 254
220 235 254
220 235 254
220 235 254
220 235 254
220 235 254
220 235 254
220 235 254
220 235 254
220 235 254
220 235 254
220 235 254
220 235 254
220 235 254
220 235 254
90 96 106
52 58 65
70 78 87
61 67 76
51 56 63
35 39 45
53 59 67
63 69 77
69 76 87
79 87 98
68 75 85
67 74 84
50 55 62
24 27 30
20 22 24
29 32 37
32 36 40
32 36 40
26 29 32
33 36 41
43 48 54
50 55 62
59 65 73
69 76 86
73 80 90
70 77 87
76 84 94
69 77 87
67 75 85
62 69 77
55 61 69
59 65 74
58 64 73
62 68 77
57 63 71
44 49 56
32 35 40
32 35 40
35 39 44
39 43 49
39 44 50
38 42 48
39 43 49
34 38 43
24 26 30
19 21 23
30 33 38
38 42 48
47 52 59
56 61 69
56 62 70
68 75 85
76 83 93
72 80 91
79 88 99
72 81 92
71 79 89
76 84 95
71 78 88
63 70 80
59 65 73
60 66 74
57 63 70
54 60 68
58 64 72
51 56 64
58 64 72
58 64 72
59 65 72
59 64 72
60 67 76
63 70 79
61 67 76
64 70 80
66 73 82
57 63 72
56 62 70
50 55 62
47 52 59
36 40 45
22 25 28
19 22 24
16 18 21
10 11 13
18 20 22
27 30 33
31 34 38
35 39 43
39 43 48
43 47 53
51 56 63
44 48 54
48 53 59
37 41 47
38 42 47
35 39 44
29 33 37
19 21 24
14 16 18
12 14 16
24 27 30
32 35 40
37 41 47
37 41 47
35 39 44
24 27 31
22 25 28
18 20 22
14 16 18
25 28 32
32 35 40
31 34 39
24 27 30
13 14 16
18 20 23
22 24 28
32 35 40
24 26 30
21 23 26
20 22 25
28 31 35
30 33 37
26 29 33
22 25 28
16 18 20
10 11 13
13 14 16
16 18 20
22 25 28
26 29 33
33 36 41
42 46 52
39 43 49
31 34 39
13 15 17
24 26 30
36 39 44
47 52 58
54 59 67
54 59 67
55 61 68
62 68 77
69 76 85
68 75 85
77 85 96
78 85 96
77 85 97
75 83 93
82 91 103
92 102 116
93 103 117
100 111 125
98 108 121
103 114 128
93 103 116
98 109 123
116 127 143
111 122 138
109 120 136
118 131 148
116 128 145
113 124 139
109 120 136
104 115 129
95 105 118
83 92 105
83 92 104
80 88 98
74 82 92
73 81 91
75 83 94
70 77 87
77 85 96
75 83 93
76 84 95
74 82 92
67 74 83
60 67 76
60 66 75
42 46 53
39 43 48
35 39 45
27 30 33
19 22 25
19 21 24
23 25 28
24 26 30
33 36 41
47 52 58
65 73 82
73 80 90
71 78 88
88 97 109
93 103 117
70 77 87
95 102 111
220 235 254
220 235 254
220 235 254
220 235 254
220 235 254
220 235 254
220 235 254
220 235 254
220 235 254
220 235 254
220 235 254
220 235 254
220 235 254
220 235 254
220 235 254
220 235 254
220 235 254
220 235 254
220 235 254
220 235 254
220 235 254
220 235 254
220 235 254
220 235 254
220 235 254
220 235 254
220 235 254
220 235 254
220 235 254
220 235 254
220 235 254
220 235 254
220 235 254
220 235 254
220 235 254
220 235 254
220 235 254
220 235 254
220 235 254
220 235 254
220 235 254
220 235 254
220 235 254
220 235 254
220 235 254
220 235 254
220 235 254
220 235 254
220 235 254
220 235 254
220 235 254
220 235 254
220 235 254
220 235 254
220 235 254
220 235 254
220 235 254
220 235 254
220 235 254
220 235 254
220 235 254
220 235 254
220 235 254
220 235 254
220 235 254
220 235 254
220 235 254
220 235 254
220 235 254
220 235 254
220 235 254
220 235 254
220 235 254
220 235 254
220 235 254
220 235 254
220 235 254
220 235 254
220 235 254
220 235 254
220 235 254
220 235 254
220 235 254
220 235 254
220 235 254
220 235 254
220 235 254
220 235 254
220 235 254
220 235 254
220 235 254
220 235 254
220 235 254
220 235 254
220 235 254
220 235 254
220 235 254
220 235 254
220 235 254
220 235 254
220 235 254
220 235 254
220 235 254
220 235 254
220 235 254
220 235 254
220 235 254
220 235 254
220 235 254
220 235 254
220 235 254
220 235 254
220 235 254
220 235 254
220 235 254
220 235 254
220 235 254
220 235 254
220 235 254
220 235 254
220 235 254
220 235 254
220 235 254
220 235 254
220 235 254
220 235 254
220 235 254
220 235 254
220 235 254
220 235 254
220 235 254
220 235 254
220 235 254
220 235 254
220 235 254
220 235 254
220 235 254
220 235 254
220 235 254
220 235 254
220 235 254
220 235 254
220 235 254
220 235 254
220 235 254
220 235 254
220 235 254
220 235 254
220 235 254
220 235 254
220 235 254
220 235 254
220 235 254
220 235 254
220 235 254
220 235 254
220 235 254
220 235 254
220 235 254
220 235 254
220 235 254
220 235 254
220 235 254
220 235 254
220 235 254
220 235 254
220 235 254
220 235 254
220 235 254
220 235 254
220 235 254
220 235 254
220 235 254
220 235 254
220 235 254
220 235 254
220 235 254
220 235 254
220 235 254
220 235 254
220 235 254
220 235 254
220 235 254
220 235 254
220 235 254
220 235 254
220 235 254
220 235 254
220 235 254
220 235 254
220 235 254
220 235 254
220 235 254
220 235 254
220 235 254
220 235 254
220 235 254
220 235 254
220 235 254
220 235 254
220 235 254
220 235 254
220 235 254
220 235 254
98 105 115
54 59 67
73 81 91
62 69 78
46 50 57
44 49 55
58 64 72
71 79 90
69 77 87
77 85 96
78 87 98
68 76 86
51 56 64
29 32 36
17 19 22
29 33 37
42 47 54
44 48 54
41 46 51
42 46 52
49 54 61
57 63 71
62 69 78
65 72 82
66 73 82
69 76 86
69 76 86
60 67 76
61 68 77
57 63 72
56 62 70
62 68 77
58 64 73
65 71 80
54 60 68
41 46 51
27 30 34
25 27 31
31 34 38
34 38 43
35 39 44
36 40 45
35 39 44
35 39 43
25 28 32
9 10 11
22 24 28
29 32 36
38 42 47
45 50 57
57 64 72
69 77 87
71 79 89
76 84 95
73 81 92
80 88 99
80 89 101
83 91 102
78 86 96
67 74 83
63 70 79
65 72 80
62 68 77
58 64 72
54 59 67
59 66 74
60 67 75
59 65 73
58 64 72
60 66 74
63 70 78
61 68 77
58 64 72
63 69 78
60 66 75
58 63 71
55 61 69
50 56 63
41 46 52
33 36 41
20 22 25
20 22 25
19 21 24
8 8 9
12 13 15
14 16 18
19 21 24
28 31 35
34 38 42
36 40 46
38 42 48
40 44 50
45 50 57
45 50 56
40 45 50
34 37 42
25 28 32
13 15 17
14 16 18
18 20 23
33 36 41
37 41 46
43 47 54
39 43 49
29 32 36
26 29 33
28 31 35
33 37 41
25 28 31
16 18 21
19 21 24
15 17 19
13 14 16
19 21 24
22 25 28
21 23 26
22 24 27
17 19 22
10 11 12
8 9 11
25 28 31
33 37 42
26 29 33
20 22 25
14 15 18
19 21 23
19 21 23
22 25 28
27 30 34
35 39 44
40 44 50
44 48 55
42 46 52
30 33 37
16 17 19
17 19 22
35 39 44
44 48 54
44 49 56
43 48 55
54 60 69
61 67 76
58 65 73
68 75 85
73 80 90
77 85 95
77 85 95
72 80 91
78 87 99
83 91 103
94 103 116
95 105 119
96 107 120
94 104 117
95 105 118
101 112 126
100 112 127
103 114 129
104 116 131
112 124 140
118 129 145
107 119 135
104 115 130
100 110 124
92 102 116
88 97 110
77 84 95
81 89 100
72 79 90
79 87 98
75 83 93
70 77 87
73 81 92
76 84 95
75 83 93
75 83 94
70 78 88
60 67 76
50 55 62
42 46 52
30 33 37
29 32 36
23 26 29
24 27 30
36 39 45
36 40 46
38 42 47
39 43 49
59 65 73
67 74 83
73 80 90
68 75 86
87 97 109
85 93 105
77 85 96
95 102 112
220 235 254
220 235 254
220 235 254
220 235 254
220 235 254
220 235 254
220 235 254
220 235 254
220 235 254
220 235 254
220 235 254
220 235 254
220 235 254
220 235 254
220 235 254
220 235 254
220 235 254
220 235 254
220 235 254
220 235 254
220 235 254
220 235 254
220 235 254
220 235 254
220 235 254
220 235 254
220 235 254
220 235 254
220 235 254
220 235 254
220 235 254
220 235 254
220 235 254
220 235 254
220 235 254
220 235 254
220 235 254
220 235 254
220 235 254
220 235 254
220 235 254
220 235 254
220 235 254
220 235 254
220 235 254
220 235 254
220 235 254
220 235 254
220 235 254
220 235 254
220 235 254
220 235 254
220 235 254
220 235 254
220 235 254
220 235 254
220 235 254
220 235 254
220 235 254
220 235 254
220 235 254
220 235 254
220 235 254
220 235 254
220 235 254
220 235 254
220 235 254
220 235 254
220 235 254
220 235 254
220 235 254
220 235 254
220 235 254
220 235 254
220 235 254
220 235 254
220 235 254
220 235 254
220 235 254
220 235 254
220 235 254
220 235 254
220 235 254
220 235 254
220 235 254
220 235 254
220 235 254
220 235 254
220 235 254
220 235 254
220 235 254
220 235 254
220 235 254
220 235 254
220 235 254
220 235 254
220 235 254
220 235 254
220 235 254
220 235 254
220 235 254
220 235 254
220 235 254
220 235 254
220 235 254
220 235 254
220 235 254
220 235 254
220 235 254
220 235 254
220 235 254
220 235 254
220 235 254
220 235 254
220 235 254
220 235 254
220 235 254
220 235 254
220 235 254
220 235 254
220 235 254
220 235 254
220 235 254
220 235 254
220 235 254
220 235 254
220 235 254
220 235 254
220 235 254
220 235 254
220 235 254
220 235 254
220 235 254
220 235 254
220 235 254
220 235 254
220 235 254
220 235 254
220 235 254
220 235 254
220 235 254
220 235 254
220 235 254
220 235 254
220 235 254
220 235 254
220 235 254
220 235 254
220 235 254
220 235 254
220 235 254
220 235 254
220 235 254
220 235 254
220 235 254
220 235 254
220 235 254
220 235 254
220 235 254
220 235 254
220 235 254
220 235 254
220 235 254
220 235 254
220 235 254
220 235 254
220 235 254
220 235 254
220 235 254
220 235 254
220 235 254
220 235 254
220 235 254
220 235 254
220 235 254
220 235 254
220 235 254
220 235 254
220 235 254
220 235 254
220 235 254
220 235 254
220 235 254
220 235 254
220 235 254
220 235 254
220 235 254
220 235 254
220 235 254
220 235 254
220 235 254
220 235 254
220 235 254
220 235 254
220 235 254
220 235 254
220 235 254
220 235 254
220 235 254
220 235 254
220 235 254
220 235 254
220 235 254
220 235 254
107 114 125
50 55 62
70 77 88
68 75 85
33 36 40
49 54 61
69 76 86
80 89 100
77 84 95
85 94 105
77 85 96
64 71 80
52 57 65
33 37 42
25 28 31
36 40 45
49 54 61
48 52 59
49 55 62
49 54 61
54 60 67
65 71 80
72 80 90
70 77 86
70 78 87
67 74 84
65 71 81
62 69 78
60 66 75
61 68 77
61 67 75
60 66 74
60 67 75
57 63 71
50 56 63
31 34 39
19 21 23
21 23 26
25 28 32
27 30 34
32 35 40
42 46 52
39 44 50
33 37 42
27 30 34
12 14 16
11 12 14
12 14 15
27 30 34
47 52 58
54 60 68
64 71 80
72 80 91
75 83 93
74 82 92
77 85 96
81 89 101
77 85 96
77 85 96
66 73 82
67 74 83
62 68 77
66 72 82
55 60 68
61 67 76
60 66 74
60 67 75
61 67 76
62 68 77
62 68 77
59 66 74
65 71 80
61 67 76
61 68 77
62 68 77
59 65 73
53 58 65
49 54 61
42 47 53
32 36 40
24 27 30
25 28 31
25 28 31
15 16 18
24 26 30
19 21 24
17 19 21
22 25 28
26 29 33
30 34 38
31 34 38
40 44 50
46 51 58
44 48 55
35 39 44
28 30 34
14 16 18
16 18 20
25 27 31
34 38 43
38 42 47
37 41 47
45 49 56
42 46 52
32 35 40
34 37 42
37 41 46
39 43 49
37 41 46
33 37 41
25 27 31
19 21 24
18 20 22
21 23 26
23 26 29
23 25 29
19 21 24
10 12 13
8 9 10
13 15 17
23 25 29
30 33 37
28 31 35
19 21 24
31 35 39
32 35 40
28 31 35
28 30 34
31 34 38
35 39 44
42 46 52
43 47 53
36 40 46
29 32 37
11 13 14
20 23 26
35 38 43
42 46 52
48 53 60
45 50 56
44 49 56
57 63 70
60 66 74
63 70 78
66 73 82
69 76 85
70 77 87
71 79 89
78 87 98
81 89 100
92 102 114
95 105 117
89 99 112
93 103 116
102 114 129
102 113 127
101 112 126
103 114 129
98 108 122
111 123 139
113 125 140
107 119 135
103 113 127
96 106 120
86 94 106
87 95 107
81 89 101
76 84 95
74 82 93
68 75 85
71 78 89
66 73 82
74 82 92
75 83 94
79 87 98
75 83 93
63 70 79
60 67 76
57 63 71
42 46 52
33 36 41
28 31 35
26 29 32
21 23 26
39 43 49
46 51 57
38 42 47
44 49 56
62 68 77
71 78 88
73 81 91
72 79 89
78 86 97
86 95 107
72 79 89
103 111 121
220 235 254
220 235 254
220 235 254
220 235 254
220 235 254
220 235 254
220 235 254
220 235 254
220 235 254
220 235 254
220 235 254
220 235 254
220 235 254
220 235 254
220 235 254
220 235 254
220 235 254
220 235 254
220 235 254
220 235 254
220 235 254
220 235 254
220 235 254
220 235 254
220 235 254
220 235 254
220 235 254
220 235 254
220 235 254
220 235 254
220 235 254
220 235 254
220 235 254
220 235 254
220 235 254
220 235 254
220 235 254
220 235 254
220 235 254
220 235 254
220 235 254
220 235 254
220 235 254
220 235 254
220 235 254
220 235 254
220 235 254
220 235 254
220 235 254
220 235 254
220 235 254
220 235 254
220 235 254
220 235 254
220 235 254
220 235 254
220 235 254
220 235 254
220 235 254
220 235 254
220 235 254
220 235 254
220 235 254
220 235 254
220 235 254
220 235 254
220 235 254
220 235 254
220 235 254
220 235 254
220 235 254
220 235 254
220 235 254
220 235 254
220 235 254
220 235 254
220 235 254
220 235 254
220 235 254
220 235 254
220 235 254
220 235 254
220 235 254
220 235 254
220 235 254
220 235 254
220 235 254
220 235 254
220 235 254
220 235 254
220 235 254
220 235 254
220 235 254
220 235 254
220 235 254
220 235 254
220 235 254
220 235 254
220 235 254
220 235 254
220 235 254
220 235 254
220 235 254
220 235 254
220 235 254
220 235 254
220 235 254
220 235 254
220 235 254
220 235 254
220 235 254
220 235 254
220 235 254
220 235 254
220 235 254
220 235 254
220 235 254
220 235 254
220 235 254
220 235 254
220 235 254
220 235 254
220 235 254
220 235 254
220 235 254
220 235 254
220 235 254
220 235 254
220 235 254
220 235 254
220 235 254
220 235 254
220 235 254
220 235 254
220 235 254
220 235 254
220 235 254
220 235 254
220 235 254
220 235 254
220 235 254
220 235 254
220 235 254
220 235 254
220 235 254
220 235 254
220 235 254
220 235 254
220 235 254
220 235 254
220 235 254
220 235 254
220 235 254
220 235 254
220 235 254
220 235 254
220 235 254
220 235 254
220 235 254
220 235 254
220 235 254
220 235 254
220 235 254
220 235 254
220 235 254
220 235 254
220 235 254
220 235 254
220 235 254
220 235 254
220 235 254
220 235 254
220 235 254
220 235 254
220 235 254
220 235 254
220 235 254
220 235 254
220 235 254
220 235 254
220 235 254
220 235 254
220 235 254
220 235 254
220 235 254
220 235 254
220 235 254
220 235 254
220 235 254
220 235 254
220 235 254
220 235 254
220 235 254
220 235 254
220 235 254
220 235 254
220 235 254
220 235 254
220 235 254
220 235 254
220 235 254
220 235 254
220 235 254
220 235 254
112 120 130
47 53 60
65 72 81
61 67 76
31 34 38
59 65 74
69 76 86
82 90 102
77 85 96
85 94 107
79 88 99
67 74 85
55 60 68
37 41 46
37 41 46
46 51 58
55 61 69
58 64 72
57 63 71
55 61 68
58 65 73
66 73 82
74 82 92
75 83 93
68 76 87
71 79 88
72 79 89
62 69 79
64 71 79
67 74 84
63 70 79
66 73 83
56 63 71
54 59 67
41 45 51
22 24 27
11 12 13
13 14 16
19 21 24
23 25 29
34 38 43
42 47 53
44 49 56
37 42 47
27 30 34
17 19 22
15 17 19
14 15 17
18 20 23
33 36 41
47 52 59
62 68 77
73 81 92
75 83 94
69 77 87
75 83 94
76 84 95
83 91 102
75 83 93
66 73 82
59 65 74
62 68 76
56 62 70
56 63 71
56 62 71
61 67 76
62 69 78
61 67 75
59 65 74
61 68 76
60 66 74
61 68 77
63 70 79
59 65 74
57 63 72
59 65 73
52 58 65
45 50 56
43 47 53
38 42 47
30 34 38
26 28 32
23 25 28
13 15 17
25 27 30
24 27 30
15 17 19
10 11 13
13 15 17
20 22 25
26 29 33
36 40 45
37 40 46
34 38 43
29 32 36
19 21 24
17 19 22
25 28 31
37 41 46
43 48 54
46 51 58
42 46 52
47 52 59
43 48 54
42 47 53
37 41 47
41 46 51
42 46 52
40 44 50
39 43 49
30 34 39
24 27 31
26 29 33
30 33 37
32 35 40
36 40 44
28 31 35
19 21 23
12 14 16
20 22 24
25 28 32
27 30 34
21 24 27
20 22 25
29 32 36
35 39 44
37 41 47
35 39 44
27 30 34
33 36 40
39 43 48
39 43 49
36 39 44
21 23 26
11 12 14
21 23 26
38 43 48
43 48 54
47 52 59
45 50 56
48 53 60
52 58 65
53 58 66
57 63 71
66 73 82
63 70 79
63 69 78
68 75 85
73 80 90
78 86 97
87 96 108
91 101 115
91 101 114
97 108 121
98 108 121
101 112 125
99 109 123
103 114 128
102 113 127
107 118 133
114 126 142
106 117 133
99 110 124
103 113 127
89 98 110
83 91 103
78 86 98
73 81 91
72 80 90
72 79 89
72 79 90
68 74 83
74 82 92
72 80 91
73 81 91
76 84 96
64 70 79
64 71 80
54 59 67
41 45 51
38 42 47
37 41 46
31 34 39
20 22 25
35 39 44
45 50 56
45 50 57
55 60 68
70 77 86
71 78 87
77 85 95
73 80 91
78 86 98
87 96 108
68 75 85
111 119 130
220 235 254
220 235 254
220 235 254
220 235 254
220 235 254
220 235 254
220 235 254
220 235 254
220 235 254
220 235 254
220 235 254
220 235 254
220 235 254
220 235 254
220 235 254
220 235 254
220 235 254
220 235 254
220 235 254
220 235 254
220 235 254
220 235 254
220 235 254
220 235 254
220 235 254
220 235 254
220 235 254
220 235 254
220 235 254
220 235 254
220 235 254
220 235 254
220 235 254
220 235 254
220 235 254
220 235 254
220 235 254
220 235 254
220 235 254
220 235 254
220 235 254
220 235 254
220 235 254
220 235 254
220 235 254
220 235 254
220 235 254
220 235 254
220 235 254
220 235 254
220 235 254
220 235 254
220 235 254
220 235 254
220 235 254
220 235 254
220 235 254
220 235 254
220 235 254
220 235 254
220 235 254
220 235 254
220 235 254
220 235 254
220 235 254
220 235 254
220 235 254
220 235 254
220 235 254
220 235 254
220 235 254
220 235 254
220 235 254
220 235 254
220 235 254
220 235 254
220 235 254
220 235 254
220 235 254
220 235 254
220 235 254
220 235 254
220 235 254
220 235 254
220 235 254
220 235 254
220 235 254
220 235 254
220 235 254
220 235 254
220 235 254
220 235 254
220 235 254
220 235 254
220 235 254
220 235 254
220 235 254
220 235 254
220 235 254
220 235 254
220 235 254
220 235 254
220 235 254
220 235 254
220 235 254
220 235 254
220 235 254
220 235 254
220 235 254
220 235 254
220 235 254
220 235 254
220 235 254
220 235 254
220 235 254
220 235 254
220 235 254
220 235 254
220 235 254
220 235 254
220 235 254
220 235 254
220 235 254
220 235 254
220 235 254
220 235 254
220 235 254
220 235 254
220 235 254
220 235 254
220 235 254
220 235 254
220 235 254
220 235 254
220 235 254
220 235 254
220 235 254
220 235 254
220 235 254
220 235 254
220 235 254
220 235 254
220 235 254
220 235 254
220 235 254
220 235 254
220 235 254
220 235 254
220 235 254
220 235 254
220 235 254
220 235 254
220 235 254
220 235 254
220 235 254
220 235 254
220 235 254
220 235 254
220 235 254
220 235 254
220 235 254
220 235 254
220 235 254
220 235 254
220 235 254
220 235 254
220 235 254
220 235 254
220 235 254
220 235 254
220 235 254
220 235 254
220 235 254
220 235 254
220 235 254
220 235 254
220 235 254
220 235 254
220 235 254
220 235 254
220 235 254
220 235 254
220 235 254
220 235 254
220 235 254
220 235 254
220 235 254
220 235 254
220 235 254
220 235 254
220 235 254
220 235 254
220 235 254
220 235 254
220 235 254
220 235 254
220 235 254
220 235 254
220 235 254
220 235 254
220 235 254
220 235 254
220 235 254
220 235 254
100 108 118
49 54 61
56 62 70
61 67 76
31 34 38
65 72 81
74 82 92
82 91 103
81 90 102
83 91 103
77 86 96
65 72 82
55 60 68
41 45 51
46 51 57
60 66 75
59 66 75
69 76 86
61 68 77
55 60 68
59 66 74
63 70 79
75 83 93
75 82 92
76 84 95
67 75 85
70 78 88
70 78 89
63 70 79
67 74 84
67 74 84
64 71 80
60 66 75
52 57 65
40 44 50
21 23 26
18 20 22
13 15 17
15 16 19
31 34 39
35 39 44
46 51 58
47 52 58
42 46 52
35 38 43
26 29 33
24 27 30
21 23 26
15 17 19
29 32 36
40 45 51
57 63 70
59 66 74
68 75 85
70 77 87
74 82 92
71 78 87
70 78 87
71 78 88
68 75 85
61 68 77
60 66 74
58 64 73
59 65 73
58 64 72
58 65 74
59 66 74
57 63 71
53 58 66
61 68 76
64 70 79
58 64 72
65 72 81
62 68 76
60 66 74
51 56 64
44 49 55
41 46 51
42 46 52
41 46 52
33 36 41
25 28 31
17 19 22
15 17 19
20 22 25
20 22 25
23 25 28
20 23 26
13 14 16
11 12 13
21 24 27
30 33 38
31 34 39
26 29 33
16 18 20
8 9 10
22 24 28
31 35 39
44 49 55
48 53 60
51 57 65
53 58 66
52 58 66
46 51 58
49 54 61
46 50 57
47 51 57
49 54 60
41 45 51
37 41 47
35 39 44
36 40 46
36 41 46
35 38 43
37 42 47
37 41 46
35 38 43
29 32 36
22 25 28
22 25 28
25 28 31
19 22 24
16 18 20
25 28 32
34 38 43
33 37 42
33 36 41
33 37 42
23 26 29
28 30 34
36 40 45
34 38 42
29 32 36
17 19 22
21 23 26
30 33 38
41 46 51
47 51 58
40 44 49
42 47 53
45 50 56
50 55 62
50 55 63
53 59 67
57 64 72
63 69 78
58 64 72
58 65 73
70 78 88
73 81 92
76 84 95
92 101 114
98 107 121
89 99 111
95 105 118
97 107 120
98 109 124
101 112 126
107 119 134
102 113 127
105 116 132
106 117 133
106 117 132
96 106 120
88 97 109
76 83 94
79 87 98
68 75 84
75 83 94
62 70 79
65 72 81
61 68 77
72 80 90
77 85 96
75 82 93
72 80 90
63 70 79
55 61 68
56 62 69
42 47 53
45 49 55
38 41 47
33 37 42
18 20 23
38 42 48
49 54 61
55 60 68
59 65 73
66 73 82
72 79 89
78 87 98
72 79 90
77 85 96
78 87 98
65 72 81
114 121 132
220 235 254
220 235 254
220 235 254
220 235 254
220 235 254
220 235 254
220 235 254
220 235 254
220 235 254
220 235 254
220 235 254
220 235 254
220 235 254
220 235 254
220 235 254
220 235 254
220 235 254
220 235 254
220 235 254
220 235 254
220 235 254
220 235 254
220 235 254
220 235 254
220 235 254
220 235 254
220 235 254
220 235 254
220 235 254
220 235 254
220 235 254
220 235 254
220 235 254
220 235 254
220 235 254
220 235 254
220 235 254
220 235 254
220 235 254
220 235 254
220 235 254
220 235 254
220 235 254
220 235 254
220 235 254
220 235 254
220 235 254
220 235 254
220 235 254
220 235 254
220 235 254
220 235 254
220 235 254
220 235 254
220 235 254
220 235 254
220 235 254
220 235 254
220 235 254
220 235 254
220 235 254
220 235 254
220 235 254
220 235 254
220 235 254
220 235 254
220 235 254
220 235 254
220 235 254
220 235 254
220 235 254
220 235 254
220 235 254
220 235 254
220 235 254
220 235 254
220 235 254
220 235 254
220 235 254
220 235 254
220 235 254
220 235 254
220 235 254
220 235 254
220 235 254
220 235 254
220 235 254
220 235 254
220 235 254
220 235 254
220 235 254
220 235 254
220 235 254
220 235 254
220 235 254
220 235 254
220 235 254
220 235 254
220 235 254
220 235 254
220 235 254
220 235 254
220 235 254
220 235 254
220 235 254
220 235 254
220 235 254
220 235 254
220 235 254
220 235 254
220 235 254
220 235 254
220 235 254
220 235 254
220 235 254
220 235 254
220 235 254
220 235 254
220 235 254
220 235 254
220 235 254
220 235 254
220 235 254
220 235 254
220 235 254
220 235 254
220 235 254
220 235 254
220 235 254
220 235 254
220 235 254
220 235 254
220 235 254
220 235 254
220 235 254
220 235 254
220 235 254
220 235 254
220 235 254
220 235 254
220 235 254
220 235 254
220 235 254
220 235 254
220 235 254
220 235 254
220 235 254
220 235 254
220 235 254
220 235 254
220 235 254
220 235 254
220 235 254
220 235 254
220 235 254
220 235 254
220 235 254
220 235 254
220 235 254
220 235 254
220 235 254
220 235 254
220 235 254
220 235 254
220 235 254
220 235 254
220 235 254
220 235 254
220 235 254
220 235 254
220 235 254
220 235 254
220 235 254
220 235 254
220 235 254
220 235 254
220 235 254
220 235 254
220 235 254
220 235 254
220 235 254
220 235 254
220 235 254
220 235 254
220 235 254
220 235 254
220 235 254
220 235 254
220 235 254
220 235 254
220 235 254
220 235 254
220 235 254
220 235 254
220 235 254
220 235 254
220 235 254
220 235 254
220 235 254
220 235 254
220 235 254
220 235 254
220 235 254
220 235 254
117 125 136
49 54 61
65 72 81
59 65 74
34 37 42
67 74 84
76 84 95
84 93 106
87 95 107
82 91 103
79 87 98
67 74 84
55 60 68
57 63 70
57 63 71
61 68 77
71 78 88
70 77 88
69 76 87
67 74 84
62 69 78
71 79 89
76 85 96
74 81 91
72 79 90
68 75 85
65 72 82
66 73 83
72 79 89
66 73 83
66 73 82
59 66 75
54 60 68
47 52 59
37 42 47
20 22 25
14 15 17
16 18 20
28 31 35
42 46 52
43 48 54
49 54 62
49 54 61
44 49 56
42 47 53
32 35 39
26 29 33
24 26 30
16 17 20
30 33 38
41 45 51
57 63 72
64 71 81
65 72 81
66 73 82
68 75 85
70 77 87
74 82 92
70 78 88
63 69 78
64 71 80
59 66 75
63 70 80
61 67 76
59 65 73
60 66 74
56 62 70
53 59 66
54 59 67
57 63 71
59 65 73
58 64 73
58 64 72
56 62 70
51 57 65
42 47 53
39 43 49
38 42 47
35 39 44
32 35 40
25 27 31
16 18 20
21 24 27
29 32 36
28 30 34
22 24 27
24 26 30
28 32 36
27 30 34
16 18 20
14 16 18
24 27 30
27 30 34
21 24 27
16 17 20
15 17 19
17 19 22
33 37 42
44 48 54
50 55 62
56 61 69
58 64 72
57 62 70
47 52 59
52 57 65
51 56 64
53 58 66
54 60 67
52 58 65
42 47 53
43 47 53
43 47 53
44 49 55
38 42 48
33 36 41
31 35 39
32 36 40
26 29 32
17 19 21
12 14 16
15 16 18
9 10 11
14 16 18
19 21 24
27 30 34
29 32 36
32 36 41
28 31 35
19 21 24
24 27 30
33 37 42
41 45 51
30 33 38
17 19 21
28 30 34
41 46 52
43 47 54
47 51 58
43 48 54
47 52 58
44 49 56
42 47 53
47 52 59
42 47 53
51 56 63
51 56 63
56 62 70
62 68 77
63 69 79
73 80 90
81 89 100
87 95 108
93 102 115
87 97 110
89 99 112
91 101 115
94 104 117
93 102 115
96 106 119
95 105 118
97 107 121
109 120 134
98 108 121
94 104 117
86 95 108
75 83 94
73 81 91
69 76 85
67 74 84
69 76 86
64 71 79
63 70 79
72 80 90
74 82 92
69 77 86
62 68 77
59 65 74
51 57 65
50 55 62
46 51 58
44 48 54
39 43 48
33 37 41
14 15 17
35 38 43
53 59 66
58 64 73
70 78 88
75 84 94
75 83 93
78 86 97
75 83 93
76 83 93
75 83 95
55 61 69
109 117 128
220 235 254
220 235 254
220 235 254
220 235 254
220 235 254
220 235 254
220 235 254
220 235 254
220 235 254
220 235 254
220 235 254
220 235 254
220 235 254
220 235 254
220 235 254
220 235 254
220 235 254
220 235 254
220 235 254
220 235 254
220 235 254
220 235 254
220 235 254
220 235 254
220 235 254
220 235 254
220 235 254
220 235 254
220 235 254
220 235 254
220 235 254
220 235 254
220 235 254
220 235 254
220 235 254
220 235 254
220 235 254
220 235 254
220 235 254
220 235 254
220 235 254
220 235 254
220 235 254
220 235 254
220 235 254
220 235 254
220 235 254
220 235 254
220 235 254
220 235 254
220 235 254
220 235 254
220 235 254
220 235 254
220 235 254
220 235 254
220 235 254
220 235 254
220 235 254
220 235 254
220 235 254
220 235 254
220 235 254
220 235 254
220 235 254
220 235 254
220 235 254
220 235 254
220 235 254
220 235 254
220 235 254
220 235 254
220 235 254
220 235 254
220 235 254
220 235 254
220 235 254
220 235 254
220 235 254
220 235 254
220 235 254
220 235 254
220 235 254
220 235 254
220 235 254
220 235 254
220 235 254
220 235 254
220 235 254
220 235 254
220 235 254
220 235 254
220 235 254
220 235 254
220 235 254
220 235 254
220 235 254
220 235 254
220 235 254
220 235 254
220 235 254
220 235 254
221 235 254
221 235 254
221 235 254
221 235 254
221 235 254
221 235 254
221 235 254
221 235 254
221 235 254
221 235 254
221 235 254
221 235 254
221 235 254
221 235 254
221 235 254
221 235 254
221 235 254
221 235 254
221 235 254
221 235 254
221 235 254
221 235 254
221 235 254
221 235 254
221 235 254
221 235 254
221 235 254
221 235 254
221 235 254
221 235 254
221 235 254
221 235 254
221 235 254
221 235 254
221 235 254
221 235 254
221 235 254
221 235 254
221 235 254
221 235 254
221 235 254
221 235 254
221 235 254
221 235 254
221 235 254
221 235 254
221 235 254
221 235 254
221 235 254
221 235 254
221 235 254
221 235 254
221 235 254
221 235 254
221 235 254
221 235 254
221 235 254
221 235 254
221 235 254
221 235 254
221 235 254
221 235 254
221 235 254
221 235 254
221 235 254
221 235 254
221 235 254
221 235 254
221 235 254
221 235 254
221 235 254
221 235 254
221 235 254
221 235 254
221 235 254
221 235 254
221 235 254
221 235 254
221 235 254
221 235 254
221 235 254
221 235 254
221 235 254
221 235 254
221 235 254
221 235 254
221 235 254
221 235 254
221 235 254
221 235 254
221 235 254
221 235 254
221 235 254
221 235 254
221 235 254
221 235 254
221 235 254
221 235 254
221 235 254
221 235 254
221 235 254
221 235 254
126 135 146
45 50 56
63 69 78
56 62 70
42 47 53
70 77 87
79 87 98
87 97 110
76 84 95
85 93 105
80 88 100
73 81 91
60 67 76
63 69 78
67 74 84
69 75 84
79 86 97
73 81 92
77 84 95
72 79 89
72 80 90
72 80 90
77 85 96
76 84 95
72 80 90
63 70 79
74 82 92
73 80 90
74 82 93
76 85 95
66 72 81
60 66 75
55 60 68
44 49 55
34 38 43
22 24 27
11 12 14
22 24 28
32 36 41
44 49 55
46 51 58
49 55 62
48 53 60
49 54 60
46 51 57
39 44 49
32 36 41
28 31 35
15 16 19
26 29 32
38 42 47
47 53 60
56 62 69
55 61 69
60 66 74
63 70 79
65 72 80
67 74 83
65 72 81
66 73 82
64 72 82
60 67 75
63 70 78
62 68 76
60 66 75
57 63 71
55 60 68
52 57 64
52 58 65
53 59 67
52 57 65
58 64 72
49 55 62
48 54 61
43 47 53
41 45 50
35 38 43
33 36 41
29 32 37
26 28 32
16 18 20
26 29 33
36 40 45
34 37 42
30 33 38
29 31 35
30 33 37
27 30 34
30 34 38
30 34 38
21 23 26
12 13 15
22 25 28
26 28 32
15 17 19
16 17 20
14 16 18
26 28 32
39 44 49
46 51 58
57 62 70
60 66 74
54 60 68
54 59 67
54 60 68
51 57 64
53 59 67
55 60 68
47 52 59
48 53 59
44 49 55
47 51 58
46 51 57
34 37 42
32 35 40
24 26 30
22 25 28
15 16 18
12 13 15
14 16 17
15 16 19
20 22 25
20 22 25
21 24 27
14 16 18
20 23 25
27 29 33
20 22 25
24 27 31
26 29 33
36 40 45
39 44 49
33 36 40
18 20 23
22 24 27
39 43 49
49 54 61
46 51 57
47 52 59
50 56 63
49 54 62
39 43 49
39 43 48
34 38 43
40 45 51
46 51 57
48 53 60
55 61 68
61 67 76
74 81 91
82 92 104
86 95 107
87 96 109
87 96 108
85 94 106
86 96 108
88 98 110
85 95 107
96 106 120
102 112 126
98 108 122
103 113 127
95 106 121
99 109 122
85 94 106
79 87 98
68 75 84
68 74 84
62 69 78
67 73 82
61 68 76
67 74 83
71 78 88
74 82 93
69 76 85
62 69 77
59 65 73
51 56 63
49 55 62
41 46 52
43 48 54
43 48 54
36 40 45
17 19 21
27 30 34
55 61 69
60 67 75
74 82 92
80 89 101
84 92 103
77 85 95
76 84 95
79 87 97
70 77 87
51 57 64
130 140 152
221 235 254
221 235 254
221 235 254
221 235 254
221 235 254
221 235 254
221 235 254
221 235 254
221 235 254
221 235 254
221 235 254
221 235 254
221 235 254
221 235 254
221 235 254
221 235 254
221 235 254
221 235 254
221 235 254
221 235 254
221 235 254
221 235 254
221 235 254
221 235 254
221 235 254
221 235 254
221 235 254
221 235 254
221 235 254
221 235 254
221 235 254
221 235 254
221 235 254
221 235 254
221 235 254
221 235 254
221 235 254
221 235 254
221 235 254
221 235 254
221 235 254
221 235 254
221 235 254
221 235 254
221 235 254
221 235 254
221 235 254
221 235 254
221 235 254
221 235 254
221 235 254
221 235 254
221 235 254
221 235 254
221 235 254
221 235 254
221 235 254
221 235 254
221 235 254
221 235 254
221 235 254
221 235 254
221 235 254
221 235 254
221 235 254
221 235 254
221 235 254
221 235 254
221 235 254
221 235 254
221 235 254
221 235 254
221 235 254
221 235 254
221 235 254
221 235 254
221 235 254
221 235 254
221 235 254
221 235 254
221 235 254
221 235 254
221 235 254
221 235 254
221 235 254
221 235 254
221 235 254
221 235 254
221 235 254
221 235 254
221 235 254
221 235 254
221 235 254
221 235 254
221 235 254
221 235 254
221 235 254
221 235 254
221 235 254
221 235 254
221 235 254
221 235 254
221 235 254
221 235 254
221 235 254
221 235 254
221 235 254
221 235 254
221 235 254
221 235 254
221 235 254
221 235 254
221 235 254
221 235 254
221 235 254
221 235 254
221 235 254
221 235 254
221 235 254
221 235 254
221 235 254
221 235 254
221 235 254
221 235 254
221 235 254
221 235 254
221 235 254
221 235 254
221 235 254
221 235 254
221 235 254
221 235 254
221 235 254
221 235 254
221 235 254
221 235 254
221 235 254
221 235 254
221 235 254
221 235 254
221 235 254
221 235 254
221 235 254
221 235 254
221 235 254
221 235 254
221 235 254
221 235 254
221 235 254
221 235 254
221 235 254
221 235 254
221 235 254
221 235 254
221 235 254
221 235 254
221 235 254
221 235 254
221 235 254
221 235 254
221 235 254
221 235 254
221 235 254
221 235 254
221 235 254
221 235 254
221 235 254
221 235 254
221 235 254
221 235 254
221 235 254
221 235 254
221 235 254
221 235 254
221 235 254
221 235 254
221 235 254
221 235 254
221 235 254
221 235 254
221 235 254
221 235 254
221 235 254
221 235 254
221 235 254
221 235 254
221 235 254
221 235 254
221 235 254
221 235 254
221 235 254
221 235 254
221 235 254
221 235 254
221 235 254
221 235 254
221 235 254
221 235 254
221 235 254
221 235 254
221 235 254
221 235 254
221 235 254
221 235 254
143 152 166
42 47 53
63 70 79
55 61 68
43 47 54
72 80 90
81 89 101
98 108 121
97 106 119
89 99 111
85 94 106
76 84 95
70 78 88
82 90 102
75 82 92
81 90 101
84 93 105
85 93 105
76 85 96
74 82 92
76 83 93
77 85 96
81 90 102
71 79 90
70 77 86
76 85 96
70 78 89
72 80 90
76 84 95
69 76 86
68 76 85
59 66 74
53 59 66
45 50 57
39 43 49
34 37 42
28 31 35
36 40 45
36 40 45
42 46 52
48 54 61
48 53 60
47 52 59
57 63 71
51 56 64
47 52 59
47 51 58
41 46 52
21 24 27
23 25 28
33 36 41
40 44 49
47 53 59
47 52 58
50 56 63
52 58 65
56 62 70
56 62 70
63 69 78
58 64 72
60 66 74
66 72 81
67 73 82
57 63 72
57 63 70
53 59 66
51 57 64
53 58 66
51 56 64
53 59 67
48 54 60
47 52 59
41 46 52
36 40 45
32 35 39
29 32 36
31 34 39
25 27 31
15 16 18
11 13 14
25 27 31
38 41 47
44 49 55
39 43 49
35 38 43
34 37 42
38 42 48
38 42 48
36 40 45
37 41 46
28 31 35
20 22 25
16 18 20
17 18 21
14 15 17
14 15 17
14 15 17
23 25 29
35 39 44
40 44 50
50 55 62
54 59 66
52 57 65
46 51 58
44 48 55
48 54 60
50 55 62
48 53 60
45 50 56
43 48 54
43 48 54
44 49 56
40 45 51
34 37 42
29 33 37
24 26 30
22 24 27
13 15 16
17 19 22
18 20 22
12 14 16
15 16 18
13 15 17
10 12 13
10 11 12
11 13 15
14 16 18
15 17 20
22 24 27
25 28 31
33 37 42
35 39 44
25 28 31
14 15 17
21 23 26
41 45 51
46 51 58
48 53 60
52 57 64
49 54 61
44 49 55
38 42 48
31 34 38
29 32 36
36 40 45
34 38 43
40 44 50
50 56 63
62 68 77
75 83 94
78 86 97
83 91 103
81 90 101
83 91 102
88 97 110
80 89 100
84 92 104
85 94 106
84 93 104
84 93 105
88 98 111
93 103 117
92 100 112
83 92 104
82 91 102
72 80 91
59 66 75
67 74 83
59 66 75
62 68 77
61 68 77
68 75 84
69 76 85
73 81 91
61 68 77
51 57 64
49 55 62
49 55 62
50 55 62
44 48 55
48 53 60
45 49 55
36 40 45
25 28 31
28 31 36
56 61 69
64 70 79
76 84 95
83 91 102
76 84 95
81 90 102
80 88 99
80 88 99
69 76 86
36 40 45
151 161 175
221 235 254
221 235 254
221 235 254
221 235 254
221 235 254
221 235 254
221 235 254
221 235 254
221 235 254
221 235 254
221 235 254
221 235 254
221 235 254
221 235 254
221 235 254
221 235 254
221 235 254
221 235 254
221 235 254
221 235 254
221 235 254
221 235 254
221 235 254
221 235 254
221 235 254
221 235 254
221 235 254
221 235 254
221 235 254
221 235 254
221 235 254
221 235 254
221 235 254
221 235 254
221 235 254
221 235 254
221 235 254
221 235 254
221 235 254
221 235 254
221 235 254
221 235 254
221 235 254
221 235 254
221 235 254
221 235 254
221 235 254
221 235 254
221 235 254
221 235 254
221 235 254
221 235 254
221 235 254
221 235 254
221 235 254
221 235 254
221 235 254
221 235 254
221 235 254
221 235 254
221 235 254
221 235 254
221 235 254
221 235 254
221 235 254
221 235 254
221 235 254
221 235 254
221 235 254
221 235 254
221 235 254
221 235 254
221 235 254
221 235 254
221 235 254
221 235 254
221 235 254
221 235 254
221 235 254
221 235 254
221 235 254
221 235 254
221 235 254
221 235 254
221 235 254
221 235 254
221 235 254
221 235 254
221 235 254
221 235 254
221 235 254
221 235 254
221 235 254
221 235 254
221 235 254
221 235 254
221 235 254
221 235 254
221 235 254
221 235 254
221 235 254
221 235 254
221 235 254
221 235 254
221 235 254
221 235 254
221 235 254
221 235 254
221 235 254
221 235 254
221 235 254
221 235 254
221 235 254
221 235 254
221 235 254
221 235 254
221 235 254
221 235 254
221 235 254
221 235 254
221 235 254
221 235 254
221 235 254
221 235 254
221 235 254
221 235 254
221 235 254
221 235 254
221 235 254
221 235 254
221 235 254
221 235 254
221 235 254
221 235 254
221 235 254
221 235 254
221 235 254
221 235 254
221 235 254
221 235 254
221 235 254
221 235 254
221 235 254
221 235 254
221 235 254
221 235 254
221 235 254
221 235 254
221 235 254
221 235 254
221 235 254
221 235 254
221 235 254
221 235 254
221 235 254
221 235 254
221 235 254
221 235 254
221 235 254
221 235 254
221 235 254
221 235 254
221 235 254
221 235 254
221 235 254
221 235 254
221 235 254
221 235 254
221 235 254
221 235 254
221 235 254
221 235 254
221 235 254
221 235 254
221 235 254
221 235 254
221 235 254
221 235 254
221 235 254
221 235 254
221 235 254
221 235 254
221 235 254
221 235 254
221 235 254
221 235 254
221 235 254
221 235 254
221 235 254
221 235 254
221 235 254
221 235 254
221 235 254
221 235 254
221 235 254
221 235 254
221 235 254
221 235 254
221 235 254
221 235 254
221 235 254
221 235 254
221 235 254
221 235 254
158 169 183
37 41 47
58 64 72
48 54 61
45 49 56
73 81 91
84 93 105
88 97 110
92 102 115
98 109 123
92 101 114
83 91 103
76 84 95
83 92 104
77 85 96
82 91 102
88 97 109
88 97 109
89 99 111
84 93 104
74 82 92
76 85 96
75 83 94
74 81 91
75 83 93
78 86 97
72 80 90
78 86 97
82 91 102
72 80 90
74 82 93
64 71 81
56 62 69
46 51 57
46 51 58
45 50 56
45 50 56
42 46 52
41 45 51
44 49 56
48 54 61
53 58 65
48 53 60
58 64 72
60 67 75
53 58 65
53 59 67
49 54 60
35 39 44
20 22 24
20 22 25
22 24 27
27 30 34
33 36 41
40 45 50
46 51 57
45 50 57
49 54 61
54 60 68
58 64 72
59 65 73
65 72 81
65 71 80
60 66 74
56 62 70
52 58 65
52 57 64
55 60 68
54 59 66
49 54 60
41 45 51
40 44 49
30 33 37
19 21 24
11 12 14
15 17 19
15 17 19
12 14 16
17 19 21
22 24 27
29 32 36
40 44 49
45 49 55
43 48 54
35 39 44
38 41 46
39 43 49
45 49 55
43 47 53
43 48 54
39 43 48
37 40 45
29 32 36
19 21 24
14 15 18
14 15 17
21 24 27
31 34 39
32 35 40
34 38 43
36 40 45
39 43 49
39 43 49
39 43 48
41 45 51
39 43 49
39 43 49
34 38 43
39 44 49
38 42 47
37 41 46
35 38 43
30 33 38
28 31 35
29 32 36
23 25 28
10 11 13
14 15 17
24 26 30
23 26 29
9 10 11
10 11 12
19 21 23
20 22 25
21 23 26
26 29 32
23 25 29
17 19 21
16 17 20
14 15 17
18 20 23
18 20 23
11 12 14
10 11 13
16 17 20
29 32 36
45 50 56
53 59 67
46 51 58
53 59 66
52 57 65
44 49 55
34 38 43
35 39 43
30 33 37
31 34 38
40 44 49
50 55 62
64 71 80
72 79 89
78 86 97
81 89 100
79 87 98
77 86 97
90 99 112
76 84 95
74 82 93
77 85 96
74 82 92
78 87 98
83 92 104
94 104 117
91 100 113
86 94 106
72 79 89
68 75 84
58 64 72
60 66 75
61 68 76
62 68 77
58 64 72
65 71 80
70 77 87
64 70 79
62 68 77
49 55 62
43 48 54
47 52 59
45 50 57
49 54 61
42 47 53
46 51 57
35 38 43
27 29 33
30 34 38
57 63 71
63 69 78
78 86 97
77 84 94
80 88 99
67 74 84
82 91 103
80 88 99
62 69 78
33 37 42
157 168 183
221 235 254
221 235 254
221 235 254
221 235 254
221 235 254
221 235 254
221 235 254
221 235 254
221 235 254
221 235 254
221 235 254
221 235 254
221 235 254
221 235 254
221 235 254
221 235 254
221 235 254
221 235 254
221 235 254
221 235 254
221 235 254
221 235 254
221 235 254
221 235 254
221 235 254
221 235 254
221 235 254
221 235 254
221 235 254
221 235 254
221 235 254
221 235 254
221 235 254
221 235 254
221 235 254
221 235 254
221 235 254
221 235 254
221 235 254
221 235 254
221 235 254
221 235 254
221 235 254
221 235 254
221 235 254
221 235 254
221 235 254
221 235 254
221 235 254
221 235 254
221 235 254
221 235 254
221 235 254
221 235 254
221 235 254
221 235 254
221 235 254
221 235 254
221 235 254
221 235 254
221 235 254
221 235 254
221 235 254
221 235 254
221 235 254
221 235 254
221 235 254
221 235 254
221 235 254
221 235 254
221 235 254
221 235 254
221 235 254
221 235 254
221 235 254
221 235 254
221 235 254
221 235 254
221 235 254
221 235 254
221 235 254
221 235 254
221 235 254
221 235 254
221 235 254
221 235 254
221 235 254
221 235 254
221 235 254
221 235 254
221 235 254
221 235 254
221 235 254
221 235 254
221 235 254
221 235 254
221 235 254
221 235 254
221 235 254
221 235 254
221 235 254
221 235 254
221 235 254
221 235 254
221 235 254
221 235 254
221 235 254
221 235 254
221 235 254
221 235 254
221 235 254
221 235 254
221 235 254
221 235 254
221 235 254
221 235 254
221 235 254
221 235 254
221 235 254
221 235 254
221 235 254
221 235 254
221 235 254
221 235 254
221 235 254
221 235 254
221 235 254
221 235 254
221 235 254
221 235 254
221 235 254
221 235 254
221 235 254
221 235 254
221 235 254
221 235 254
221 235 254
221 235 254
221 235 254
221 235 254
221 235 254
221 235 254
221 235 254
221 235 254
221 235 254
221 235 254
221 235 254
221 235 254
221 235 254
221 235 254
221 235 254
221 235 254
221 235 254
221 235 254
221 235 254
221 235 254
221 235 254
221 235 254
221 235 254
221 235 254
221 235 254
221 235 254
221 235 254
221 235 254
221 235 254
221 235 254
221 235 254
221 235 254
221 235 254
221 235 254
221 235 254
221 235 254
221 235 254
221 235 254
221 235 254
221 235 254
221 235 254
221 235 254
221 235 254
221 235 254
221 235 254
221 235 254
221 235 254
221 235 254
221 235 254
221 235 254
221 235 254
221 235 254
221 235 254
221 235 254
221 235 254
221 235 254
221 235 254
221 235 254
221 235 254
221 235 254
221 235 254
221 235 254
221 235 254
221 235 254
221 235 254
221 235 254
221 235 254
221 235 254
171 182 197
36 39 45
54 59 67
51 56 63
50 55 62
67 74 84
86 94 106
93 103 116
91 101 115
99 108 122
97 108 122
87 96 108
84 93 106
87 96 109
84 93 104
94 103 116
93 103 116
87 96 109
85 94 106
87 96 108
74 82 92
78 86 97
77 85 95
76 84 94
82 90 102
68 75 86
78 86 97
83 92 104
81 90 101
80 89 100
83 91 102
64 71 80
66 73 82
53 58 65
49 54 61
48 53 59
50 56 63
44 49 55
49 55 62
51 56 63
46 52 58
51 55 62
54 59 67
59 65 73
64 71 80
63 69 78
60 67 75
48 53 60
46 51 57
34 37 42
27 30 34
19 20 23
12 13 15
18 20 23
29 32 36
35 39 45
37 41 46
38 43 48
48 53 59
48 53 60
53 59 66
61 68 76
60 67 75
59 65 73
52 57 65
51 56 63
44 49 55
49 54 61
42 47 53
38 42 47
34 38 42
29 32 36
17 18 21
11 12 14
26 29 32
25 28 31
17 19 21
19 20 23
24 27 30
28 31 35
30 33 37
38 42 48
45 49 56
47 52 59
45 50 56
39 44 49
37 41 47
41 46 52
46 50 57
47 51 58
50 55 62
47 52 59
46 51 57
37 41 46
28 30 34
26 29 32
30 33 37
37 41 46
35 38 43
28 31 35
28 31 35
25 28 32
26 28 32
34 37 42
32 35 40
31 34 39
34 37 42
29 32 36
27 30 34
33 36 41
28 31 35
27 30 34
22 24 28
25 28 32
30 33 37
28 31 35
12 13 15
20 22 25
29 32 36
24 27 30
15 16 18
19 21 23
23 25 28
23 26 29
25 27 31
36 40 45
36 39 44
32 36 41
29 32 36
26 29 33
26 29 33
23 26 29
15 17 19
13 15 16
18 20 22
16 18 20
38 42 47
47 52 58
51 57 64
49 54 61
48 53 60
46 51 58
43 48 54
28 30 34
19 21 24
27 30 34
40 45 51
50 55 62
62 68 77
66 73 82
75 83 93
84 92 104
77 86 97
81 89 100
82 90 102
76 84 94
73 80 90
66 74 83
64 71 80
65 72 81
78 86 97
81 89 101
87 96 108
75 83 94
72 79 89
60 67 75
52 58 66
56 62 70
57 63 71
52 57 64
53 59 66
55 61 69
63 70 79
61 68 77
53 59 66
40 45 50
34 38 43
42 46 52
39 44 49
41 46 51
36 39 45
36 40 45
27 30 35
18 19 22
37 41 46
61 68 77
66 73 82
77 85 95
80 88 99
79 87 98
70 78 88
81 89 99
78 86 97
62 68 77
26 29 32
170 181 197
221 235 254
221 235 254
221 235 254
221 235 254
221 235 254
221 235 254
221 235 254
221 235 254
221 235 254
221 235 254
221 235 254
221 235 254
221 235 254
221 235 254
221 235 254
221 235 254
221 235 254
221 235 254
221 235 254
221 235 254
221 235 254
221 235 254
221 235 254
221 235 254
221 235 254
221 235 254
221 235 254
221 235 254
221 235 254
221 235 254
221 235 254
221 235 254
221 235 254
221 235 254
221 235 254
221 235 254
221 235 254
221 235 254
221 235 254
221 235 254
221 235 254
221 235 254
221 235 254
221 235 254
221 235 254
221 235 254
221 235 254
221 235 254
221 235 254
221 235 254
221 235 254
221 235 254
221 235 254
221 235 254
221 235 254
221 235 254
221 235 254
221 235 254
221 235 254
221 235 254
221 235 254
221 235 254
221 235 254
221 235 254
221 235 254
221 235 254
221 235 254
221 235 254
221 235 254
221 235 254
221 235 254
221 235 254
221 235 254
221 235 254
221 235 254
221 235 254
221 235 254
221 235 254
221 235 254
221 235 254
221 235 254
221 235 254
221 235 254
221 235 254
221 235 254
221 235 254
221 235 254
221 235 254
221 235 254
221 235 254
221 235 254
221 235 254
221 235 254
221 235 254
221 235 254
221 235 254
221 235 254
221 235 254
221 235 254
221 235 254
221 235 254
221 235 254
221 235 254
221 235 254
221 235 254
221 235 254
221 235 254
221 235 254
221 235 254
221 235 254
221 235 254
221 235 254
221 235 254
221 235 254
221 235 254
221 235 254
221 235 254
221 235 254
221 235 254
221 235 254
221 235 254
221 235 254
221 235 254
221 235 254
221 235 254
221 235 254
221 235 254
221 235 254
221 235 254
221 235 254
221 235 254
221 235 254
221 235 254
221 235 254
221 235 254
221 235 254
221 235 254
221 235 254
221 235 254
221 235 254
221 235 254
221 235 254
221 235 254
221 235 254
221 235 254
221 235 254
221 235 254
221 235 254
221 235 254
221 235 254
221 235 254
221 235 254
221 235 254
221 235 254
221 235 254
221 235 254
221 235 254
221 235 254
221 235 254
221 235 254
221 235 254
221 235 254
221 235 254
221 235 254
221 235 254
221 235 254
221 235 254
221 235 254
221 235 254
221 235 254
221 235 254
221 235 254
221 235 254
221 235 254
221 235 254
221 235 254
221 235 254
221 235 254
221 235 254
221 235 254
221 235 254
221 235 254
221 235 254
221 235 254
221 235 254
221 235 254
221 235 254
221 235 254
221 235 254
221 235 254
221 235 254
221 235 254
221 235 254
221 235 254
221 235 254
221 235 254
221 235 254
221 235 254
221 235 254
221 235 254
221 235 254
221 235 254
221 235 254
221 235 254
172 183 199
31 34 39
51 56 63
41 46 51
50 55 63
66 74 83
77 85 96
88 97 110
96 106 119
99 109 122
102 113 127
93 103 116
93 102 115
83 91 103
85 94 105
84 92 103
94 104 117
89 98 112
93 104 118
85 94 106
83 92 103
78 86 97
79 88 100
77 86 97
79 87 98
78 85 96
83 91 102
81 90 101
87 97 109
84 93 105
85 94 106
83 91 102
59 65 74
54 59 67
51 56 63
54 60 67
57 63 70
52 58 65
50 56 63
49 55 62
50 55 62
59 65 73
58 64 72
60 66 74
68 75 85
71 79 88
69 76 86
60 66 75
55 60 68
40 44 49
38 42 47
32 35 40
18 20 22
11 12 14
14 16 18
24 26 30
28 31 36
30 33 37
37 41 46
45 50 56
48 53 60
52 58 65
55 61 69
52 58 65
48 53 60
49 54 61
41 45 51
42 46 52
38 42 47
29 33 37
28 31 35
20 22 25
15 17 19
26 29 33
36 40 45
34 38 42
28 31 35
25 27 31
28 31 35
34 37 42
38 42 47
43 48 54
51 56 63
52 57 64
50 56 63
45 50 56
39 43 48
44 48 54
49 54 62
50 56 63
51 56 63
54 59 67
45 49 56
42 47 53
31 35 39
26 29 32
30 33 37
37 41 46
35 38 43
29 32 36
22 25 28
19 21 24
14 16 18
19 21 24
14 15 17
18 19 22
23 25 29
17 19 22
12 13 15
17 19 21
21 23 26
18 20 23
17 19 22
22 25 28
22 24 27
21 24 27
14 16 18
25 28 31
30 34 38
24 26 29
13 14 16
20 22 25
26 29 33
24 26 30
26 29 32
39 44 49
39 44 50
39 43 48
35 38 43
27 30 33
28 30 34
25 28 32
15 17 19
16 18 20
15 17 19
15 16 19
29 32 36
40 44 50
48 53 60
45 50 56
47 52 59
38 42 47
32 36 40
21 23 26
15 17 19
27 30 34
45 49 56
53 58 66
63 69 78
64 71 80
67 74 84
73 81 91
72 79 90
78 87 98
78 86 97
66 74 83
66 73 82
66 72 81
62 69 78
62 68 77
64 71 80
74 82 92
77 85 96
72 79 89
64 71 79
58 64 72
53 59 66
51 56 64
50 55 62
46 50 56
44 48 54
49 54 60
58 63 71
49 54 61
41 45 51
36 39 44
29 32 36
33 36 41
32 35 40
30 34 38
25 28 32
21 23 26
16 18 20
25 27 31
44 49 56
58 65 73
65 72 81
76 85 95
87 96 108
71 79 89
64 71 80
75 84 95
71 78 89
55 62 70
23 26 29
166 177 192
221 235 254
221 235 254
221 235 254
221 235 254
221 235 254
221 235 254
221 235 254
221 235 254
221 235 254
221 235 254
221 235 254
221 235 254
221 235 254
221 235 254
221 235 254
221 235 254
221 235 254
221 235 254
221 235 254
221 235 254
221 235 254
221 235 254
221 235 254
221 235 254
221 235 254
221 235 254
221 235 254
221 235 254
221 235 254
221 235 254
221 235 254
221 235 254
221 235 254
221 235 254
221 235 254
221 235 254
221 235 254
221 235 254
221 235 254
221 235 254
221 235 254
221 235 254
221 235 254
221 235 254
221 235 254
221 235 254
221 235 254
221 235 254
221 235 254
221 235 254
221 235 254
221 235 254
221 235 254
221 235 254
221 235 254
221 235 254
221 235 254
221 235 254
221 235 254
221 235 254
221 235 254
221 235 254
221 235 254
221 235 254
221 235 254
221 235 254
221 235 254
221 235 254
221 235 254
221 235 254
221 235 254
221 235 254
221 235 254
221 235 254
221 235 254
221 235 254
221 235 254
221 235 254
221 235 254
221 235 254
221 235 254
221 235 254
221 235 254
221 235 254
221 235 254
221 235 254
221 235 254
221 235 254
221 235 254
221 235 254
221 235 254
221 235 254
221 235 254
221 235 254
221 235 254
221 235 254
221 235 254
221 235 254
221 235 254
221 235 254
221 235 254
221 235 254
221 235 254
221 235 254
221 235 254
221 235 254
221 235 254
221 235 254
221 235 254
221 235 254
221 235 254
221 235 254
221 235 254
221 235 254
221 235 254
221 235 254
221 235 254
221 235 254
221 235 254
221 235 254
221 235 254
221 235 254
221 235 254
221 235 254
221 235 254
221 235 254
221 235 254
221 235 254
221 235 254
221 235 254
221 235 254
221 235 254
221 235 254
221 235 254
221 235 254
221 235 254
221 235 254
221 235 254
221 235 254
221 235 254
221 235 254
221 235 254
221 235 254
221 235 254
221 235 254
221 235 254
221 235 254
221 235 254
221 235 254
221 235 254
221 235 254
221 235 254
221 235 254
221 235 254
221 235 254
221 235 254
221 235 254
221 235 254
221 235 254
221 235 254
221 235 254
221 235 254
221 235 254
221 235 254
221 235 254
221 235 254
221 235 254
221 235 254
221 235 254
221 235 254
221 235 254
221 235 254
221 235 254
221 235 254
221 235 254
221 235 254
221 235 254
221 235 254
221 235 254
221 235 254
221 235 254
221 235 254
221 235 254
221 235 254
221 235 254
221 235 254
221 235 254
221 235 254
221 235 254
221 235 254
221 235 254
221 235 254
221 235 254
221 235 254
221 235 254
221 235 254
221 235 254
221 235 254
221 235 254
221 235 254
221 235 254
221 235 254
221 235 254
221 235 254
197 210 228
30 34 38
48 52 59
40 44 50
51 57 64
64 71 80
71 78 88
84 94 106
93 103 115
95 104 117
104 115 129
96 106 120
94 104 118
94 103 116
93 103 116
94 105 119
93 103 116
95 105 119
98 107 121
95 104 117
89 98 111
74 82 93
85 93 104
81 90 101
79 88 99
80 89 100
85 93 105
83 91 103
86 95 107
86 95 106
91 100 113
82 91 103
71 78 88
58 65 73
56 62 70
60 66 74
54 60 68
54 60 67
60 66 74
58 64 72
59 65 73
63 70 78
69 76 85
74 81 91
73 81 91
76 85 95
73 81 91
65 72 81
56 62 69
46 51 57
38 42 48
31 34 39
26 28 32
24 27 30
24 27 30
22 24 27
13 14 16
14 15 17
19 21 23
28 31 35
37 41 46
42 47 53
47 52 59
50 55 62
47 52 59
46 51 58
41 45 51
30 34 38
26 28 32
15 17 19
13 15 17
15 16 18
26 29 32
36 40 45
37 41 47
38 42 47
35 39 44
34 38 42
28 31 35
32 36 40
34 37 42
43 47 53
49 54 61
48 53 60
49 54 60
43 47 53
45 49 56
41 46 52
47 52 58
46 51 57
52 57 65
46 51 57
42 47 53
40 44 50
32 36 41
27 30 34
30 33 37
33 37 41
28 31 35
19 21 24
13 14 16
14 15 17
17 19 21
18 20 22
17 19 21
15 17 19
17 19 22
14 15 17
9 10 11
9 10 12
16 17 20
21 23 26
22 25 28
16 17 19
10 11 13
14 15 17
24 27 30
29 32 37
32 35 40
29 32 36
19 21 24
15 17 19
26 28 32
21 23 26
24 27 30
39 42 47
40 45 51
45 49 56
38 42 47
33 36 41
32 36 40
31 34 38
19 21 23
10 12 13
9 10 12
17 19 21
26 29 33
34 38 43
42 46 51
39 43 48
41 46 52
36 39 44
26 29 33
18 20 23
20 22 25
30 33 38
44 49 55
54 59 67
57 63 72
58 64 72
71 78 87
64 71 80
74 82 92
75 83 94
70 77 87
70 77 86
63 69 77
57 63 72
56 62 70
54 59 67
61 67 76
73 80 90
66 73 82
64 71 81
56 62 70
54 60 67
48 53 60
48 53 60
53 59 66
43 48 54
34 38 43
39 43 49
44 48 54
41 45 50
31 34 39
27 30 33
20 22 24
22 24 27
20 22 25
18 20 23
20 22 25
10 12 13
21 23 26
32 35 40
44 49 55
54 60 68
72 79 89
81 90 102
80 89 101
67 74 83
66 74 83
68 75 84
72 80 90
54 60 68
26 28 32
183 195 212
221 235 254
221 235 254
221 235 254
221 235 254
221 235 254
221 235 254
221 235 254
221 235 254
221 235 254
221 235 254
221 235 254
221 235 254
221 235 254
221 235 254
221 235 254
221 235 254
221 235 254
221 235 254
221 235 254
221 235 254
221 235 254
221 235 254
221 235 254
221 235 254
221 235 254
221 235 254
221 235 254
221 235 254
221 235 254
221 235 254
221 235 254
221 235 254
221 235 254
221 235 254
221 235 254
221 235 254
221 235 254
221 235 254
221 235 254
221 235 254
221 235 254
221 235 254
221 235 254
221 235 254
221 235 254
221 235 254
221 235 254
221 235 254
221 235 254
221 235 254
221 235 254
221 235 254
221 235 254
221 235 254
221 235 254
221 235 254
221 235 254
221 235 254
221 235 254
221 235 254
221 235 254
221 235 254
221 235 254
221 235 254
221 235 254
221 235 254
221 235 254
221 235 254
221 235 254
221 235 254
221 235 254
221 235 254
221 235 254
221 235 254
221 235 254
221 235 254
221 235 254
221 235 254
221 235 254
221 235 254
221 235 254
221 235 254
221 235 254
221 235 254
221 235 254
221 235 254
221 235 254
221 235 254
221 235 254
221 235 254
221 235 254
221 235 254
221 235 254
221 235 254
221 235 254
221 235 254
221 235 254
221 235 254
221 235 254
221 235 254
221 235 254
221 235 254
221 235 254
221 235 254
221 235 254
221 235 254
221 235 254
221 235 254
221 235 254
221 235 254
221 235 254
221 235 254
221 235 254
221 235 254
221 235 254
221 235 254
221 235 254
221 235 254
221 235 254
221 235 254
221 235 254
221 235 254
221 235 254
221 235 254
221 235 254
221 235 254
221 235 254
221 235 254
221 235 254
221 235 254
221 235 254
221 235 254
221 235 254
221 235 254
221 235 254
221 235 254
221 235 254
221 235 254
221 235 254
221 235 254
221 235 254
221 235 254
221 235 254
221 235 254
221 235 254
221 235 254
221 235 254
221 235 254
221 235 254
221 235 254
221 235 254
221 235 254
221 235 254
221 235 254
221 235 254
221 235 254
221 235 254
221 235 254
221 235 254
221 235 254
221 235 254
221 235 254
221 235 254
221 235 254
221 235 254
221 235 254
221 235 254
221 235 254
221 235 254
221 235 254
221 235 254
221 235 254
221 235 254
221 235 254
221 235 254
221 235 254
221 235 254
221 235 254
221 235 254
221 235 254
221 235 254
221 235 254
221 235 254
221 235 254
221 235 254
221 235 254
221 235 254
221 235 254
221 235 254
221 235 254
221 235 254
221 235 254
221 235 254
221 235 254
221 235 254
221 235 254
221 235 254
221 235 254
221 235 254
221 235 254
221 235 254
221 235 254
221 235 254
221 235 254
205 218 237
38 41 46
38 42 48
30 33 37
46 51 58
62 68 76
75 82 93
81 90 102
95 105 118
96 106 119
104 114 129
99 110 125
108 119 133
99 109 123
93 102 115
95 106 119
97 107 120
93 103 116
97 107 121
94 104 118
94 103 116
89 98 110
79 87 99
76 85 96
80 87 98
74 82 92
86 95 107
80 88 99
84 93 104
88 97 110
88 97 110
83 92 103
74 82 92
72 79 90
70 77 87
62 69 78
60 66 74
59 65 72
62 69 78
64 71 80
68 75 84
65 72 81
73 81 91
77 86 97
81 89 100
81 88 99
74 82 93
70 77 87
62 69 77
48 53 60
42 46 52
31 34 38
30 33 37
31 34 38
32 35 40
31 35 40
24 27 30
17 19 21
18 20 23
15 17 19
28 31 35
36 40 45
43 48 54
44 48 55
41 45 51
42 46 52
34 38 42
25 27 31
18 20 22
17 19 22
11 12 14
26 28 32
33 37 42
36 40 44
38 42 47
39 43 49
36 39 44
32 35 40
27 30 34
28 31 35
33 36 41
42 46 52
45 49 56
45 50 57
44 49 56
39 44 49
46 51 57
47 52 58
52 57 64
47 53 60
51 56 63
42 46 52
44 49 55
37 40 45
31 34 39
30 33 37
29 32 36
27 30 34
22 24 28
17 19 21
25 28 32
29 32 36
31 35 39
34 37 42
33 37 41
35 39 44
28 31 35
23 25 28
13 14 16
16 18 20
28 31 35
29 32 36
27 30 34
24 27 30
16 18 21
20 22 25
31 34 38
31 34 39
27 30 35
31 34 39
24 27 30
14 15 17
17 19 21
15 17 20
24 26 30
33 36 41
39 43 49
44 48 54
43 47 53
39 43 49
33 37 41
26 29 32
19 21 24
18 20 23
23 25 28
16 18 20
25 27 31
30 34 38
38 42 47
37 41 46
35 39 44
30 33 38
28 31 35
22 25 28
25 28 31
28 31 34
36 40 45
43 48 54
51 57 64
56 62 70
64 70 79
71 79 89
71 79 89
71 78 88
64 71 81
62 68 77
59 65 73
51 56 64
47 52 59
44 49 55
53 59 66
61 67 76
59 65 74
57 62 70
51 56 63
49 55 62
45 50 57
47 52 58
51 57 64
41 45 51
36 39 44
38 42 47
36 40 45
29 32 37
24 27 30
19 21 24
16 18 20
14 16 18
18 20 22
18 20 23
15 17 19
17 18 20
28 31 35
36 40 46
46 51 57
62 68 76
65 72 81
76 84 95
68 75 85
60 66 74
59 66 75
62 69 78
68 75 85
55 61 68
30 33 38
209 222 241
221 235 254
221 235 254
221 235 254
221 235 254
221 235 254
221 235 254
221 235 254
221 235 254
221 235 254
221 235 254
221 235 254
221 235 254
221 235 254
221 235 254
221 235 254
221 235 254
221 235 254
221 235 254
221 235 254
221 235 254
221 235 254
221 235 254
221 235 254
221 235 254
221 235 254
221 235 254
221 235 254
221 235 254
221 235 254
221 235 254
221 235 254
221 235 254
221 235 254
221 235 254
221 235 254
221 235 254
221 235 254
221 235 254
221 235 254
221 235 254
221 235 254
221 235 254
221 235 254
221 235 254
221 235 254
221 235 254
221 235 254
221 235 254
221 235 254
221 235 254
221 235 254
221 235 254
221 235 254
221 235 254
221 235 254
221 235 254
221 235 254
221 235 254
221 235 254
221 235 254
221 235 254
221 235 254
221 235 254
221 235 254
221 235 254
221 235 254
221 235 254
221 235 254
221 235 254
221 235 254
221 235 254
221 235 254
221 235 254
221 235 254
221 235 254
221 235 254
221 235 254
221 235 254
221 235 254
221 235 254
221 235 254
221 235 254
221 235 254
221 235 254
221 235 254
221 235 254
221 235 254
221 235 254
221 235 254
221 235 254
221 235 254
221 235 254
221 235 254
221 235 254
221 235 254
221 235 254
221 235 254
221 235 254
221 235 254
221 235 254
221 235 254
221 235 254
221 235 254
221 235 254
221 235 254
221 235 254
221 235 254
221 235 254
221 235 254
221 235 254
221 235 254
221 235 254
221 235 254
221 235 254
221 235 254
221 235 254
221 235 254
221 235 254
221 235 254
221 235 254
221 235 254
221 235 254
221 235 254
221 235 254
221 235 254
221 235 254
221 235 254
221 235 254
221 235 254
221 235 254
221 235 254
221 235 254
221 235 254
221 235 254
221 235 254
221 235 254
221 235 254
221 235 254
221 235 254
221 235 254
221 235 254
221 235 254
221 235 254
221 235 254
221 235 254
221 235 254
221 235 254
221 235 254
221 235 254
221 235 254
221 235 254
221 235 254
221 235 254
221 235 254
221 235 254
221 235 254
221 235 254
221 235 254
221 235 254
221 235 254
221 235 254
221 235 254
221 235 254
221 235 254
221 235 254
221 235 254
221 235 254
221 235 254
221 235 254
221 235 254
221 235 254
221 235 254
221 235 254
221 235 254
221 235 254
221 235 254
221 235 254
221 235 254
221 235 254
221 235 254
221 235 254
221 235 254
221 235 254
221 235 254
221 235 254
221 235 254
221 235 254
221 235 254
221 235 254
221 235 254
221 235 254
221 235 254
221 235 254
221 235 254
221 235 254
221 235 254
221 235 254
221 235 254
221 235 254
221 235 254
221 235 254
221 235 254
221 235 254
221 235 254
220 234 253
53 57 63
29 31 35
28 31 35
40 44 49
57 63 71
67 74 84
79 87 98
93 102 115
97 108 121
104 116 131
102 114 128
111 122 137
100 110 124
99 109 124
104 115 129
98 108 122
92 101 114
96 106 119
91 101 113
81 89 100
90 99 112
79 88 99
78 86 97
80 89 100
87 95 107
82 90 102
82 91 102
83 92 103
90 99 111
84 92 103
86 95 107
84 93 105
73 80 90
73 81 91
70 78 88
60 66 75
60 66 75
60 67 75
66 73 82
60 66 75
71 78 89
79 87 98
81 89 100
76 84 94
73 81 92
75 83 93
66 73 83
65 72 81
52 58 65
43 47 53
35 39 44
36 40 45
35 39 44
36 40 45
41 46 51
33 36 41
28 31 35
26 29 32
14 16 18
20 22 25
31 34 39
39 43 49
41 45 50
40 44 49
34 37 42
23 26 29
10 12 13
16 18 20
18 19 22
17 19 21
29 32 36
32 36 40
37 40 45
38 42 47
39 43 48
35 38 43
30 33 38
29 32 36
30 33 37
35 39 44
41 45 51
45 49 55
42 46 52
43 48 54
43 47 53
46 51 58
50 56 62
51 56 63
51 57 64
48 53 60
45 50 56
40 44 50
34 38 42
33 36 41
30 33 37
28 31 35
23 26 29
13 15 17
27 30 34
40 44 50
41 45 51
36 40 45
37 40 45
42 46 52
36 40 45
34 38 43
24 27 30
13 14 16
20 22 25
25 27 31
34 37 42
31 35 39
34 37 42
25 28 31
28 31 34
32 35 39
36 40 45
34 38 43
35 38 43
33 37 41
24 27 30
18 20 23
14 15 17
12 13 15
22 24 27
30 33 37
39 43 48
41 46 52
39 43 48
32 35 39
25 27 31
23 26 29
27 30 34
25 27 31
21 23 26
23 26 29
29 32 36
33 36 41
32 35 40
21 23 26
19 21 23
21 23 26
21 23 26
21 23 26
16 18 20
26 29 32
38 42 47
41 45 51
53 59 66
55 61 69
62 69 78
65 71 80
65 71 80
56 61 69
55 61 68
50 55 62
39 44 50
35 39 44
37 41 46
42 47 53
50 55 62
52 57 64
42 47 53
44 49 55
44 49 54
44 48 54
47 52 59
45 50 56
35 39 43
31 34 38
27 30 34
31 35 39
29 32 36
22 24 27
15 16 18
9 10 12
21 23 26
35 39 44
32 35 40
24 26 30
30 33 37
31 34 38
44 49 55
49 54 61
63 70 78
73 81 91
78 86 97
70 77 88
56 62 70
49 54 60
58 64 72
66 72 81
45 50 56
44 48 53
217 230 250
221 235 254
221 235 254
221 235 254
221 235 254
221 235 254
221 235 254
221 235 254
221 235 254
221 235 254
221 235 254
221 235 254
221 235 254
221 235 254
221 235 254
221 235 254
221 235 254
221 235 254
221 235 254
221 235 254
221 235 254
221 235 254
221 235 254
221 235 254
221 235 254
221 235 254
221 235 254
221 235 254
221 235 254
221 235 254
221 235 254
221 235 254
221 235 254
221 235 254
221 235 254
221 235 254
221 235 254
221 235 254
221 235 254
221 235 254
221 235 254
221 235 254
221 235 254
221 235 254
221 235 254
221 235 254
221 235 254
221 235 254
221 235 254
221 235 254
221 235 254
221 235 254
221 235 254
221 235 254
221 235 254
221 235 254
221 235 254
221 235 254
221 235 254
221 235 254
221 235 254
221 235 254
221 235 254
221 235 254
221 235 254
221 235 254
221 235 254
221 235 254
221 235 254
221 235 254
221 235 254
221 235 254
221 235 254
221 235 254
221 235 254
221 235 254
221 235 254
221 235 254
221 235 254
221 235 254
221 235 254
221 235 254
221 235 254
221 235 254
221 235 254
221 235 254
221 235 254
221 235 254
221 235 254
221 235 254
221 235 254
221 235 254
221 235 254
221 235 254
221 235 254
221 235 254
221 235 254
221 235 254
221 235 254
221 235 254
221 235 254
221 235 254
221 235 254
221 235 254
221 235 254
221 235 254
221 235 254
221 235 254
221 235 254
221 235 254
221 235 254
221 235 254
221 235 254
221 235 254
221 235 254
221 235 254
221 235 254
221 235 254
221 235 254
221 235 254
221 235 254
221 235 254
221 235 254
221 235 254
221 235 254
221 235 254
221 235 254
221 235 254
221 235 254
221 235 254
221 235 254
221 235 254
221 235 254
221 235 254
221 235 254
221 235 254
221 235 254
221 235 254
221 235 254
221 235 254
221 235 254
221 235 254
221 235 254
221 235 254
221 235 254
221 235 254
221 235 254
221 235 254
221 235 254
221 235 254
221 235 254
221 235 254
221 235 254
221 235 254
221 235 254
221 235 254
221 235 254
221 235 254
221 235 254
221 235 254
221 235 254
221 235 254
221 235 254
221 235 254
221 235 254
221 235 254
221 235 254
221 235 254
221 235 254
221 235 254
221 235 254
221 235 254
221 235 254
221 235 254
221 235 254
221 235 254
221 235 254
221 235 254
221 235 254
221 235 254
221 235 254
221 235 254
221 235 254
221 235 254
221 235 254
221 235 254
221 235 254
221 235 254
221 235 254
221 235 254
221 235 254
221 235 254
221 235 254
221 235 254
221 235 254
221 235 254
221 235 254
221 235 254
221 235 254
221 235 254
221 235 254
221 235 254
221 235 254
221 235 254
221 235 254
221 235 254
84 91 100
22 24 27
27 30 34
33 37 42
54 60 67
68 75 84
84 92 103
85 94 105
101 111 125
96 107 120
103 113 127
111 123 139
98 109 123
98 108 122
99 110 124
95 105 118
84 93 106
92 102 115
85 93 104
92 102 114
83 92 103
82 90 102
85 94 105
81 90 101
83 92 104
84 94 106
84 92 104
84 92 104
88 97 110
87 97 109
86 95 106
86 95 107
80 89 101
72 80 90
71 78 88
65 72 81
62 69 77
60 66 74
62 69 77
67 73 82
73 81 91
81 89 99
81 90 101
78 86 97
76 84 96
76 84 95
66 73 82
66 72 81
59 66 74
51 56 63
41 46 51
39 44 50
44 48 54
41 45 51
44 49 55
37 41 46
24 26 30
28 31 35
22 24 27
15 16 18
24 27 30
30 33 37
34 37 42
35 39 44
24 27 30
13 15 17
10 11 12
18 20 23
12 13 15
18 19 22
26 28 32
30 33 37
34 38 43
37 41 46
37 41 47
30 34 38
29 32 36
36 39 44
35 39 44
41 45 51
41 45 50
38 42 48
40 45 51
45 49 56
47 52 58
48 53 60
51 57 64
49 54 61
51 56 63
51 57 64
48 52 58
42 46 52
34 37 42
31 34 38
29 32 36
27 29 33
20 22 25
11 12 13
34 37 42
44 48 55
47 51 58
47 52 59
46 50 57
45 49 55
35 39 44
33 37 42
26 28 32
11 13 14
20 22 25
27 30 34
35 38 43
37 41 46
34 38 43
30 33 37
29 32 37
32 36 41
39 44 50
44 48 54
44 49 55
42 46 52
39 43 48
29 32 36
25 28 32
24 26 30
15 16 18
23 26 29
32 36 40
36 40 45
30 34 38
25 28 32
23 26 29
24 26 30
24 27 30
25 28 31
20 22 25
17 19 21
23 25 28
26 29 32
18 20 23
10 11 12
8 9 10
14 16 18
10 12 13
14 15 17
12 14 16
16 18 20
27 30 33
38 43 48
43 47 54
55 61 69
53 59 66
62 69 77
60 66 75
58 64 72
53 59 66
44 49 55
37 40 45
22 25 28
27 30 34
37 40 46
40 44 50
36 40 45
36 40 44
39 43 48
44 48 55
47 51 58
49 54 61
43 47 53
38 42 47
32 35 40
28 31 35
33 36 41
30 33 38
18 20 22
20 22 25
16 17 19
31 34 38
45 50 56
38 42 48
33 37 41
33 36 41
34 37 42
43 47 53
50 56 63
59 66 74
70 77 87
80 88 99
61 68 76
54 60 68
40 44 50
56 62 70
53 59 66
40 44 49
95 102 111
221 235 254
221 235 254
221 235 254
221 235 254
221 235 254
221 235 254
221 235 254
221 235 254
221 235 254
221 235 254
221 235 254
221 235 254
221 235 254
221 235 254
221 235 254
221 235 254
221 235 254
221 235 254
221 235 254
221 235 254
221 235 254
221 235 254
221 235 254
221 235 254
221 235 254
221 235 254
221 235 254
221 235 254
221 235 254
221 235 254
221 235 254
221 235 254
221 235 254
221 235 254
221 235 254
221 235 254
221 235 254
221 235 254
221 235 254
221 235 254
221 235 254
221 235 254
221 235 254
221 235 254
221 235 254
221 235 254
221 235 254
221 235 254
221 235 254
221 235 254
221 235 254
221 235 254
221 235 254
221 235 254
221 235 254
221 235 254
221 235 254
221 235 254
221 235 254
221 235 254
221 235 254
221 235 254
221 235 254
221 235 254
221 235 254
221 235 254
221 235 254
221 235 254
221 235 254
221 235 254
221 235 254
221 235 254
221 235 254
221 235 254
221 235 254
221 235 254
221 235 254
221 235 254
221 235 254
221 235 254
221 235 254
221 235 254
221 235 254
221 235 254
221 235 254
221 235 254
221 235 254
221 235 254
221 235 254
221 235 254
221 235 254
221 235 254
221 235 254
221 235 254
221 235 254
221 235 254
221 235 254
221 235 254
221 235 254
221 235 254
221 235 254
221 235 254
221 235 254
221 235 254
221 235 254
221 235 254
221 235 254
221 235 254
221 235 254
221 235 254
221 235 254
221 235 254
221 235 254
221 235 254
221 235 254
221 235 254
221 235 254
221 235 254
221 235 254
221 235 254
221 235 254
221 235 254
221 235 254
221 235 254
221 235 254
221 235 254
221 235 254
221 235 254
221 235 254
221 235 254
221 235 254
221 235 254
221 235 254
221 235 254
221 235 254
221 235 254
221 235 254
221 235 254
221 235 254
221 235 254
221 235 254
221 235 254
221 235 254
221 235 254
221 235 254
221 235 254
221 235 254
221 235 254
221 235 254
221 235 254
221 235 254
221 235 254
221 235 254
221 235 254
221 235 254
221 235 254
221 235 254
221 235 254
221 235 254
221 235 254
221 235 254
221 235 254
221 235 254
221 235 254
221 235 254
221 235 254
221 235 254
221 235 254
221 235 254
221 235 254
221 235 254
221 235 254
221 235 254
221 235 254
221 235 254
221 235 254
221 235 254
221 235 254
221 235 254
221 235 254
221 235 254
221 235 254
221 235 254
221 235 254
221 235 254
221 235 254
221 235 254
221 235 254
221 235 254
221 235 254
221 235 254
221 235 254
221 235 254
221 235 254
221 235 254
221 235 254
221 235 254
221 235 254
221 235 254
221 235 254
221 235 254
221 235 254
221 235 254
221 235 254
221 235 254
221 235 254
122 131 142
19 21 24
31 35 39
28 31 36
45 50 56
62 69 77
76 85 96
81 89 101
97 107 121
100 111 126
98 108 122
109 120 136
108 120 135
102 113 128
107 117 132
101 112 127
91 101 113
92 101 113
86 95 106
86 94 106
86 95 108
81 89 100
86 94 105
88 97 109
83 92 104
88 97 108
81 90 101
87 96 109
86 96 108
88 97 109
93 102 115
78 87 99
90 99 112
80 88 99
77 85 96
73 81 91
65 71 79
63 70 78
67 73 83
73 80 90
69 76 86
77 86 97
80 88 99
79 88 99
72 79 90
65 71 80
66 73 83
67 73 83
55 60 68
50 55 62
44 48 55
46 51 58
45 50 56
43 48 54
42 46 52
38 42 48
37 41 47
31 35 39
23 26 29
16 18 20
15 17 19
15 17 19
19 21 23
16 18 20
17 18 21
22 24 27
19 21 23
12 13 15
7 7 8
18 19 22
28 32 36
33 36 40
26 29 33
30 32 36
31 35 39
34 38 43
31 35 40
36 40 45
39 43 49
43 47 53
46 50 57
39 43 48
37 41 46
35 39 44
41 45 51
45 50 56
50 55 61
47 51 58
53 58 65
53 58 66
47 52 58
44 48 55
36 40 45
28 31 36
31 34 39
27 31 35
13 14 16
17 19 21
31 34 39
45 49 56
49 55 62
53 59 67
51 57 64
41 45 50
35 39 45
38 41 46
23 26 30
10 11 12
19 21 24
29 33 37
36 39 44
40 44 49
38 42 47
35 38 43
36 39 45
39 43 49
47 52 58
47 52 59
44 49 55
44 49 55
40 44 50
39 43 48
33 36 41
24 26 30
15 17 19
15 16 19
24 26 30
27 30 34
27 30 33
21 23 26
21 23 26
12 13 15
18 20 22
19 21 24
15 17 19
11 12 14
14 15 17
13 14 16
12 13 15
8 9 11
10 11 12
15 17 19
24 26 29
25 28 32
25 27 31
21 23 26
23 25 28
33 37 41
42 47 53
50 55 61
56 62 70
61 67 76
57 63 71
53 59 66
49 54 60
40 44 50
27 29 33
14 16 18
22 24 28
35 39 44
35 39 43
30 33 37
33 36 40
41 46 52
39 43 49
42 46 52
52 58 65
45 50 56
42 46 52
39 43 49
33 37 41
33 37 41
27 30 34
20 22 25
29 32 36
25 28 31
37 41 46
47 52 59
42 47 52
39 43 48
35 39 44
42 46 52
49 54 61
50 55 62
55 61 68
69 76 85
71 79 89
51 57 64
45 50 57
41 45 50
51 57 64
47 52 59
37 41 46
102 109 118
221 235 254
221 235 254
221 235 254
221 235 254
221 235 254
221 235 254
221 235 254
221 235 254
221 235 254
221 235 254
221 235 254
221 235 254
221 235 254
221 235 254
221 235 254
221 235 254
221 235 254
221 235 254
221 235 254
221 235 254
221 235 254
221 235 254
221 235 254
221 235 254
221 235 254
221 235 254
221 235 254
221 235 254
221 235 254
221 235 254
221 235 254
221 235 254
221 235 254
221 235 254
221 235 254
221 235 254
221 235 254
221 235 254
221 235 254
221 235 254
221 235 254
221 235 254
221 235 254
221 235 254
221 235 254
221 235 254
221 235 254
221 235 254
221 235 254
221 235 254
221 235 254
221 235 254
221 235 254
221 235 254
221 235 254
221 235 254
221 235 254
221 235 254
221 235 254
221 235 254
221 235 254
221 235 254
221 235 254
221 235 254
221 235 254
221 235 254
221 235 254
221 235 254
221 235 254
221 235 254
221 235 254
221 235 254
221 235 254
221 235 254
221 235 254
221 235 254
221 235 254
221 235 254
221 235 254
221 235 254
221 235 254
221 235 254
221 235 254
221 235 254
221 235 254
221 235 254
221 235 254
221 235 254
221 235 254
221 235 254
221 235 254
221 235 254
221 235 254
221 235 254
221 235 254
221 235 254
221 235 254
221 235 254
221 235 254
221 235 254
221 235 254
221 235 254
221 235 254
221 235 254
221 235 254
221 235 254
221 235 254
221 235 254
221 235 254
221 235 254
221 235 254
221 235 254
221 235 254
221 235 254
221 235 254
221 235 254
221 235 254
221 235 254
221 235 254
221 235 254
221 235 254
221 235 254
221 235 254
221 235 254
221 235 254
221 235 254
221 235 254
221 235 254
221 235 254
221 235 254
221 235 254
221 235 254
221 235 254
221 235 254
221 235 254
221 235 254
221 235 254
221 235 254
221 235 254
221 235 254
221 235 254
221 235 254
221 235 254
221 235 254
221 235 254
221 235 254
221 235 254
221 235 254
221 235 254
221 235 254
221 235 254
221 235 254
221 235 254
221 235 254
221 235 254
221 235 254
221 235 254
221 235 254
221 235 254
221 235 254
221 235 254
221 235 254
221 235 254
221 235 254
221 235 254
221 235 254
221 235 254
221 235 254
221 235 254
221 235 254
221 235 254
221 235 254
221 235 254
221 235 254
221 235 254
221 235 254
221 235 254
221 235 254
221 235 254
221 235 254
221 235 254
221 235 254
221 235 254
221 235 254
221 235 254
221 235 254
221 235 254
221 235 254
221 235 254
221 235 254
221 235 254
221 235 254
221 235 254
221 235 254
221 235 254
221 235 254
221 235 254
221 235 254
221 235 254
221 235 254
221 235 254
221 235 254
221 235 254
221 235 254
221 235 254
221 235 254
152 162 176
32 35 39
23 25 29
25 28 31
39 44 49
58 64 72
77 85 95
91 101 114
100 111 125
97 107 121
105 116 130
100 111 125
110 122 137
108 119 134
105 117 133
99 110 124
91 99 111
88 97 110
91 100 112
86 95 106
84 93 105
79 88 99
85 94 106
83 91 101
80 88 99
82 91 102
94 104 117
92 102 114
91 101 114
92 101 113
83 91 103
90 101 114
88 97 109
92 101 113
77 85 96
70 78 88
71 78 88
66 73 81
63 70 79
68 75 84
73 81 91
76 84 95
76 84 95
83 91 103
76 84 95
77 85 97
65 72 81
67 74 83
58 64 72
52 57 65
52 57 64
50 55 62
44 48 55
44 49 54
43 47 53
43 48 54
40 45 50
37 41 46
30 33 37
33 36 41
39 43 48
36 39 45
32 35 40
27 30 34
33 36 41
35 39 44
32 35 39
22 24 27
14 16 18
22 24 27
32 35 39
31 35 39
21 24 27
23 25 29
28 31 34
31 34 39
30 33 37
36 39 45
41 46 51
48 53 60
43 47 53
39 42 48
39 43 49
34 37 42
35 39 44
40 45 50
44 48 54
44 49 55
46 50 57
49 54 61
47 52 58
40 44 50
38 42 47
30 34 38
31 34 39
27 30 33
13 15 17
25 27 31
34 37 42
40 44 50
47 51 58
49 55 62
46 51 58
44 48 54
35 39 43
25 28 31
17 18 21
13 14 16
22 24 27
30 34 38
35 39 44
43 48 54
42 47 53
42 47 52
44 48 54
45 49 55
45 50 56
46 51 57
46 50 57
43 48 54
41 45 50
41 45 51
31 34 39
23 25 28
14 15 17
10 11 13
18 20 22
24 26 30
24 26 30
22 24 27
15 16 18
21 23 26
29 32 36
33 37 42
30 33 37
26 29 33
23 26 29
26 28 32
24 27 31
19 20 23
18 20 22
24 27 31
31 34 39
27 30 34
18 20 23
13 15 17
24 26 30
35 38 43
43 48 53
49 54 61
50 56 63
56 62 70
58 63 71
49 55 62
48 53 59
39 43 49
33 36 41
28 31 34
23 25 29
30 33 38
32 36 40
28 31 35
32 35 40
38 42 47
36 40 45
46 51 57
48 53 60
47 51 58
41 45 51
44 49 56
38 42 48
39 43 49
28 31 35
20 22 25
27 30 34
30 33 37
40 44 50
50 55 62
40 44 50
37 41 47
39 43 48
44 49 55
56 62 69
52 57 64
52 58 66
60 67 76
59 64 72
45 49 56
37 41 46
33 37 42
47 51 58
47 52 59
36 39 44
149 159 172
221 235 254
221 235 254
221 235 254
221 235 254
221 235 254
221 235 254
221 235 254
221 235 254
221 235 254
221 235 254
221 235 254
221 235 254
221 235 254
221 235 254
221 235 254
221 235 254
221 235 254
221 235 254
221 235 254
221 235 254
221 235 254
221 235 254
221 235 254
221 235 254
221 235 254
221 235 254
221 235 254
221 235 254
221 235 254
221 235 254
221 235 254
221 235 254
221 235 254
221 235 254
221 235 254
221 235 254
221 235 254
221 235 254
221 235 254
221 235 254
221 235 254
221 235 254
221 235 254
221 235 254
221 235 254
221 235 254
221 235 254
221 235 254
221 235 254
221 235 254
221 235 254
221 235 254
221 235 254
221 235 254
221 235 254
221 235 254
221 235 254
221 235 254
221 235 254
221 235 254
221 235 254
221 235 254
221 235 254
221 235 254
221 235 254
221 235 254
221 235 254
221 235 254
221 235 254
221 235 254
221 235 254
221 235 254
221 235 254
221 235 254
221 235 254
221 235 254
221 235 254
221 235 254
221 235 254
221 235 254
221 235 254
221 235 254
221 235 254
221 235 254
221 235 254
221 235 254
221 235 254
221 235 254
221 235 254
221 235 254
221 235 254
221 235 254
221 235 254
221 235 254
221 235 254
221 235 254
221 235 254
221 235 254
221 235 254
221 235 254
221 235 254
221 235 254
221 235 254
221 235 254
221 235 254
221 235 254
221 235 254
221 235 254
221 235 254
221 235 254
221 235 254
221 235 254
221 235 254
221 235 254
221 235 254
221 235 254
221 235 254
221 235 254
221 235 254
221 235 254
221 235 254
221 235 254
221 235 254
221 235 254
221 235 254
221 235 254
221 235 254
221 235 254
221 235 254
221 235 254
221 235 254
221 235 254
221 235 254
221 235 254
221 235 254
221 235 254
221 235 254
221 235 254
221 235 254
221 235 254
221 235 254
221 235 254
221 235 254
221 235 254
221 235 254
221 235 254
221 235 254
221 235 254
221 235 254
221 235 254
221 235 254
221 235 254
221 235 254
221 235 254
221 235 254
221 235 254
221 235 254
221 235 254
221 235 254
221 235 254
221 235 254
221 235 254
221 235 254
221 235 254
221 235 254
221 235 254
221 235 254
221 235 254
221 235 254
221 235 254
221 235 254
221 235 254
221 235 254
221 235 254
221 235 254
221 235 254
221 235 254
221 235 254
221 235 254
221 235 254
221 235 254
221 235 254
221 235 254
221 235 254
221 235 254
221 235 254
221 235 254
221 235 254
221 235 254
221 235 254
221 235 254
221 235 254
221 235 254
221 235 254
221 235 254
221 235 254
221 235 254
221 235 254
221 235 254
221 235 254
221 235 254
221 235 254
221 235 254
221 235 254
221 235 254
221 235 254
181 193 209
40 44 50
19 21 24
20 22 24
34 38 42
49 55 62
74 81 91
89 98 110
102 112 126
102 112 126
106 117 132
100 111 124
109 120 134
113 125 140
103 114 128
93 103 116
84 94 106
88 97 109
89 98 111
92 101 114
91 100 113
87 96 107
87 97 109
84 93 105
91 101 114
80 88 100
91 100 112
89 99 112
92 102 115
104 115 130
95 104 116
85 94 107
87 96 108
85 94 105
83 92 103
76 84 95
74 82 92
72 79 89
68 75 85
76 83 93
79 88 99
79 87 99
79 87 98
80 88 99
80 88 99
74 82 93
71 78 87
62 68 76
58 64 72
52 57 65
49 54 61
51 56 63
53 59 66
46 51 57
48 53 60
43 48 54
44 49 55
39 44 49
37 41 47
41 44 49
46 51 57
50 55 62
50 55 63
41 46 52
43 47 53
41 45 51
38 42 47
33 37 41
24 27 30
24 27 30
24 27 30
23 25 28
15 16 18
10 11 12
19 21 24
26 28 32
28 31 35
38 41 46
45 50 56
50 55 62
48 53 60
40 44 50
36 40 45
33 36 41
39 43 48
40 44 50
35 38 43
42 46 52
46 51 57
44 48 54
41 45 50
36 39 44
34 38 42
32 36 40
31 34 39
28 30 34
14 16 17
24 26 30
35 39 44
39 43 48
50 55 63
50 56 63
43 48 55
41 46 52
29 32 36
14 15 17
5 5 6
8 9 11
17 19 21
30 33 37
35 38 43
41 45 50
46 50 57
47 52 59
43 48 54
45 49 55
48 53 59
41 45 51
45 50 56
43 48 54
39 43 48
36 40 46
30 33 37
18 20 23
10 11 12
16 18 20
14 16 18
20 22 25
19 21 23
15 16 19
19 21 24
28 31 35
32 35 39
39 43 49
34 38 43
33 36 41
35 38 43
33 37 42
32 35 40
21 23 26
21 23 26
29 32 36
29 32 36
17 19 21
10 11 13
16 18 20
30 32 36
34 37 42
42 46 52
46 51 57
50 55 61
49 55 61
53 59 66
50 55 62
45 50 56
38 42 48
35 39 44
30 33 37
23 26 29
35 39 44
39 43 48
32 35 40
34 37 42
39 43 49
41 45 50
48 53 60
49 54 60
46 51 58
42 46 52
43 47 53
42 47 53
37 41 46
25 27 31
19 20 23
32 35 39
37 41 46
39 44 49
42 47 53
43 48 54
39 43 48
41 45 51
54 60 67
54 59 67
46 52 58
48 54 61
54 59 67
45 50 56
32 36 40
37 41 46
26 29 32
46 50 57
49 54 60
34 37 42
181 193 209
221 235 254
221 235 254
221 235 254
221 235 254
221 235 254
221 235 254
221 235 254
221 235 254
221 235 254
221 235 254
221 235 254
221 235 254
221 235 254
221 235 254
221 235 254
221 235 254
221 235 254
221 235 254
221 235 254
221 235 254
221 235 254
221 235 254
221 235 254
221 235 254
221 235 254
221 235 254
221 235 254
221 235 254
221 235 254
221 235 254
221 235 254
221 235 254
221 235 254
221 235 254
221 235 254
221 235 254
221 235 254
221 235 254
221 235 254
221 235 254
221 235 254
221 235 254
221 235 254
221 235 254
221 235 254
221 235 254
221 235 254
221 235 254
221 235 254
221 235 254
221 235 254
221 235 254
221 235 254
221 235 254
221 235 254
221 235 254
221 235 254
221 235 254
221 235 254
221 235 254
221 235 254
221 235 254
221 235 254
221 235 254
221 235 254
221 235 254
221 235 254
221 235 254
221 235 254
221 235 254
221 235 254
221 235 254
221 235 254
221 235 254
221 235 254
221 235 254
221 235 254
221 235 254
221 235 254
221 235 254
221 235 254
221 235 254
221 235 254
221 235 254
221 235 254
221 235 254
221 235 254
221 235 254
221 235 254
221 235 254
221 235 254
221 235 254
221 235 254
221 235 254
221 235 254
221 235 254
221 235 254
221 235 254
221 235 254
221 235 254
221 235 254
221 235 254
221 235 254
221 235 254
221 235 254
221 235 254
221 235 254
221 235 254
221 235 254
221 235 254
221 235 254
221 235 254
221 235 254
221 235 254
221 235 254
221 235 254
221 235 254
221 235 254
221 235 254
221 235 254
221 235 254
221 235 254
221 235 254
221 235 254
221 235 254
221 235 254
221 235 254
221 235 254
221 235 254
221 235 254
221 235 254
221 235 254
221 235 254
221 235 254
221 235 254
221 235 254
221 235 254
221 235 254
221 235 254
221 235 254
221 235 254
221 235 254
221 235 254
221 235 254
221 235 254
221 235 254
221 235 254
221 235 254
221 235 254
221 235 254
221 235 254
221 235 254
221 235 254
221 235 254
221 235 254
221 235 254
221 235 254
221 235 254
221 235 254
221 235 254
221 235 254
221 235 254
221 235 254
221 235 254
221 235 254
221 235 254
221 235 254
221 235 254
221 235 254
221 235 254
221 235 254
221 235 254
221 235 254
221 235 254
221 235 254
221 235 254
221 235 254
221 235 254
221 235 254
221 235 254
221 235 254
221 235 254
221 235 254
221 235 254
221 235 254
221 235 254
221 235 254
221 235 254
221 235 254
221 235 254
221 235 254
221 235 254
221 235 254
221 235 254
221 235 254
221 235 254
221 235 254
221 235 254
221 235 254
221 235 254
221 235 254
221 235 254
221 235 254
221 235 254
221 235 254
221 235 254
198 211 229
53 59 66
24 26 30
15 16 19
30 33 37
43 47 53
68 75 85
85 94 106
96 106 120
103 113 127
96 106 119
102 112 127
103 113 127
96 106 119
105 116 130
99 109 124
93 102 115
87 96 107
90 100 113
96 106 120
100 110 123
95 105 118
79 88 99
89 98 110
92 102 114
96 106 119
95 104 117
93 104 118
103 114 128
104 115 130
106 117 132
102 113 127
97 108 121
93 103 116
83 92 103
80 88 98
75 84 95
72 79 89
77 85 96
76 84 94
76 84 95
75 83 94
81 89 101
75 84 96
86 94 106
72 80 90
67 73 82
66 73 82
61 67 75
55 61 68
52 57 65
54 60 67
54 60 67
43 48 54
48 52 59
41 46 51
43 47 53
41 46 51
46 51 57
40 45 50
49 53 60
55 60 68
53 58 66
52 57 64
49 55 62
49 54 61
44 48 54
37 41 46
28 31 35
19 21 24
17 18 21
16 18 20
9 10 11
11 12 13
12 14 15
18 19 22
26 28 32
33 36 41
39 43 49
45 50 56
46 51 57
42 47 53
40 45 50
39 43 49
41 45 51
38 42 48
40 45 50
40 44 50
44 48 54
42 46 51
38 42 47
29 32 36
23 25 28
21 24 27
25 27 31
20 23 25
7 7 8
21 23 26
31 34 38
40 43 49
45 50 56
42 46 52
44 49 56
38 42 47
21 23 26
7 7 8
6 6 7
11 12 13
13 15 16
29 32 36
37 41 46
40 45 51
46 51 58
44 49 55
43 47 53
40 44 50
45 50 56
41 45 51
43 47 53
43 48 54
43 48 54
40 44 49
33 37 41
29 32 36
28 31 35
25 28 32
16 18 21
15 16 18
9 10 11
14 15 17
25 27 30
34 37 42
38 42 47
40 44 49
40 44 49
42 46 52
41 45 51
41 45 51
35 38 43
28 31 35
24 26 29
24 27 30
25 27 31
17 19 21
16 18 20
26 28 32
32 35 40
32 35 40
39 43 49
47 52 58
48 53 59
55 60 68
48 53 59
47 52 58
42 46 52
41 45 51
38 42 47
34 37 42
28 31 35
34 37 42
35 38 43
28 31 34
32 35 40
39 43 49
42 47 54
49 54 61
49 54 61
46 51 58
45 49 55
47 52 59
42 46 52
34 38 43
27 29 33
15 17 19
28 31 35
36 40 45
44 49 55
46 50 57
46 51 58
46 51 57
44 49 55
53 59 66
52 58 66
45 49 55
48 52 59
46 50 56
36 40 45
31 34 38
31 34 39
28 31 35
42 46 52
45 50 56
38 42 48
202 215 232
221 235 254
221 235 254
221 235 254
221 235 254
221 235 254
221 235 254
221 235 254
221 235 254
221 235 254
221 235 254
221 235 254
221 235 254
221 235 254
221 235 254
221 235 254
221 235 254
221 235 254
221 235 254
221 235 254
221 235 254
221 235 254
221 235 254
221 235 254
221 235 254
221 235 254
221 235 254
221 235 254
221 235 254
221 235 254
221 235 254
221 235 254
221 235 254
221 235 254
221 235 254
221 235 254
221 235 254
221 235 254
221 235 254
221 235 254
221 235 254
221 235 254
221 235 254
221 235 254
221 235 254
221 235 254
221 235 254
221 235 254
221 235 254
221 235 254
221 235 254
221 235 254
221 235 254
221 235 254
221 235 254
221 235 254
221 235 254
221 235 254
221 235 254
221 235 254
221 235 254
221 235 254
221 235 254
221 235 254
221 235 254
221 235 254
221 235 254
221 235 254
221 235 254
221 235 254
221 235 254
221 235 254
221 235 254
221 235 254
221 235 254
221 235 254
221 235 254
221 235 254
221 235 254
221 235 254
221 235 254
221 235 254
221 235 254
221 235 254
221 235 254
221 235 254
221 235 254
221 235 254
221 235 254
221 235 254
221 235 254
221 235 254
221 235 254
221 235 254
221 235 254
221 235 254
221 235 254
221 235 254
221 235 254
221 235 254
221 235 254
221 235 254
221 235 254
221 235 254
221 235 254
221 235 254
221 235 254
221 235 254
221 235 254
221 235 254
221 235 254
221 235 254
221 235 254
221 235 254
221 235 254
221 235 254
221 235 254
221 235 254
221 235 254
221 235 254
221 235 254
221 235 254
221 235 254
221 235 254
221 235 254
221 235 254
221 235 254
221 235 254
221 235 254
221 235 254
221 235 254
221 235 254
221 235 254
221 235 254
221 235 254
221 235 254
221 235 254
221 235 254
221 235 254
221 235 254
221 235 254
221 235 254
221 235 254
221 235 254
221 235 254
221 235 254
221 235 254
221 235 254
221 235 254
221 235 254
221 235 254
221 235 254
221 235 254
221 235 254
221 235 254
221 235 254
221 235 254
221 235 254
221 235 254
221 235 254
221 235 254
221 235 254
221 235 254
221 235 254
221 235 254
221 235 254
221 235 254
221 235 254
221 235 254
221 235 254
221 235 254
221 235 254
221 235 254
221 235 254
221 235 254
221 235 254
221 235 254
221 235 254
221 235 254
221 235 254
221 235 254
221 235 254
221 235 254
221 235 254
221 235 254
221 235 254
221 235 254
221 235 254
221 235 254
221 235 254
221 235 254
221 235 254
221 235 254
221 235 254
221 235 254
221 235 254
221 235 254
221 235 254
221 235 254
221 235 254
221 235 254
221 235 254
221 235 254
221 235 254
221 235 254
221 235 254
221 235 254
218 232 251
62 69 78
38 42 47
16 18 20
26 29 33
38 42 48
62 68 77
80 89 100
96 106 119
107 117 131
105 115 130
102 112 126
99 110 124
98 108 122
102 114 128
93 103 116
90 99 111
89 97 109
93 102 115
94 104 117
97 107 121
100 110 124
92 102 114
90 99 111
96 106 119
94 104 117
91 100 113
98 108 122
104 114 128
105 116 130
108 119 134
103 114 129
95 106 119
91 100 113
86 94 106
88 98 111
77 85 96
78 87 98
83 90 101
83 92 103
77 85 95
79 87 98
83 91 102
85 94 106
77 86 97
74 82 92
67 74 84
60 67 75
59 65 73
58 64 72
54 60 68
51 57 64
56 62 70
53 59 67
48 53 60
50 56 63
47 52 58
47 52 59
44 49 56
51 56 63
51 57 65
55 61 69
56 62 70
53 59 67
56 61 69
58 64 72
45 50 57
41 45 51
36 40 45
29 32 36
20 23 25
13 15 17
9 10 12
12 13 15
15 17 19
8 9 10
12 13 15
21 24 27
30 34 38
42 46 52
42 46 52
39 43 49
39 43 48
38 42 47
33 36 41
33 37 42
39 43 48
45 50 56
42 46 52
41 45 50
30 33 38
27 30 34
15 16 18
11 12 14
14 15 17
13 15 17
12 13 14
25 28 31
35 38 43
39 43 49
43 48 54
39 44 49
39 43 48
33 37 41
19 21 23
9 10 11
10 11 12
16 17 19
21 23 26
30 33 37
35 39 44
43 47 53
45 50 57
49 54 61
49 54 61
46 50 57
41 45 51
45 49 56
41 45 51
49 54 61
49 55 62
48 52 59
43 47 54
38 42 47
35 38 43
39 43 48
29 32 37
24 27 30
20 22 25
24 27 31
33 36 41
40 44 50
38 42 47
43 48 54
45 49 55
42 47 52
40 44 50
38 42 48
36 39 45
32 36 40
32 36 41
29 32 37
25 28 31
27 29 33
16 18 20
26 29 32
30 34 38
39 43 49
41 45 50
45 49 56
48 53 60
51 56 63
47 51 58
42 46 52
40 44 49
40 45 50
44 48 54
35 39 44
29 32 37
32 35 39
33 36 41
26 29 33
36 39 44
40 44 50
44 49 55
45 49 55
47 51 57
50 55 62
52 57 64
49 54 60
43 48 54
32 35 39
26 29 33
19 21 23
23 25 28
39 43 48
44 49 55
45 50 56
50 55 62
49 54 60
47 52 59
55 61 68
52 57 65
43 48 54
41 46 52
39 43 49
27 30 34
33 37 41
30 33 37
36 39 44
41 45 51
40 44 50
42 45 51
216 229 248
221 235 254
221 235 254
221 235 254
221 235 254
221 235 254
221 235 254
221 235 254
221 235 254
221 235 254
221 235 254
221 235 254
221 235 254
221 235 254
221 235 254
221 235 254
221 235 254
221 235 254
221 235 254
221 235 254
221 235 254
221 235 254
221 235 254
221 235 254
221 235 254
221 235 254
221 235 254
221 235 254
221 235 254
221 235 254
221 235 254
221 235 254
221 235 254
221 235 254
221 235 254
221 235 254
221 235 254
221 235 254
221 235 254
221 235 254
221 235 254
221 235 254
221 235 254
221 235 254
221 235 254
221 235 254
221 235 254
221 235 254
221 235 254
221 235 254
221 235 254
221 235 254
221 235 254
221 235 254
221 235 254
221 235 254
221 235 254
221 235 254
221 235 254
221 235 254
221 235 254
221 235 254
221 235 254
221 235 254
221 235 254
221 235 254
221 235 254
221 235 254
221 235 254
221 235 254
221 235 254
221 235 254
221 235 254
221 235 254
221 235 254
221 235 254
221 235 254
221 235 254
221 235 254
221 235 254
221 235 254
221 235 254
221 235 254
221 235 254
221 235 254
221 235 254
221 235 254
221 235 254
221 235 254
221 235 254
221 235 254
221 235 254
221 235 254
221 235 254
221 235 254
221 235 254
221 235 254
221 235 254
221 235 254
221 235 254
221 235 254
221 235 254
221 235 254
221 235 254
221 235 254
221 235 254
221 235 254
221 235 254
221 235 254
221 235 254
221 235 254
221 235 254
221 235 254
221 235 254
221 235 254
221 235 254
221 235 254
221 235 254
221 235 254
221 235 254
221 235 254
221 235 254
221 235 254
221 235 254
221 235 254
221 235 254
221 235 254
221 235 254
221 235 254
221 235 254
221 235 254
221 235 254
221 235 254
221 235 254
221 235 254
221 235 254
221 235 254
221 235 254
221 235 254
221 235 254
221 235 254
221 235 254
221 235 254
221 235 254
221 235 254
221 235 254
221 235 254
221 235 254
221 235 254
221 235 254
221 235 254
221 235 254
221 235 254
221 235 254
221 235 254
221 235 254
221 235 254
221 235 254
221 235 254
221 235 254
221 235 254
221 235 254
221 235 254
221 235 254
221 235 254
221 235 254
221 235 254
221 235 254
221 235 254
221 235 254
221 235 254
221 235 254
221 235 254
221 235 254
221 235 254
221 235 254
221 235 254
221 235 254
221 235 254
221 235 254
221 235 254
221 235 254
221 235 254
221 235 254
221 235 254
221 235 254
221 235 254
221 235 254
221 235 254
221 235 254
221 235 254
221 235 254
221 235 254
221 235 254
221 235 254
221 235 254
221 235 254
221 235 254
221 235 254
221 235 254
221 235 254
221 235 254
221 235 254
221 235 254
221 235 254
221 235 254
221 235 254
221 235 254
105 113 124
44 48 54
23 25 28
23 26 29
37 41 46
60 66 74
78 86 98
98 107 120
95 105 118
89 99 112
95 105 119
99 109 123
96 106 120
95 104 118
95 105 118
93 103 117
89 98 110
88 98 111
97 106 119
86 95 108
92 101 113
94 104 118
96 106 120
91 101 114
95 104 117
93 104 117
99 110 124
99 109 123
94 104 118
111 122 137
107 118 134
103 113 128
104 114 128
93 102 115
83 92 103
80 89 101
84 93 104
81 89 100
80 89 101
85 93 105
78 86 97
81 89 99
84 93 104
83 91 102
74 81 91
73 80 90
66 73 82
63 69 78
57 63 72
58 64 73
55 61 69
53 59 66
57 62 70
49 54 61
49 54 60
49 54 61
46 51 57
51 56 62
49 54 61
55 61 69
54 60 68
56 61 69
55 60 68
53 59 66
54 59 66
47 52 58
43 47 53
42 47 53
33 37 41
27 30 33
25 27 30
17 19 21
11 12 14
16 17 19
19 21 23
18 20 22
13 14 16
28 31 35
37 41 46
35 39 44
31 34 38
27 30 34
28 30 34
28 30 34
37 41 46
39 43 49
39 43 48
40 44 49
34 38 43
28 31 35
18 20 22
24 26 30
28 31 36
31 34 39
31 34 38
27 30 34
30 33 37
39 43 49
44 49 55
42 46 52
41 45 51
36 40 44
33 36 40
23 26 29
19 21 23
15 17 19
21 23 26
23 25 28
27 29 33
36 40 45
42 47 53
44 48 54
43 47 53
47 52 58
47 52 59
44 49 55
42 46 52
46 50 56
48 54 61
54 59 67
49 55 62
46 50 57
39 43 49
39 44 49
42 47 52
37 40 45
31 34 39
28 30 34
32 35 40
41 45 51
47 52 59
44 48 54
45 49 56
44 49 56
45 50 56
42 46 51
40 44 50
34 38 42
32 35 39
37 40 45
37 41 46
32 35 39
34 37 42
26 29 33
18 20 23
34 37 42
37 41 47
36 39 44
40 45 50
44 48 54
45 49 55
46 51 58
42 46 52
38 42 48
36 39 44
39 43 48
35 39 44
28 31 35
31 34 38
30 33 37
25 28 32
38 42 48
41 46 52
45 50 56
40 45 50
48 53 60
49 54 60
56 62 70
47 52 58
39 43 48
36 40 45
30 33 37
20 22 25
18 20 23
39 43 48
42 47 52
47 53 59
48 53 59
48 53 59
54 60 68
49 54 62
49 54 61
48 53 60
44 48 54
34 37 42
20 22 25
31 34 38
30 33 37
40 44 50
42 46 52
43 47 53
90 96 105
221 235 254
221 235 254
221 235 254
221 235 254
221 235 254
221 235 254
221 235 254
221 235 254
221 235 254
221 235 254
221 235 254
221 235 254
221 235 254
221 235 254
221 235 254
221 235 254
221 235 254
221 235 254
221 235 254
221 235 254
221 235 254
221 235 254
221 235 254
221 235 254
221 235 254
221 235 254
221 235 254
221 235 254
221 235 254
221 235 254
221 235 254
221 235 254
221 235 254
221 235 254
221 235 254
221 235 254
221 235 254
221 235 254
221 235 254
221 235 254
221 235 254
221 235 254
221 235 254
221 235 254
221 235 254
221 235 254
221 235 254
221 235 254
221 235 254
221 235 254
221 235 254
221 235 254
221 235 254
221 235 254
221 235 254
221 235 254
221 235 254
221 235 254
221 235 254
221 235 254
221 235 254
221 235 254
221 235 254
221 235 254
221 235 254
221 235 254
221 235 254
221 235 254
221 235 254
221 235 254
221 235 254
221 235 254
221 235 254
221 235 254
221 235 254
221 235 254
221 235 254
221 235 254
221 235 254
221 235 254
221 235 254
221 235 254
221 235 254
221 235 254
221 235 254
221 235 254
221 235 254
221 235 254
221 235 254
221 235 254
221 235 254
221 235 254
221 235 254
221 235 254
221 235 254
221 235 254
221 235 254
221 235 254
221 235 254
221 235 254
221 235 254
221 235 254
221 235 254
221 235 254
221 235 254
221 235 254
221 235 254
221 235 254
221 235 254
221 235 254
221 235 254
221 235 254
221 235 254
221 235 254
221 235 254
221 235 254
221 235 254
221 235 254
221 235 254
221 235 254
221 235 254
221 235 254
221 235 254
221 235 254
221 235 254
221 235 254
221 235 254
221 235 254
221 235 254
221 235 254
221 235 254
221 235 254
221 235 254
221 235 254
221 235 254
221 235 254
221 235 254
221 235 254
221 235 254
221 235 254
221 235 254
221 235 254
221 235 254
221 235 254
221 235 254
221 235 254
221 235 254
221 235 254
221 235 254
221 235 254
221 235 254
221 235 254
221 235 254
221 235 254
221 235 254
221 235 254
221 235 254
221 235 254
221 235 254
221 235 254
221 235 254
221 235 254
221 235 254
221 235 254
221 235 254
221 235 254
221 235 254
221 235 254
221 235 254
221 235 254
221 235 254
221 235 254
221 235 254
221 235 254
221 235 254
221 235 254
221 235 254
221 235 254
221 235 254
221 235 254
221 235 254
221 235 254
221 235 254
221 235 254
221 235 254
221 235 254
221 235 254
221 235 254
221 235 254
221 235 254
221 235 254
221 235 254
221 235 254
221 235 254
221 235 254
221 235 254
221 235 254
221 235 254
221 235 254
221 235 254
221 235 254
221 235 254
221 235 254
221 235 254
221 235 254
221 235 254
221 235 254
221 235 254
149 160 174
55 61 69
27 29 33
24 27 30
36 39 44
53 58 66
79 87 99
97 107 120
103 113 127
103 114 127
86 95 107
92 101 112
94 103 116
104 115 130
95 104 117
84 93 105
81 90 101
84 92 104
87 96 108
93 103 115
87 97 109
89 98 111
86 95 107
89 98 109
91 101 114
94 103 116
94 103 115
99 109 122
106 117 131
119 131 147
110 121 136
100 111 125
98 108 122
90 98 109
87 96 108
82 91 102
87 96 107
89 98 109
86 95 107
87 96 108
83 91 102
84 93 105
72 80 91
82 90 102
71 79 89
73 80 90
73 81 91
67 74 83
64 71 79
61 68 76
58 64 72
56 62 70
52 57 64
52 57 64
47 52 58
49 54 61
50 55 62
55 60 67
52 58 65
54 59 66
53 58 65
50 56 63
54 60 67
54 59 66
51 56 63
45 50 57
44 48 54
41 46 52
36 40 45
34 38 43
30 33 38
20 22 25
13 14 16
24 27 30
26 29 33
27 30 34
15 17 19
16 18 20
28 30 34
27 30 34
14 16 18
16 18 20
18 20 23
16 18 20
25 28 31
27 30 34
29 33 37
27 30 34
18 19 22
17 18 21
27 30 34
38 42 48
43 48 54
38 42 48
38 41 47
35 39 44
40 44 50
41 46 51
43 47 53
45 50 56
43 47 52
40 44 50
35 38 43
20 22 25
19 21 24
22 24 27
22 25 28
24 26 30
26 29 32
35 38 43
43 48 54
47 52 58
47 51 58
46 51 57
46 51 57
42 46 52
39 43 49
41 45 51
50 55 62
50 56 63
55 60 68
52 57 65
51 57 64
47 52 59
42 46 52
37 40 45
34 38 43
32 35 40
35 38 43
41 45 50
47 52 59
50 55 63
44 49 55
43 48 53
41 46 51
43 47 53
38 42 47
30 34 38
25 28 31
39 43 49
38 43 48
36 39 44
34 37 42
28 30 34
16 18 20
29 32 37
33 36 40
35 38 43
41 45 51
40 44 50
36 39 44
35 39 44
37 40 46
37 41 46
36 39 44
38 42 47
35 38 43
21 24 26
26 29 33
30 33 37
31 35 39
41 45 51
46 51 58
43 47 53
47 52 58
53 59 66
54 60 67
48 53 60
42 46 52
39 43 49
41 45 51
36 40 45
20 22 25
23 25 29
41 45 51
46 51 57
50 55 62
55 61 70
52 57 64
58 65 73
55 61 68
50 55 62
50 55 61
39 43 48
21 23 26
11 13 14
23 26 29
30 33 37
42 47 53
41 45 51
50 56 63
134 143 155
221 235 254
221 235 254
221 235 254
221 235 254
221 235 254
221 235 254
221 235 254
221 235 254
221 235 254
221 235 254
221 235 254
221 235 254
221 235 254
221 235 254
221 235 254
221 235 254
221 235 254
221 235 254
221 235 254
221 235 254
221 235 254
221 235 254
221 235 254
221 235 254
221 235 254
221 235 254
221 235 254
221 235 254
221 235 254
221 235 254
221 235 254
221 235 254
221 235 254
221 235 254
221 235 254
221 235 254
221 235 254
221 235 254
221 235 254
221 235 254
221 235 254
221 235 254
221 235 254
221 235 254
221 235 254
221 235 254
221 235 254
221 235 254
221 235 254
221 235 254
221 235 254
221 235 254
221 235 254
221 235 254
221 235 254
221 235 254
221 235 254
221 235 254
221 235 254
221 235 254
221 235 254
221 235 254
221 235 254
221 235 254
221 235 254
221 235 254
221 235 254
221 235 254
221 235 254
221 235 254
221 235 254
221 235 254
221 235 254
221 235 254
221 235 254
221 235 254
221 235 254
221 235 254
221 235 254
221 235 254
221 235 254
221 235 254
221 235 254
221 235 254
221 235 254
221 235 254
221 235 254
221 235 254
221 235 254
221 235 254
221 235 254
221 235 254
221 235 254
221 235 254
221 235 254
221 235 254
221 235 254
221 235 254
221 235 254
221 235 254
221 235 254
221 235 254
221 235 254
221 235 254
221 235 254
221 235 254
221 235 254
221 235 254
221 235 254
221 235 254
221 235 254
221 235 254
221 235 254
221 235 254
221 235 254
221 235 254
221 235 254
221 235 254
221 235 254
221 235 254
221 235 254
221 235 254
221 235 254
221 235 254
221 235 254
221 235 254
221 235 254
221 235 254
221 235 254
221 235 254
221 235 254
221 235 254
221 235 254
221 235 254
221 235 254
221 235 254
221 235 254
221 235 254
221 235 254
221 235 254
221 235 254
221 235 254
221 235 254
221 235 254
221 235 254
221 235 254
221 235 254
221 235 254
221 235 254
221 235 254
221 235 254
221 235 254
221 235 254
221 235 254
221 235 254
221 235 254
221 235 254
221 235 254
221 235 254
221 235 254
221 235 254
221 235 254
221 235 254
221 235 254
221 235 254
221 235 254
221 235 254
221 235 254
221 235 254
221 235 254
221 235 254
221 235 254
221 235 254
221 235 254
221 235 254
221 235 254
221 235 254
221 235 254
221 235 254
221 235 254
221 235 254
221 235 254
221 235 254
221 235 254
221 235 254
221 235 254
221 235 254
221 235 254
221 235 254
221 235 254
221 235 254
221 235 254
221 235 254
221 235 254
221 235 254
221 235 254
221 235 254
221 235 254
221 235 254
221 235 254
221 235 254
221 235 254
221 235 254
221 235 254
221 235 254
221 235 254
221 235 254
221 235 254
186 198 215
59 65 73
29 31 35
21 24 27
33 36 41
53 58 65
71 78 88
87 96 107
85 94 105
91 100 113
90 99 112
97 107 121
98 108 121
95 105 118
90 100 112
93 102 115
84 93 105
81 89 101
84 94 106
90 99 112
83 92 104
89 98 111
93 103 115
96 106 119
93 102 114
93 102 115
93 103 116
103 113 128
107 118 134
103 114 128
109 120 135
109 120 135
98 109 123
90 99 111
92 101 113
91 100 113
91 101 114
79 88 99
88 97 110
91 100 112
88 97 110
90 99 112
88 97 109
82 91 102
86 95 106
69 76 87
77 85 96
70 77 88
71 79 88
65 72 81
63 70 79
58 63 71
52 58 65
47 53 60
45 49 55
43 48 54
48 53 60
53 59 66
56 62 69
52 57 64
53 59 66
53 58 66
57 63 71
50 55 62
51 56 63
51 56 63
44 48 54
43 47 53
42 46 52
34 37 41
29 32 36
27 30 34
13 15 17
26 29 32
32 35 39
39 43 48
32 36 40
25 28 32
16 17 19
18 20 23
25 27 31
29 32 36
30 33 37
24 26 30
17 19 21
16 18 20
17 19 21
14 15 17
21 24 27
28 31 35
35 38 43
45 50 56
45 49 56
46 50 57
41 46 51
39 43 48
35 39 44
41 45 51
49 53 60
46 51 58
43 48 55
43 48 54
32 36 40
24 26 30
18 20 23
22 25 28
19 21 24
24 27 30
28 31 34
36 40 45
45 50 56
52 57 64
47 52 58
47 52 59
41 45 50
41 45 51
40 44 50
38 42 47
42 46 52
50 55 63
56 61 69
51 56 63
52 58 65
50 55 63
42 47 53
39 43 49
39 43 48
36 40 45
34 38 43
44 48 54
47 52 59
48 52 59
44 49 54
37 41 46
40 44 50
38 42 47
27 29 33
20 22 25
23 26 29
33 36 41
34 38 42
29 32 36
24 27 30
26 29 33
14 15 17
24 26 30
31 34 38
37 41 46
35 39 43
26 29 32
22 24 27
26 28 32
33 36 41
37 41 46
40 44 50
39 43 48
34 37 42
18 20 23
22 25 28
32 35 40
40 44 50
43 48 54
48 53 59
43 48 54
47 53 59
52 58 65
51 57 64
45 50 57
41 45 51
41 46 52
42 46 52
36 40 45
20 23 25
30 33 37
41 46 52
46 51 57
48 54 61
51 57 64
53 58 66
59 66 74
56 62 70
53 58 65
44 48 55
28 31 35
16 17 19
17 19 21
17 19 22
28 31 35
42 46 52
43 48 54
59 64 72
164 174 189
221 235 254
221 235 254
221 235 254
221 235 254
221 235 254
221 235 254
221 235 254
221 235 254
221 235 254
221 235 254
221 235 254
221 235 254
221 235 254
221 235 254
221 235 254
221 235 254
221 235 254
221 235 254
221 235 254
221 235 254
221 235 254
221 235 254
221 235 254
221 235 254
221 235 254
221 235 254
221 235 254
221 235 254
221 235 254
221 235 254
221 235 254
221 235 254
221 235 254
221 235 254
221 235 254
221 235 254
221 235 254
221 235 254
221 235 254
221 235 254
221 235 254
221 235 254
221 235 254
221 235 254
221 235 254
221 235 254
221 235 254
221 235 254
221 235 254
221 235 254
221 235 254
221 235 254
221 235 254
221 235 254
221 235 254
221 235 254
221 235 254
221 235 254
221 235 254
221 235 254
221 235 254
221 235 254
221 235 254
221 235 254
221 235 254
221 235 254
221 235 254
221 235 254
221 235 254
221 235 254
221 235 254
221 235 254
221 235 254
221 235 254
221 235 254
221 235 254
221 235 254
221 235 254
221 235 254
221 235 254
221 235 254
221 235 254
221 235 254
221 235 254
221 235 254
221 235 254
221 235 254
221 235 254
221 235 254
221 235 254
221 235 254
221 235 254
221 235 254
221 235 254
221 235 254
221 235 254
221 235 254
221 235 254
221 235 254
221 235 254
221 235 254
221 235 254
221 235 254
221 235 254
221 235 254
221 235 254
221 235 254
221 235 254
221 235 254
221 235 254
221 235 254
221 235 254
221 235 254
221 235 254
221 235 254
221 235 254
221 235 254
221 235 254
221 235 254
221 235 254
221 235 254
221 235 254
221 235 254
221 235 254
221 235 254
221 235 254
221 235 254
221 235 254
221 235 254
221 235 254
221 235 254
221 235 254
221 235 254
221 235 254
221 235 254
221 235 254
221 235 254
221 235 254
221 235 254
221 235 254
221 235 254
221 235 254
221 235 254
221 235 254
221 235 254
221 235 254
221 235 254
221 235 254
221 235 254
221 235 254
221 235 254
221 235 254
221 235 254
221 235 254
221 235 254
221 235 254
221 235 254
221 235 254
221 235 254
221 235 254
221 235 254
221 235 254
221 235 254
221 235 254
221 235 254
221 235 254
221 235 254
221 235 254
221 235 254
221 235 254
221 235 254
221 235 254
221 235 254
221 235 254
221 235 254
221 235 254
221 235 254
221 235 254
221 235 254
221 235 254
221 235 254
221 235 254
221 235 254
221 235 254
221 235 254
221 235 254
221 235 254
221 235 254
221 235 254
221 235 254
221 235 254
221 235 254
221 235 254
221 235 254
221 235 254
221 235 254
221 235 254
221 235 254
221 235 254
221 235 254
221 235 254
221 235 254
221 235 254
221 235 254
221 235 254
221 235 254
221 235 254
221 235 254
197 209 226
72 80 90
31 34 39
21 23 26
23 25 28
52 57 65
72 79 89
80 88 99
88 98 111
84 93 104
92 101 113
92 102 114
94 103 115
99 109 122
98 108 122
89 99 111
89 98 110
89 98 110
86 96 108
93 102 114
92 102 115
91 100 111
89 99 112
93 102 115
88 97 110
92 102 115
98 108 121
100 110 124
98 109 122
101 111 125
104 115 129
110 122 137
99 109 123
97 106 120
96 106 119
80 88 99
91 100 113
86 95 107
84 92 103
88 97 110
97 106 119
98 108 120
90 99 112
79 87 98
88 97 109
72 80 90
77 85 95
77 85 96
78 86 97
75 83 93
60 66 75
62 68 76
58 63 71
49 55 62
48 53 60
44 49 55
52 57 64
52 57 65
51 57 64
50 55 62
51 56 64
49 54 61
47 52 59
46 50 56
44 49 55
49 54 61
44 48 55
33 36 40
29 32 36
30 33 37
27 30 34
17 19 22
14 15 17
29 32 36
38 42 47
42 47 53
48 52 59
44 48 54
35 39 44
33 37 42
39 42 48
40 45 51
36 40 45
29 33 37
29 32 36
22 25 28
16 17 20
23 25 28
30 33 37
30 33 38
39 43 48
44 48 54
46 51 57
49 54 61
45 50 56
44 49 55
40 44 50
43 47 53
41 45 51
48 53 60
46 51 57
42 46 51
37 40 45
32 36 40
25 28 31
14 15 17
14 15 17
22 24 27
30 33 38
37 40 45
40 44 49
51 57 64
48 53 59
46 51 57
41 45 50
44 49 54
37 41 46
35 39 44
42 46 52
47 53 59
56 61 69
52 57 64
53 59 66
48 53 60
46 51 57
41 45 51
41 46 51
40 44 50
38 42 47
42 46 52
43 48 54
44 49 55
38 42 48
32 35 40
30 33 37
28 30 34
21 23 26
19 20 23
23 25 29
27 30 34
26 29 33
19 21 24
17 19 22
19 21 23
9 9 11
22 24 27
22 24 28
30 33 37
22 24 27
9 10 11
10 11 13
16 18 20
24 26 29
32 36 40
36 39 44
39 43 49
31 35 39
31 34 38
29 32 36
35 38 43
38 42 48
46 51 58
44 49 55
39 43 48
47 52 59
45 50 57
52 57 64
44 49 55
37 41 47
48 52 59
38 42 47
40 44 50
25 28 32
22 24 28
38 42 47
50 55 62
59 65 72
51 56 64
56 62 69
60 67 76
60 67 76
49 54 61
39 44 49
21 23 26
14 15 17
15 17 20
12 13 15
30 33 38
47 51 58
44 49 56
55 61 68
198 211 228
221 235 254
221 235 254
221 235 254
221 235 254
221 235 254
221 235 254
221 235 254
221 235 254
221 235 254
221 235 254
221 235 254
221 235 254
221 235 254
221 235 254
221 235 254
221 235 254
221 235 254
221 235 254
221 235 254
221 235 254
221 235 254
221 235 254
221 235 254
221 235 254
221 235 254
221 235 254
221 235 254
221 235 254
221 235 254
221 235 254
221 235 254
221 235 254
221 235 254
221 235 254
221 235 254
221 235 254
221 235 254
221 235 254
221 235 254
221 235 254
221 235 254
221 235 254
221 235 254
221 235 254
221 235 254
221 235 254
221 235 254
221 235 254
221 235 254
221 235 254
221 235 254
221 235 254
221 235 254
221 235 254
221 235 254
221 235 254
221 235 254
221 235 254
221 235 254
221 235 254
221 235 254
221 235 254
221 235 254
221 235 254
221 235 254
221 235 254
221 235 254
221 235 254
221 235 254
221 235 254
221 235 254
221 235 254
221 235 254
221 235 254
221 235 254
221 235 254
221 235 254
221 235 254
221 235 254
221 235 254
221 235 254
221 235 254
221 235 254
221 235 254
221 235 254
221 235 254
221 235 254
221 235 254
221 235 254
221 235 254
221 235 254
221 235 254
221 235 254
221 235 254
221 235 254
221 235 254
221 235 254
221 235 254
221 235 254
221 235 254
221 235 254
221 235 254
221 235 254
221 235 254
222 235 254
222 235 254
222 235 254
222 235 254
222 235 254
222 235 254
222 235 254
222 235 254
222 235 254
222 235 254
222 235 254
222 235 254
222 235 254
222 235 254
222 235 254
222 235 254
222 235 254
222 235 254
222 235 254
222 235 254
222 235 254
222 235 254
222 235 254
222 235 254
222 235 254
222 235 254
222 235 254
222 235 254
222 235 254
222 235 254
222 235 254
222 235 254
222 235 254
222 235 254
222 235 254
222 235 254
222 235 254
222 235 254
222 235 254
222 235 254
222 235 254
222 235 254
222 235 254
222 235 254
222 235 254
222 235 254
222 235 254
222 235 254
222 235 254
222 235 254
222 235 254
222 235 254
222 235 254
222 235 254
222 235 254
222 235 254
222 235 254
222 235 254
222 235 254
222 235 254
222 235 254
222 235 254
222 235 254
222 235 254
222 235 254
222 235 254
222 235 254
222 235 254
222 235 254
222 235 254
222 235 254
222 235 254
222 235 254
222 235 254
222 235 254
222 235 254
222 235 254
222 235 254
222 235 254
222 235 254
222 235 254
222 235 254
222 235 254
222 235 254
222 235 254
222 235 254
222 235 254
222 235 254
222 235 254
222 235 254
222 235 254
222 235 254
222 235 254
222 235 254
222 235 254
222 235 254
222 235 254
222 235 254
222 235 254
222 235 254
222 235 254
222 235 254
222 235 254
222 235 254
220 234 253
96 105 117
43 47 52
22 24 27
25 28 31
45 49 55
65 72 81
83 91 102
85 94 106
92 102 114
88 96 108
93 102 115
90 98 110
88 97 110
86 95 106
84 93 105
82 90 102
73 81 91
77 85 95
85 93 105
90 98 109
91 101 113
92 101 114
86 95 107
93 102 114
93 103 116
100 110 124
100 110 123
107 117 131
102 112 126
107 117 131
107 117 132
111 122 137
90 100 113
90 99 112
99 109 122
89 98 110
91 100 112
85 94 107
96 105 118
92 102 114
93 102 115
92 101 114
93 101 113
85 93 105
85 94 106
76 84 94
74 81 92
88 97 108
70 77 87
67 73 82
70 77 87
56 62 69
52 57 64
52 57 64
50 55 61
48 53 59
55 61 68
54 59 67
55 61 68
47 52 59
48 53 60
46 51 58
44 48 54
44 48 54
44 49 54
37 40 46
29 32 36
16 17 20
18 20 23
19 20 23
10 11 13
17 19 22
32 35 40
39 44 49
45 49 55
50 55 62
44 49 56
39 43 48
40 44 50
41 45 51
49 54 60
46 51 57
41 45 50
40 44 49
32 35 39
26 28 32
33 36 40
29 32 37
31 34 39
40 44 50
44 49 55
49 54 61
49 54 61
45 50 56
40 45 51
42 46 52
40 44 49
39 43 49
42 46 52
43 47 53
41 45 51
37 41 46
35 38 43
34 37 42
17 19 21
15 17 19
22 24 27
27 30 34
38 42 47
44 48 55
47 52 58
46 51 58
44 49 55
43 48 54
38 42 47
33 36 40
30 33 38
38 42 48
51 56 63
53 59 66
55 61 68
55 60 67
50 55 61
48 53 59
43 47 53
43 47 52
39 44 50
40 44 49
42 47 53
44 49 55
37 41 47
32 35 39
28 31 35
24 27 30
27 30 33
20 22 25
20 22 25
25 28 31
33 36 40
24 26 30
21 24 27
19 21 23
11 13 14
9 10 12
10 11 12
10 11 13
17 19 22
13 14 16
10 11 12
13 14 16
12 13 15
15 16 18
26 29 33
28 32 36
35 39 43
30 33 37
33 37 41
34 37 42
37 40 46
37 40 45
41 45 51
42 46 51
41 45 51
45 50 56
48 53 59
43 47 54
45 50 56
40 45 51
43 48 54
37 41 46
40 44 50
30 33 38
21 23 26
33 37 41
46 50 56
59 64 72
53 58 66
58 64 72
58 64 72
60 66 74
48 53 59
39 43 48
23 25 28
13 15 17
27 29 33
18 20 22
42 46 52
51 56 63
61 67 75
68 74 82
220 234 253
222 235 254
222 235 254
222 235 254
222 235 254
222 235 254
222 235 254
222 235 254
222 235 254
222 235 254
222 235 254
222 235 254
222 235 254
222 235 254
222 235 254
222 235 254
222 235 254
222 235 254
222 235 254
222 235 254
222 235 254
222 235 254
222 235 254
222 235 254
222 235 254
222 235 254
222 235 254
222 235 254
222 235 254
222 235 254
222 235 254
222 235 254
222 235 254
222 235 254
222 235 254
222 235 254
222 235 254
222 235 254
222 235 254
222 235 254
222 235 254
222 235 254
222 235 254
222 235 254
222 235 254
222 235 254
222 235 254
222 235 254
222 235 254
222 235 254
222 235 254
222 235 254
222 235 254
222 235 254
222 235 254
222 235 254
222 235 254
222 235 254
222 235 254
222 235 254
222 235 254
222 235 254
222 235 254
222 235 254
222 235 254
222 235 254
222 235 254
222 235 254
222 235 254
222 235 254
222 235 254
222 235 254
222 235 254
222 235 254
222 235 254
222 235 254
222 235 254
222 235 254
222 235 254
222 235 254
222 235 254
222 235 254
222 235 254
222 235 254
222 235 254
222 235 254
222 235 254
222 235 254
222 235 254
222 235 254
222 235 254
222 235 254
222 235 254
222 235 254
222 235 254
222 235 254
222 235 254
222 235 254
222 235 254
222 235 254
222 235 254
222 235 254
222 235 254
222 235 254
222 235 254
222 235 254
222 235 254
222 235 254
222 235 254
222 235 254
222 235 254
222 235 254
222 235 254
222 235 254
222 235 254
222 235 254
222 235 254
222 235 254
222 235 254
222 235 254
222 235 254
222 235 254
222 235 254
222 235 254
222 235 254
222 235 254
222 235 254
222 235 254
222 235 254
222 235 254
222 235 254
222 235 254
222 235 254
222 235 254
222 235 254
222 235 254
222 235 254
222 235 254
222 235 254
222 235 254
222 235 254
222 235 254
222 235 254
222 235 254
222 235 254
222 235 254
222 235 254
222 235 254
222 235 254
222 235 254
222 235 254
222 235 254
222 235 254
222 235 254
222 235 254
222 235 254
222 235 254
222 235 254
222 235 254
222 235 254
222 235 254
222 235 254
222 235 254
222 235 254
222 235 254
222 235 254
222 235 254
222 235 254
222 235 254
222 235 254
222 235 254
222 235 254
222 235 254
222 235 254
222 235 254
222 235 254
222 235 254
222 235 254
222 235 254
222 235 254
222 235 254
222 235 254
222 235 254
222 235 254
222 235 254
222 235 254
222 235 254
222 235 254
222 235 254
222 235 254
222 235 254
222 235 254
222 235 254
222 235 254
222 235 254
222 235 254
222 235 254
222 235 254
222 235 254
222 235 254
222 235 254
222 235 254
222 235 254
222 235 254
222 235 254
222 235 254
222 235 254
222 235 254
222 235 254
222 235 254
151 161 175
54 59 67
25 27 31
31 34 38
32 35 39
62 69 77
78 86 97
87 95 106
86 95 107
85 94 106
93 102 116
94 104 116
85 94 106
95 106 120
83 91 102
75 83 93
71 79 89
75 83 93
74 81 92
83 91 103
88 97 109
86 96 108
90 99 112
89 98 110
85 95 107
89 98 111
86 95 107
100 110 125
104 114 128
98 108 123
109 120 134
101 112 126
102 112 126
98 109 122
92 101 114
94 103 117
92 102 115
89 98 110
100 110 124
96 106 119
97 107 120
92 102 115
82 91 102
79 88 99
85 94 105
88 97 108
81 89 100
82 90 101
77 85 96
69 77 87
70 77 87
63 69 78
53 59 66
51 57 64
51 56 63
46 51 57
54 60 67
48 53 59
50 55 63
49 54 60
42 46 52
41 45 51
36 40 45
38 42 47
39 44 49
36 39 44
22 25 28
10 11 12
10 11 12
6 7 8
6 7 7
22 25 28
34 38 42
43 48 53
44 48 54
45 49 56
47 52 58
47 52 58
46 51 57
43 47 53
50 55 62
51 57 64
51 56 62
44 49 55
40 44 49
33 36 40
34 38 42
34 37 42
36 39 44
34 37 41
38 42 48
46 50 57
49 55 61
46 51 57
44 49 55
47 52 58
46 51 57
43 47 53
41 45 51
44 49 55
50 55 61
49 54 61
46 51 57
37 41 47
28 32 36
29 32 36
32 35 40
39 43 48
42 46 51
48 53 59
53 58 65
54 60 67
46 50 57
41 46 52
35 38 43
31 34 38
27 30 34
38 41 47
49 54 61
54 60 67
52 57 64
47 52 58
45 50 56
43 48 54
38 42 47
42 46 51
39 43 48
42 47 53
43 48 54
40 44 50
36 40 45
29 32 37
26 29 33
24 27 30
23 26 29
18 20 23
22 24 27
30 33 37
30 34 38
31 35 39
29 32 36
27 30 34
19 21 23
11 12 14
11 12 14
9 10 11
8 9 10
11 13 14
14 16 18
9 10 12
7 8 9
16 18 20
21 24 27
19 21 24
24 26 29
25 28 31
25 28 31
29 32 36
33 37 41
34 37 42
37 41 46
45 50 56
46 51 57
49 54 61
48 53 60
47 52 59
45 49 56
37 41 46
35 39 44
38 42 47
37 41 46
24 26 29
22 24 27
32 35 40
46 50 56
53 59 66
57 62 70
53 58 65
52 57 65
57 63 71
47 52 59
42 47 53
19 21 24
20 22 25
31 34 38
24 26 30
52 58 65
57 63 70
59 65 74
143 152 165
222 235 254
222 235 254
222 235 254
222 235 254
222 235 254
222 235 254
222 235 254
222 235 254
222 235 254
222 235 254
222 235 254
222 235 254
222 235 254
222 235 254
222 235 254
222 235 254
222 235 254
222 235 254
222 235 254
222 235 254
222 235 254
222 235 254
222 235 254
222 235 254
222 235 254
222 235 254
222 235 254
222 235 254
222 235 254
222 235 254
222 235 254
222 235 254
222 235 254
222 235 254
222 235 254
222 235 254
222 235 254
222 235 254
222 235 254
222 235 254
222 235 254
222 235 254
222 235 254
222 235 254
222 235 254
222 235 254
222 235 254
222 235 254
222 235 254
222 235 254
222 235 254
222 235 254
222 235 254
222 235 254
222 235 254
222 235 254
222 235 254
222 235 254
222 235 254
222 235 254
222 235 254
222 235 254
222 235 254
222 235 254
222 235 254
222 235 254
222 235 254
222 235 254
222 235 254
222 235 254
222 235 254
222 235 254
222 235 254
222 235 254
222 235 254
222 235 254
222 235 254
222 235 254
222 235 254
222 235 254
222 235 254
222 235 254
222 235 254
222 235 254
222 235 254
222 235 254
222 235 254
222 235 254
222 235 254
222 235 254
222 235 254
222 235 254
222 235 254
222 235 254
222 235 254
222 235 254
222 235 254
222 235 254
222 235 254
222 235 254
222 235 254
222 235 254
222 235 254
222 235 254
222 235 254
222 235 254
222 235 254
222 235 254
222 235 254
222 235 254
222 235 254
222 235 254
222 235 254
222 235 254
222 235 254
222 235 254
222 235 254
222 235 254
222 235 254
222 235 254
222 235 254
222 235 254
222 235 254
222 235 254
222 235 254
222 235 254
222 235 254
222 235 254
222 235 254
222 235 254
222 235 254
222 235 254
222 235 254
222 235 254
222 235 254
222 235 254
222 235 254
222 235 254
222 235 254
222 235 254
222 235 254
222 235 254
222 235 254
222 235 254
222 235 254
222 235 254
222 235 254
222 235 254
222 235 254
222 235 254
222 235 254
222 235 254
222 235 254
222 235 254
222 235 254
222 235 254
222 235 254
222 235 254
222 235 254
222 235 254
222 235 254
222 235 254
222 235 254
222 235 254
222 235 254
222 235 254
222 235 254
222 235 254
222 235 254
222 235 254
222 235 254
222 235 254
222 235 254
222 235 254
222 235 254
222 235 254
222 235 254
222 235 254
222 235 254
222 235 254
222 235 254
222 235 254
222 235 254
222 235 254
222 235 254
222 235 254
222 235 254
222 235 254
222 235 254
222 235 254
222 235 254
222 235 254
222 235 254
222 235 254
222 235 254
222 235 254
222 235 254
222 235 254
222 235 254
222 235 254
222 235 254
222 235 254
222 235 254
222 235 254
222 235 254
222 235 254
222 235 254
222 235 254
222 235 254
222 235 254
173 184 200
58 64 73
25 28 31
32 35 39
22 24 27
51 56 63
73 80 90
78 86 97
78 86 96
80 88 99
88 97 109
80 88 99
86 95 107
91 100 112
81 89 100
80 88 99
68 75 85
68 75 84
70 78 87
82 90 101
85 95 107
85 94 106
93 103 116
89 98 110
87 95 107
91 100 113
95 105 119
98 109 123
97 107 120
94 104 118
101 111 125
107 118 132
98 108 121
97 107 120
89 98 110
89 98 110
92 101 114
96 106 119
96 106 119
103 114 128
97 107 120
92 102 114
88 97 109
80 88 98
91 100 112
88 97 109
87 96 108
81 89 100
83 91 103
72 80 90
69 75 85
60 66 74
57 63 70
51 56 62
45 50 56
48 52 59
52 58 65
50 55 62
41 46 51
42 46 52
40 44 49
36 40 45
31 34 39
37 41 46
38 42 47
36 40 45
24 27 31
10 12 13
11 12 14
10 12 13
10 11 13
24 27 30
37 40 45
41 46 51
46 51 58
44 48 54
45 50 56
47 51 57
45 50 56
54 60 67
53 59 66
58 64 72
58 64 72
49 53 60
46 51 57
38 42 47
38 43 48
33 37 41
29 32 36
31 34 39
34 38 42
39 43 49
42 46 52
44 49 55
47 52 57
47 52 58
48 53 59
42 46 52
45 50 56
49 54 61
51 56 63
55 60 67
49 54 60
45 50 56
40 44 49
36 40 45
39 43 49
43 48 53
43 48 54
47 52 59
48 53 59
47 51 58
40 45 50
34 38 42
30 33 37
28 30 34
25 28 32
36 39 44
42 46 52
50 55 62
48 53 60
44 49 55
41 45 50
44 48 54
41 45 50
38 41 46
38 42 47
43 48 54
39 43 49
36 40 45
34 38 43
32 36 40
27 30 33
24 27 30
22 24 27
22 24 27
25 28 31
22 24 27
28 31 34
31 35 39
32 36 40
32 36 41
30 33 38
21 24 27
13 15 17
5 6 6
15 16 18
24 26 29
22 24 27
9 10 11
13 14 16
13 14 16
17 19 21
16 18 20
13 15 17
17 18 21
16 18 20
23 25 28
32 35 40
38 42 47
40 44 50
45 50 57
48 53 59
40 45 50
43 48 54
46 50 56
41 44 50
32 35 40
27 30 33
34 37 42
34 37 42
21 23 26
27 29 33
38 41 46
43 47 53
49 55 62
49 54 60
49 54 61
55 60 67
53 58 66
40 45 50
42 46 51
20 22 25
21 23 26
24 27 30
38 42 47
57 63 70
57 63 71
58 64 72
161 171 186
222 235 254
222 235 254
222 235 254
222 235 254
222 235 254
222 235 254
222 235 254
222 235 254
222 235 254
222 235 254
222 235 254
222 235 254
222 235 254
222 235 254
222 235 254
222 235 254
222 235 254
222 235 254
222 235 254
222 235 254
222 235 254
222 235 254
222 235 254
222 235 254
222 235 254
222 235 254
222 235 254
222 235 254
222 235 254
222 235 254
222 235 254
222 235 254
222 235 254
222 235 254
222 235 254
222 235 254
222 235 254
222 235 254
222 235 254
222 235 254
222 235 254
222 235 254
222 235 254
222 235 254
222 235 254
222 235 254
222 235 254
222 235 254
222 235 254
222 235 254
222 235 254
222 235 254
222 235 254
222 235 254
222 235 254
222 235 254
222 235 254
222 235 254
222 235 254
222 235 254
222 235 254
222 235 254
222 235 254
222 235 254
222 235 254
222 235 254
222 235 254
222 235 254
222 235 254
222 235 254
222 235 254
222 235 254
222 235 254
222 235 254
222 235 254
222 235 254
222 235 254
222 235 254
222 235 254
222 235 254
222 235 254
222 235 254
222 235 254
222 235 254
222 235 254
222 235 254
222 235 254
222 235 254
222 235 254
222 235 254
222 235 254
222 235 254
222 235 254
222 235 254
222 235 254
222 235 254
222 235 254
222 235 254
222 235 254
222 235 254
222 235 254
222 235 254
222 235 254
222 235 254
222 235 254
222 235 254
222 235 254
222 235 254
222 235 254
222 235 254
222 235 254
222 235 254
222 235 254
222 235 254
222 235 254
222 235 254
222 235 254
222 235 254
222 235 254
222 235 254
222 235 254
222 235 254
222 235 254
222 235 254
222 235 254
222 235 254
222 235 254
222 235 254
222 235 254
222 235 254
222 235 254
222 235 254
222 235 254
222 235 254
222 235 254
222 235 254
222 235 254
222 235 254
222 235 254
222 235 254
222 235 254
222 235 254
222 235 254
222 235 254
222 235 254
222 235 254
222 235 254
222 235 254
222 235 254
222 235 254
222 235 254
222 235 254
222 235 254
222 235 254
222 235 254
222 235 254
222 235 254
222 235 254
222 235 254
222 235 254
222 235 254
222 235 254
222 235 254
222 235 254
222 235 254
222 235 254
222 235 254
222 235 254
222 235 254
222 235 254
222 235 254
222 235 254
222 235 254
222 235 254
222 235 254
222 235 254
222 235 254
222 235 254
222 235 254
222 235 254
222 235 254
222 235 254
222 235 254
222 235 254
222 235 254
222 235 254
222 235 254
222 235 254
222 235 254
222 235 254
222 235 254
222 235 254
222 235 254
222 235 254
222 235 254
222 235 254
222 235 254
222 235 254
222 235 254
222 235 254
222 235 254
222 235 254
222 235 254
222 235 254
222 235 254
222 235 254
222 235 254
222 235 254
222 235 254
222 235 254
204 217 235
63 69 78
31 33 37
32 36 40
19 21 24
49 54 61
72 79 89
77 85 96
83 92 103
83 92 103
81 89 100
84 92 104
82 90 102
78 86 97
79 87 98
67 75 84
65 72 81
69 77 86
74 82 92
85 94 105
85 94 106
79 87 97
82 91 102
92 102 115
89 98 110
89 98 111
81 89 100
93 102 115
94 103 115
100 109 122
95 105 119
90 99 112
99 109 122
98 108 122
103 114 128
101 111 125
100 110 124
102 112 126
98 107 120
101 112 126
99 108 122
85 94 107
93 102 115
90 99 112
90 99 112
86 94 105
81 89 100
83 92 104
80 89 101
80 88 99
70 78 87
63 69 77
57 62 70
52 57 64
44 48 54
45 50 56
47 51 58
45 49 55
43 47 53
36 40 45
33 37 41
36 40 45
38 41 46
33 36 41
33 37 41
37 40 45
30 33 37
21 23 26
6 7 8
9 10 11
10 11 12
22 25 28
31 35 39
35 38 43
39 43 49
40 44 50
41 45 50
44 48 54
47 51 58
51 56 63
56 61 69
56 61 69
54 59 67
50 55 62
41 45 50
39 43 48
42 46 52
36 39 45
31 34 38
28 31 34
32 35 39
38 42 47
38 42 48
48 53 59
47 51 58
48 53 60
47 52 59
51 56 63
56 62 69
59 64 72
55 60 68
57 63 71
55 60 68
53 58 65
43 47 54
42 46 52
47 51 58
48 53 60
44 49 55
45 49 55
45 50 56
43 47 53
38 42 47
28 31 35
21 23 26
22 25 28
22 25 28
27 30 34
35 39 44
42 46 52
40 44 49
39 43 48
40 45 50
40 43 49
37 41 46
33 36 41
39 43 49
43 47 53
46 51 57
35 39 43
30 33 37
27 30 34
26 28 32
27 29 33
16 17 19
13 15 17
15 17 19
20 22 24
22 24 27
27 30 33
36 40 45
40 44 50
33 37 42
27 29 33
17 19 21
12 14 15
22 24 27
29 32 36
22 24 27
11 13 14
12 13 15
21 24 27
28 31 35
26 29 32
17 19 21
12 13 15
12 13 15
21 23 26
32 36 40
36 40 45
46 50 57
46 51 57
41 46 51
41 45 51
37 41 46
36 39 45
34 38 42
27 30 34
28 30 34
30 33 38
21 23 26
14 16 18
27 30 34
34 37 42
40 44 50
45 50 56
46 51 58
53 59 66
57 63 71
49 53 60
49 54 61
47 51 57
33 36 41
21 23 25
22 25 28
43 47 53
57 62 69
62 68 76
53 58 65
206 219 237
222 235 254
222 235 254
222 235 254
222 235 254
222 235 254
222 235 254
222 235 254
222 235 254
222 235 254
222 235 254
222 235 254
222 235 254
222 235 254
222 235 254
222 235 254
222 235 254
222 235 254
222 235 254
222 235 254
222 235 254
222 235 254
222 235 254
222 235 254
222 235 254
222 235 254
222 235 254
222 235 254
222 235 254
222 235 254
222 235 254
222 235 254
222 235 254
222 235 254
222 235 254
222 235 254
222 235 254
222 235 254
222 235 254
222 235 254
222 235 254
222 235 254
222 235 254
222 235 254
222 235 254
222 235 254
222 235 254
222 235 254
222 235 254
222 235 254
222 235 254
222 235 254
222 235 254
222 235 254
222 235 254
222 235 254
222 235 254
222 235 254
222 235 254
222 235 254
222 235 254
222 235 254
222 235 254
222 235 254
222 235 254
222 235 254
222 235 254
222 235 254
222 235 254
222 235 254
222 235 254
222 235 254
222 235 254
222 235 254
222 235 254
222 235 254
222 235 254
222 235 254
222 235 254
222 235 254
222 235 254
222 235 254
222 235 254
222 235 254
222 235 254
222 235 254
222 235 254
222 235 254
222 235 254
222 235 254
222 235 254
222 235 254
222 235 254
222 235 254
222 235 254
222 235 254
222 235 254
222 235 254
222 235 254
222 235 254
222 235 254
222 235 254
222 235 254
222 235 254
222 235 254
222 235 254
222 235 254
222 235 254
222 235 254
222 235 254
222 235 254
222 235 254
222 235 254
222 235 254
222 235 254
222 235 254
222 235 254
222 235 254
222 235 254
222 235 254
222 235 254
222 235 254
222 235 254
222 235 254
222 235 254
222 235 254
222 235 254
222 235 254
222 235 254
222 235 254
222 235 254
222 235 254
222 235 254
222 235 254
222 235 254
222 235 254
222 235 254
222 235 254
222 235 254
222 235 254
222 235 254
222 235 254
222 235 254
222 235 254
222 235 254
222 235 254
222 235 254
222 235 254
222 235 254
222 235 254
222 235 254
222 235 254
222 235 254
222 235 254
222 235 254
222 235 254
222 235 254
222 235 254
222 235 254
222 235 254
222 235 254
222 235 254
222 235 254
222 235 254
222 235 254
222 235 254
222 235 254
222 235 254
222 235 254
222 235 254
222 235 254
222 235 254
222 235 254
222 235 254
222 235 254
222 235 254
222 235 254
222 235 254
222 235 254
222 235 254
222 235 254
222 235 254
222 235 254
222 235 254
222 235 254
222 235 254
222 235 254
222 235 254
222 235 254
222 235 254
222 235 254
222 235 254
222 235 254
222 235 254
222 235 254
222 235 254
222 235 254
222 235 254
222 235 254
222 235 254
222 235 254
222 235 254
222 235 254
222 235 254
222 235 254
222 235 254
222 235 254
222 235 254
222 235 254
222 235 254
222 235 254
222 235 254
110 118 129
29 32 37
38 42 47
21 23 27
30 32 36
55 61 69
77 85 96
81 89 101
73 80 90
75 83 93
75 82 91
72 80 90
71 79 89
83 90 101
72 78 88
72 80 90
69 76 85
67 73 82
75 83 94
83 91 103
80 88 99
78 85 95
81 89 101
85 94 105
84 92 104
84 92 103
80 87 98
83 92 103
89 98 110
92 102 115
104 114 128
94 103 116
91 100 113
86 95 108
99 109 122
102 112 126
90 99 112
97 107 120
100 110 123
99 109 122
93 103 116
85 94 106
84 93 105
86 95 107
85 94 107
84 93 105
81 90 101
83 92 103
77 85 95
62 68 76
63 70 78
46 51 57
43 47 53
41 46 52
40 45 50
41 46 51
41 46 52
42 46 52
39 43 49
34 38 43
32 35 40
32 35 40
34 38 43
32 35 40
34 37 42
35 38 43
27 30 33
19 21 23
18 20 22
10 11 13
13 14 16
24 27 31
30 33 37
29 32 36
35 39 43
38 41 47
37 40 46
40 45 51
43 47 52
45 50 56
53 58 66
51 56 63
43 47 53
40 44 49
38 42 48
40 44 50
38 42 47
29 32 36
23 25 29
33 36 41
46 51 57
42 46 52
49 54 61
47 52 58
49 54 61
45 50 56
58 64 71
55 60 68
50 55 63
53 59 66
56 62 70
55 60 68
53 58 65
52 58 65
51 56 63
53 59 66
54 59 66
49 55 62
45 49 55
43 47 53
40 44 50
30 33 37
19 21 24
20 22 24
18 20 23
17 19 22
21 23 26
26 28 32
29 32 36
31 34 38
34 38 43
38 42 47
42 47 53
37 40 45
35 39 44
40 44 50
44 48 54
41 45 50
39 43 48
26 29 33
25 28 31
24 27 30
26 29 32
18 20 22
20 22 25
20 23 25
30 33 37
27 30 34
28 31 34
38 42 48
44 49 54
42 47 53
33 37 42
24 27 31
26 28 32
31 34 38
35 38 43
26 29 33
23 25 28
29 32 36
31 34 38
32 35 40
34 38 42
31 34 38
23 26 29
19 21 24
20 22 25
32 35 40
39 44 49
47 51 58
45 50 56
41 45 51
35 38 43
30 33 37
25 28 32
25 28 31
26 28 32
31 34 38
28 31 35
19 20 23
9 10 11
21 23 26
30 33 37
38 41 46
42 47 52
48 53 60
58 64 72
59 65 73
49 54 60
49 54 60
50 56 63
31 34 39
16 18 20
33 36 40
50 55 62
53 58 66
54 60 67
88 94 103
222 235 254
222 235 254
222 235 254
222 235 254
222 235 254
222 235 254
222 235 254
222 235 254
222 235 254
222 235 254
222 235 254
222 235 254
222 235 254
222 235 254
222 235 254
222 235 254
222 235 254
222 235 254
222 235 254
222 235 254
222 235 254
222 235 254
222 235 254
222 235 254
222 235 254
222 235 254
222 235 254
222 235 254
222 235 254
222 235 254
222 235 254
222 235 254
222 235 254
222 235 254
222 235 254
222 235 254
222 235 254
222 235 254
222 235 254
222 235 254
222 235 254
222 235 254
222 235 254
222 235 254
222 235 254
222 235 254
222 235 254
222 235 254
222 235 254
222 235 254
222 235 254
222 235 254
222 235 254
222 235 254
222 235 254
222 235 254
222 235 254
222 235 254
222 235 254
222 235 254
222 235 254
222 235 254
222 235 254
222 235 254
222 235 254
222 235 254
222 235 254
222 235 254
222 235 254
222 235 254
222 235 254
222 235 254
222 235 254
222 235 254
222 235 254
222 235 254
222 235 254
222 235 254
222 235 254
222 235 254
222 235 254
222 235 254
222 235 254
222 235 254
222 235 254
222 235 254
222 235 254
222 235 254
222 235 254
222 235 254
222 235 254
222 235 254
222 235 254
222 235 254
222 235 254
222 235 254
222 235 254
222 235 254
222 235 254
222 235 254
222 235 254
222 235 254
222 235 254
222 235 254
222 235 254
222 235 254
222 235 254
222 235 254
222 235 254
222 235 254
222 235 254
222 235 254
222 235 254
222 235 254
222 235 254
222 235 254
222 235 254
222 235 254
222 235 254
222 235 254
222 235 254
222 235 254
222 235 254
222 235 254
222 235 254
222 235 254
222 235 254
222 235 254
222 235 254
222 235 254
222 235 254
222 235 254
222 235 254
222 235 254
222 235 254
222 235 254
222 235 254
222 235 254
222 235 254
222 235 254
222 235 254
222 235 254
222 235 254
222 235 254
222 235 254
222 235 254
222 235 254
222 235 254
222 235 254
222 235 254
222 235 254
222 235 254
222 235 254
222 235 254
222 235 254
222 235 254
222 235 254
222 235 254
222 235 254
222 235 254
222 235 254
222 235 254
222 235 254
222 235 254
222 235 254
222 235 254
222 235 254
222 235 254
222 235 254
222 235 254
222 235 254
222 235 254
222 235 254
222 235 254
222 235 254
222 235 254
222 235 254
222 235 254
222 235 254
222 235 254
222 235 254
222 235 254
222 235 254
222 235 254
222 235 254
222 235 254
222 235 254
222 235 254
222 235 254
222 235 254
222 235 254
222 235 254
222 235 254
222 235 254
222 235 254
222 235 254
222 235 254
222 235 254
222 235 254
222 235 254
222 235 254
222 235 254
222 235 254
222 235 254
222 235 254
222 235 254
222 235 254
222 235 254
222 235 254
222 235 254
222 235 254
222 235 254
149 159 172
41 44 50
39 43 49
32 35 39
17 18 21
45 49 56
62 68 76
73 80 90
74 81 91
80 88 99
83 92 103
78 86 96
76 84 94
67 74 84
66 73 82
64 71 80
63 69 77
56 62 70
69 76 85
69 76 85
74 81 91
76 84 94
81 89 100
77 85 96
68 75 85
75 82 92
73 80 90
77 85 95
81 90 101
89 98 110
92 102 114
96 106 120
93 102 115
89 99 111
84 93 105
94 103 116
91 100 112
91 100 113
99 110 123
96 106 119
87 97 109
85 94 105
78 86 97
82 90 102
77 85 95
86 94 106
80 88 98
76 84 95
71 78 88
59 65 73
59 65 73
48 53 60
43 48 54
39 43 48
41 45 51
39 43 49
39 43 49
45 49 55
37 41 47
29 32 36
33 36 41
32 35 40
28 31 35
27 30 33
34 37 42
39 43 48
37 41 46
35 39 43
23 26 29
10 11 12
8 9 10
13 14 16
16 18 20
16 18 20
21 23 26
27 30 33
28 31 35
30 33 37
34 37 42
41 45 51
42 47 53
42 46 52
35 39 44
34 37 42
33 37 41
36 40 45
34 38 43
26 29 32
23 25 28
32 35 40
46 51 57
48 53 59
48 53 60
47 51 58
49 54 61
49 54 61
51 56 63
52 57 65
53 58 65
48 53 59
59 65 74
51 57 64
53 58 66
51 56 63
62 68 76
54 60 67
55 61 68
52 57 64
43 47 54
44 48 55
34 37 42
29 32 36
21 23 26
20 22 25
21 23 26
23 26 29
19 21 23
20 22 25
24 27 31
26 29 32
33 37 41
35 39 44
40 44 49
41 45 51
39 43 48
36 40 45
39 43 48
40 44 49
34 37 42
31 35 39
30 33 37
30 33 37
33 36 41
27 29 33
31 34 39
30 33 37
32 35 40
26 29 33
30 33 37
36 40 45
42 47 53
45 50 56
38 42 47
39 43 48
33 36 40
42 46 52
42 46 52
40 44 49
37 41 46
36 40 45
32 36 40
36 40 45
39 43 48
40 45 50
35 39 44
19 21 24
16 18 20
35 38 43
45 49 55
45 49 56
47 52 58
35 39 44
31 34 38
25 27 31
15 16 18
14 16 18
29 32 36
39 43 48
30 33 37
19 21 23
23 26 29
15 17 19
26 28 32
30 33 38
44 48 54
48 52 59
56 62 70
47 52 58
45 50 56
52 57 64
45 50 56
26 29 33
26 28 32
41 45 51
52 58 65
48 53 59
47 52 59
139 148 161
222 235 254
222 235 254
222 235 254
222 235 254
222 235 254
222 235 254
222 235 254
222 235 254
222 235 254
222 235 254
222 235 254
222 235 254
222 235 254
222 235 254
222 235 254
222 235 254
222 235 254
222 235 254
222 235 254
222 235 254
222 235 254
222 235 254
222 235 254
222 235 254
222 235 254
222 235 254
222 235 254
222 235 254
222 235 254
222 235 254
222 235 254
222 235 254
222 235 254
222 235 254
222 235 254
222 235 254
222 235 254
222 235 254
222 235 254
222 235 254
222 235 254
222 235 254
222 235 254
222 235 254
222 235 254
222 235 254
222 235 254
222 235 254
222 235 254
222 235 254
222 235 254
222 235 254
222 235 254
222 235 254
222 235 254
222 235 254
222 235 254
222 235 254
222 235 254
222 235 254
222 235 254
222 235 254
222 235 254
222 235 254
222 235 254
222 235 254
222 235 254
222 235 254
222 235 254
222 235 254
222 235 254
222 235 254
222 235 254
222 235 254
222 235 254
222 235 254
222 235 254
222 235 254
222 235 254
222 235 254
222 235 254
222 235 254
222 235 254
222 235 254
222 235 254
222 235 254
222 235 254
222 235 254
222 235 254
222 235 254
222 235 254
222 235 254
222 235 254
222 235 254
222 235 254
222 235 254
222 235 254
222 235 254
222 235 254
222 235 254
222 235 254
222 235 254
222 235 254
222 235 254
222 235 254
222 235 254
222 235 254
222 235 254
222 235 254
222 235 254
222 235 254
222 235 254
222 235 254
222 235 254
222 235 254
222 235 254
222 235 254
222 235 254
222 235 254
222 235 254
222 235 254
222 235 254
222 235 254
222 235 254
222 235 254
222 235 254
222 235 254
222 235 254
222 235 254
222 235 254
222 235 254
222 235 254
222 235 254
222 235 254
222 235 254
222 235 254
222 235 254
222 235 254
222 235 254
222 235 254
222 235 254
222 235 254
222 235 254
222 235 254
222 235 254
222 235 254
222 235 254
222 235 254
222 235 254
222 235 254
222 235 254
222 235 254
222 235 254
222 235 254
222 235 254
222 235 254
222 235 254
222 235 254
222 235 254
222 235 254
222 235 254
222 235 254
222 235 254
222 235 254
222 235 254
222 235 254
222 235 254
222 235 254
222 235 254
222 235 254
222 235 254
222 235 254
222 235 254
222 235 254
222 235 254
222 235 254
222 235 254
222 235 254
222 235 254
222 235 254
222 235 254
222 235 254
222 235 254
222 235 254
222 235 254
222 235 254
222 235 254
222 235 254
222 235 254
222 235 254
222 235 254
222 235 254
222 235 254
222 235 254
222 235 254
222 235 254
222 235 254
222 235 254
222 235 254
222 235 254
222 235 254
222 235 254
222 235 254
222 235 254
222 235 254
222 235 254
222 235 254
222 235 254
222 235 254
222 235 254
222 235 254
222 235 254
202 214 232
45 49 55
46 51 57
44 48 54
16 18 20
28 31 35
52 57 65
67 74 83
74 82 92
70 77 87
76 84 95
73 80 90
71 79 88
74 81 91
65 72 80
62 68 77
56 61 69
51 57 64
62 68 76
67 74 83
68 75 85
67 74 84
70 77 87
67 74 83
66 73 82
62 68 77
64 71 80
72 80 91
78 86 96
83 91 102
85 93 105
91 100 112
97 106 119
81 90 102
90 99 112
81 90 101
87 96 108
95 104 117
86 95 107
92 101 114
91 101 113
82 91 102
84 93 104
69 77 87
76 84 95
84 92 103
76 84 94
71 79 89
60 67 75
59 65 73
59 66 74
47 52 59
41 45 51
44 49 55
42 46 52
39 43 48
37 41 46
42 46 52
35 38 43
24 27 30
21 24 26
25 28 31
25 28 32
28 31 35
34 38 43
42 46 51
51 56 63
46 51 57
36 40 45
25 27 30
22 24 27
15 17 19
15 17 19
12 13 14
11 12 14
13 14 16
12 13 15
17 18 21
32 36 40
37 40 45
37 41 45
35 38 43
28 31 35
29 32 36
33 36 41
26 29 32
23 26 29
21 23 26
18 20 22
29 32 36
39 43 48
45 50 57
47 52 59
45 49 56
46 50 57
47 52 58
49 54 62
52 58 65
56 61 69
50 55 62
52 57 64
53 58 65
52 58 65
61 67 75
58 64 72
56 62 70
53 59 66
55 60 67
51 56 62
42 46 52
34 38 42
29 32 36
31 34 38
27 30 34
28 31 35
24 26 30
19 21 24
23 26 29
30 33 37
29 32 36
28 31 35
32 35 40
39 43 48
42 46 52
39 43 48
39 43 48
36 40 46
42 46 51
38 41 46
32 35 40
31 35 39
37 41 46
32 35 40
36 39 44
42 46 51
40 44 50
39 43 49
34 37 42
35 39 44
34 37 42
45 49 56
50 55 62
46 51 57
42 46 52
44 49 55
46 51 57
44 49 56
44 48 54
45 50 56
39 43 48
35 39 44
41 46 51
40 45 50
45 50 56
34 37 42
24 26 30
15 17 19
30 33 37
42 47 52
44 48 54
38 42 47
30 34 38
29 32 36
23 25 28
14 16 18
22 24 27
36 40 45
38 41 46
33 36 41
28 30 34
32 35 40
17 19 21
19 21 23
31 34 38
38 42 47
54 59 67
58 64 71
49 54 61
40 44 50
41 45 51
43 47 53
34 37 42
38 41 47
46 51 58
46 51 57
39 43 49
41 45 51
184 196 212
222 235 254
222 235 254
222 235 254
222 235 254
222 235 254
222 235 254
222 235 254
222 235 254
222 235 254
222 235 254
222 235 254
222 235 254
222 235 254
222 235 254
222 235 254
222 235 254
222 235 254
222 235 254
222 235 254
222 235 254
222 235 254
222 235 254
222 235 254
222 235 254
222 235 254
222 235 254
222 235 254
222 235 254
222 235 254
222 235 254
222 235 254
222 235 254
222 235 254
222 235 254
222 235 254
222 235 254
222 235 254
222 235 254
222 235 254
222 235 254
222 235 254
222 235 254
222 235 254
222 235 254
222 235 254
222 235 254
222 235 254
222 235 254
222 235 254
222 235 254
222 235 254
222 235 254
222 235 254
222 235 254
222 235 254
222 235 254
222 235 254
222 235 254
222 235 254
222 235 254
222 235 254
222 235 254
222 235 254
222 235 254
222 235 254
222 235 254
222 235 254
222 235 254
222 235 254
222 235 254
222 235 254
222 235 254
222 235 254
222 235 254
222 235 254
222 235 254
222 235 254
222 235 254
222 235 254
222 235 254
222 235 254
222 235 254
222 235 254
222 235 254
222 235 254
222 235 254
222 235 254
222 235 254
222 235 254
222 235 254
222 235 254
222 235 254
222 235 254
222 235 254
222 235 254
222 235 254
222 235 254
222 235 254
222 235 254
222 235 254
222 235 254
222 235 254
222 235 254
222 235 254
222 235 254
222 235 254
222 235 254
222 235 254
222 235 254
222 235 254
222 235 254
222 235 254
222 235 254
222 235 254
222 235 254
222 235 254
222 235 254
222 235 254
222 235 254
222 235 254
222 235 254
222 235 254
222 235 254
222 235 254
222 235 254
222 235 254
222 235 254
222 235 254
222 235 254
222 235 254
222 235 254
222 235 254
222 235 254
222 235 254
222 235 254
222 235 254
222 235 254
222 235 254
222 235 254
222 235 254
222 235 254
222 235 254
222 235 254
222 235 254
222 235 254
222 235 254
222 235 254
222 235 254
222 235 254
222 235 254
222 235 254
222 235 254
222 235 254
222 235 254
222 235 254
222 235 254
222 235 254
222 235 254
222 235 254
222 235 254
222 235 254
222 235 254
222 235 254
222 235 254
222 235 254
222 235 254
222 235 254
222 235 254
222 235 254
222 235 254
222 235 254
222 235 254
222 235 254
222 235 254
222 235 254
222 235 254
222 235 254
222 235 254
222 235 254
222 235 254
222 235 254
222 235 254
222 235 254
222 235 254
222 235 254
222 235 254
222 235 254
222 235 254
222 235 254
222 235 254
222 235 254
222 235 254
222 236 254
222 236 254
222 235 254
222 236 254
222 235 254
222 236 254
222 235 254
222 236 254
222 236 254
222 236 254
222 236 254
222 236 254
222 236 254
222 236 254
222 236 254
222 236 254
222 236 254
222 236 254
222 236 254
222 236 254
219 232 251
59 64 71
38 42 47
52 57 64
30 33 37
23 25 29
42 47 53
56 62 70
64 70 79
68 74 83
76 84 94
74 81 92
65 71 80
65 72 81
60 66 74
59 65 72
50 55 62
55 61 68
54 59 67
55 61 68
58 65 73
65 71 79
66 73 82
63 70 78
63 69 77
66 73 81
58 65 73
65 72 81
67 74 83
70 77 87
76 84 95
79 87 98
79 87 98
82 90 100
84 93 104
87 96 107
85 95 107
78 86 96
94 103 115
85 94 106
80 88 99
82 91 103
77 85 95
80 88 99
80 89 100
82 90 101
72 79 89
77 84 95
68 74 83
65 72 80
57 63 71
53 59 66
44 49 55
37 41 46
41 45 51
39 44 49
42 46 52
38 42 47
34 37 42
14 15 17
11 12 13
19 21 24
25 27 31
31 34 38
35 39 43
38 43 48
53 59 67
48 53 59
47 52 58
34 37 41
29 32 36
19 21 23
17 18 21
15 16 18
12 13 15
16 18 21
16 18 20
12 13 14
26 28 32
31 33 37
32 35 40
29 32 36
22 24 27
21 23 26
23 26 29
17 19 21
16 17 20
15 17 19
11 13 14
27 30 34
41 45 50
43 47 53
45 50 56
42 47 53
44 49 55
44 49 55
43 47 53
42 46 52
48 53 60
50 55 62
53 59 66
57 62 70
63 69 78
61 67 75
61 67 76
62 69 77
61 67 75
53 59 66
50 55 61
40 45 50
35 38 43
29 32 36
26 29 32
28 31 35
28 31 35
30 33 37
28 31 35
38 41 46
40 44 49
38 42 47
36 40 45
40 44 50
48 53 60
48 54 61
49 54 61
43 48 54
46 51 57
46 51 57
46 51 57
39 43 49
39 43 48
41 45 50
39 43 48
42 46 52
41 45 51
45 50 56
40 44 50
37 40 46
37 41 46
41 45 51
46 51 58
49 54 61
46 51 58
49 54 60
44 49 55
47 52 58
49 55 62
45 50 56
45 49 55
43 47 53
44 48 54
46 51 57
50 55 62
49 54 61
44 49 55
29 32 35
16 17 19
34 37 41
43 47 53
43 47 54
36 40 45
29 32 36
29 32 36
26 29 32
21 23 26
25 28 31
29 32 36
36 40 45
30 33 38
28 31 34
32 35 40
17 19 22
19 21 24
34 37 42
44 48 54
49 54 62
49 54 61
42 47 53
39 43 49
40 44 50
37 41 46
33 37 41
39 43 49
48 53 59
43 47 53
37 40 45
66 71 77
221 234 253
222 236 254
222 236 254
222 236 254
222 236 254
222 236 254
222 236 254
222 236 254
222 236 254
222 236 254
222 236 254
222 236 254
222 235 254
222 236 254
222 236 254
222 236 254
222 235 254
222 235 254
222 235 254
222 235 254
222 235 254
222 235 254
222 236 254
222 235 254
222 235 254
222 235 254
222 235 254
222 235 254
222 235 254
222 235 254
222 235 254
222 235 254
222 235 254
222 235 254
222 235 254
222 235 254
222 235 254
222 235 254
222 235 254
222 235 254
222 235 254
222 235 254
222 235 254
222 235 254
222 235 254
222 235 254
222 235 254
222 235 254
222 235 254
222 235 254
222 235 254
222 235 254
222 235 254
222 235 254
222 235 254
222 235 254
222 235 254
222 235 254
222 235 254
222 235 254
222 235 254
222 235 254
222 235 254
222 235 254
222 235 254
222 235 254
222 235 254
222 235 254
222 235 254
222 235 254
222 235 254
222 235 254
222 235 254
222 235 254
222 235 254
222 235 254
222 235 254
222 235 254
222 235 254
222 235 254
222 235 254
222 235 254
222 235 254
222 235 254
222 235 254
222 235 254
222 235 254
222 235 254
222 235 254
222 235 254
222 235 254
222 235 254
222 235 254
222 235 254
222 235 254
222 235 254
222 235 254
222 235 254
222 235 254
222 235 254
222 235 254
222 235 254
222 235 254
222 235 254
222 235 254
222 235 254
222 235 254
222 236 254
222 236 254
222 236 254
222 236 254
222 236 254
222 236 254
222 236 254
222 236 254
222 236 254
222 236 254
222 236 254
222 236 254
222 236 254
222 236 254
222 236 254
222 236 254
222 236 254
222 236 254
222 236 254
222 236 254
222 236 254
222 236 254
222 236 254
222 236 254
222 236 254
222 236 254
222 236 254
222 236 254
222 236 254
222 236 254
222 236 254
222 236 254
222 236 254
222 236 254
222 236 254
222 236 254
222 236 254
222 236 254
222 236 254
222 236 254
222 236 254
222 236 254
222 236 254
222 236 254
222 236 254
222 236 254
222 236 254
222 236 254
222 236 254
222 236 254
222 236 254
222 236 254
222 236 254
222 236 254
222 236 254
222 236 254
222 236 254
222 236 254
222 236 254
222 236 254
222 236 254
222 236 254
222 236 254
222 236 254
222 236 254
222 236 254
222 236 254
222 236 254
222 236 254
222 236 254
222 236 254
222 236 254
222 236 254
222 236 254
222 236 254
222 236 254
222 236 254
222 236 254
222 236 254
222 236 254
222 236 254
222 236 254
222 236 254
222 236 254
222 236 254
222 236 254
222 236 254
222 236 254
222 236 254
222 236 254
222 236 254
222 236 254
222 236 254
222 236 254
222 236 254
222 236 254
222 236 254
222 236 254
222 236 254
222 236 254
222 236 254
222 236 254
222 236 254
222 236 254
222 236 254
222 236 254
222 236 254
151 160 173
29 32 36
53 58 65
49 54 61
27 30 34
40 44 50
52 58 65
48 53 59
56 62 69
64 70 79
68 75 83
64 70 79
62 68 77
61 67 76
57 62 70
47 52 58
47 52 59
50 55 63
48 53 59
51 56 63
49 54 61
55 60 68
56 61 69
53 59 67
55 60 68
62 68 76
63 70 78
67 74 83
68 75 85
74 81 90
68 75 84
71 79 89
78 86 97
76 84 95
81 90 101
79 87 98
79 87 98
81 90 101
72 79 89
76 83 93
75 83 94
82 90 101
83 92 103
73 80 90
71 79 89
70 77 87
64 70 79
57 63 71
56 62 70
60 66 74
55 61 68
41 46 52
39 43 48
38 42 47
42 46 51
41 45 51
37 40 45
22 24 28
15 17 19
15 16 18
10 11 12
21 23 25
27 30 34
38 41 46
43 47 53
46 51 58
46 51 57
48 53 59
37 41 47
33 36 41
26 28 32
25 28 31
23 26 29
25 27 31
24 27 30
17 18 21
9 10 11
20 22 25
25 27 31
23 25 29
21 23 26
14 15 17
13 14 16
10 11 12
8 9 11
9 10 11
16 18 20
23 26 29
31 34 38
40 44 49
46 51 57
48 53 59
43 48 53
41 46 51
41 46 51
43 48 54
45 49 55
50 55 62
50 55 62
53 58 65
58 64 72
58 64 72
59 65 73
60 66 74
60 66 74
62 68 76
57 63 71
56 62 70
46 50 57
39 44 49
31 34 38
29 32 37
31 35 39
25 28 32
27 30 34
36 40 44
40 45 50
38 42 47
40 44 50
41 45 51
37 41 46
41 46 52
49 55 62
52 57 65
51 57 64
53 58 65
55 60 67
54 59 66
48 53 59
42 46 52
40 44 50
42 46 52
48 53 60
48 53 60
44 49 55
40 44 50
41 45 51
43 48 54
42 46 52
45 49 55
48 53 60
50 56 63
50 55 62
48 53 60
52 57 64
52 57 64
47 52 59
45 49 55
46 51 57
45 50 56
50 55 62
49 54 60
44 48 54
45 50 56
34 37 41
18 20 22
36 39 44
39 43 48
38 41 46
31 34 38
24 27 30
27 29 33
25 27 30
28 31 35
19 20 23
25 28 32
30 33 37
26 29 33
25 27 31
26 29 32
23 25 28
26 29 32
50 55 62
49 54 61
56 62 69
46 51 57
48 53 60
46 51 57
40 44 49
45 49 55
31 34 39
40 44 50
52 57 65
36 40 45
35 39 44
128 136 147
222 236 254
222 236 254
222 236 254
222 236 254
222 236 254
222 236 254
222 236 254
222 236 254
222 236 254
222 236 254
222 236 254
222 236 254
222 236 254
222 236 254
222 236 254
222 236 254
222 236 254
222 236 254
222 236 254
222 236 254
222 236 254
222 236 254
222 236 254
222 236 254
222 236 254
222 236 254
222 236 254
222 236 254
222 236 254
222 236 254
222 236 254
222 236 254
222 236 254
222 236 254
222 236 254
222 236 254
222 236 254
222 236 254
222 236 254
222 236 254
222 236 254
222 236 254
222 236 254
222 236 254
222 236 254
222 236 254
222 236 254
222 236 254
222 236 254
222 236 254
222 236 254
222 236 254
222 236 254
222 236 254
222 236 254
222 236 254
222 236 254
222 236 254
222 236 254
222 236 254
222 236 254
222 236 254
222 236 254
222 236 254
222 236 254
222 236 254
222 236 254
222 236 254
222 236 254
222 236 254
222 236 254
222 236 254
222 236 254
222 236 254
222 236 254
222 236 254
222 236 254
222 236 254
222 236 254
222 236 254
222 236 254
222 236 254
222 236 254
222 236 254
222 236 254
222 236 254
222 236 254
222 236 254
222 236 254
222 236 254
222 236 254
222 236 254
222 236 254
222 236 254
222 236 254
222 236 254
222 236 254
222 236 254
222 236 254
222 236 254
222 236 254
222 236 254
222 236 254
222 236 254
222 236 254
222 236 254
222 236 254
222 236 254
222 236 254
222 236 254
222 236 254
222 236 254
222 236 254
222 236 254
222 236 254
222 236 254
222 236 254
222 236 254
222 236 254
222 236 254
222 236 254
222 236 254
222 236 254
222 236 254
222 236 254
222 236 254
222 236 254
222 236 254
222 236 254
222 236 254
222 236 254
222 236 254
222 236 254
222 236 254
222 236 254
222 236 254
222 236 254
222 236 254
222 236 254
222 236 254
222 236 254
222 236 254
222 236 254
222 236 254
222 236 254
222 236 254
222 236 254
222 236 254
222 236 254
222 236 254
222 236 254
222 236 254
222 236 254
222 236 254
222 236 254
222 236 254
222 236 254
222 236 254
222 236 254
222 236 254
222 236 254
222 236 254
222 236 254
222 236 254
222 236 254
222 236 254
222 236 254
222 236 254
222 236 254
222 236 254
222 236 254
222 236 254
222 236 254
222 236 254
222 236 254
222 236 254
222 236 254
222 236 254
222 236 254
222 236 254
222 236 254
222 236 254
222 236 254
222 236 254
222 236 254
222 236 254
222 236 254
222 236 254
222 236 254
222 236 254
222 236 254
222 236 254
222 236 254
222 236 254
222 236 254
222 236 254
222 236 254
222 236 254
222 236 254
222 236 254
222 236 254
222 236 254
222 236 254
222 236 254
222 236 254
222 236 254
222 236 254
222 236 254
222 236 254
222 236 254
222 236 254
222 236 254
222 236 254
222 236 254
190 202 218
22 25 27
46 51 57
51 57 64
33 36 41
38 42 47
43 47 52
43 47 53
49 54 61
55 60 68
61 67 76
61 67 75
60 66 74
58 64 72
52 58 65
41 45 50
42 46 52
40 44 49
43 47 52
43 47 53
47 52 58
44 49 55
41 45 51
46 51 58
50 55 62
50 55 62
56 62 69
62 68 76
60 66 74
63 70 79
66 73 82
69 75 84
67 74 83
72 79 89
72 79 89
72 79 89
71 78 88
65 72 82
76 84 94
83 91 101
82 90 101
79 86 96
78 86 97
69 76 86
71 78 88
66 73 82
65 72 81
64 70 79
53 58 65
53 59 66
52 58 65
42 46 51
40 45 50
40 44 49
42 46 52
41 45 50
37 41 46
23 25 28
13 15 16
15 17 19
10 12 13
14 16 18
24 27 30
38 41 46
44 48 54
41 45 50
44 48 54
42 46 52
46 51 57
39 43 48
30 33 37
31 35 39
37 40 44
29 32 36
29 32 36
23 25 28
18 19 22
12 14 15
22 24 27
23 25 28
21 24 27
7 8 9
7 8 9
11 12 14
15 17 19
11 12 14
19 21 24
30 33 37
38 42 47
44 48 54
47 51 58
47 52 58
40 44 50
41 46 51
42 46 51
41 45 51
44 49 55
52 57 64
57 62 70
55 60 68
60 66 74
53 58 65
54 60 67
58 64 72
57 63 71
62 68 77
62 68 76
56 62 70
51 57 64
43 47 53
39 43 49
35 38 43
41 45 50
38 42 47
36 39 44
41 45 50
39 44 49
40 44 49
39 43 48
35 39 44
40 44 50
46 51 57
50 54 61
55 61 68
53 58 66
59 64 72
61 68 77
57 63 71
54 59 67
51 56 64
45 49 56
45 49 56
49 54 61
46 51 57
49 53 60
50 55 61
42 46 52
41 45 51
43 47 52
51 57 64
56 61 68
54 59 67
48 52 59
49 55 62
53 58 66
50 55 62
42 47 53
40 45 50
48 52 59
46 51 58
46 50 57
47 52 58
48 53 60
43 48 54
37 41 46
17 19 21
31 35 39
38 42 47
32 36 40
27 30 34
19 21 24
19 21 24
26 29 32
26 29 32
20 22 25
29 32 36
22 24 27
15 16 18
17 19 21
25 28 32
19 21 23
40 44 49
50 55 62
52 58 65
55 61 68
50 55 61
47 52 59
46 50 57
48 53 59
46 51 58
37 41 46
47 52 58
49 54 60
38 41 47
37 41 46
199 211 228
222 236 254
222 236 254
222 236 254
222 236 254
222 236 254
222 236 254
222 236 254
222 236 254
222 236 254
222 236 254
222 236 254
222 236 254
222 236 254
222 236 254
222 236 254
222 236 254
222 236 254
222 236 254
222 236 254
222 236 254
222 236 254
222 236 254
222 236 254
222 236 254
222 236 254
222 236 254
222 236 254
222 236 254
222 236 254
222 236 254
222 236 254
222 236 254
222 236 254
222 236 254
222 236 254
222 236 254
222 236 254
222 236 254
222 236 254
222 236 254
222 236 254
222 236 254
222 236 254
222 236 254
222 236 254
222 236 254
222 236 254
222 236 254
222 236 254
222 236 254
222 236 254
222 236 254
222 236 254
222 236 254
222 236 254
222 236 254
222 236 254
222 236 254
222 236 254
222 236 254
222 236 254
222 236 254
222 236 254
222 236 254
222 236 254
222 236 254
222 236 254
222 236 254
222 236 254
222 236 254
222 236 254
222 236 254
222 236 254
222 236 254
222 236 254
222 236 254
222 236 254
222 236 254
222 236 254
222 236 254
222 236 254
222 236 254
222 236 254
222 236 254
222 236 254
222 236 254
222 236 254
222 236 254
222 236 254
222 236 254
222 236 254
222 236 254
222 236 254
222 236 254
222 236 254
222 236 254
222 236 254
222 236 254
222 236 254
222 236 254
222 236 254
222 236 254
222 236 254
222 236 254
222 236 254
222 236 254
222 236 254
222 236 254
222 236 254
222 236 254
222 236 254
222 236 254
222 236 254
222 236 254
222 236 254
222 236 254
222 236 254
222 236 254
222 236 254
222 236 254
222 236 254
222 236 254
222 236 254
222 236 254
222 236 254
222 236 254
222 236 254
222 236 254
222 236 254
222 236 254
222 236 254
222 236 254
222 236 254
222 236 254
222 236 254
222 236 254
222 236 254
222 236 254
222 236 254
222 236 254
222 236 254
222 236 254
222 236 254
222 236 254
222 236 254
222 236 254
222 236 254
222 236 254
222 236 254
222 236 254
222 236 254
222 236 254
222 236 254
222 236 254
222 236 254
222 236 254
222 236 254
222 236 254
222 236 254
222 236 254
222 236 254
222 236 254
222 236 254
222 236 254
222 236 254
222 236 254
222 236 254
222 236 254
222 236 254
222 236 254
222 236 254
222 236 254
222 236 254
222 236 254
222 236 254
222 236 254
222 236 254
222 236 254
222 236 254
222 236 254
222 236 254
222 236 254
222 236 254
222 236 254
222 236 254
222 236 254
222 236 254
222 236 254
222 236 254
222 236 254
222 236 254
222 236 254
222 236 254
222 236 254
222 236 254
222 236 254
222 236 254
222 236 254
222 236 254
222 236 254
222 236 254
222 236 254
222 236 254
222 236 254
222 236 254
222 236 254
222 236 254
222 236 254
222 236 254
222 236 254
222 236 254
222 236 254
222 236 254
222 236 254
221 234 253
73 78 85
37 41 46
51 56 63
36 39 44
43 47 53
42 46 52
37 41 46
44 48 54
46 51 57
56 62 69
53 59 67
53 58 65
52 57 65
48 52 59
32 35 39
33 37 41
39 43 49
43 47 53
45 50 56
44 48 54
36 40 45
40 44 49
41 45 50
45 50 56
48 53 59
51 56 62
48 53 60
50 55 63
59 65 73
58 64 72
65 72 81
65 71 79
64 71 80
71 79 89
71 78 88
70 78 88
74 81 91
75 82 91
73 80 90
77 85 95
77 85 96
72 79 90
74 81 92
71 78 88
63 70 79
67 74 84
61 68 76
58 64 73
51 56 63
55 60 68
49 54 61
46 51 57
46 51 57
45 49 55
44 49 55
33 36 41
29 32 36
25 27 30
19 21 24
20 22 25
14 15 17
19 21 23
29 32 36
37 41 46
41 45 51
33 37 41
39 42 47
38 42 47
36 40 45
33 36 40
38 42 47
39 42 48
31 34 39
22 25 28
17 19 21
17 19 21
13 14 16
20 22 24
20 22 25
16 18 20
9 10 11
9 10 12
18 20 23
21 23 26
12 14 15
26 29 33
32 35 40
42 46 51
44 49 55
51 56 64
57 63 70
48 53 60
43 47 53
38 42 48
43 47 53
48 54 61
54 60 67
55 60 68
59 65 72
55 60 68
54 60 68
54 60 67
55 61 69
63 69 78
66 73 82
65 71 80
63 69 78
54 59 67
44 49 55
45 49 55
44 49 55
41 45 51
40 44 50
44 48 54
44 48 54
47 52 58
42 47 53
45 49 55
46 51 58
50 55 61
51 56 62
53 58 65
54 60 67
57 62 70
57 63 71
60 67 75
57 62 70
55 61 69
52 58 65
54 60 68
47 52 58
49 53 60
49 54 61
51 57 64
44 49 55
51 56 63
50 54 61
54 59 66
55 60 67
58 63 71
52 57 64
49 54 61
52 58 65
49 54 61
52 57 63
42 46 52
41 45 51
47 52 58
52 58 65
45 50 57
44 49 55
46 51 57
43 47 53
29 32 36
16 18 20
33 36 40
34 37 42
33 36 41
20 22 24
18 19 22
15 17 19
22 24 27
18 20 23
19 21 24
28 31 34
16 18 20
10 11 13
12 14 15
17 19 21
27 29 33
47 52 58
54 59 67
54 60 67
52 57 64
51 56 62
55 61 68
46 51 57
51 56 63
47 52 58
42 46 51
44 49 56
44 49 55
35 39 44
59 64 70
222 236 254
222 236 254
222 236 254
222 236 254
222 236 254
222 236 254
222 236 254
222 236 254
222 236 254
222 236 254
222 236 254
222 236 254
222 236 254
222 236 254
222 236 254
222 236 254
222 236 254
222 236 254
222 236 254
222 236 254
222 236 254
222 236 254
222 236 254
222 236 254
222 236 254
222 236 254
222 236 254
222 236 254
222 236 254
222 236 254
222 236 254
222 236 254
222 236 254
222 236 254
222 236 254
222 236 254
222 236 254
222 236 254
222 236 254
222 236 254
222 236 254
222 236 254
222 236 254
222 236 254
222 236 254
222 236 254
222 236 254
222 236 254
222 236 254
222 236 254
222 236 254
222 236 254
222 236 254
222 236 254
222 236 254
222 236 254
222 236 254
222 236 254
222 236 254
222 236 254
222 236 254
222 236 254
222 236 254
222 236 254
222 236 254
222 236 254
222 236 254
222 236 254
222 236 254
222 236 254
222 236 254
222 236 254
222 236 254
222 236 254
222 236 254
222 236 254
222 236 254
222 236 254
222 236 254
222 236 254
222 236 254
222 236 254
222 236 254
222 236 254
222 236 254
222 236 254
222 236 254
222 236 254
222 236 254
222 236 254
222 236 254
222 236 254
222 236 254
222 236 254
222 236 254
222 236 254
222 236 254
222 236 254
222 236 254
222 236 254
222 236 254
222 236 254
222 236 254
222 236 254
222 236 254
222 236 254
222 236 254
222 236 254
222 236 254
222 236 254
222 236 254
222 236 254
222 236 254
222 236 254
222 236 254
222 236 254
222 236 254
222 236 254
222 236 254
222 236 254
222 236 254
222 236 254
222 236 254
222 236 254
222 236 254
222 236 254
222 236 254
222 236 254
222 236 254
222 236 254
222 236 254
222 236 254
222 236 254
222 236 254
222 236 254
222 236 254
222 236 254
222 236 254
222 236 254
222 236 254
222 236 254
222 236 254
222 236 254
222 236 254
222 236 254
222 236 254
222 236 254
222 236 254
222 236 254
222 236 254
222 236 254
222 236 254
222 236 254
222 236 254
222 236 254
222 236 254
222 236 254
222 236 254
222 236 254
222 236 254
222 236 254
222 236 254
222 236 254
222 236 254
222 236 254
222 236 254
222 236 254
222 236 254
222 236 254
222 236 254
222 236 254
222 236 254
222 236 254
222 236 254
222 236 254
222 236 254
222 236 254
222 236 254
222 236 254
222 236 254
222 236 254
222 236 254
222 236 254
222 236 254
222 236 254
222 236 254
222 236 254
222 236 254
222 236 254
222 236 254
222 236 254
222 236 254
222 236 254
222 236 254
222 236 254
222 236 254
222 236 254
222 236 254
222 236 254
222 236 254
222 236 254
222 236 254
222 236 254
222 236 254
222 236 254
222 236 254
222 236 254
222 236 254
222 236 254
222 236 254
222 236 254
222 236 254
222 236 254
222 236 254
222 236 254
222 236 254
145 154 167
32 35 40
50 55 62
43 48 54
34 37 41
43 47 53
39 43 48
32 35 39
39 43 48
49 54 61
55 60 68
54 60 68
57 63 71
46 51 58
35 39 43
31 34 38
41 46 51
44 48 54
46 51 57
40 44 49
32 36 40
29 32 37
36 40 45
34 38 43
37 41 46
42 47 53
46 51 57
46 50 56
51 56 64
59 65 73
59 65 73
53 59 66
52 58 65
56 61 68
59 65 73
66 73 82
63 69 78
66 73 82
68 75 84
67 74 84
72 79 90
66 72 81
66 72 81
67 74 82
70 77 86
73 80 89
66 73 82
60 66 74
55 61 68
56 61 68
56 62 70
48 53 60
48 53 60
49 54 61
45 49 55
43 47 53
38 42 47
34 37 42
30 33 37
30 33 37
24 26 30
21 23 26
25 28 31
34 37 42
36 40 45
35 39 44
34 38 43
38 42 47
31 34 38
32 35 40
32 35 40
28 31 35
28 31 35
20 22 24
12 13 15
17 18 20
18 20 23
29 32 36
19 21 24
13 14 16
14 15 17
8 9 10
13 14 16
11 12 14
17 18 21
25 28 31
28 31 35
41 45 51
47 52 58
52 58 65
55 60 68
52 57 64
41 46 51
42 46 51
45 49 56
45 49 56
49 55 62
53 58 66
53 58 65
55 61 68
58 64 72
61 68 76
62 69 77
62 69 78
70 77 86
71 78 88
58 64 72
59 65 73
52 58 65
52 57 64
49 54 60
46 51 57
46 50 57
48 53 60
48 53 60
50 55 61
48 53 60
48 53 59
50 54 61
50 55 63
47 52 59
55 61 69
60 66 74
64 70 79
63 70 79
63 69 78
54 60 68
58 64 72
52 57 64
57 63 71
50 55 62
52 57 64
55 61 68
52 58 65
53 58 65
51 57 64
49 55 62
49 54 60
50 55 62
53 59 66
49 53 60
45 49 55
43 47 53
48 53 59
46 51 57
37 42 47
38 42 48
46 51 57
47 52 58
51 56 63
46 51 57
49 53 59
40 44 50
22 24 28
22 24 27
35 38 43
31 34 38
26 29 33
13 14 16
17 18 21
16 18 20
19 21 24
18 20 23
14 15 17
13 14 16
20 22 25
15 17 19
8 9 10
16 18 20
32 36 40
47 52 58
55 61 68
52 57 64
49 54 61
56 61 69
57 63 70
54 59 67
51 57 64
44 48 54
39 43 48
47 52 58
35 39 44
36 40 44
163 173 187
222 236 254
222 236 254
222 236 254
222 236 254
222 236 254
222 236 254
222 236 254
222 236 254
222 236 254
222 236 254
222 236 254
222 236 254
222 236 254
222 236 254
222 236 254
222 236 254
222 236 254
222 236 254
222 236 254
222 236 254
222 236 254
222 236 254
222 236 254
222 236 254
222 236 254
222 236 254
222 236 254
222 236 254
222 236 254
222 236 254
222 236 254
222 236 254
222 236 254
222 236 254
222 236 254
222 236 254
222 236 254
222 236 254
222 236 254
222 236 254
222 236 254
222 236 254
222 236 254
222 236 254
222 236 254
222 236 254
222 236 254
222 236 254
222 236 254
222 236 254
222 236 254
222 236 254
222 236 254
222 236 254
222 236 254
222 236 254
222 236 254
222 236 254
222 236 254
222 236 254
222 236 254
222 236 254
222 236 254
222 236 254
222 236 254
222 236 254
222 236 254
222 236 254
222 236 254
222 236 254
222 236 254
222 236 254
222 236 254
222 236 254
222 236 254
222 236 254
222 236 254
222 236 254
222 236 254
222 236 254
222 236 254
222 236 254
222 236 254
222 236 254
222 236 254
222 236 254
222 236 254
222 236 254
222 236 254
222 236 254
222 236 254
222 236 254
222 236 254
222 236 254
222 236 254
222 236 254
222 236 254
222 236 254
222 236 254
222 236 254
222 236 254
222 236 254
222 236 254
222 236 254
222 236 254
222 236 254
222 236 254
222 236 254
222 236 254
222 236 254
222 236 254
222 236 254
222 236 254
222 236 254
222 236 254
222 236 254
222 236 254
222 236 254
222 236 254
222 236 254
222 236 254
222 236 254
222 236 254
222 236 254
222 236 254
222 236 254
222 236 254
222 236 254
222 236 254
222 236 254
222 236 254
222 236 254
222 236 254
222 236 254
222 236 254
222 236 254
222 236 254
222 236 254
222 236 254
222 236 254
222 236 254
222 236 254
222 236 254
222 236 254
222 236 254
222 236 254
222 236 254
222 236 254
222 236 254
222 236 254
222 236 254
222 236 254
222 236 254
222 236 254
222 236 254
222 236 254
222 236 254
222 236 254
222 236 254
222 236 254
222 236 254
222 236 254
222 236 254
222 236 254
222 236 254
222 236 254
222 236 254
222 236 254
222 236 254
222 236 254
222 236 254
222 236 254
221 234 253
222 236 254
218 232 250
213 226 244
216 229 247
213 226 245
213 226 245
215 228 246
214 227 245
214 227 245
212 225 243
205 218 236
203 216 234
207 220 238
201 214 232
206 219 237
204 217 235
201 214 232
195 208 226
194 206 223
198 211 228
198 211 228
186 198 215
194 206 224
192 204 221
184 196 213
186 198 215
193 205 223
187 199 216
181 193 210
184 196 213
178 190 206
185 198 215
181 193 209
174 186 203
184 197 214
188 200 217
170 182 198
171 182 198
172 184 200
172 184 199
168 180 195
168 179 195
167 178 194
134 143 157
32 36 40
35 38 43
46 50 57
28 31 35
44 48 54
37 41 46
24 27 30
33 37 41
37 40 46
45 50 56
56 61 68
56 61 69
49 53 60
44 48 54
33 36 40
33 36 41
41 45 50
44 49 55
40 44 49
31 34 38
26 29 33
27 30 33
29 32 37
34 37 42
39 43 48
33 36 41
35 38 43
45 49 55
49 54 61
49 55 62
50 55 62
43 47 53
46 50 57
47 51 58
56 61 68
61 67 75
67 74 82
57 63 71
73 81 91
68 75 85
70 77 86
67 74 83
64 70 78
64 70 78
65 71 80
65 72 82
58 63 71
63 69 77
61 68 76
55 61 68
58 64 71
51 57 64
50 55 62
51 57 64
50 55 61
43 47 53
39 43 49
43 47 52
36 40 44
27 30 34
25 28 32
27 30 34
31 34 39
38 42 46
35 39 44
36 39 44
34 37 42
28 31 34
33 36 40
36 40 45
34 38 42
24 27 30
13 15 17
26 28 32
25 28 31
30 33 37
33 36 41
28 30 34
21 23 26
15 17 19
16 18 20
23 25 28
26 29 33
22 25 28
23 26 29
30 33 37
35 39 43
43 47 53
49 55 62
49 54 61
52 57 64
48 53 60
47 51 58
48 52 59
45 50 56
48 53 60
50 54 61
53 58 65
56 61 69
58 64 72
65 72 80
66 72 81
68 74 83
68 75 85
70 77 87
57 63 71
62 68 76
59 64 72
51 56 63
54 60 67
49 54 60
47 51 58
53 58 65
56 62 69
56 61 68
57 63 71
52 58 65
54 60 67
46 50 56
49 54 61
50 55 62
63 69 78
69 76 85
69 76 85
69 76 85
64 71 79
60 66 74
55 61 68
61 67 75
60 66 74
54 59 67
51 57 64
53 58 66
49 54 61
39 43 49
43 48 54
46 51 57
43 47 53
44 48 54
45 49 55
43 48 53
43 48 54
42 47 52
42 46 52
34 38 43
38 41 46
42 47 53
46 51 57
46 51 57
40 44 50
43 47 53
27 30 33
15 16 18
22 24 27
27 30 33
26 29 32
18 20 23
7 8 10
22 24 27
24 27 30
21 24 27
16 18 20
7 8 9
11 12 14
20 22 25
14 16 18
9 10 12
17 19 22
40 44 49
47 52 59
60 66 74
52 57 64
51 56 63
56 62 70
58 64 72
55 62 70
49 54 60
41 45 51
36 40 45
38 41 47
27 30 34
27 30 34
152 163 177
169 181 196
165 176 191
177 189 206
176 188 204
173 185 202
173 184 201
173 185 202
182 194 211
169 181 197
175 187 203
163 174 190
177 188 205
185 197 213
193 205 222
181 192 208
181 192 208
182 194 210
196 208 225
195 207 224
197 210 227
191 203 220
176 187 202
189 201 218
192 204 221
202 215 233
199 212 230
199 211 229
197 210 227
200 213 231
204 216 234
210 223 241
209 222 240
207 220 239
212 225 243
207 220 238
210 223 241
212 225 244
213 226 244
212 225 244
210 224 242
215 228 247
220 234 252
220 234 253
222 236 254
222 236 254
222 236 254
222 236 254
222 236 254
222 236 254
222 236 254
222 236 254
222 236 254
222 236 254
222 236 254
222 236 254
222 236 254
222 236 254
222 236 254
222 236 254
222 236 254
222 236 254
222 236 254
222 236 254
222 236 254
222 236 254
222 236 254
222 236 254
222 236 254
222 236 254
222 236 254
222 236 254
222 236 254
222 236 254
222 236 254
222 236 254
222 236 254
222 236 254
222 236 254
222 236 254
222 236 254
222 236 254
222 236 254
222 236 254
222 236 254
222 236 254
222 236 254
222 236 254
222 236 254
222 236 254
222 236 254
222 236 254
222 236 254
222 236 254
222 236 254
222 236 254
222 236 254
222 236 254
222 236 254
222 236 254
222 236 254
222 236 254
222 236 254
222 236 254
222 236 254
222 236 254
222 236 254
222 236 254
222 236 254
222 236 254
222 236 254
222 236 254
222 236 254
218 231 250
213 227 245
214 227 245
213 227 245
210 223 241
206 220 238
210 223 241
205 218 236
214 227 246
199 212 230
195 208 225
203 215 233
196 209 226
198 211 228
191 203 220
187 199 216
192 204 221
179 191 207
180 191 207
182 194 210
187 199 216
181 193 210
179 191 207
188 201 218
157 168 183
162 173 189
173 185 201
160 171 186
171 182 198
158 169 185
158 169 184
149 159 174
146 157 172
154 165 180
151 162 178
145 155 170
140 150 164
151 162 176
132 141 155
140 150 165
143 153 168
135 145 159
133 144 158
135 146 162
120 130 144
127 138 154
120 131 146
122 133 148
109 120 134
107 118 133
108 118 132
116 127 141
105 114 128
96 106 120
88 99 114
89 100 113
88 98 111
73 81 92
69 77 88
64 73 84
67 76 88
65 74 85
66 75 87
70 79 91
67 76 88
65 74 86
68 77 90
70 79 91
68 77 89
79 90 103
77 88 101
74 84 97
77 87 100
72 82 94
76 87 101
78 89 103
82 93 107
79 90 105
75 85 99
86 98 113
79 90 105
77 88 102
70 80 92
69 78 90
66 74 85
70 80 92
72 82 94
80 90 104
79 90 104
84 95 109
86 98 113
90 102 118
97 109 126
93 106 123
91 104 120
99 113 130
98 111 129
92 104 121
87 99 114
93 106 122
95 108 125
92 104 120
92 105 121
88 99 114
87 99 114
51 57 65
32 36 40
43 48 54
29 32 36
37 41 46
35 39 44
26 29 33
23 26 29
39 43 48
41 45 51
53 59 66
58 64 72
50 55 61
44 48 55
39 43 49
35 39 44
40 44 49
43 47 53
43 48 54
36 40 45
22 24 27
21 23 26
25 28 32
26 28 32
27 30 34
17 19 21
24 26 29
31 34 39
40 44 50
46 51 57
38 42 48
39 43 48
32 35 39
37 41 47
46 51 57
51 56 63
57 62 70
65 71 79
58 64 72
69 76 85
67 74 83
63 69 78
63 69 77
60 66 74
64 70 79
69 76 85
70 77 87
58 65 73
66 72 81
64 71 80
57 63 71
56 62 69
56 62 69
53 59 67
47 52 58
45 50 56
43 47 53
46 51 57
44 48 54
36 40 45
30 33 37
27 29 33
30 33 37
39 42 47
36 40 45
34 38 42
32 35 39
32 36 40
33 36 41
35 39 44
37 40 45
28 31 35
15 16 18
31 34 39
38 42 47
35 38 43
39 43 48
32 35 40
28 31 35
28 31 35
31 34 38
33 36 41
31 35 39
27 30 33
25 27 30
31 35 39
41 45 51
42 46 52
56 62 69
59 65 73
58 64 71
56 61 69
53 58 65
50 55 62
51 56 63
52 57 65
53 59 66
48 53 60
54 60 68
59 65 73
64 70 79
65 73 82
69 76 86
72 79 88
64 70 79
68 75 85
60 67 76
56 62 70
59 65 73
55 60 68
51 57 64
57 62 70
56 62 69
57 63 71
53 59 66
54 60 68
59 65 73
50 55 62
56 62 70
50 56 62
59 65 73
67 74 83
64 71 80
70 76 85
69 76 85
65 71 80
57 63 71
58 64 71
62 69 77
59 65 73
58 64 72
47 52 58
48 53 59
41 45 51
36 40 45
42 46 52
41 45 51
34 37 42
37 40 45
33 36 41
30 33 37
34 37 42
32 36 40
26 29 33
31 34 38
38 42 47
40 44 50
46 50 56
43 47 53
40 45 50
39 43 48
22 24 27
11 13 14
24 27 30
25 27 31
18 20 22
12 14 16
11 12 14
19 21 24
24 26 29
24 27 30
15 16 18
10 11 13
19 21 23
17 19 21
22 24 27
14 15 17
24 27 30
47 52 58
54 60 67
56 61 69
55 60 67
52 58 65
63 69 78
59 65 73
55 60 68
49 54 60
34 38 43
31 35 39
32 35 39
21 23 26
36 40 46
81 91 105
68 77 89
80 90 103
91 103 118
93 105 122
95 108 125
89 101 117
87 99 114
85 96 111
82 93 107
73 83 96
77 87 101
83 94 109
81 92 106
80 91 106
76 86 99
74 84 97
70 79 92
69 78 90
71 81 94
79 89 103
81 92 106
86 97 113
80 91 105
73 83 97
66 76 88
72 82 95
73 83 96
80 91 105
78 88 102
78 89 102
87 99 114
86 97 112
83 94 108
74 84 98
81 92 105
77 88 102
73 83 97
72 82 95
69 79 91
70 79 91
70 80 93
66 75 87
70 80 92
68 77 89
84 95 109
78 87 100
82 92 105
85 94 107
85 94 106
100 109 121
90 98 110
99 108 121
110 120 135
116 128 144
127 139 156
125 137 153
128 141 157
133 144 160
132 143 159
120 130 145
122 132 145
125 134 147
122 132 145
126 136 149
138 148 162
142 152 167
147 157 171
140 150 164
131 141 154
135 145 158
155 166 181
160 172 188
145 157 174
158 170 187
161 173 190
160 171 187
178 190 207
178 191 208
179 191 208
172 184 200
180 193 209
172 184 200
182 194 211
186 199 216
186 198 215
187 199 216
184 196 212
186 198 214
189 201 218
194 206 223
198 210 228
195 207 225
197 210 228
205 218 236
199 212 230
204 217 235
200 212 229
210 223 241
211 223 242
214 227 246
214 227 245
217 230 249
217 230 249
221 235 253
222 236 254
222 236 254
222 236 254
222 236 254
92 103 117
85 97 111
82 92 105
80 91 105
79 90 104
84 96 111
80 90 104
79 89 102
78 89 102
71 81 93
80 90 103
78 89 104
80 90 104
87 99 114
77 86 99
72 82 95
74 83 96
62 70 81
72 81 94
78 89 103
83 95 109
74 84 97
82 94 108
78 89 103
84 96 111
83 94 109
76 87 101
85 96 111
77 87 101
78 88 102
83 94 109
87 99 114
87 99 115
93 105 121
92 104 121
83 95 109
87 98 113
85 97 112
80 92 106
78 88 103
80 90 104
76 87 100
77 88 102
72 83 96
71 81 93
69 78 89
70 79 92
73 83 95
73 82 94
77 88 101
85 97 112
88 100 116
87 98 113
88 100 116
85 96 112
90 102 118
87 99 115
106 121 140
114 128 147
114 130 150
113 128 147
101 115 133
94 107 124
89 101 116
81 91 106
75 85 98
81 92 106
77 87 101
78 89 102
79 89 103
80 91 105
81 92 106
75 85 99
74 84 98
75 85 98
69 79 91
64 73 85
70 79 91
85 97 112
84 95 109
87 98 113
87 99 114
85 96 111
79 89 103
79 90 104
70 80 92
62 70 80
71 80 93
71 80 93
84 96 110
83 95 110
88 100 115
86 98 114
83 95 110
89 101 117
87 98 113
81 92 106
78 88 102
68 77 89
65 74 86
70 80 92
72 82 95
78 88 102
82 94 109
82 94 109
86 97 111
84 96 110
84 96 110
78 89 103
55 63 72
22 25 28
31 34 38
35 38 43
25 28 31
44 48 54
29 32 36
27 30 33
30 33 38
37 41 46
44 49 55
53 59 67
51 56 63
47 52 58
38 42 46
42 46 52
40 45 50
39 43 48
47 52 58
42 46 52
33 37 41
19 21 24
12 13 15
14 16 18
13 14 16
13 14 16
15 17 19
14 16 18
27 30 33
38 42 47
33 37 41
29 31 35
28 31 35
20 22 25
32 35 39
49 53 60
50 55 62
55 61 70
52 58 65
63 70 78
61 67 75
60 66 74
60 66 75
62 69 77
62 68 77
63 69 78
65 71 79
64 70 78
60 66 74
56 62 70
56 62 70
55 61 69
56 62 69
52 58 65
47 52 58
54 60 67
48 53 59
47 51 58
42 46 52
38 42 48
29 32 37
28 31 35
32 36 40
34 38 42
33 37 42
39 43 48
34 38 42
33 36 41
33 37 41
34 37 42
30 33 37
20 22 25
19 21 24
38 42 47
42 46 52
43 47 53
46 51 57
36 40 45
39 43 49
35 38 43
37 41 46
35 39 44
33 36 41
28 31 35
26 28 32
36 40 45
44 49 55
54 59 67
57 63 71
59 65 73
57 63 70
55 60 68
57 63 71
54 60 68
57 63 71
59 65 73
58 63 71
55 61 69
55 60 68
64 71 79
69 76 85
64 70 79
63 70 79
76 84 94
72 80 90
66 73 82
66 72 81
60 67 75
58 64 72
54 60 68
55 61 68
60 66 74
55 60 67
55 61 68
60 66 74
62 67 75
57 63 70
57 62 70
58 63 71
59 65 73
66 73 82
76 83 93
75 82 93
71 78 88
74 81 91
66 73 83
61 67 75
62 68 76
60 66 73
64 70 79
53 58 65
48 53 60
41 45 50
36 40 45
33 36 40
32 35 39
29 32 36
31 34 38
27 30 34
23 26 29
20 23 25
24 26 29
23 26 29
24 27 30
27 30 34
34 37 42
36 40 45
38 42 47
37 41 46
39 43 49
33 36 41
18 20 23
12 13 15
24 26 29
22 24 27
20 22 25
9 10 12
12 13 15
21 22 25
21 23 26
16 18 20
16 17 20
19 20 23
25 27 31
16 17 20
14 16 18
18 20 23
40 44 49
48 53 60
47 52 58
62 68 76
53 59 66
53 59 66
55 60 68
56 61 68
59 64 72
44 48 54
36 39 44
30 34 38
23 26 29
18 20 23
74 83 96
81 91 105
77 87 101
73 83 95
88 99 114
95 108 124
94 107 123
92 104 120
86 98 113
82 94 108
84 95 110
80 91 104
84 95 110
77 87 101
79 89 103
83 94 108
77 88 101
84 95 109
87 99 114
87 99 115
80 91 105
83 94 109
83 93 108
72 82 95
71 80 92
70 79 91
64 72 83
64 73 84
63 71 82
75 85 98
81 92 106
90 102 117
85 97 111
78 89 102
78 89 103
70 80 92
73 83 95
63 72 83
74 84 97
69 78 90
65 74 86
66 74 86
63 71 82
71 81 93
73 82 95
87 99 114
81 92 106
81 92 107
80 91 105
87 99 114
83 95 110
84 95 109
86 97 112
83 94 109
85 96 112
81 91 104
77 87 100
80 90 104
79 89 102
81 93 107
74 85 98
82 93 107
78 88 102
79 90 104
81 92 106
78 89 102
86 98 113
81 92 106
78 90 104
79 90 104
92 105 121
93 105 121
98 111 129
101 114 131
96 108 125
87 99 114
79 90 104
79 89 103
81 92 107
77 87 100
81 92 107
86 97 111
86 97 112
90 102 118
84 96 110
88 100 115
89 100 116
81 92 105
70 79 91
72 82 94
70 79 91
71 81 95
77 87 101
78 89 103
74 84 97
78 88 101
75 85 98
74 84 97
70 80 92
74 84 97
74 84 98
76 86 100
78 89 103
75 86 99
78 88 101
77 87 101
78 88 102
84 96 110
95 106 121
94 105 120
75 85 98
70 80 92
67 76 88
65 74 85
61 69 80
65 73 84
67 76 88
61 69 79
61 69 80
56 64 74
74 84 97
77 87 100
81 92 106
80 90 105
83 94 108
84 95 110
80 91 106
85 96 111
76 87 101
75 85 98
77 87 101
78 88 102
73 83 96
68 78 90
67 76 88
70 79 92
66 76 89
67 76 88
64 73 85
66 75 86
63 72 83
76 86 99
76 86 100
83 95 109
85 96 111
88 100 115
84 96 111
84 96 111
83 94 108
87 98 114
80 91 105
77 88 103
70 80 93
72 82 94
74 84 98
85 97 112
95 107 123
93 106 122
98 111 128
96 109 125
92 105 121
82 92 106
82 93 107
75 86 101
81 93 108
91 103 119
91 103 119
93 105 122
89 101 117
91 103 119
85 97 112
78 88 102
74 83 96
71 80 92
79 89 102
79 90 105
78 88 101
79 90 103
77 87 101
76 86 100
86 97 112
84 95 110
76 86 99
73 83 96
79 89 103
79 89 103
82 93 108
81 92 106
84 96 111
87 99 114
97 110 127
97 110 127
94 107 123
110 125 144
109 125 144
108 123 142
112 127 146
108 123 141
104 118 137
96 109 125
91 103 119
83 94 108
74 84 97
67 76 88
64 73 85
55 63 73
53 61 71
57 65 75
63 72 83
70 79 92
70 79 91
69 79 91
70 79 91
78 89 103
85 97 112
94 106 123
94 107 124
98 111 128
99 112 129
97 110 127
31 35 40
17 19 22
31 34 38
25 27 31
44 49 55
39 43 48
31 34 38
23 26 29
33 36 41
41 45 51
45 50 56
55 60 67
44 48 54
31 34 39
40 45 50
41 45 51
43 48 53
48 53 59
44 48 55
41 45 50
31 34 39
16 18 20
24 27 30
26 29 33
24 27 30
25 28 32
16 17 20
18 20 22
21 23 26
24 26 29
17 18 21
14 15 17
11 12 14
14 15 17
29 32 36
37 41 46
46 51 57
59 64 72
58 63 70
62 68 76
56 62 70
61 67 75
63 69 77
60 66 74
63 69 77
54 60 68
57 63 71
62 68 76
58 64 72
60 67 75
60 66 74
60 67 75
57 63 71
52 58 65
56 61 68
49 54 61
47 52 58
41 45 51
37 41 46
33 36 41
32 35 40
34 37 42
38 41 46
35 38 43
36 39 44
35 39 43
37 41 46
36 39 44
31 34 39
26 29 33
15 16 18
26 29 33
39 43 49
46 51 57
46 51 57
44 49 55
43 48 54
44 49 55
41 45 51
43 47 52
40 45 50
40 45 50
33 37 41
33 37 41
40 44 50
47 52 58
50 56 63
50 55 62
60 66 74
57 63 70
59 66 74
61 67 76
60 66 74
61 67 76
58 64 72
58 64 71
63 68 76
56 62 70
62 68 76
55 61 69
62 68 77
69 75 84
73 80 89
72 80 90
73 80 90
65 71 80
71 78 87
70 77 87
59 65 74
61 67 76
63 69 77
56 62 70
57 63 71
55 61 69
56 61 69
56 61 69
56 62 70
54 60 67
58 64 71
67 73 82
64 71 80
69 76 84
64 71 81
64 70 79
65 71 80
63 69 78
62 68 76
58 64 72
51 57 64
48 53 60
38 42 48
34 38 42
25 28 31
19 21 24
22 24 27
23 25 29
25 27 31
21 23 26
13 14 16
15 16 18
20 22 25
26 28 32
28 31 35
28 31 35
30 33 37
35 39 44
33 37 41
33 36 41
41 45 51
30 33 37
21 23 26
18 20 23
28 30 34
23 25 29
25 27 31
17 18 21
11 12 14
18 20 22
10 11 12
19 21 23
31 35 39
30 33 38
28 31 35
20 23 25
21 23 26
32 36 40
46 51 57
56 61 68
54 59 67
55 60 68
53 59 66
51 56 63
58 64 72
55 61 69
51 57 63
46 51 57
39 42 47
29 32 36
19 21 24
48 54 62
107 122 141
99 112 129
92 104 120
91 103 119
87 99 115
84 95 109
78 88 102
74 84 98
80 91 106
82 93 107
80 91 106
78 88 102
72 81 93
62 71 82
72 81 93
75 86 100
78 88 102
74 84 97
78 88 102
71 81 93
66 75 87
62 71 82
63 72 83
67 77 88
77 87 100
71 81 95
67 77 89
68 78 90
75 85 99
76 86 99
72 82 95
76 85 98
73 83 96
71 81 95
68 77 89
68 78 89
75 85 98
84 96 111
90 103 119
89 101 116
88 100 116
93 106 122
89 100 116
81 92 106
88 99 115
94 106 123
89 102 119
97 110 127
96 109 126
96 109 126
92 104 120
92 105 121
84 95 109
84 95 110
93 106 123
83 94 108
83 94 109
84 95 110
77 86 99
75 85 98
78 88 101
76 87 100
82 93 107
91 102 118
96 109 126
95 108 124
103 117 135
105 118 136
108 122 141
112 127 146
109 124 143
100 114 131
105 119 137
100 113 130
95 108 125
82 93 108
72 81 94
68 76 88
65 74 86
73 82 95
81 92 107
84 95 110
79 90 104
79 90 104
88 99 114
88 100 116
84 95 109
91 103 119
92 105 121
83 94 109
81 91 106
77 88 101
68 77 89
63 71 82
68 77 89
67 76 88
68 77 89
62 71 82
68 77 90
66 75 87
65 74 86
58 66 77
62 70 81
59 67 78
62 70 81
64 73 85
69 78 91
70 79 92
74 83 96
81 91 105
77 88 102
72 82 94
60 68 79
54 62 72
53 60 69
60 68 79
64 73 84
68 77 89
68 77 88
72 82 96
73 82 95
69 79 91
70 79 90
69 78 90
58 66 76
49 56 64
57 64 74
66 75 86
65 74 86
76 86 100
82 93 108
83 95 110
102 115 132
99 112 130
104 118 136
95 108 125
93 105 121
89 101 117
80 91 105
67 76 88
68 77 89
68 77 89
69 79 91
66 74 85
63 72 84
66 75 88
72 82 95
78 88 102
73 84 97
79 90 104
87 98 114
81 92 106
82 93 107
82 93 107
83 95 110
84 96 112
75 85 98
70 79 91
68 77 89
62 70 81
63 72 83
65 74 85
60 69 80
69 78 90
78 88 102
82 94 109
83 95 110
85 96 111
83 94 108
76 86 100
72 81 93
75 85 98
79 89 103
86 97 112
81 92 106
80 91 105
77 88 101
68 77 89
66 74 86
67 77 89
66 74 86
61 69 80
62 71 81
62 70 81
60 68 79
66 74 86
66 75 87
67 76 88
72 81 94
78 88 101
71 81 94
64 72 84
67 77 89
66 75 87
64 73 84
64 72 84
66 75 86
68 77 89
73 82 95
78 88 101
80 90 104
90 102 118
93 105 122
90 103 119
90 102 117
84 96 111
82 93 107
74 83 95
75 85 99
68 78 90
77 88 102
88 100 116
92 105 122
92 104 120
95 108 125
107 121 141
102 116 134
112 127 146
111 126 146
103 117 136
61 69 79
38 42 47
25 27 31
16 18 20
39 43 48
39 43 49
33 37 42
24 27 30
24 26 30
32 35 40
36 40 45
47 52 58
41 45 50
30 33 37
31 34 38
43 47 52
50 55 61
55 60 67
49 54 62
51 56 63
39 42 47
29 31 35
19 21 23
33 36 40
33 37 42
30 33 37
21 23 26
19 21 24
12 13 15
13 14 16
10 11 12
22 24 28
24 26 29
18 20 22
18 20 22
21 23 26
35 38 43
43 48 53
42 46 52
46 51 58
58 64 72
52 57 65
63 69 77
51 57 64
56 61 69
53 58 65
49 54 62
55 61 68
60 66 73
57 63 70
56 62 69
55 61 69
59 65 73
53 58 65
50 55 62
47 51 57
40 44 50
39 43 49
41 45 50
33 37 41
32 36 40
35 38 43
36 39 44
38 42 47
34 37 42
40 44 49
38 42 48
32 36 40
27 30 34
19 21 24
21 24 27
35 39 43
42 46 51
45 50 56
48 53 59
41 46 52
47 52 59
49 54 60
45 49 55
43 48 54
42 47 53
45 49 55
41 46 52
45 49 55
52 57 64
52 58 65
58 64 72
63 70 78
58 64 72
59 65 74
60 66 74
58 64 72
66 73 82
57 64 72
65 72 81
63 69 78
60 66 74
61 68 76
60 66 74
60 66 74
57 63 71
67 73 82
75 82 93
76 84 95
73 81 91
70 78 87
72 79 89
69 76 86
59 65 73
61 67 75
52 57 64
57 63 70
55 61 68
57 63 71
59 65 73
53 58 66
56 62 69
60 66 74
60 67 75
67 74 83
67 74 83
72 79 88
68 75 84
68 75 84
67 73 83
60 67 75
63 69 78
55 60 68
56 62 70
46 51 57
36 40 44
27 30 34
17 19 21
13 15 16
12 14 15
14 15 17
16 17 20
16 18 20
17 19 21
23 26 29
25 28 31
23 25 28
27 30 34
28 31 35
29 32 36
25 28 31
26 28 32
34 37 42
34 38 43
30 33 37
23 25 28
17 19 22
27 30 33
29 32 36
26 28 32
21 24 26
16 18 20
13 14 16
16 18 20
34 37 42
36 40 45
34 38 42
28 31 35
28 30 34
33 36 41
40 44 50
46 50 57
43 47 53
54 60 67
50 55 62
52 57 63
54 59 66
52 57 65
56 61 68
50 54 61
44 49 55
39 43 48
23 25 28
27 30 34
43 49 57
71 81 94
75 85 98
76 85 98
68 77 90
70 80 92
68 77 89
68 77 88
64 72 83
57 65 76
52 59 68
56 63 73
67 76 89
77 87 100
85 96 111
87 98 113
92 105 121
98 111 129
99 112 130
99 112 130
98 110 127
98 110 126
100 114 132
100 113 131
113 128 148
120 136 157
121 137 158
121 137 159
117 132 152
112 126 146
108 123 142
106 120 138
103 116 134
100 113 130
97 111 128
87 99 115
83 95 110
64 73 84
66 75 87
75 86 99
81 92 107
86 97 112
98 111 129
112 126 146
103 116 134
112 126 145
112 127 147
113 129 150
106 121 139
105 119 138
101 115 132
90 102 118
94 107 123
90 102 118
86 97 112
82 93 107
80 91 105
71 80 92
77 87 101
73 83 96
74 84 97
78 88 102
72 82 95
74 85 98
72 82 95
74 84 97
70 80 93
66 74 86
61 69 80
64 73 83
63 71 82
61 69 79
57 64 74
63 72 84
73 83 96
83 93 107
85 96 111
84 95 110
83 94 109
80 90 104
81 91 106
87 99 114
87 99 115
94 107 125
86 97 112
86 98 113
89 101 117
88 99 114
100 113 130
102 115 134
105 119 137
105 119 138
106 120 138
105 120 138
102 116 134
98 111 129
93 106 122
82 93 108
87 98 113
82 92 107
74 83 96
66 75 86
65 75 87
60 68 79
49 56 65
57 64 74
59 67 77
60 68 79
66 75 87
65 73 84
78 89 103
76 86 99
67 76 88
73 82 95
73 83 96
76 86 99
76 86 100
75 85 98
82 94 108
84 95 110
87 99 114
85 97 112
87 100 116
87 99 114
84 95 110
73 83 97
77 88 102
76 86 100
69 78 90
70 80 93
71 82 95
72 82 95
78 88 101
69 78 90
67 76 87
58 66 77
57 64 74
56 63 73
53 60 70
56 63 73
61 69 79
73 82 95
71 80 93
77 87 100
75 85 99
73 83 95
73 83 97
81 91 104
83 94 108
87 98 113
81 92 106
86 97 112
90 101 117
79 90 104
75 84 97
78 89 102
84 96 110
92 105 121
98 111 128
91 103 119
83 94 108
78 90 104
74 84 98
72 82 95
65 74 86
51 58 67
47 54 63
47 53 61
55 62 72
62 71 82
75 84 97
82 93 108
89 100 115
92 104 121
94 107 124
92 105 121
81 93 107
76 86 100
75 85 98
67 76 89
70 79 90
61 69 80
51 58 67
49 55 64
53 60 70
54 62 72
58 65 76
68 77 89
67 76 88
71 81 93
68 77 89
72 82 95
82 93 107
85 96 111
88 100 116
88 99 115
98 110 126
92 105 122
99 112 129
95 108 126
92 105 121
89 101 117
87 98 113
77 88 103
73 82 95
67 76 88
67 76 88
63 72 83
68 77 88
72 82 95
72 82 94
73 83 97
72 82 95
74 84 98
91 102 118
96 108 125
98 112 130
103 117 136
105 119 137
104 118 135
97 110 127
83 94 109
41 45 51
35 39 44
23 25 29
41 45 51
41 46 52
34 38 42
29 32 36
22 25 28
22 24 27
28 30 34
40 43 49
35 38 43
21 23 26
24 26 30
33 36 40
48 53 59
51 56 63
54 60 68
48 53 59
43 48 54
30 33 37
15 17 19
33 36 41
38 42 47
30 33 38
22 25 28
24 27 30
27 30 33
21 23 26
24 26 29
25 28 32
34 37 42
36 40 45
30 33 37
27 29 33
21 23 25
27 30 34
30 33 37
39 43 49
45 50 56
52 57 64
52 57 64
55 61 68
50 55 62
53 58 66
58 64 72
57 63 71
60 66 74
53 59 67
52 57 64
55 60 68
51 55 62
47 51 57
46 50 57
43 48 54
40 44 50
43 47 53
43 48 54
34 38 43
35 39 43
29 32 37
36 40 45
32 35 39
31 34 39
31 34 39
26 29 32
22 25 28
21 23 26
17 18 20
27 30 34
42 46 52
46 50 57
50 55 62
46 51 57
51 56 63
57 62 70
57 63 70
53 59 66
46 51 58
49 54 61
48 53 59
49 54 60
52 58 65
52 58 65
59 65 73
62 68 76
62 69 77
61 67 75
58 63 71
63 70 79
65 72 81
66 72 81
70 76 85
67 73 82
65 72 80
63 70 78
59 65 73
63 70 79
67 73 82
63 70 78
76 83 93
67 74 84
79 87 97
68 76 85
70 78 88
74 82 92
69 76 86
74 81 91
72 79 88
66 72 81
59 66 74
58 64 72
59 64 72
57 63 71
57 62 70
64 71 79
62 68 76
66 73 83
65 71 80
64 70 79
64 71 79
64 70 79
70 77 87
62 68 77
65 72 80
56 62 70
52 57 64
50 55 61
44 48 54
34 38 43
29 32 36
21 23 26
12 13 15
18 20 22
9 10 11
7 8 9
15 16 18
24 26 30
28 31 35
27 29 33
20 22 25
31 34 39
31 34 38
30 33 37
25 27 31
28 31 35
38 41 46
33 37 41
29 32 36
22 24 27
16 17 20
23 26 29
27 30 34
24 26 29
21 23 25
8 9 10
15 17 19
27 30 33
33 36 41
38 42 47
32 35 39
30 33 37
33 36 41
36 40 44
38 42 47
51 56 62
49 54 61
57 62 70
50 56 63
50 55 62
50 56 63
59 64 72
46 50 57
44 49 55
47 52 58
36 40 45
22 25 27
33 36 41
37 42 49
50 57 66
62 70 81
69 78 90
69 79 91
85 97 112
81 92 106
83 95 110
86 98 113
78 88 102
72 81 94
61 69 80
62 70 81
60 68 79
59 67 78
47 54 62
52 59 68
68 78 91
84 95 111
95 108 125
98 111 127
101 114 132
89 101 116
82 94 109
86 98 113
83 95 111
89 101 117
95 108 125
100 113 131
107 123 142
108 123 142
109 124 144
107 122 141
107 121 140
107 121 140
104 118 136
106 122 141
106 120 140
106 120 138
104 118 136
99 114 132
91 103 119
79 90 103
74 85 99
67 77 89
62 70 81
67 76 88
74 84 97
79 90 103
86 98 114
84 95 110
86 98 113
82 93 107
78 88 101
77 88 102
72 81 94
65 74 85
70 79 92
69 79 91
68 77 89
65 74 85
67 75 86
74 85 98
74 84 97
81 92 106
79 90 104
74 84 97
76 86 99
78 88 102
83 93 108
87 99 114
84 96 111
88 99 115
102 115 133
113 128 148
111 127 147
112 127 147
117 133 155
117 133 154
110 125 145
110 124 142
97 110 128
89 101 116
84 96 111
87 99 114
83 95 110
81 92 107
72 81 93
63 70 81
74 83 96
72 82 94
78 88 101
80 90 104
75 85 99
76 86 100
67 76 88
71 80 92
71 80 92
68 78 90
65 74 85
72 81 94
72 81 94
76 87 100
78 88 102
78 88 102
70 79 92
70 79 91
66 75 87
62 71 82
70 80 92
70 79 92
84 96 110
72 82 95
70 80 92
62 71 82
65 74 86
70 79 91
76 87 101
78 88 102
67 76 88
62 71 82
61 69 80
57 65 75
59 67 78
66 75 87
70 80 92
70 79 92
73 83 96
78 88 102
80 91 105
79 89 103
84 95 110
83 94 109
78 89 103
76 86 99
70 80 92
67 77 89
65 75 86
64 72 83
61 69 79
60 68 79
59 67 77
53 60 70
53 60 69
52 59 68
61 69 80
69 78 91
63 72 83
51 58 67
43 48 56
49 56 65
64 73 85
77 87 101
83 94 110
94 107 124
98 111 128
102 116 134
115 130 151
115 130 151
116 131 151
109 124 144
102 116 134
97 111 128
93 105 122
87 99 115
92 105 121
85 97 112
83 95 110
86 97 111
83 94 109
89 101 117
87 99 114
88 100 115
91 103 119
92 105 121
85 96 111
85 96 110
73 83 96
73 83 96
64 73 84
56 64 74
70 79 91
64 72 83
59 67 78
65 73 85
74 84 97
78 88 102
83 94 108
87 98 113
97 110 126
99 112 129
100 113 131
95 107 123
97 110 127
92 105 122
85 97 112
78 89 102
86 97 112
85 96 111
78 88 102
72 82 96
65 74 86
65 73 85
65 74 85
58 66 76
60 68 79
69 79 91
77 87 101
84 95 110
81 91 105
81 92 106
80 91 105
87 99 115
87 98 113
90 102 118
84 94 109
89 101 117
91 104 120
87 99 115
86 98 113
84 95 109
80 91 105
52 58 66
49 54 60
39 42 48
44 49 54
43 47 53
36 39 44
26 29 33
19 21 24
15 16 18
21 23 26
26 29 33
26 29 33
12 13 15
13 15 16
19 21 23
40 43 49
50 55 62
52 57 64
48 54 61
41 46 51
31 34 38
16 18 20
28 31 35
37 40 45
34 37 42
31 35 39
32 34 38
36 39 44
38 41 47
37 41 47
36 39 44
35 38 44
38 42 47
41 45 51
43 47 53
30 34 38
25 27 31
15 17 19
19 21 23
31 34 38
42 47 53
46 51 57
56 62 69
49 54 61
52 57 65
52 57 64
57 64 72
58 64 71
55 60 67
45 50 56
41 45 51
43 48 54
46 51 57
41 45 50
44 48 54
39 43 48
36 40 44
41 45 51
37 41 47
38 42 47
36 39 44
35 38 43
27 30 34
26 29 32
20 22 25
21 23 26
12 14 16
20 22 24
28 31 34
34 38 42
42 46 52
49 54 61
46 51 57
50 55 62
51 57 64
57 63 70
56 61 69
54 60 68
51 56 63
50 55 62
56 62 69
55 61 68
56 61 68
64 70 78
59 65 74
63 69 78
59 66 74
67 74 83
67 74 83
75 82 92
68 75 85
68 75 84
64 70 79
70 76 85
65 72 81
66 72 81
67 73 82
67 74 83
68 75 84
71 78 87
66 73 82
70 77 86
67 74 84
75 82 92
77 85 95
73 81 90
74 81 91
71 77 87
71 79 88
75 82 92
60 66 75
59 64 72
55 60 67
57 63 71
58 64 71
54 60 67
60 66 74
66 72 81
61 67 75
65 72 81
61 67 75
61 67 75
62 68 77
59 65 72
63 70 78
56 62 70
55 60 67
43 48 54
38 42 47
29 32 36
25 27 31
22 24 27
10 12 13
14 16 18
17 19 21
7 7 8
11 13 14
30 33 37
33 36 41
26 29 33
28 31 35
35 38 43
30 33 37
31 34 38
34 38 42
38 42 47
32 35 40
33 36 40
27 30 33
13 15 17
14 15 17
23 25 28
25 27 31
21 23 26
13 15 17
20 23 25
30 33 37
33 36 41
35 39 44
40 44 49
37 40 45
37 40 46
32 36 40
32 35 39
34 38 42
49 54 61
52 57 64
50 54 61
47 52 58
49 54 60
43 48 54
50 55 62
45 50 56
49 54 61
41 46 51
29 32 36
33 36 40
52 59 68
75 85 98
75 85 98
70 80 92
67 77 89
67 77 89
65 74 85
58 66 76
58 65 75
63 71 82
61 69 80
64 72 83
67 76 88
69 79 91
74 84 97
78 89 103
81 92 106
87 99 115
89 101 117
87 99 114
86 98 112
85 96 111
81 92 107
85 97 112
75 86 99
68 77 89
68 78 90
71 81 93
73 83 95
74 84 97
77 87 100
84 95 109
84 96 111
83 94 107
90 102 118
89 101 116
91 103 118
94 107 124
94 107 124
93 106 122
97 110 127
100 114 131
104 118 137
104 118 136
104 118 136
102 116 134
100 113 131
100 113 131
103 117 136
98 111 128
95 109 127
98 111 128
98 112 129
97 111 130
92 105 121
92 104 120
91 103 119
91 103 119
95 107 123
99 112 129
98 111 129
98 111 128
96 109 125
92 104 121
90 102 118
92 105 121
94 106 123
106 120 139
98 112 129
106 120 139
106 120 138
101 115 132
100 113 131
96 110 127
88 100 116
85 96 111
73 84 97
64 73 84
62 71 82
54 61 71
56 64 74
51 58 67
43 49 57
48 55 63
56 63 73
49 56 65
52 59 68
67 76 88
74 84 97
75 85 97
86 98 113
80 90 105
78 89 103
77 88 102
77 87 101
79 90 103
77 87 101
80 90 104
73 83 96
63 71 82
68 77 89
67 76 88
75 85 97
78 88 102
77 87 100
76 87 100
87 99 114
88 100 116
103 116 134
101 115 133
109 124 143
111 126 145
98 111 129
102 116 134
94 107 124
94 106 123
95 108 125
93 107 124
96 108 124
85 97 113
86 98 113
82 93 108
77 87 101
78 89 103
79 89 103
77 88 102
86 97 112
94 106 123
89 101 116
93 105 122
93 105 120
81 92 106
85 97 113
89 101 117
89 102 118
85 96 111
93 105 122
95 108 124
86 98 113
79 90 104
76 87 100
79 90 104
79 90 105
82 93 108
82 93 108
85 97 112
81 92 106
80 91 106
73 83 96
71 81 93
71 80 93
72 81 94
70 79 91
63 71 82
61 69 80
64 73 84
68 76 88
71 81 94
68 77 89
71 80 93
74 83 96
76 86 100
74 84 97
67 76 88
69 78 90
62 70 81
71 80 93
69 78 90
70 80 92
63 71 83
62 71 81
56 63 72
58 65 76
58 66 77
68 77 89
68 77 89
77 88 102
79 89 103
79 90 104
82 93 107
87 99 114
93 105 122
89 101 117
93 105 121
95 108 125
96 109 126
92 105 121
94 106 122
92 105 123
90 102 119
87 99 115
89 101 118
87 99 114
84 96 112
82 93 107
74 83 95
68 78 90
64 73 85
57 65 75
57 65 75
52 59 68
55 63 73
61 69 80
61 70 80
63 71 83
64 73 84
72 82 94
83 94 109
87 99 115
89 102 118
89 101 117
90 102 118
91 104 120
100 113 131
91 102 118
89 101 117
94 106 123
83 95 110
77 88 102
66 75 87
58 66 77
55 62 71
49 56 65
57 65 75
56 61 69
54 60 67
49 54 61
50 55 62
40 44 50
30 33 37
20 23 25
15 17 19
18 20 22
17 18 20
15 16 18
17 19 21
14 16 18
19 21 24
24 27 30
41 45 51
48 53 59
48 53 60
45 49 55
30 33 38
16 18 20
32 35 39
39 43 48
42 46 52
38 41 47
41 45 51
43 47 53
42 47 53
44 48 54
41 46 52
46 51 57
42 46 52
47 52 58
43 47 53
44 49 55
38 42 47
29 32 36
21 23 25
24 26 29
36 40 44
43 47 53
52 57 64
49 54 60
51 56 63
56 61 69
47 52 59
55 60 68
53 58 65
47 52 58
44 48 54
38 42 47
33 36 40
39 43 49
40 44 49
39 43 48
35 39 44
36 39 44
35 38 43
31 34 38
31 34 38
29 33 37
26 29 32
17 19 21
12 13 15
12 13 15
26 29 32
34 37 42
38 42 48
43 47 53
44 48 54
52 57 64
47 52 59
49 54 60
50 55 62
57 63 72
55 61 69
58 63 71
56 61 69
58 63 71
52 58 65
62 68 76
61 67 76
63 70 78
64 70 79
64 71 80
72 79 88
63 69 77
68 75 84
64 71 79
73 80 90
67 74 83
67 74 82
57 64 72
58 65 73
67 74 83
64 70 79
67 73 81
69 76 86
75 82 91
73 81 91
78 86 96
66 73 81
76 83 92
66 72 81
70 77 86
62 69 77
71 79 89
66 73 82
65 71 81
59 65 73
54 59 66
55 60 67
54 59 66
52 57 64
52 58 65
56 62 69
59 65 73
64 70 79
55 61 68
63 69 77
57 63 72
65 71 80
56 61 68
55 60 68
55 61 68
45 50 55
38 42 48
26 29 33
16 17 20
13 14 16
10 11 13
12 13 15
17 19 21
19 21 24
10 11 12
15 16 19
25 28 31
29 32 35
32 35 39
36 40 45
40 44 49
40 44 49
41 45 51
39 43 49
37 41 47
36 40 44
25 28 31
22 24 27
19 21 24
12 14 15
18 20 22
22 24 27
16 18 20
13 15 17
23 25 28
34 38 43
38 42 47
39 43 48
38 42 48
37 41 46
34 38 43
33 36 41
32 36 40
36 40 45
44 48 54
48 54 60
46 51 57
41 45 51
40 44 50
48 53 60
44 49 55
46 51 57
56 61 68
48 52 58
25 28 31
35 39 44
61 69 80
63 71 82
51 58 67
44 49 57
41 47 54
42 48 56
50 57 65
61 69 80
70 80 92
69 78 91
70 80 93
73 83 96
74 84 97
76 87 101
73 83 95
78 88 102
79 89 103
72 82 95
65 74 85
62 70 81
70 80 92
72 82 95
74 84 97
71 80 92
63 71 82
57 65 75
53 60 68
60 68 79
74 84 97
84 96 110
88 101 117
93 106 122
88 99 115
86 98 113
83 94 109
76 87 100
72 82 95
69 78 90
67 75 87
72 81 93
74 84 98
76 87 101
83 94 108
83 94 108
81 92 107
81 92 107
84 95 111
82 93 108
79 90 103
74 84 97
71 81 93
70 80 92
69 79 91
73 83 96
79 89 103
82 92 106
75 85 99
77 87 101
73 83 97
71 80 93
68 77 89
70 80 92
83 94 109
90 103 119
94 107 123
90 103 120
81 92 106
73 82 95
67 76 88
55 63 73
51 58 67
66 74 86
76 87 101
87 98 112
98 111 129
102 116 133
106 121 140
104 118 136
102 116 134
86 98 114
73 83 96
71 81 93
63 71 82
78 89 103
83 95 110
84 96 111
93 106 123
91 103 119
93 106 122
87 99 114
86 98 113
83 94 109
79 91 106
78 89 103
77 87 100
68 77 89
69 79 91
69 78 90
74 84 97
81 93 107
92 105 121
93 106 123
93 105 121
98 111 129
98 111 129
96 109 127
85 97 112
85 96 112
83 94 109
83 95 109
80 91 106
83 94 108
70 79 91
78 88 102
83 94 108
85 96 112
86 97 113
82 93 108
82 93 108
81 91 105
72 83 96
72 82 94
67 77 89
64 73 84
56 63 73
51 57 66
50 56 65
49 56 64
49 56 64
47 53 62
49 56 65
52 59 68
62 70 81
69 78 90
77 87 101
80 91 105
83 94 109
93 106 123
102 116 134
109 124 143
110 124 144
109 124 143
105 120 138
100 113 131
93 106 122
87 99 114
71 80 93
64 73 84
63 71 83
67 77 89
73 83 96
83 94 108
87 99 114
89 101 117
91 103 119
85 97 112
82 93 108
82 93 107
84 95 110
85 96 110
85 96 112
83 94 108
74 84 97
71 80 93
75 85 98
76 86 100
78 88 101
69 79 91
59 67 77
62 70 81
57 65 76
58 66 77
63 71 82
63 72 83
68 78 90
68 77 89
71 81 94
70 79 91
85 96 110
88 100 115
91 103 120
91 103 119
94 106 123
89 102 118
81 92 106
82 92 106
76 87 100
76 86 100
68 77 89
66 75 86
69 79 91
71 80 92
67 76 88
57 65 75
52 59 68
65 73 85
70 80 93
74 85 98
68 77 89
75 85 99
69 78 91
78 88 102
76 86 100
80 91 104
86 98 113
84 96 110
84 95 109
78 89 102
76 87 100
78 88 102
81 91 105
79 90 104
72 82 96
72 82 95
60 68 79
63 72 83
64 73 84
61 69 79
57 64 74
52 59 68
53 60 69
57 65 75
57 65 75
48 54 62
57 63 71
61 67 76
56 61 69
60 66 74
43 47 52
33 36 41
19 21 24
20 22 24
24 27 30
14 16 18
20 22 25
25 27 30
25 28 31
25 27 31
17 18 21
30 33 37
49 54 60
44 49 55
41 45 50
31 34 39
16 17 19
28 31 35
37 41 46
38 42 47
43 48 54
44 48 54
48 53 60
52 57 63
50 56 63
46 50 57
59 65 72
47 52 58
47 52 58
44 48 54
47 51 57
44 48 53
38 42 48
33 37 41
21 24 27
26 28 32
37 41 46
42 46 52
41 45 51
41 45 51
50 55 62
46 51 57
45 49 55
47 52 58
45 50 56
41 45 51
37 40 45
33 36 40
31 35 39
35 38 43
36 39 44
35 39 43
34 37 42
28 30 34
20 22 24
20 22 25
16 18 20
17 19 21
9 10 12
16 18 20
24 27 30
33 37 41
41 45 51
47 52 58
48 52 58
52 57 63
48 53 59
53 59 66
57 63 71
57 63 71
54 59 66
57 62 70
55 61 69
51 57 64
51 56 62
58 64 71
58 64 71
56 62 69
60 67 75
62 68 76
56 62 70
65 72 80
66 73 82
71 78 87
67 74 83
67 74 83
71 78 87
68 75 83
62 69 78
60 66 74
68 75 84
64 70 79
69 76 85
71 78 87
73 80 91
66 73 81
79 87 97
79 87 97
75 82 93
70 77 87
70 77 86
70 77 86
71 78 87
68 74 83
65 71 80
59 64 72
57 63 71
55 61 69
53 58 65
51 56 63
54 60 67
55 60 68
62 68 76
58 63 71
63 69 77
58 64 72
57 63 71
55 61 68
51 56 63
56 62 69
50 55 62
47 52 58
36 40 45
24 26 29
11 12 14
21 23 26
16 18 20
15 17 19
20 22 25
17 19 21
12 13 15
24 26 29
33 36 40
32 35 40
33 37 41
37 41 46
40 44 49
46 51 57
43 47 53
44 48 54
41 45 51
38 41 46
28 31 35
28 30 34
23 26 29
13 14 16
13 14 16
17 19 21
14 15 17
17 19 21
26 29 32
33 37 42
44 49 55
48 52 58
45 49 55
42 46 51
33 37 41
29 32 37
25 28 31
33 37 41
30 34 38
42 46 52
40 44 49
42 46 52
49 54 61
46 51 57
45 49 55
50 55 62
50 55 62
33 37 41
31 34 39
58 66 76
83 95 110
78 89 102
78 88 103
77 87 101
72 82 94
65 73 84
63 72 83
56 63 73
48 54 63
55 62 71
58 66 76
61 69 80
58 66 76
53 60 69
52 59 68
53 60 69
51 58 67
50 56 65
54 61 71
55 63 72
62 70 81
68 77 90
76 86 99
81 92 106
81 92 107
85 96 111
81 93 108
81 92 107
71 80 93
65 74 86
65 74 85
67 76 87
71 80 93
70 80 92
75 85 99
81 92 107
92 104 120
91 104 120
104 117 135
108 122 140
112 127 147
111 126 146
107 121 140
101 115 132
92 105 122
91 103 118
85 96 111
72 82 95
65 74 85
71 81 93
74 85 98
75 85 98
74 85 98
72 82 95
77 87 101
76 86 99
78 89 102
75 85 98
87 98 112
89 101 117
96 109 126
94 107 125
91 104 120
91 103 119
84 95 109
75 85 98
77 87 101
74 85 98
78 88 102
78 89 103
86 97 113
84 96 111
82 93 107
80 91 105
78 89 103
80 91 105
80 91 106
83 95 109
84 95 110
84 95 110
88 100 115
85 96 111
90 102 118
90 101 117
88 100 115
80 91 104
79 90 104
86 98 113
93 105 121
93 106 122
94 107 125
99 113 131
98 112 130
99 113 131
92 105 122
91 104 121
88 100 117
86 98 113
86 97 112
84 95 110
78 89 102
80 91 105
79 90 104
77 88 102
70 79 92
69 79 91
67 76 88
60 68 78
65 74 86
67 76 88
65 74 85
65 74 85
89 101 117
87 99 114
91 103 119
85 97 112
78 89 102
79 89 103
71 81 93
64 72 84
48 55 64
53 61 70
59 67 77
60 68 78
75 85 98
77 87 101
82 93 108
86 97 112
86 98 114
84 95 109
85 96 111
93 106 122
97 111 128
103 117 135
100 114 132
99 112 129
96 109 126
95 108 124
88 100 116
97 110 128
94 106 123
98 111 129
96 108 124
91 103 119
85 97 112
79 90 104
82 93 107
81 92 107
80 90 104
83 95 109
78 89 103
78 89 103
74 84 96
66 75 86
64 73 84
72 81 94
75 85 99
80 90 105
81 93 107
86 97 112
80 90 105
75 85 98
70 79 91
58 66 76
62 70 81
56 64 74
65 73 85
63 72 83
65 73 85
62 71 82
68 78 90
67 77 89
68 77 88
78 89 103
79 90 104
87 100 116
86 97 112
84 95 111
77 88 102
60 68 79
44 50 58
35 40 46
35 40 46
41 46 54
41 47 54
44 50 59
51 58 68
56 63 73
66 75 86
79 90 104
80 91 105
80 90 104
81 92 107
83 95 110
84 96 111
86 97 113
84 96 111
78 89 103
63 72 84
49 55 64
38 44 50
42 48 55
51 58 68
55 62 72
66 75 86
68 77 89
75 85 98
71 81 93
73 83 95
81 92 106
76 86 99
76 86 100
79 90 104
78 88 102
78 89 103
85 96 111
84 95 109
83 94 109
75 85 98
67 76 87
67 76 88
62 70 81
63 72 83
61 69 80
56 62 71
68 75 84
62 68 76
57 62 70
49 54 60
34 37 42
12 14 15
21 24 27
30 33 37
31 34 39
32 35 40
33 36 41
31 34 38
31 34 39
25 28 32
22 24 26
38 41 46
45 50 56
39 43 48
32 35 40
21 23 26
22 24 27
33 37 41
42 47 53
44 48 54
46 51 57
54 59 66
52 58 65
51 56 63
52 57 65
58 64 72
57 63 70
54 59 67
48 52 59
47 52 58
45 50 56
44 48 54
38 42 47
29 32 36
14 15 17
24 27 30
32 35 39
32 36 41
36 40 45
39 43 48
41 45 51
41 46 51
40 44 49
42 46 52
37 41 46
34 37 41
30 33 36
28 30 34
29 32 36
26 28 32
28 31 35
26 28 32
13 15 17
15 17 19
8 9 10
8 8 9
8 9 11
15 16 18
18 20 23
25 28 31
33 36 41
40 44 49
49 54 61
53 59 66
48 54 61
55 60 67
52 58 66
57 63 71
56 62 69
56 62 70
53 58 65
55 60 67
52 57 64
53 58 65
54 59 66
61 67 76
67 73 81
63 69 78
59 65 73
76 83 93
64 70 80
71 78 88
63 70 79
67 73 82
63 69 79
65 72 81
63 70 79
62 68 77
62 68 76
66 73 82
71 78 88
64 71 79
67 74 82
67 74 83
73 80 89
67 73 82
68 74 84
73 80 90
62 68 76
65 72 81
61 67 75
62 68 76
65 72 80
59 65 73
59 65 73
54 59 66
48 53 60
49 54 61
53 58 65
51 56 64
51 57 64
56 61 68
57 62 70
62 68 77
56 62 70
52 58 65
52 57 65
48 53 59
52 57 64
49 54 61
35 39 44
30 33 37
21 23 26
13 14 16
18 20 23
21 24 26
22 25 28
20 22 25
10 11 13
18 20 22
30 33 37
33 36 41
35 38 43
36 39 44
41 45 51
47 52 59
52 57 64
51 56 64
44 49 55
39 44 49
38 42 47
35 39 44
31 34 39
28 31 35
22 25 28
12 13 15
14 16 18
21 23 26
28 31 35
30 34 38
41 45 50
46 51 58
48 53 59
48 53 60
45 49 55
37 40 45
23 25 28
17 19 21
19 21 24
24 27 30
34 37 42
32 36 41
42 46 51
47 52 58
46 51 58
45 50 56
46 51 57
43 47 53
26 29 32
44 49 55
50 56 64
57 65 76
59 67 77
56 63 73
49 55 64
53 60 69
55 63 73
61 70 81
68 78 91
82 93 108
80 91 105
83 95 110
91 103 119
87 99 114
87 98 114
86 98 113
80 90 104
69 78 91
70 79 92
69 79 90
65 74 85
68 77 89
67 76 87
69 78 91
74 83 96
75 85 99
73 83 96
75 85 98
87 98 114
87 99 114
94 106 123
96 109 126
102 117 136
100 114 131
91 104 120
84 96 111
86 97 112
85 95 110
75 85 99
68 77 90
80 91 106
75 85 99
76 86 100
75 84 97
80 91 106
78 88 101
76 86 99
74 84 98
75 84 97
67 77 89
64 73 84
59 67 78
57 64 74
53 60 70
56 64 74
54 61 71
53 61 71
51 57 66
65 73 84
71 80 93
78 89 102
80 91 106
89 101 116
91 104 120
97 110 127
99 111 128
97 111 128
100 114 132
97 110 127
107 122 142
108 123 142
104 118 137
98 111 128
94 107 124
91 104 120
87 98 113
87 99 114
90 102 119
86 98 114
79 89 103
77 88 102
81 92 105
82 93 108
80 91 106
87 99 114
87 99 114
88 99 114
81 92 107
79 90 104
85 96 110
76 86 99
65 74 86
64 72 83
71 80 92
77 87 101
75 85 99
81 92 106
86 97 113
91 104 119
100 113 130
94 108 125
98 112 130
101 114 132
101 115 132
97 111 128
93 105 122
92 104 120
93 105 122
97 110 127
90 102 118
84 96 111
85 96 110
78 89 103
46 52 60
55 62 72
63 72 83
75 85 98
78 88 101
85 96 110
94 106 123
97 109 126
92 104 120
93 105 121
87 98 113
84 95 109
71 81 94
59 67 78
56 64 74
55 63 73
53 60 69
53 61 70
56 63 73
57 64 74
55 62 72
53 60 69
51 57 66
61 69 80
62 71 82
66 75 87
74 84 97
80 91 105
92 104 121
96 109 126
102 116 134
106 120 138
102 115 134
99 112 128
85 96 111
76 86 99
61 69 80
46 53 61
47 54 62
56 64 74
65 73 84
70 79 92
65 74 86
60 69 79
60 68 78
60 68 79
62 71 82
55 62 72
54 61 70
48 54 63
49 55 64
47 53 62
51 58 67
53 60 69
66 75 86
76 87 100
82 93 108
94 106 123
99 112 130
107 121 139
113 127 147
115 132 153
123 140 162
127 144 166
124 142 165
124 141 163
119 135 155
107 121 140
97 110 127
84 96 111
77 87 100
68 77 90
70 79 91
66 75 87
59 67 77
51 58 67
48 54 63
58 66 76
66 75 87
68 77 89
65 74 85
69 79 91
76 86 99
72 81 94
63 71 82
54 62 72
52 59 68
44 50 58
41 47 55
43 49 57
40 46 53
43 48 56
47 53 61
46 52 60
49 55 64
66 75 86
72 82 94
80 91 105
88 99 114
103 116 134
104 118 137
106 120 139
108 123 142
103 116 134
100 113 131
100 114 132
106 121 140
107 121 139
106 120 139
106 120 138
103 117 135
98 112 130
95 107 124
69 78 89
74 81 91
60 67 75
57 62 70
41 45 51
21 23 26
24 26 29
38 42 47
42 47 53
40 44 49
37 41 46
41 45 50
41 45 51
37 40 45
21 23 26
16 18 20
29 32 36
38 42 47
28 31 35
27 30 33
20 22 25
25 27 31
32 35 39
37 41 47
44 48 54
55 60 67
52 57 64
54 59 66
53 59 66
55 60 68
58 64 72
56 62 69
48 53 60
52 57 63
46 51 57
46 50 56
42 46 52
34 37 42
19 21 24
9 10 12
24 27 30
25 28 31
35 38 43
32 35 40
36 40 45
34 37 42
37 42 47
44 48 54
42 46 52
36 39 44
35 38 43
28 31 35
25 28 31
18 20 22
22 24 27
16 18 20
19 21 24
26 29 32
26 29 32
23 25 28
18 20 23
20 22 25
27 29 33
31 34 39
37 41 46
41 45 51
50 55 62
50 55 61
54 59 66
54 60 67
61 67 75
61 68 76
65 71 79
59 65 73
52 58 65
58 64 72
53 58 65
52 57 64
55 61 68
54 59 67
60 65 73
60 66 74
55 61 69
65 71 80
62 68 76
69 76 86
64 70 79
72 79 88
68 75 84
62 68 77
63 70 78
50 56 63
62 69 77
66 72 81
65 72 81
62 68 76
67 73 82
55 61 70
57 63 71
59 65 73
61 68 76
58 64 72
69 76 85
63 69 78
63 69 78
62 68 76
57 62 70
57 62 70
58 64 71
43 47 53
44 48 54
42 46 52
45 49 55
48 53 59
53 58 66
51 56 63
50 55 62
49 54 61
50 55 62
52 57 64
47 51 58
42 46 52
47 52 58
52 57 64
38 41 47
32 35 40
25 27 31
10 11 13
11 12 13
12 14 16
15 16 18
13 14 16
18 20 22
27 30 33
29 32 37
35 38 43
40 44 50
49 54 61
49 53 60
52 57 64
53 58 65
47 52 59
46 51 57
36 40 45
41 45 50
39 43 48
35 38 43
35 39 43
33 37 41
31 34 38
32 35 40
34 37 42
37 41 45
39 43 48
47 52 59
51 56 63
49 54 61
51 57 64
44 48 54
29 32 36
14 16 18
13 14 16
10 11 13
23 25 28
29 32 36
33 37 41
45 49 55
51 56 63
42 47 53
42 46 52
49 54 60
30 33 37
35 38 43
63 71 81
81 92 107
94 107 123
92 105 122
88 100 116
81 92 107
82 93 107
83 94 109
88 100 116
90 103 119
99 113 130
106 120 139
111 126 146
116 132 152
119 135 155
113 129 150
112 127 147
106 120 138
101 115 132
96 109 126
95 108 124
83 94 108
76 87 100
62 71 83
71 80 92
70 80 92
77 88 101
77 87 101
82 93 108
85 97 112
81 91 106
74 84 97
71 80 92
69 78 90
62 70 81
63 72 84
62 70 81
55 63 72
67 76 88
70 79 92
76 85 98
82 92 107
78 89 103
70 79 92
62 70 81
56 64 74
58 66 77
63 71 82
70 80 93
77 88 102
82 93 108
78 89 102
83 94 109
76 86 99
75 85 98
71 81 94
71 81 94
76 86 99
75 85 99
82 93 107
79 90 103
87 98 113
92 104 119
90 101 117
88 100 115
89 100 116
85 97 113
81 92 107
85 96 111
78 88 102
73 83 96
72 82 94
67 76 88
65 74 85
66 75 87
65 74 85
69 78 90
65 75 87
65 74 86
67 75 86
67 76 88
71 80 93
68 77 89
64 73 84
62 70 80
58 66 76
52 59 68
54 62 71
50 56 65
53 61 70
54 61 71
49 56 64
49 55 64
48 55 63
58 66 77
71 80 93
82 93 108
84 96 111
83 94 109
86 98 113
84 95 110
80 91 105
81 92 106
77 87 100
82 93 108
88 99 114
88 100 116
85 97 113
88 100 115
89 101 117
87 98 114
87 98 113
71 80 92
66 74 86
86 98 113
87 99 114
87 99 114
84 96 110
84 95 109
82 93 108
84 95 111
85 96 111
88 100 115
84 95 109
84 96 111
85 96 111
79 90 104
74 84 97
73 83 96
67 76 88
62 71 82
54 61 71
55 62 72
56 63 72
59 66 77
56 63 73
53 60 69
57 65 75
62 70 81
56 64 74
54 62 72
53 60 70
49 56 65
50 57 66
55 63 74
56 64 73
52 59 68
62 70 81
72 82 95
83 95 109
88 100 115
87 99 115
85 96 111
88 99 115
87 99 114
88 99 115
88 100 116
90 102 118
93 105 121
86 98 113
85 97 111
85 97 112
83 94 109
81 91 106
77 87 101
72 82 94
66 75 87
58 66 76
53 59 69
51 57 66
58 66 76
67 76 88
77 88 102
75 85 99
74 84 97
80 90 105
86 97 112
85 96 111
80 91 105
76 86 100
77 88 102
79 89 103
76 87 100
75 85 98
62 70 81
63 72 84
58 66 75
50 57 66
54 62 72
63 72 83
66 76 88
70 79 91
64 72 84
58 66 76
60 68 79
61 69 79
63 71 82
63 71 83
65 74 85
62 70 81
62 71 82
61 70 81
62 71 82
60 68 79
64 73 84
71 80 92
73 83 96
77 87 100
87 98 113
92 104 121
93 105 122
94 106 123
97 110 126
102 116 134
102 117 136
107 121 139
100 113 132
102 115 132
96 108 125
103 116 134
106 120 138
101 115 133
102 116 134
109 123 142
104 118 136
110 125 145
116 131 151
111 125 144
71 78 87
70 77 86
60 65 73
48 53 59
33 36 41
17 18 21
38 42 47
42 46 53
47 51 57
50 55 62
44 49 56
50 55 62
46 51 57
41 45 50
21 23 26
16 18 20
19 21 24
24 26 29
23 25 28
19 21 24
14 16 18
25 28 31
36 39 44
45 50 56
51 56 63
53 59 66
55 60 67
51 56 63
53 58 65
52 57 64
56 61 69
46 51 57
54 60 67
52 58 65
43 48 54
40 44 49
42 46 52
25 28 31
10 11 13
15 16 18
25 28 31
29 32 36
30 33 37
32 35 39
31 34 38
34 38 43
35 39 44
33 36 41
34 37 42
27 30 34
28 31 34
28 30 34
19 21 23
13 14 16
12 14 15
27 29 33
28 31 35
30 33 37
27 30 33
31 34 39
31 34 38
30 33 37
37 41 46
40 44 50
47 51 57
48 53 59
58 64 72
56 62 69
59 65 73
61 67 75
62 69 77
61 67 75
58 64 72
53 59 66
58 64 72
59 64 72
59 65 73
59 65 73
58 64 71
59 65 72
50 56 63
60 66 74
66 72 81
63 70 78
69 75 84
69 76 85
70 77 86
66 72 81
63 69 77
65 71 80
56 61 68
63 69 77
63 69 77
61 67 76
62 68 77
59 65 73
59 65 73
58 64 71
59 64 72
60 66 74
65 72 81
54 60 67
60 65 73
59 65 73
61 67 75
61 67 74
52 56 63
50 55 62
43 47 53
42 46 51
42 46 51
39 43 48
45 50 56
46 51 58
50 55 62
52 57 64
44 48 54
46 51 58
46 50 56
44 49 55
44 48 53
46 51 57
47 52 59
40 44 49
32 35 39
26 28 32
20 22 24
13 14 16
19 21 23
14 15 17
13 14 15
26 29 33
32 35 39
40 44 49
36 39 44
47 51 58
52 57 64
52 58 65
51 56 63
53 58 65
43 48 54
46 50 56
42 46 52
44 49 55
43 47 53
39 42 48
39 43 48
39 43 48
43 47 53
46 51 57
48 53 59
51 56 63
55 60 68
52 57 64
48 53 59
48 53 59
40 44 50
31 34 38
22 24 27
16 18 20
11 12 14
11 12 14
19 21 24
26 28 32
33 36 40
45 50 57
50 55 62
44 49 55
44 49 55
42 46 52
31 34 38
49 54 60
71 81 93
85 96 110
90 102 118
89 100 116
82 93 108
78 88 102
67 76 88
58 65 76
62 70 82
64 73 84
64 72 83
70 80 92
77 87 101
77 87 101
80 90 104
83 94 108
86 97 112
84 95 110
85 95 109
84 95 110
86 98 113
83 95 110
84 96 111
81 92 106
75 86 99
71 80 93
69 78 91
65 74 86
61 69 79
60 69 79
63 70 81
61 69 80
53 60 70
52 59 68
48 54 63
45 51 59
50 57 66
51 58 67
50 57 66
50 58 67
48 55 63
48 54 63
55 63 72
64 72 83
72 82 95
82 93 107
90 102 118
98 111 128
102 115 133
102 115 134
100 113 131
98 111 128
93 106 123
91 103 119
86 98 113
82 94 108
74 84 97
69 79 92
61 70 80
51 58 67
51 58 67
55 63 73
56 63 72
57 64 74
57 65 75
59 68 78
44 49 57
38 43 50
47 54 62
63 71 82
68 77 89
69 78 90
74 84 98
70 79 92
72 81 94
63 71 83
58 65 76
47 54 62
36 42 48
46 52 60
36 41 47
40 46 53
53 60 69
62 70 80
63 71 82
62 70 80
60 69 80
56 64 75
65 73 85
65 73 85
60 68 79
62 70 80
65 73 85
62 71 81
53 60 70
48 55 63
57 65 75
68 77 89
80 90 104
90 102 118
88 99 115
89 102 118
90 102 119
83 95 110
78 89 103
77 88 101
70 80 93
69 78 89
64 73 84
62 70 80
67 76 88
78 89 102
78 88 102
73 82 95
86 97 112
80 90 104
78 88 102
75 84 97
73 83 96
65 74 86
67 76 89
65 74 86
59 67 77
55 62 71
53 60 69
55 62 71
55 63 72
57 65 76
61 69 80
58 67 78
56 63 73
67 77 89
70 80 92
76 86 100
66 75 87
67 76 87
66 75 86
63 72 83
58 66 76
54 61 71
47 53 61
47 53 61
47 53 61
52 60 69
50 57 66
48 54 63
54 62 72
52 59 68
52 59 68
52 59 69
61 69 80
71 81 93
82 93 107
87 99 115
92 104 119
92 104 119
89 101 117
88 99 115
82 93 108
85 97 112
81 92 106
83 94 108
73 83 96
70 79 91
63 71 82
53 60 69
52 58 67
58 66 77
69 79 91
73 83 96
79 89 103
75 85 98
71 81 93
71 80 93
70 79 92
71 81 94
76 86 100
74 84 97
73 84 97
76 86 100
85 96 111
84 95 110
86 97 112
86 97 113
84 95 110
76 86 98
70 79 91
71 81 93
75 85 99
79 90 104
80 91 105
73 83 96
69 78 91
66 75 86
66 76 88
66 75 86
68 77 89
79 90 104
91 103 118
92 105 121
98 112 130
98 111 127
101 114 132
92 104 120
89 101 116
77 87 100
73 83 96
74 84 97
77 88 101
74 84 98
69 78 90
63 71 82
63 71 83
63 71 82
71 80 93
70 80 93
65 73 85
63 72 84
74 84 97
68 77 90
73 83 96
67 76 88
69 78 91
71 80 93
58 65 75
67 76 88
68 77 89
75 85 99
72 81 92
70 77 86
67 74 83
54 59 66
37 41 46
21 23 26
31 34 38
43 48 53
52 57 64
49 54 61
56 62 69
56 62 69
56 61 68
54 59 66
41 45 51
32 36 40
17 19 21
8 9 11
14 16 18
15 16 19
16 17 20
27 29 33
37 41 45
44 49 56
50 55 62
52 57 65
54 60 67
47 52 58
46 50 56
50 55 62
55 60 68
50 56 63
53 59 66
47 53 59
47 52 58
42 46 52
36 40 45
29 32 37
16 17 19
11 12 14
21 24 27
27 29 33
30 33 37
30 33 37
27 29 33
28 31 34
28 30 34
28 31 35
27 30 34
27 30 34
24 27 30
24 26 30
21 23 27
9 10 11
10 11 13
25 28 31
31 34 38
28 31 35
31 34 39
38 41 46
40 44 49
41 45 51
40 44 50
44 48 54
50 55 62
58 64 72
67 73 82
65 72 81
61 67 76
62 69 78
63 69 78
64 71 79
64 70 79
62 68 76
63 70 78
59 66 74
59 65 72
59 65 72
64 71 79
59 65 73
58 63 71
60 66 74
58 64 72
70 77 86
72 79 89
66 72 81
67 74 83
70 77 86
65 71 80
60 66 74
62 68 76
65 71 80
55 61 69
60 66 73
59 64 72
53 58 66
57 63 71
56 62 70
59 65 73
65 72 81
56 62 70
60 66 74
58 64 72
57 63 70
51 56 62
54 60 68
51 56 63
52 57 64
45 49 56
40 44 50
34 38 42
39 43 48
43 47 53
44 48 54
45 49 55
43 47 53
45 49 55
45 50 56
52 57 63
45 49 55
44 49 55
50 55 62
43 47 52
42 46 52
31 34 38
26 29 32
26 29 32
23 26 29
27 29 33
25 28 31
24 26 30
31 35 39
35 38 43
41 45 51
47 51 58
49 54 61
54 60 67
53 58 65
59 65 73
55 60 68
50 55 62
47 51 57
50 54 61
44 48 54
47 52 58
48 53 60
45 50 56
40 44 50
59 65 72
50 55 62
56 62 70
57 64 72
62 68 76
59 64 72
51 56 62
41 46 51
36 40 45
31 34 39
19 21 24
18 20 23
12 13 14
11 12 14
23 26 29
29 32 36
42 47 53
47 53 59
48 53 59
40 45 50
43 47 54
41 45 50
37 41 47
64 71 81
71 80 93
74 84 97
72 82 95
74 84 96
75 85 99
69 78 91
64 73 85
57 64 74
60 68 78
59 67 77
55 62 71
55 63 72
61 69 79
65 73 85
73 83 95
73 83 96
68 77 89
68 77 89
70 80 92
78 89 102
86 97 112
92 105 121
90 103 119
92 105 121
91 104 121
91 104 120
96 109 125
92 104 121
91 103 119
87 98 114
89 100 115
94 107 123
90 102 118
92 104 120
93 105 122
95 107 124
93 106 122
95 107 123
93 107 124
100 114 131
108 122 141
119 134 154
116 132 152
115 132 153
121 137 158
117 133 154
113 128 149
109 124 143
98 110 127
96 110 127
91 103 119
92 104 120
90 102 118
89 101 116
83 94 109
91 104 120
100 113 130
104 118 136
104 118 136
109 124 144
109 124 144
106 120 138
99 113 130
100 114 132
97 110 127
93 105 122
81 93 107
78 88 102
80 92 106
79 89 103
80 90 104
78 89 104
75 85 98
77 88 101
80 91 105
80 91 105
84 95 109
83 94 109
84 96 110
84 94 109
82 93 109
81 92 107
86 97 111
91 102 118
88 101 117
88 100 116
93 106 122
91 104 120
91 104 119
91 104 120
94 106 123
94 107 123
91 104 120
88 100 116
78 89 102
75 84 97
67 75 87
52 58 67
38 43 50
46 51 59
54 61 70
54 61 70
58 66 77
65 74 85
70 79 92
77 88 101
78 89 103
74 84 98
66 74 85
63 72 84
73 83 96
82 93 108
87 98 113
93 106 123
65 74 85
63 72 84
62 71 82
72 82 94
76 87 100
83 95 109
78 88 102
81 92 106
79 89 102
77 87 100
84 95 110
76 86 99
79 90 104
83 93 106
84 96 111
79 90 104
84 94 109
79 90 104
73 83 96
69 79 92
65 73 85
64 72 83
60 68 79
56 63 72
55 62 71
54 61 70
54 61 71
58 66 76
72 81 94
76 86 99
68 78 90
71 81 93
68 77 89
69 78 91
69 78 90
60 68 78
70 79 92
67 76 87
70 79 91
76 86 99
83 94 109
82 93 107
75 85 98
75 85 98
69 78 91
68 76 88
73 83 96
70 80 92
81 92 107
84 95 111
96 110 127
98 111 128
99 113 130
90 102 118
85 97 112
77 87 101
70 80 92
70 80 92
69 79 92
66 75 87
64 73 84
56 64 74
56 64 73
56 63 73
51 58 67
57 64 75
63 71 82
63 72 84
65 74 86
66 75 87
67 76 88
69 78 91
73 83 96
75 85 99
72 82 95
79 89 103
78 89 102
78 89 103
89 101 116
91 103 119
92 105 121
95 108 125
100 114 132
106 120 139
108 123 142
104 118 137
99 112 129
91 104 120
88 99 114
86 97 112
73 84 97
72 81 94
66 75 87
68 76 88
74 84 97
77 87 101
77 88 102
76 87 100
78 89 103
84 96 110
81 92 106
84 95 110
86 98 114
98 111 128
98 111 128
101 115 133
95 109 126
97 110 128
94 107 124
86 98 113
82 93 108
82 93 107
84 95 110
82 93 107
79 89 103
69 75 84
67 74 83
61 67 75
50 55 61
29 32 36
24 26 29
46 50 56
54 60 67
57 63 70
52 58 65
53 58 65
53 58 66
54 60 67
49 54 61
45 50 56
32 35 40
19 21 24
18 20 23
19 21 24
24 26 30
32 35 39
35 39 43
44 48 55
50 55 62
49 54 61
50 55 62
54 59 66
49 54 60
44 49 55
48 53 59
53 59 66
55 60 67
48 53 59
47 52 58
42 47 53
40 44 50
36 40 45
24 27 30
16 18 20
12 14 16
26 29 32
21 24 27
22 24 27
23 25 28
26 28 32
26 29 32
25 27 31
24 27 30
22 24 27
20 22 24
20 23 26
15 17 19
13 15 17
16 17 19
21 24 27
26 29 33
30 33 37
35 39 43
37 41 46
38 42 47
48 53 59
43 48 54
47 52 59
61 67 75
58 64 72
62 68 77
60 67 75
70 77 86
64 71 79
67 73 82
65 71 80
66 73 82
67 74 83
59 66 75
67 73 81
59 65 73
69 77 86
64 71 80
65 72 80
62 69 77
64 70 78
63 70 78
68 75 84
66 73 82
62 68 77
71 78 88
65 72 80
68 75 84
61 67 74
67 73 82
58 63 71
59 64 72
58 63 71
58 64 71
54 59 66
59 64 72
58 64 72
61 67 75
60 66 73
55 61 68
60 66 74
53 58 65
49 54 61
49 54 61
44 49 55
53 58 65
57 63 70
44 48 54
34 38 43
38 42 47
44 48 54
40 44 49
40 44 49
37 40 45
31 34 39
38 43 48
39 43 49
37 41 46
46 51 57
41 45 51
45 50 56
42 47 53
40 44 50
30 33 38
28 31 34
27 30 34
30 33 37
32 35 40
23 25 28
24 27 30
32 36 40
39 43 49
45 49 55
43 48 54
52 58 65
56 62 69
49 54 61
60 66 74
53 58 65
53 59 66
46 50 57
52 57 64
45 50 57
47 52 59
43 48 54
48 53 59
44 49 56
56 61 68
69 75 85
65 71 79
60 65 73
54 60 67
53 58 65
47 52 58
38 41 46
31 34 38
20 22 25
16 18 20
17 19 21
12 13 15
17 19 21
25 28 31
39 44 49
49 53 59
46 51 57
40 44 49
39 43 49
42 46 52
30 33 37
53 58 65
69 78 90
73 83 96
60 68 79
52 59 69
48 54 62
51 58 67
50 57 66
61 69 80
64 72 83
76 86 100
81 92 106
88 100 116
92 104 120
96 109 126
100 114 132
103 117 136
103 117 135
101 114 132
97 110 127
89 101 117
75 86 100
69 78 90
58 66 77
51 58 67
45 51 58
53 60 70
59 67 77
60 68 78
60 68 78
63 72 83
71 80 93
77 87 100
73 82 95
73 82 95
70 80 92
69 78 91
59 66 77
61 70 81
72 82 95
71 80 93
73 84 97
74 84 97
69 79 91
62 70 80
53 60 69
49 55 64
48 55 63
43 49 56
42 48 56
47 53 61
45 51 59
57 65 75
54 61 71
62 70 81
69 79 91
75 86 99
78 88 102
89 100 116
85 97 112
82 93 107
78 88 102
73 83 96
75 85 98
69 79 91
63 72 84
54 61 70
44 50 58
54 61 71
65 74 86
69 78 90
63 72 84
72 81 94
79 89 103
78 88 102
83 95 109
82 93 106
85 97 112
73 83 96
60 68 78
61 68 79
61 69 80
69 79 92
80 90 104
85 96 111
85 96 111
90 102 118
95 107 124
98 110 127
102 116 134
102 116 134
96 108 125
91 103 119
91 103 119
93 105 121
94 107 123
99 113 130
100 114 131
107 120 138
110 124 143
114 129 148
107 121 140
103 117 135
102 115 133
100 114 131
92 105 121
80 91 105
77 88 102
67 76 88
55 62 73
48 54 63
51 58 66
60 69 79
68 78 90
75 85 99
79 90 104
71 80 93
66 75 87
56 63 73
53 60 69
61 69 80
63 72 83
64 73 84
66 75 87
66 76 88
63 72 83
65 74 85
59 67 78
60 68 78
62 71 82
59 66 77
61 69 80
69 78 89
72 82 95
73 83 96
74 83 96
78 88 102
73 83 96
78 89 103
88 99 114
84 96 111
86 97 112
89 100 116
85 96 111
74 85 98
60 68 78
47 53 62
54 61 71
62 70 81
71 81 94
79 90 104
86 97 112
87 99 114
86 97 113
84 96 111
71 80 93
59 66 77
59 67 77
58 65 76
58 66 77
64 72 83
62 70 81
64 73 84
65 74 85
70 79 91
75 85 99
76 85 98
78 89 103
72 82 94
78 88 101
76 86 99
71 81 94
81 92 107
85 96 111
88 100 115
88 99 114
88 100 116
86 98 113
86 97 113
79 90 103
81 92 107
81 91 105
77 87 100
75 85 97
70 79 91
61 70 81
59 67 78
56 63 73
47 53 62
45 52 60
38 43 49
37 42 49
38 44 50
43 48 56
57 65 75
71 80 93
84 96 110
95 108 124
103 117 135
109 124 144
118 134 155
123 138 158
124 141 163
128 145 167
127 144 167
123 139 161
128 145 167
121 138 159
119 134 154
103 117 134
101 115 133
94 107 123
94 106 123
81 92 107
77 87 101
74 84 97
76 87 100
76 86 100
73 83 95
70 80 92
70 79 92
76 85 98
76 86 99
80 90 104
84 96 111
81 93 108
88 100 116
91 104 121
90 102 118
93 105 121
94 106 122
80 90 103
64 70 79
61 67 76
51 57 64
40 43 48
22 24 27
38 42 47
54 60 67
55 60 67
52 56 63
53 59 66
62 68 77
57 63 71
62 68 76
55 61 68
46 51 57
33 36 40
21 23 26
27 30 34
35 38 43
38 42 47
39 43 49
43 48 54
49 53 60
58 64 72
56 62 69
54 59 66
41 46 51
49 53 60
48 53 60
50 55 63
59 64 72
54 59 67
46 50 56
45 49 56
41 46 51
43 47 53
37 40 45
26 28 32
15 16 18
11 12 13
13 15 16
18 20 22
15 17 19
13 14 16
23 26 29
25 27 30
23 26 29
21 23 25
13 14 16
14 15 17
16 18 20
22 25 28
25 28 31
28 30 34
24 27 31
28 30 34
32 35 40
37 41 46
44 48 54
48 53 60
50 55 62
52 57 64
57 63 71
65 71 80
66 72 81
75 82 92
69 75 85
75 83 93
69 77 86
68 75 84
70 77 87
63 70 79
66 73 81
66 73 81
72 79 88
71 78 88
69 76 84
60 66 75
71 78 88
64 71 80
72 79 88
67 74 82
68 75 84
68 75 84
69 76 86
64 70 79
67 73 82
61 67 76
60 66 75
61 67 76
64 70 79
63 69 78
55 61 68
56 61 69
51 56 63
62 67 75
63 69 77
62 68 76
61 67 75
55 60 67
56 61 69
52 57 63
56 61 68
53 58 65
52 58 65
51 56 64
44 49 54
37 41 46
40 44 50
38 42 47
32 35 40
34 37 42
38 41 46
31 34 38
24 27 30
25 28 32
30 34 38
33 37 42
34 37 42
39 43 48
37 41 46
37 41 46
33 36 41
27 29 33
26 28 32
30 33 37
29 32 36
27 29 33
30 33 37
37 41 45
41 45 51
39 43 48
46 50 56
47 52 59
50 55 62
52 58 65
48 53 59
46 50 56
40 43 49
42 46 51
44 48 55
49 53 59
51 56 63
48 52 59
52 57 64
55 60 68
53 58 66
64 70 78
65 71 79
59 65 73
53 58 65
46 51 57
39 43 48
33 36 41
18 20 22
13 14 16
13 14 16
17 19 21
22 24 27
26 29 33
30 33 38
42 46 52
51 56 63
41 45 50
38 42 47
30 33 37
33 36 40
43 48 54
49 55 63
49 56 65
47 54 62
42 48 55
39 44 51
41 47 54
38 43 50
40 45 52
38 43 50
34 39 45
37 42 49
44 50 57
46 52 60
50 57 65
56 64 73
62 71 82
66 75 87
71 81 93
71 80 92
72 82 95
78 88 102
72 81 94
71 81 93
64 73 84
69 79 91
66 75 87
68 78 90
68 77 89
62 71 83
68 78 89
66 75 87
67 76 88
66 76 88
62 70 81
62 70 82
69 78 90
77 88 101
80 91 105
84 96 111
89 100 116
97 110 127
99 112 129
104 117 135
87 98 114
82 93 107
82 93 108
67 76 87
64 73 85
60 68 79
62 71 82
68 77 89
68 77 90
60 68 79
72 82 96
69 79 91
83 94 108
86 97 112
82 93 108
73 82 95
68 77 89
65 73 85
58 66 76
63 72 83
72 81 94
76 86 100
82 94 109
82 94 109
85 96 111
76 87 100
68 77 89
61 70 81
51 58 67
42 48 56
53 60 69
65 74 85
75 85 99
82 93 108
85 97 112
85 96 111
86 97 111
77 88 101
69 78 90
62 70 81
62 71 82
65 74 85
71 81 93
71 81 93
77 87 100
88 99 115
90 102 119
101 114 132
103 116 134
107 121 140
113 128 148
115 130 151
121 136 157
120 136 156
127 144 166
126 143 165
123 140 163
118 134 155
123 139 160
118 134 155
114 129 150
111 125 144
105 119 137
96 110 127
91 103 119
74 84 97
74 83 96
65 74 86
56 64 74
49 55 63
41 47 54
40 45 52
42 47 55
112 127 147
95 108 125
87 98 114
73 83 97
76 86 100
75 85 98
76 86 99
75 85 98
71 81 93
72 82 95
77 88 101
79 90 104
87 99 114
85 97 112
80 91 105
73 83 96
65 74 86
55 62 72
54 62 72
54 62 71
61 69 79
71 80 92
75 85 97
76 86 99
73 83 96
82 93 107
82 92 106
86 98 113
86 98 114
83 94 109
86 98 113
76 87 100
77 87 101
79 89 103
84 95 109
80 91 105
88 100 116
87 99 114
83 94 109
78 89 103
76 87 100
70 80 93
71 80 93
68 77 89
68 77 88
52 59 69
44 50 58
48 54 63
43 48 56
36 41 47
27 30 35
27 30 35
34 38 44
46 52 60
61 68 79
66 75 86
74 85 98
80 91 105
93 105 122
98 111 128
108 123 141
115 130 150
116 132 153
116 132 152
117 132 153
116 130 150
112 127 146
111 126 145
104 118 137
104 117 135
96 108 125
87 100 116
81 92 106
79 90 104
74 84 97
69 78 90
66 74 86
54 62 71
62 70 81
62 71 82
51 58 68
49 56 64
56 63 74
52 59 68
55 62 71
60 68 78
67 76 88
67 77 89
68 77 89
83 94 109
90 103 118
101 115 133
106 120 139
112 128 148
120 136 158
119 135 155
116 131 152
112 127 146
109 124 143
99 112 129
95 108 124
84 95 110
79 89 103
72 82 95
74 84 97
75 86 100
92 105 121
97 111 128
92 105 121
97 110 126
91 103 119
96 109 127
93 105 122
93 105 121
89 101 116
84 96 110
77 85 96
66 73 83
52 58 65
43 47 52
22 25 28
31 34 38
50 56 63
53 58 65
63 69 77
56 62 70
60 66 75
67 73 82
70 77 86
64 70 78
52 57 65
43 47 53
32 35 40
31 34 38
38 42 47
46 51 56
41 45 51
42 46 52
49 54 60
55 61 68
57 62 70
49 54 61
44 48 54
45 50 56
50 55 62
55 61 68
56 61 68
56 61 69
46 51 57
44 49 55
40 45 50
40 44 49
42 46 52
36 39 44
28 31 35
23 26 29
27 29 33
29 32 36
27 30 34
16 18 20
10 11 13
15 17 19
10 11 12
13 14 16
11 13 14
7 7 8
15 17 19
28 31 35
30 33 37
34 37 42
31 34 38
23 26 29
32 35 39
39 43 48
47 52 58
51 55 62
49 54 61
64 70 79
62 68 77
71 78 88
66 72 81
82 90 101
75 83 93
78 85 96
71 78 88
78 85 95
67 74 84
67 74 84
76 83 93
74 81 91
77 84 94
67 75 84
64 71 79
71 77 86
59 66 74
62 69 77
73 80 89
58 64 73
61 67 76
64 70 79
67 74 83
64 70 78
64 70 78
70 77 86
70 77 86
60 66 74
66 72 81
64 70 78
57 63 71
54 59 66
51 56 63
58 64 71
58 64 71
54 60 67
58 64 72
56 62 70
58 64 71
55 61 68
48 53 60
50 55 62
45 49 55
44 48 54
41 45 50
36 39 44
35 38 43
38 42 47
38 42 47
30 34 38
28 31 35
20 22 25
11 12 14
7 8 9
17 19 21
26 28 31
29 32 37
31 34 39
37 40 45
32 36 40
28 31 35
23 25 28
17 19 21
26 29 32
26 29 33
26 29 32
27 30 34
31 35 39
34 38 42
35 39 43
44 49 55
43 48 54
46 51 57
51 56 63
50 55 62
47 51 58
49 54 60
40 44 50
49 54 60
51 56 63
47 52 59
49 54 61
56 61 69
56 62 69
59 65 73
62 68 76
60 66 75
57 63 70
53 59 66
44 49 55
32 36 40
22 24 27
10 11 13
14 15 17
15 17 19
27 29 33
39 42 47
41 45 51
38 42 48
48 53 60
44 48 54
31 34 39
26 28 32
23 26 29
33 36 41
66 74 84
84 95 110
87 99 114
91 103 119
88 100 115
78 88 102
71 81 94
60 68 79
56 63 73
53 60 70
56 63 73
55 63 73
57 64 74
53 60 69
55 63 73
63 72 83
66 74 85
67 76 87
63 71 82
58 66 77
51 58 67
56 63 73
58 65 75
58 65 75
53 60 69
53 61 70
57 64 75
69 78 90
73 83 96
81 91 106
88 100 115
82 93 108
79 89 103
72 82 94
66 75 86
65 73 85
57 65 75
51 58 68
49 55 64
45 52 60
49 56 65
52 59 68
50 56 65
47 53 62
47 53 62
50 58 67
61 70 80
62 70 81
59 67 78
55 62 72
61 69 79
72 82 94
64 72 84
71 80 93
72 81 93
74 84 98
76 87 100
88 100 115
94 107 124
96 109 125
97 110 127
99 113 130
95 107 124
88 100 115
80 91 105
73 83 96
68 78 90
64 73 84
63 72 83
66 75 87
65 73 85
60 69 80
57 64 74
55 62 72
48 54 63
47 53 61
37 43 49
46 52 60
40 45 52
39 45 52
46 53 61
49 55 64
44 50 58
47 53 61
46 52 60
49 56 64
46 52 60
56 63 73
60 69 79
64 73 84
67 75 87
61 69 80
59 66 76
57 64 73
65 74 85
67 76 87
69 78 90
70 79 91
79 89 103
86 98 113
92 104 120
93 106 123
98 112 129
104 118 136
105 118 136
104 118 136
102 116 134
96 110 127
87 98 113
76 86 98
65 74 86
56 63 73
51 58 68
51 58 67
66 75 86
65 74 86
68 77 89
113 128 148
104 118 136
103 118 137
97 110 127
92 104 120
84 95 111
84 95 110
87 98 113
86 97 111
89 101 116
90 101 116
92 104 120
102 116 133
99 113 130
94 106 123
97 110 126
85 97 112
89 100 116
89 102 118
92 104 121
88 100 116
80 91 105
77 87 101
71 81 93
65 74 86
64 72 84
57 65 75
59 67 78
58 66 76
59 67 78
64 73 84
72 81 94
77 88 101
83 94 108
87 99 114
93 105 121
89 102 118
92 105 121
97 109 126
99 112 129
104 117 135
109 124 143
111 125 145
112 127 146
114 129 149
113 128 148
113 128 148
113 128 148
113 129 149
112 128 148
107 121 139
98 111 129
94 107 124
88 100 116
81 92 107
79 90 105
74 85 98
75 85 98
79 90 104
80 90 104
78 88 101
79 90 104
75 85 98
74 84 98
73 82 95
64 73 84
56 63 73
45 52 60
39 44 50
45 51 59
52 59 68
57 65 75
66 75 87
69 78 90
66 76 88
61 69 80
63 71 83
57 65 75
52 59 69
44 50 58
41 46 54
40 45 53
36 41 48
37 42 49
43 49 57
50 57 66
55 62 72
64 72 83
64 73 84
72 82 95
74 84 97
66 75 87
71 80 92
80 91 105
78 89 103
85 96 111
87 99 115
98 111 129
104 117 135
101 114 132
98 111 129
98 111 127
94 106 122
99 113 131
101 114 131
98 111 128
102 116 135
98 111 128
105 119 137
105 118 136
107 121 140
99 113 131
85 97 113
80 91 105
60 68 79
59 67 78
56 63 71
65 71 80
54 60 67
38 42 47
29 32 36
20 22 25
45 50 56
52 57 64
50 55 62
58 64 72
56 62 70
64 70 79
61 67 75
65 71 79
56 62 70
51 56 63
47 52 58
43 47 53
42 46 51
51 57 64
56 61 68
57 63 71
55 61 68
55 60 68
58 63 70
47 52 58
48 53 59
53 59 66
53 59 66
55 60 68
55 61 68
57 62 70
49 54 61
47 52 58
45 49 55
44 48 54
48 52 59
40 44 50
35 39 44
33 36 41
31 34 38
38 42 47
39 43 48
30 33 37
23 25 28
19 21 24
15 17 19
9 10 11
6 7 8
9 10 11
20 22 25
31 34 38
36 39 44
41 45 51
36 39 44
32 35 39
33 37 41
43 47 53
48 52 59
61 67 75
60 65 73
67 73 82
64 70 79
66 73 82
74 81 91
78 86 96
75 83 93
78 86 97
87 95 107
77 84 94
83 91 102
82 90 100
74 81 91
80 88 99
78 85 95
73 80 90
76 84 94
66 73 82
71 78 87
66 73 82
61 66 75
63 69 77
65 71 79
63 69 78
61 67 75
65 71 80
60 66 74
59 65 72
66 72 81
65 71 80
54 60 67
54 60 68
58 64 71
51 56 63
51 57 64
53 58 65
51 56 63
52 58 64
62 68 76
52 57 64
45 50 56
46 50 56
47 51 57
45 49 56
41 45 50
39 43 48
37 41 46
31 34 38
30 33 38
34 37 41
34 38 42
28 31 35
25 27 31
15 17 19
8 9 11
7 7 8
13 15 17
20 22 25
23 25 28
25 27 31
26 29 33
28 30 34
29 32 36
25 28 31
30 33 37
31 34 38
32 35 40
31 34 39
32 35 39
32 35 40
31 34 38
31 34 38
39 42 47
39 44 49
51 56 63
47 52 58
41 45 51
45 50 56
40 43 49
43 47 53
46 51 57
45 49 55
47 52 59
53 58 64
50 56 63
50 56 63
54 59 67
57 63 70
54 60 67
53 58 65
50 54 61
34 37 42
16 18 20
11 12 13
10 11 12
11 12 14
21 23 26
33 36 40
44 48 54
44 48 54
36 40 46
37 41 46
35 39 44
20 22 25
17 19 21
30 33 37
58 64 72
86 96 110
89 101 116
88 99 114
81 92 107
78 88 102
73 83 96
74 84 98
74 84 97
72 82 95
66 76 88
64 73 84
57 65 75
42 48 55
39 44 51
35 39 45
53 60 70
69 79 91
80 90 104
88 100 115
95 109 126
97 110 127
95 107 124
94 107 123
90 102 118
87 98 113
89 101 117
91 103 119
91 103 119
90 101 116
91 104 120
95 107 124
103 117 136
103 117 136
107 122 141
106 120 138
109 124 143
112 127 145
107 122 140
104 118 136
99 113 131
94 106 123
89 101 117
84 95 109
70 79 92
68 78 90
64 72 83
66 75 87
65 73 85
69 78 90
66 75 86
64 73 84
56 63 73
55 62 72
51 58 67
46 53 62
42 47 55
44 50 58
47 53 61
55 62 72
60 68 79
65 73 84
63 72 83
65 73 85
67 76 88
67 75 87
66 75 87
62 70 81
58 65 75
50 57 65
39 45 52
41 46 54
42 48 55
41 46 53
44 49 57
50 57 66
72 82 95
76 86 100
82 93 108
81 92 106
83 94 109
76 87 101
67 75 87
61 69 80
52 59 68
43 49 56
34 39 45
40 46 53
43 48 56
51 58 67
63 72 83
70 79 92
68 77 89
71 81 93
61 69 80
61 70 81
61 69 80
61 69 80
58 66 76
61 69 80
55 63 73
53 60 70
48 55 63
43 49 56
42 48 56
47 53 61
50 56 65
54 61 71
53 60 69
49 56 65
35 40 47
32 36 42
38 44 51
45 51 59
51 58 68
51 58 66
54 61 70
49 56 64
84 96 111
82 93 106
77 87 100
70 79 92
80 90 104
86 97 112
90 102 118
95 108 125
102 115 133
102 116 134
100 114 131
108 122 141
109 124 143
104 119 137
105 119 137
106 120 139
112 127 147
115 131 151
115 130 150
106 120 140
101 115 133
89 102 117
82 93 107
83 94 108
81 93 107
89 102 118
93 106 122
97 109 126
89 100 116
91 103 119
87 99 115
82 93 107
80 91 106
79 90 104
72 82 95
67 76 88
67 76 88
66 75 86
69 78 91
70 79 92
71 81 93
80 91 104
73 82 95
78 88 102
77 88 102
84 95 110
77 87 101
68 77 88
56 63 73
51 58 67
44 50 58
42 47 55
43 49 56
57 65 76
63 72 83
71 80 93
70 80 93
70 80 93
68 77 89
65 73 85
59 67 77
60 68 79
63 72 83
63 72 83
63 71 82
67 76 87
60 68 79
57 64 73
47 54 62
51 58 67
56 63 73
53 60 70
39 45 52
40 46 53
44 50 58
55 63 73
58 66 76
61 69 80
68 77 89
69 79 91
74 84 97
83 95 109
90 103 119
90 103 119
88 100 116
91 103 119
85 96 111
79 89 103
73 83 95
68 77 88
54 61 70
36 41 47
34 38 44
46 52 60
53 60 70
60 69 79
69 78 91
67 77 89
56 64 74
52 59 68
47 53 61
43 49 57
47 53 61
51 58 67
62 70 81
69 79 91
77 88 101
82 94 109
89 101 117
90 102 119
98 111 128
110 125 144
114 129 148
113 128 148
106 120 139
104 118 136
103 117 134
78 87 99
59 65 73
40 43 48
31 34 38
24 26 29
37 41 46
53 58 65
54 59 67
62 68 77
72 79 88
75 82 91
69 76 85
68 75 84
66 72 81
55 61 68
58 63 71
60 66 74
52 57 64
53 58 65
58 63 71
65 72 81
72 79 88
67 74 83
65 72 81
60 65 73
63 69 77
56 62 70
52 57 64
54 60 67
58 63 71
63 69 77
55 61 68
55 61 69
57 62 70
49 53 60
48 53 60
47 52 58
43 47 53
40 44 50
40 45 50
42 46 51
43 47 53
35 38 43
28 31 35
27 29 33
30 33 37
23 26 29
17 19 22
15 17 19
23 26 29
31 34 38
39 43 48
42 47 52
41 45 50
39 43 48
42 47 52
47 52 58
55 61 68
58 64 72
61 67 75
67 75 84
67 74 83
74 82 92
70 77 87
81 89 101
84 92 102
79 87 98
78 86 97
88 97 108
77 85 95
81 90 101
85 93 104
85 93 104
74 82 92
83 92 103
76 84 95
69 76 85
68 75 84
64 71 80
72 79 89
67 73 82
71 79 88
75 82 92
58 65 73
56 62 70
56 61 69
55 60 67
60 66 74
59 65 72
64 70 79
58 64 72
50 55 62
53 58 65
51 56 63
52 57 64
47 52 59
45 50 56
48 53 60
42 46 52
42 47 52
44 48 54
43 48 53
35 38 43
34 37 42
32 35 39
27 30 34
24 27 31
24 27 30
32 35 39
29 32 36
28 30 34
23 25 28
8 9 10
10 11 12
9 10 11
17 18 21
16 18 20
14 15 17
16 18 20
23 25 29
29 32 36
31 34 39
30 33 38
34 37 42
37 41 46
34 37 42
36 39 44
37 40 45
31 35 39
25 28 31
27 30 34
30 33 37
40 44 50
44 48 54
47 51 58
47 52 58
45 49 55
47 52 58
41 45 51
45 50 56
45 50 56
50 55 62
50 55 61
55 60 67
58 64 71
50 55 62
58 64 71
55 60 67
53 59 66
40 44 50
27 30 33
9 10 11
10 11 13
14 15 17
16 18 20
20 22 24
39 43 48
46 51 58
41 45 51
32 36 40
27 30 34
20 22 24
13 15 17
26 29 33
50 55 62
59 65 74
56 64 74
54 61 71
63 71 81
62 70 80
62 70 81
59 66 76
62 70 81
55 62 72
54 62 71
45 52 60
50 57 65
47 54 62
48 54 63
53 60 69
49 55 64
45 51 59
43 48 56
46 52 60
43 49 56
46 52 60
49 55 64
56 64 73
67 76 87
71 81 93
72 82 95
74 85 98
76 86 100
84 96 111
93 105 120
96 109 125
92 104 121
95 107 124
93 106 123
91 104 120
88 100 116
86 97 113
88 100 117
91 103 120
89 101 117
97 110 127
95 108 125
99 112 130
101 115 133
102 116 134
99 112 130
100 114 131
93 106 122
95 107 123
84 95 110
81 92 105
70 80 93
76 86 100
74 84 98
70 79 90
66 76 88
63 72 83
55 63 73
56 64 74
63 72 83
69 78 91
75 85 98
80 90 104
89 101 117
84 96 111
93 105 120
90 103 119
90 103 119
87 100 116
79 89 103
74 84 97
63 71 82
54 61 70
54 62 71
56 64 74
59 68 78
60 68 79
59 67 77
58 66 76
55 62 72
58 65 75
58 66 76
58 66 77
61 70 81
68 77 89
70 80 93
71 81 94
67 77 89
72 82 95
80 91 105
90 102 119
101 114 132
109 123 142
110 125 145
119 135 156
120 136 158
122 138 159
124 141 164
122 139 160
116 132 153
111 126 145
107 122 141
99 112 130
100 113 131
95 108 125
88 100 116
76 87 100
74 83 96
65 73 85
57 65 75
56 64 73
59 67 77
61 69 79
72 81 93
79 90 105
84 95 110
88 100 116
92 104 120
92 105 122
88 101 117
85 97 112
77 87 101
77 88 101
79 89 103
81 93 107
82 93 108
79 89 103
79 90 105
84 95 109
94 106 122
92 104 120
92 105 121
91 104 120
91 104 121
95 109 126
89 100 115
81 92 107
86 98 113
75 85 98
65 74 86
72 81 93
84 95 111
87 99 115
87 99 115
96 109 126
91 103 119
98 110 126
89 101 117
90 101 117
99 112 130
96 109 125
100 114 131
97 110 127
87 100 116
76 87 100
62 70 81
52 59 68
46 52 61
44 50 58
45 51 60
46 53 61
49 55 64
49 56 65
51 58 67
46 51 59
45 51 59
49 56 64
37 42 48
42 47 54
49 56 65
52 59 68
54 61 71
58 66 76
60 69 80
61 68 78
61 70 80
53 60 69
57 64 74
71 80 93
83 94 109
89 101 117
91 104 120
92 104 120
87 99 115
84 96 111
82 93 107
77 88 102
74 84 98
75 85 98
73 83 96
65 75 86
64 73 84
60 68 78
62 70 81
67 76 88
74 84 96
69 78 90
70 80 92
75 85 98
65 74 86
56 64 74
50 56 65
47 53 62
48 54 63
55 62 71
69 78 90
80 90 103
84 96 112
94 106 123
102 116 133
98 111 128
101 115 133
97 110 128
102 116 134
98 111 129
101 115 132
96 109 126
91 103 119
81 92 107
73 82 95
68 77 89
63 71 82
49 56 65
36 41 47
34 39 45
55 62 71
65 74 85
64 73 85
74 84 97
76 87 101
76 86 99
83 95 110
84 95 110
84 96 110
77 88 101
73 83 96
61 67 75
48 53 60
27 30 33
30 32 36
21 23 26
44 49 55
51 56 63
57 63 71
66 73 82
70 77 87
79 86 96
68 74 83
67 74 83
70 77 86
59 65 74
57 63 71
58 64 72
54 59 66
58 64 72
69 76 86
69 76 85
64 71 80
72 80 89
65 71 80
66 73 82
50 56 63
62 68 76
62 69 77
51 56 64
62 68 77
62 68 76
64 70 78
52 58 66
53 59 66
51 56 63
47 52 59
52 57 64
44 49 55
48 53 59
43 48 53
44 48 54
42 46 52
35 39 43
37 40 45
36 40 45
37 40 45
31 34 39
27 30 34
29 31 35
32 36 40
35 38 43
46 51 57
49 54 60
46 51 57
49 54 61
54 60 67
62 68 76
61 67 75
68 74 83
72 80 89
81 89 100
79 87 98
77 85 96
80 87 97
76 84 94
82 90 101
86 95 107
79 87 99
78 87 98
84 92 103
83 92 103
82 90 101
97 107 119
72 79 89
74 82 92
78 86 96
74 81 91
75 82 91
66 73 82
67 74 84
67 74 84
68 74 83
59 65 73
64 70 78
65 71 79
60 66 75
64 70 79
67 74 83
60 66 74
56 61 68
59 65 73
50 55 62
51 56 63
49 54 60
44 48 54
42 46 51
38 42 48
34 38 43
36 39 44
37 41 46
32 35 40
30 33 37
26 29 32
24 26 29
18 20 23
20 22 25
16 17 19
17 19 22
24 26 29
24 27 30
19 21 23
11 12 14
10 11 13
9 10 12
13 14 16
20 22 24
20 22 25
23 25 29
31 34 38
35 39 43
33 37 41
37 40 45
40 44 49
38 42 47
36 40 44
36 39 44
37 40 45
34 38 42
29 32 36
32 36 40
30 33 37
36 40 45
42 46 52
45 49 55
40 44 50
46 50 56
46 51 57
48 53 60
48 52 59
44 48 54
52 57 64
53 58 65
54 59 67
54 60 67
54 59 66
54 59 67
50 55 62
45 50 56
36 40 45
25 28 31
11 13 14
18 20 23
22 25 27
18 20 23
25 28 32
38 42 47
44 48 54
31 35 39
24 26 30
20 22 25
10 11 13
28 30 34
50 54 61
72 79 89
50 57 65
47 53 62
49 56 65
57 65 75
62 70 81
72 82 95
84 96 111
86 97 112
89 101 116
86 98 113
85 96 111
97 110 128
102 115 132
102 116 135
110 124 143
117 133 154
118 134 155
119 135 156
116 131 151
119 135 156
113 128 147
112 128 148
106 121 139
101 114 132
101 115 134
100 114 131
100 113 130
102 116 133
105 119 137
105 119 138
106 120 139
106 121 140
107 121 141
107 122 141
105 119 137
105 119 137
103 117 135
107 121 140
110 125 146
110 125 145
113 129 150
117 133 154
113 128 149
112 127 147
106 119 138
98 111 129
92 104 120
84 96 111
77 87 100
80 90 104
74 84 97
74 83 96
67 76 88
66 75 87
61 69 80
56 64 74
53 60 69
48 54 62
49 56 64
53 61 71
66 74 86
74 84 96
74 83 96
72 82 95
78 88 102
83 93 108
84 96 111
84 96 111
92 104 120
95 108 125
99 112 129
92 105 122
92 104 120
84 95 109
87 98 113
74 84 97
72 82 94
68 77 89
66 74 86
65 74 85
66 75 87
59 67 78
68 78 90
68 77 88
74 83 96
72 81 94
74 84 97
71 80 92
68 77 89
70 78 90
74 84 97
79 89 103
74 84 98
80 91 105
79 90 104
83 94 108
83 94 108
82 93 107
88 100 116
88 101 117
95 108 124
95 107 123
99 112 129
97 110 127
98 111 128
93 106 122
92 104 120
90 102 117
80 90 104
72 82 94
61 69 79
51 58 68
53 60 70
53 61 70
56 63 73
57 65 75
50 56 65
56 64 74
92 103 118
94 107 124
89 102 118
87 99 114
80 91 105
77 88 102
78 88 102
79 90 103
74 84 98
76 86 100
70 80 93
64 73 84
55 63 73
51 58 68
45 51 60
45 50 58
45 51 59
38 44 50
45 51 59
55 62 72
57 65 74
63 72 83
68 78 90
74 84 97
74 84 97
79 89 103
72 82 94
66 74 86
53 60 69
51 58 67
55 62 72
53 61 71
56 64 74
56 63 73
54 61 70
45 51 59
45 51 59
57 65 75
59 67 77
53 60 70
48 55 63
52 59 68
58 66 76
60 68 78
67 76 88
74 84 96
73 83 95
73 82 95
81 92 106
78 89 103
75 86 99
66 75 87
61 69 79
55 63 72
44 50 57
47 54 63
52 59 68
55 62 72
58 66 77
65 74 85
58 66 76
62 70 80
59 67 77
63 71 82
59 67 78
60 68 79
66 76 87
63 72 83
67 76 88
68 78 90
75 85 98
77 87 101
75 86 99
83 95 109
85 97 112
86 98 114
90 102 118
90 102 118
93 106 123
90 102 118
82 93 108
76 86 99
82 93 108
91 103 119
92 105 121
100 113 130
105 119 138
109 123 143
108 123 142
111 125 144
108 122 142
105 119 137
99 113 130
94 106 122
85 97 112
88 100 116
81 92 106
86 97 112
79 90 104
74 84 97
67 75 87
68 77 88
67 76 88
63 72 83
64 73 85
67 76 88
71 81 94
71 81 93
62 70 82
65 74 85
59 67 78
51 58 66
47 54 63
46 53 61
52 59 68
55 62 72
57 65 75
64 73 85
73 82 93
60 66 73
29 32 37
18 20 23
19 21 24
34 38 42
48 52 58
59 65 72
66 73 82
68 75 84
79 86 96
63 70 79
69 76 85
66 73 81
62 68 77
65 71 80
64 69 77
64 70 78
61 68 76
69 76 85
76 83 93
75 83 93
72 79 89
62 69 77
70 76 85
68 74 83
60 65 73
75 82 92
60 66 74
70 76 86
65 71 80
62 68 76
67 73 82
52 57 64
54 59 66
41 45 52
48 53 60
54 59 66
48 53 60
51 56 63
46 51 57
45 49 56
42 46 51
46 51 57
41 46 51
46 50 56
44 48 54
34 38 43
31 34 39
33 36 41
35 38 42
43 47 53
53 58 66
56 62 69
50 55 62
52 57 63
62 69 77
58 64 71
64 71 80
67 74 83
76 83 93
77 85 95
85 94 106
80 89 100
84 92 103
81 90 102
89 98 110
86 94 105
89 98 109
86 95 107
82 90 101
78 85 96
89 98 109
84 93 104
80 88 99
72 79 89
71 78 87
74 81 90
74 81 91
68 75 84
72 80 89
75 83 93
66 73 82
67 73 82
64 71 80
66 72 81
71 78 87
59 65 73
68 75 84
56 61 69
50 56 63
50 55 62
45 50 56
48 52 59
42 46 52
37 41 46
38 41 46
37 41 46
32 35 40
31 34 39
22 24 27
19 21 24
20 22 25
23 25 28
22 25 28
19 20 23
21 23 25
24 27 30
29 32 36
22 24 27
12 13 15
6 7 7
6 7 8
11 12 14
23 25 28
27 29 33
26 28 32
30 33 37
36 40 45
35 39 43
37 41 46
39 43 48
42 47 53
37 41 45
32 35 40
30 32 36
32 35 40
33 37 41
36 40 45
34 37 42
34 37 41
37 40 45
35 39 44
35 38 43
39 43 48
44 48 54
38 42 48
44 49 55
43 47 52
50 55 61
50 55 62
52 57 64
54 60 67
50 55 62
42 46 52
46 51 57
42 46 51
41 45 50
26 29 32
22 24 27
21 24 27
23 26 29
25 28 31
13 15 17
28 31 35
37 40 46
32 36 41
24 26 29
12 13 15
17 19 21
23 25 29
41 45 50
59 65 74
62 70 80
59 66 77
62 71 81
71 81 93
77 88 101
85 96 111
89 101 118
98 111 128
101 114 132
105 118 137
105 120 139
110 124 144
114 129 148
116 132 152
115 131 150
115 131 151
112 127 146
103 117 135
100 113 131
92 105 121
88 100 115
87 99 114
89 101 116
83 95 110
79 90 103
72 81 93
68 77 89
65 74 86
63 71 82
60 68 78
61 70 80
61 69 80
59 67 78
67 75 87
70 79 92
74 84 97
75 85 98
74 84 97
76 86 99
77 87 101
75 86 99
76 85 98
66 74 86
48 55 63
32 37 42
41 47 54
59 67 77
68 78 90
68 77 89
64 73 85
63 72 83
59 68 78
63 71 82
56 63 73
53 60 70
52 59 68
47 54 62
51 58 68
56 64 75
59 67 77
59 67 77
59 67 77
62 70 81
60 68 79
56 64 74
56 64 74
62 70 81
62 71 82
60 68 79
63 72 83
66 75 87
74 84 97
76 86 100
78 89 102
72 82 95
63 71 82
54 61 71
53 60 70
55 63 72
69 78 90
75 85 98
74 84 97
66 75 86
64 72 83
61 70 81
66 76 88
74 85 98
79 90 103
88 100 115
94 107 124
99 113 131
101 114 131
103 117 136
105 120 139
106 121 140
108 122 141
110 124 143
106 121 139
103 116 134
97 110 128
90 103 119
80 90 104
71 81 94
65 74 86
61 69 80
56 63 73
49 56 64
50 57 66
57 64 74
67 76 87
67 76 88
74 84 97
85 97 112
91 103 119
94 107 124
93 106 122
90 102 118
93 105 122
94 107 123
96 109 126
87 99 114
79 89 103
75 85 97
66 76 88
61 69 79
61 69 80
55 63 72
59 67 78
50 57 66
44 50 58
42 48 55
47 53 62
47 53 61
41 47 54
40 45 52
39 44 51
48 54 62
45 52 60
50 57 66
56 63 72
61 69 80
67 76 88
73 83 95
73 83 96
72 81 94
82 93 108
86 98 113
87 99 114
86 98 114
86 98 114
80 91 105
74 84 97
72 81 94
70 80 92
68 77 89
68 77 90
63 71 82
56 63 73
44 50 57
38 43 49
38 43 50
51 58 66
61 69 80
73 83 96
84 95 109
88 100 116
89 101 117
91 103 119
89 101 116
86 98 113
75 85 98
59 66 77
40 45 52
38 43 50
54 61 71
69 78 90
76 86 99
77 87 101
79 89 103
78 89 102
79 90 104
86 98 114
83 95 110
84 95 110
88 99 114
82 94 108
91 103 119
95 108 124
96 109 127
95 109 126
96 109 126
102 116 133
101 114 133
103 116 134
95 108 124
90 102 118
91 103 119
83 93 108
88 99 114
85 96 110
87 99 115
91 104 120
96 109 126
98 110 127
106 120 138
111 126 145
121 138 159
125 142 164
129 146 168
130 147 169
131 149 172
125 142 165
120 137 158
120 136 157
118 134 154
115 131 151
112 127 147
107 122 141
100 113 130
82 93 107
70 80 92
53 60 70
41 47 54
45 51 59
53 60 69
57 65 74
60 68 79
62 71 83
64 73 85
70 80 93
74 84 98
76 86 99
75 85 98
81 92 106
87 99 115
91 103 118
92 105 122
90 102 118
69 77 88
42 46 51
15 16 18
19 21 24
30 33 38
46 51 57
48 54 60
67 73 82
70 77 86
72 79 88
75 82 91
71 78 88
70 77 87
62 68 77
67 73 82
65 72 80
68 75 84
69 76 85
80 88 98
78 86 96
74 81 91
75 82 93
69 75 84
66 73 81
66 73 82
63 69 78
70 77 86
76 83 93
71 78 88
74 82 91
60 66 75
60 66 74
52 57 64
57 63 71
55 61 68
52 57 64
53 58 65
55 61 68
48 53 60
49 54 61
53 59 66
45 49 55
39 43 48
59 65 72
55 61 68
49 54 61
46 50 56
40 44 49
41 45 51
34 38 42
42 46 52
48 53 59
45 49 56
53 59 66
63 69 77
67 73 82
68 75 84
68 75 85
80 88 98
72 80 90
76 85 96
75 83 93
87 96 108
81 89 100
94 102 113
85 94 105
97 107 119
86 95 107
92 101 113
88 97 109
79 87 98
86 94 105
70 78 88
78 86 96
78 85 96
77 85 95
67 74 84
66 73 82
74 82 91
74 82 93
75 82 91
67 74 84
69 75 84
80 87 97
65 72 80
66 73 81
66 72 80
63 69 78
64 70 79
56 62 70
52 57 64
43 47 53
45 49 55
38 42 47
40 44 49
39 43 48
30 33 37
28 31 35
25 28 31
23 25 28
25 28 31
25 28 31
29 32 36
27 29 33
26 29 32
25 28 31
26 28 31
26 28 32
27 30 33
20 22 25
13 14 16
25 27 31
26 29 32
33 37 41
40 44 49
39 43 48
40 44 50
43 47 52
41 45 50
41 45 51
45 49 54
41 44 50
38 42 47
27 29 33
26 29 32
30 33 37
34 37 42
31 34 38
30 33 37
32 35 39
25 27 30
20 22 25
21 23 26
36 39 44
36 40 45
37 41 46
41 44 50
40 44 50
37 41 46
43 48 53
50 55 62
45 49 55
37 40 45
37 40 45
35 39 44
33 36 40
23 25 29
19 21 23
30 33 37
27 29 33
23 26 29
26 28 31
20 22 25
36 39 44
31 35 39
17 19 21
12 13 15
15 16 18
21 23 25
36 40 45
56 62 69
73 81 92
86 98 113
95 107 123
101 115 134
111 126 145
115 131 152
114 130 150
110 125 144
108 122 140
104 118 136
98 111 128
90 102 118
88 100 115
78 89 103
75 85 98
70 80 92
70 79 91
73 83 97
71 81 94
65 74 85
62 71 82
60 69 79
59 67 77
58 66 76
59 66 76
56 64 74
55 62 71
52 60 69
52 59 68
60 69 80
67 76 88
66 75 87
63 71 82
60 68 78
55 63 73
50 57 66
50 57 66
51 58 67
57 65 76
61 70 80
61 69 80
65 74 86
63 71 83
58 66 76
51 58 66
60 69 80
71 80 93
76 86 100
79 90 105
82 93 107
82 93 108
80 91 105
81 92 106
85 96 111
82 93 108
83 94 108
79 90 104
79 89 103
81 93 108
81 91 105
69 79 92
65 74 85
69 78 91
78 89 102
83 94 108
82 93 107
81 92 106
87 99 115
88 100 116
89 100 115
87 98 113
79 89 103
75 85 98
61 70 80
59 67 77
50 57 67
45 51 59
37 42 49
37 42 49
39 45 52
44 51 59
52 59 68
55 63 73
50 56 64
49 56 65
53 60 70
62 70 81
67 76 88
73 83 96
78 88 102
77 87 101
69 79 91
76 86 100
78 87 100
78 89 103
85 96 111
90 101 117
87 99 115
86 98 113
85 97 112
84 95 109
77 88 102
77 87 101
73 83 95
64 73 84
47 54 62
30 34 40
34 39 45
53 60 69
68 77 89
80 90 104
85 96 111
84 95 109
85 96 111
80 90 104
74 84 97
71 81 93
64 73 85
67 76 88
67 76 87
47 54 62
40 45 52
43 49 56
44 50 58
34 39 45
31 35 40
42 47 54
43 49 56
47 54 63
53 61 70
58 65 75
61 69 80
57 65 75
46 52 60
46 52 61
46 52 60
51 58 67
49 56 65
56 64 74
51 57 66
48 54 63
52 59 68
52 59 69
51 58 67
49 56 65
38 43 49
44 50 58
55 63 73
67 76 88
72 82 95
82 93 107
81 92 106
83 94 109
85 96 111
86 97 113
83 94 109
76 87 101
72 82 95
65 73 85
73 82 95
68 77 88
58 66 76
50 57 66
49 56 64
54 62 71
54 61 70
53 60 69
54 61 71
61 70 81
64 73 84
63 72 83
60 69 80
60 68 79
56 64 74
53 60 69
44 50 58
43 48 56
41 46 53
44 50 57
41 47 54
45 51 58
54 61 70
68 76 88
70 80 92
79 90 104
85 96 112
84 95 111
95 108 126
88 100 115
90 103 119
95 107 123
97 110 127
104 118 136
110 125 145
111 125 145
107 122 141
103 116 134
93 106 122
86 97 113
77 87 100
66 75 86
58 66 76
51 58 67
36 41 48
36 41 48
54 61 71
64 73 84
73 83 96
80 90 104
83 94 108
86 98 113
86 98 113
86 98 114
94 107 123
95 108 125
93 106 122
91 104 120
88 100 116
88 100 115
88 100 116
91 104 120
86 97 113
81 92 107
76 87 101
69 78 90
65 73 84
58 66 77
56 64 74
53 60 69
60 68 78
64 73 84
58 67 77
63 71 83
68 77 89
67 76 88
68 77 90
70 80 92
76 86 100
83 95 110
88 99 114
62 69 77
30 33 38
24 26 29
37 40 45
42 47 53
53 58 66
69 76 85
77 85 96
65 71 80
67 73 83
72 79 88
78 85 95
70 77 86
70 77 86
69 76 85
67 74 83
74 81 91
77 85 95
77 85 95
78 86 98
78 86 96
80 88 98
75 82 92
72 79 89
61 67 75
67 74 83
73 81 91
71 78 87
73 80 89
64 70 78
59 65 73
60 66 74
56 61 69
53 58 65
56 61 69
61 66 74
60 66 74
56 61 68
58 64 71
58 64 72
56 61 68
47 52 58
61 67 76
59 65 72
54 60 67
54 60 67
52 57 64
41 45 51
41 46 52
45 50 56
53 59 66
53 58 66
52 57 64
52 57 64
59 65 73
70 77 86
70 77 86
71 78 87
73 80 90
82 91 102
81 89 99
81 90 101
82 90 102
89 98 110
82 90 101
93 103 115
84 92 104
97 107 119
89 98 110
93 102 114
81 89 100
76 84 94
78 85 96
69 76 86
79 87 98
68 75 85
83 91 102
82 91 101
75 82 92
77 85 95
82 90 101
70 77 86
73 81 91
76 84 94
66 73 81
64 70 78
65 71 79
60 65 73
50 55 62
52 57 65
39 43 48
39 43 48
40 44 49
37 41 47
35 39 44
28 31 34
21 23 26
23 25 28
24 27 30
24 26 29
28 30 34
29 32 36
30 33 37
27 30 34
31 34 39
30 33 37
32 35 39
35 39 44
34 37 41
34 37 42
37 40 45
41 45 51
47 51 57
45 50 56
43 48 54
45 49 55
47 52 58
46 51 57
46 50 56
44 49 55
32 35 40
25 28 31
24 26 29
27 29 33
31 34 38
25 28 32
26 29 32
22 24 28
21 23 26
12 13 15
14 15 17
13 14 16
31 34 37
34 37 41
32 35 39
35 39 43
33 37 42
39 43 49
44 48 54
36 40 45
31 34 39
31 34 38
29 33 37
25 27 30
18 20 23
15 16 18
29 32 36
35 38 43
20 22 25
21 24 27
19 21 24
28 31 35
31 34 39
22 25 28
10 11 12
13 14 16
18 20 22
28 30 34
51 56 63
68 75 83
45 51 60
50 56 65
53 60 70
53 60 70
58 66 75
72 81 93
71 81 94
75 85 98
77 87 101
82 94 109
88 99 114
91 103 118
91 103 119
85 97 112
75 85 98
63 72 83
58 66 77
61 69 80
70 80 92
77 88 102
82 93 107
78 89 102
80 91 105
86 98 114
86 97 112
92 104 120
101 115 133
106 121 139
109 124 143
105 120 139
99 113 131
97 110 127
88 99 115
83 94 109
76 86 99
71 81 94
70 80 92
66 75 86
68 78 91
62 71 81
63 71 82
65 74 85
64 73 84
56 64 75
64 72 83
64 73 83
57 65 76
52 59 68
52 59 68
59 67 77
68 77 89
70 79 91
77 87 101
83 94 109
82 93 107
82 93 108
81 92 107
85 96 110
87 98 114
91 103 119
86 98 114
87 98 113
74 84 98
69 78 91
62 70 80
54 62 71
49 55 64
41 46 53
35 40 46
37 43 49
42 48 55
48 54 63
54 61 71
53 61 70
57 65 76
63 72 82
61 69 80
53 60 69
44 50 58
43 49 57
50 57 66
63 71 82
73 83 96
79 90 104
76 87 101
81 92 106
83 94 108
83 95 111
83 94 109
84 95 110
90 102 118
84 95 109
82 94 109
89 101 117
94 106 122
94 106 122
94 107 124
88 100 115
80 91 106
73 84 97
61 69 80
61 69 79
53 59 68
52 59 68
56 64 74
67 76 88
71 80 92
75 85 99
73 83 96
63 71 82
56 63 73
54 62 71
55 62 71
59 66 77
55 62 71
53 60 70
49 56 65
51 57 66
54 61 71
48 54 63
79 90 104
81 92 106
86 98 113
92 104 120
103 118 136
109 123 142
114 129 149
113 129 150
112 127 147
111 127 146
111 127 147
114 129 148
108 123 142
107 121 140
102 115 133
97 111 128
88 99 114
70 80 92
63 72 83
60 68 79
62 70 81
57 64 74
62 70 81
65 73 85
65 74 85
62 71 82
65 73 85
71 81 94
82 93 107
90 103 118
95 107 124
95 108 125
92 105 121
89 101 116
91 103 119
93 105 122
84 95 111
89 101 117
91 104 120
86 98 113
80 91 105
81 92 106
83 94 108
78 89 102
81 92 106
77 87 100
81 92 106
79 89 103
76 86 99
73 83 95
70 80 92
69 79 91
63 71 82
55 63 73
48 54 63
42 48 56
45 51 59
58 66 76
63 71 83
65 74 86
70 79 91
68 77 89
66 75 87
65 74 85
62 70 81
67 76 88
66 74 86
57 65 75
60 68 78
56 64 74
53 61 71
50 58 67
51 58 67
49 56 65
48 55 63
51 58 67
54 61 71
62 70 81
64 73 84
68 77 89
71 81 94
59 67 77
40 45 52
34 38 44
29 33 39
38 43 50
49 56 64
51 57 66
54 62 71
58 66 76
61 70 80
53 61 70
49 56 64
48 55 64
46 52 60
41 46 54
40 45 52
41 46 53
38 43 49
41 47 54
48 54 63
54 62 72
54 61 70
50 56 65
42 47 55
48 54 62
53 60 69
60 68 78
57 64 75
60 68 78
63 71 82
72 82 95
75 85 98
73 82 95
73 83 95
68 77 89
67 76 87
64 73 85
58 66 77
61 70 81
60 67 76
44 48 54
18 20 22
33 36 40
44 48 55
49 54 61
62 68 76
74 81 91
78 86 97
80 88 99
74 81 91
83 91 101
82 90 100
83 90 101
72 79 89
77 85 95
82 89 100
83 91 102
83 91 101
91 99 111
76 84 95
80 88 99
78 86 96
65 72 81
65 71 80
60 67 75
66 73 82
72 79 88
70 77 86
64 70 78
64 70 79
63 69 77
55 60 67
53 59 66
68 74 83
65 72 80
57 63 72
67 74 83
58 63 71
65 71 79
58 63 71
58 63 71
59 65 74
58 64 72
55 60 67
56 62 69
51 56 63
51 56 63
49 54 61
44 48 54
40 44 50
56 61 68
57 63 71
55 60 68
64 70 79
66 73 82
72 79 89
75 82 91
73 80 90
73 80 90
85 93 104
83 91 102
85 93 104
80 88 99
91 100 112
86 94 106
90 99 110
92 101 113
91 100 112
88 97 108
89 97 109
83 91 102
77 85 95
81 89 100
70 77 86
79 87 97
87 95 106
78 86 97
74 81 90
80 88 98
68 74 84
64 71 81
71 79 88
61 68 77
69 76 85
63 69 77
55 60 67
54 59 66
51 56 62
46 50 56
41 45 50
41 45 50
39 42 48
33 37 41
32 35 40
22 25 28
20 22 25
22 24 27
19 21 24
22 25 28
31 34 38
32 36 40
33 37 41
36 39 44
35 38 43
41 45 50
35 38 43
38 42 47
40 44 50
42 46 52
39 43 49
44 48 54
50 54 61
50 55 61
52 57 64
51 57 64
53 58 65
51 57 64
46 51 57
40 44 49
33 36 41
29 32 35
26 29 32
27 29 33
23 25 29
19 21 24
20 22 24
21 23 26
14 15 17
18 20 23
19 21 24
11 12 13
22 24 27
34 37 42
34 38 42
33 36 40
40 44 49
37 41 46
29 32 36
29 32 36
23 26 29
16 17 20
15 16 18
16 18 20
18 20 22
24 27 30
33 37 41
33 36 41
24 26 29
18 20 22
24 27 30
25 28 32
25 28 31
21 23 26
19 21 24
18 20 23
19 21 24
34 38 42
66 72 81
66 73 84
61 69 79
58 65 76
64 73 84
75 85 98
81 92 106
85 97 112
95 108 125
107 121 140
116 132 152
120 137 158
124 141 162
126 142 164
121 138 160
120 136 156
116 132 153
114 129 149
108 123 142
102 115 133
94 106 122
84 96 111
73 83 96
61 70 80
43 49 57
27 31 36
38 43 50
55 63 73
68 77 89
78 89 103
92 105 121
102 116 134
108 124 144
113 128 149
117 133 154
117 134 155
116 131 151
113 128 149
109 124 143
108 122 142
106 120 138
103 116 134
98 111 128
93 105 121
82 93 108
67 77 89
61 70 81
56 63 73
47 54 62
48 54 63
59 67 78
73 83 97
82 93 108
92 104 120
101 115 133
115 130 150
121 138 160
128 145 168
132 149 172
136 154 177
131 149 172
131 147 170
127 144 167
124 141 162
116 132 153
114 130 150
106 120 138
96 109 126
84 94 109
69 78 90
63 72 83
58 66 76
57 65 75
54 61 71
52 60 69
53 60 69
56 64 74
57 64 74
64 74 86
75 85 98
80 91 105
86 98 113
94 107 123
104 117 135
99 112 130
99 112 130
93 105 121
95 108 125
81 92 106
70 80 92
70 79 91
69 78 90
69 78 89
76 87 101
73 83 96
74 83 96
74 84 97
71 81 94
69 78 90
63 71 82
64 72 83
57 64 74
62 70 80
61 69 80
57 65 75
47 53 62
49 55 64
55 62 72
60 68 78
65 74 85
72 82 95
76 86 99
78 89 103
80 90 104
79 90 104
84 95 110
85 96 111
86 97 112
83 94 109
81 92 107
77 88 102
74 84 97
83 94 109
67 76 88
58 66 76
63 71 83
70 80 92
73 83 96
81 92 106
79 90 103
88 100 116
90 103 119
92 104 120
94 106 122
96 108 125
95 107 124
92 105 121
80 91 105
72 81 94
63 72 83
60 68 79
61 70 80
52 59 68
48 54 63
45 52 59
42 48 56
39 44 51
34 39 45
30 34 39
27 31 36
29 33 38
38 43 50
49 55 64
61 69 79
61 70 80
70 79 92
67 76 88
66 75 87
64 72 84
69 79 91
75 85 98
79 89 103
85 95 110
83 94 109
83 95 110
83 94 109
72 81 94
67 77 89
63 72 84
53 60 70
54 62 72
58 66 77
55 62 72
51 58 67
48 54 63
46 52 60
44 50 58
45 51 59
45 51 59
47 54 62
51 58 67
58 66 77
62 70 81
60 68 78
67 76 88
65 74 85
60 69 79
60 68 79
55 62 72
50 58 67
54 61 71
58 66 76
61 69 80
65 74 86
65 74 86
66 75 87
74 84 97
77 87 100
83 94 109
91 103 119
95 108 124
96 109 126
90 102 118
90 102 117
79 90 104
68 77 88
51 58 68
47 53 62
41 47 54
41 47 55
39 44 51
42 48 55
40 46 53
38 43 50
36 40 47
38 43 49
43 49 57
49 56 64
56 63 73
60 68 78
61 70 82
61 70 81
59 66 76
53 61 70
50 57 66
44 50 58
45 51 59
53 60 69
70 79 91
72 82 95
80 91 106
86 97 113
85 96 112
90 102 118
95 108 126
98 112 130
102 115 133
106 121 140
109 124 143
109 124 143
105 119 137
99 112 129
88 100 116
66 74 83
39 42 47
26 29 32
37 41 46
54 59 66
59 66 74
74 81 90
76 84 95
82 90 101
82 89 100
80 88 98
74 82 92
77 84 95
80 87 98
80 88 98
85 93 103
74 82 92
80 88 98
85 93 104
79 88 99
84 91 102
82 90 100
82 89 99
73 81 90
72 78 88
73 80 89
68 74 83
62 68 76
66 72 81
58 64 73
57 63 70
60 66 74
52 58 65
60 65 73
57 62 70
63 69 77
67 73 82
69 76 84
64 71 79
59 65 73
67 74 82
58 64 72
65 71 79
59 65 72
64 69 77
53 59 66
62 68 75
54 59 67
52 57 64
53 59 66
56 62 69
52 57 64
64 70 79
64 71 80
70 76 85
74 81 91
66 72 81
70 77 86
78 86 96
92 101 113
80 89 101
85 93 104
74 81 91
80 88 99
87 96 107
81 89 99
84 92 104
91 99 111
85 93 105
82 91 103
84 93 104
92 101 114
87 96 107
86 94 106
82 90 101
67 74 83
67 74 83
76 84 94
80 88 98
71 78 88
76 83 94
67 74 83
70 77 86
66 72 81
62 68 76
56 62 69
56 62 70
55 60 68
51 56 63
52 57 64
40 44 49
41 45 50
35 38 43
34 37 42
29 32 36
25 28 31
19 21 24
20 22 24
26 28 32
28 31 35
33 36 41
34 38 43
38 42 47
44 48 54
40 44 49
41 45 51
40 44 49
39 43 48
46 51 57
45 50 57
49 54 60
52 57 64
57 62 70
55 61 69
55 61 68
50 55 62
48 53 60
47 52 58
38 42 47
38 41 46
33 36 40
35 38 42
28 30 34
25 27 31
21 23 26
23 25 28
18 19 22
11 12 13
11 12 14
14 15 17
12 14 15
19 21 24
22 24 27
25 28 31
23 25 28
30 33 37
26 28 32
17 18 21
16 18 20
20 22 24
21 23 26
28 31 35
28 31 35
27 29 33
29 32 36
37 41 46
27 30 34
20 22 24
22 24 27
26 29 32
26 29 32
31 34 38
22 25 28
24 26 30
16 17 20
25 28 32
56 62 70
57 64 73
60 68 78
57 65 76
60 68 78
51 58 67
48 54 63
49 56 65
54 61 71
63 71 82
72 82 95
84 95 110
94 107 124
97 111 128
96 108 125
94 107 124
95 107 123
93 106 122
95 107 124
99 112 129
92 104 120
91 103 120
84 96 112
80 91 106
70 79 92
57 64 74
40 46 53
44 49 57
53 60 70
63 72 83
67 77 89
72 82 95
76 86 99
86 98 113
90 102 118
99 112 130
103 118 137
105 119 137
97 111 128
98 111 128
99 113 130
99 113 131
99 113 131
102 115 133
102 116 134
104 118 137
107 122 141
107 122 141
102 116 134
99 112 130
94 106 123
85 97 112
82 93 108
80 90 104
81 92 107
81 91 106
74 84 97
68 77 89
67 76 88
69 79 92
79 90 104
96 109 127
105 119 138
108 122 140
107 121 140
105 120 138
104 118 137
98 111 129
90 102 117
79 89 103
68 78 90
64 72 83
54 62 71
52 59 69
59 66 77
61 69 80
63 71 82
52 59 68
42 48 56
27 31 36
22 25 28
30 34 39
41 47 54
48 55 64
47 53 62
53 60 69
53 60 69
56 64 74
60 68 79
66 76 88
66 75 87
69 79 91
78 89 103
77 88 101
76 86 100
80 91 106
87 100 116
89 101 117
93 106 123
86 98 113
78 89 103
73 83 96
68 77 89
65 74 85
60 69 79
61 69 80
66 75 86
67 77 90
70 79 92
73 83 96
71 80 93
67 76 88
68 78 90
74 84 96
76 86 100
77 87 101
75 86 99
66 75 87
55 62 72
47 54 62
51 59 68
61 69 80
61 70 81
104 118 136
105 120 139
105 119 138
109 123 142
106 121 140
105 119 138
105 119 137
103 116 134
99 114 132
96 109 126
94 107 124
94 107 123
95 108 125
96 109 126
94 107 124
92 104 121
91 103 119
82 93 107
78 88 102
70 80 93
63 71 83
55 63 73
55 62 71
57 65 75
59 67 77
56 64 74
59 66 76
61 69 80
72 82 95
74 83 96
84 96 111
90 103 119
95 108 124
97 110 128
98 112 129
91 103 120
84 96 111
84 94 109
79 89 103
79 90 103
71 81 93
68 77 89
62 70 81
57 64 74
51 58 68
47 53 62
41 46 53
34 38 44
37 42 48
41 46 53
48 55 63
59 66 76
66 75 87
69 78 90
70 80 92
66 75 86
62 71 82
45 51 59
42 48 55
37 42 49
32 37 42
34 39 45
35 39 46
38 43 50
44 49 57
48 55 64
45 51 59
41 46 54
36 41 48
32 36 42
37 42 49
46 52 60
57 65 75
65 74 86
73 83 96
81 92 106
86 97 111
90 102 118
94 106 122
92 105 121
98 111 128
93 106 123
88 100 116
88 100 115
88 99 114
84 95 110
87 99 115
88 100 115
85 96 111
80 90 104
79 89 103
77 87 101
77 87 100
79 89 103
76 87 101
76 86 99
76 86 99
82 94 109
89 101 117
94 107 125
99 112 130
103 117 135
107 121 139
105 119 137
102 116 133
93 105 121
80 90 104
61 70 80
38 43 50
31 36 42
37 42 48
41 47 54
51 58 67
58 66 76
64 73 84
74 84 97
83 93 107
87 98 113
92 104 120
93 106 122
92 104 121
90 102 118
57 64 73
23 26 29
28 31 35
49 54 60
60 66 74
71 78 87
77 84 94
74 81 91
83 91 102
81 90 101
80 89 100
84 92 103
82 90 101
81 89 100
90 99 111
91 100 112
85 93 105
78 86 97
76 84 94
87 96 107
83 92 104
73 81 91
71 78 87
74 81 90
75 82 92
74 80 89
70 76 85
70 77 87
64 70 78
54 60 68
54 60 67
59 65 72
61 67 75
60 66 74
70 77 86
78 85 95
70 77 86
66 72 81
65 71 79
59 64 72
58 64 72
59 65 73
61 67 75
59 65 73
60 66 73
59 65 73
62 68 75
55 61 68
55 60 67
59 64 71
59 65 73
58 64 72
63 69 77
66 72 81
74 81 91
76 83 93
68 75 83
76 83 93
73 81 91
76 84 94
82 90 101
94 103 114
84 92 103
69 76 86
79 88 99
87 96 108
86 94 105
80 88 98
80 87 98
77 84 94
81 89 99
68 75 85
84 92 103
76 84 93
78 85 95
69 76 85
62 69 77
68 75 84
70 77 86
65 71 80
73 80 90
69 76 85
64 70 79
66 72 80
61 67 76
51 56 62
58 63 70
53 59 66
51 56 63
44 48 54
42 47 52
33 36 41
32 36 41
34 37 42
27 30 34
26 28 32
24 27 30
29 31 35
31 34 38
33 36 40
37 41 46
41 45 50
38 42 47
46 50 57
44 48 54
43 47 53
49 54 60
52 57 63
49 54 61
46 50 57
47 52 58
52 58 65
55 60 68
59 65 73
58 64 72
54 59 67
49 54 61
49 54 60
40 44 50
37 41 46
31 34 38
26 28 32
23 25 29
16 18 20
11 12 14
10 10 12
10 11 13
11 12 13
9 10 11
18 20 22
19 20 23
16 18 20
12 13 15
20 22 24
14 16 17
19 21 23
27 30 34
34 38 43
31 34 38
34 38 43
33 37 42
32 35 39
33 36 40
38 42 48
30 33 37
23 26 29
19 21 24
21 23 26
19 21 24
26 29 32
27 30 34
24 26 30
24 27 30
17 18 21
50 55 62
62 70 79
77 88 101
78 89 102
76 86 99
68 77 89
57 65 76
48 55 64
45 51 59
43 49 56
45 51 59
50 57 65
55 62 72
64 73 84
71 80 92
65 73 85
60 68 78
53 60 69
51 58 67
51 58 66
59 67 77
60 68 79
57 65 75
57 64 74
62 71 82
64 72 84
60 68 79
63 71 82
54 61 71
57 65 75
63 71 83
72 81 94
79 90 103
81 92 107
86 98 113
86 98 113
87 98 113
85 97 112
81 91 105
83 94 109
85 97 112
82 94 108
82 93 108
84 95 110
89 101 117
90 103 119
89 101 118
82 93 108
82 92 107
79 90 104
89 101 116
91 104 121
99 113 132
100 114 131
100 113 130
98 111 129
91 104 120
88 100 115
79 90 104
76 86 98
64 73 84
61 69 80
55 63 73
56 63 73
51 58 66
55 62 72
57 65 76
67 76 89
71 80 92
82 94 108
87 99 114
94 106 122
95 108 124
99 113 131
96 108 124
92 104 121
91 103 119
82 94 108
77 87 101
74 84 97
67 76 88
63 71 82
54 62 71
55 62 71
56 63 73
57 65 75
59 66 76
56 64 73
55 62 72
61 69 80
63 71 82
69 78 91
71 81 94
75 85 98
88 100 115
91 103 118
91 104 120
95 108 125
96 109 126
93 106 122
88 100 115
86 98 113
75 85 98
75 85 98
74 84 96
72 82 94
73 83 96
77 87 101
80 90 105
81 92 106
79 89 103
76 86 99
77 88 102
80 90 104
76 87 100
76 86 99
67 76 87
60 68 79
53 61 70
56 64 73
74 84 97
80 91 105
82 94 109
82 93 107
86 98 114
89 101 117
90 102 118
92 104 120
91 103 118
88 100 116
91 104 120
89 101 118
90 102 118
86 97 112
83 95 110
85 96 111
81 92 106
83 95 110
84 96 111
83 95 110
88 100 116
88 100 116
91 103 119
94 107 124
97 109 126
97 110 127
92 104 120
96 109 127
98 110 127
98 111 128
97 111 128
101 114 131
105 120 138
107 122 141
107 122 141
107 122 141
105 119 138
99 112 129
92 104 121
88 100 116
87 99 115
83 95 109
91 103 119
88 100 116
84 95 110
72 81 94
63 71 82
44 50 58
35 40 46
46 53 61
58 66 76
70 79 91
73 83 96
73 83 97
70 79 92
69 78 90
68 77 89
72 82 94
73 83 96
72 82 94
63 72 83
63 71 82
62 70 81
58 66 76
52 59 68
42 49 57
42 48 56
46 52 60
43 49 57
45 51 59
40 45 52
36 41 47
31 36 42
31 36 42
30 34 39
33 38 44
38 44 51
42 48 56
50 57 66
55 62 71
52 59 67
52 59 68
43 49 56
40 46 53
35 40 46
34 39 45
37 42 49
41 47 54
53 60 69
68 78 90
72 81 94
73 83 96
78 89 102
82 93 107
81 92 107
85 97 113
89 101 117
94 107 124
97 110 128
94 106 123
88 100 115
86 98 113
86 98 113
85 96 111
83 94 108
71 81 93
68 78 90
59 67 78
61 69 80
50 57 65
37 42 48
33 38 44
47 53 61
53 61 71
61 69 80
65 74 86
66 75 86
70 80 92
68 78 91
66 75 87
61 69 79
56 63 73
50 57 66
42 48 55
47 53 61
60 68 79
69 78 90
40 45 51
23 25 28
39 43 48
60 66 73
65 71 80
68 74 83
71 79 89
76 83 93
82 90 101
81 89 99
79 87 97
82 90 100
88 96 107
96 105 117
91 100 112
94 103 115
75 82 92
77 85 95
75 83 93
76 84 94
74 81 91
75 83 93
78 86 95
65 72 81
68 74 83
68 75 84
68 76 85
69 75 84
58 63 71
56 62 69
54 59 66
53 58 66
64 70 78
59 65 73
67 74 83
74 81 91
73 80 90
69 75 84
62 68 77
66 72 81
61 67 75
61 67 75
61 66 74
55 61 69
58 64 72
60 66 75
63 70 79
60 66 74
63 69 78
64 70 79
64 71 79
63 69 77
68 75 85
73 80 90
70 77 86
72 79 88
76 83 93
78 85 95
74 82 92
74 82 92
88 96 107
79 86 97
83 91 103
69 76 85
78 86 97
75 83 92
76 83 94
74 81 90
76 83 93
71 78 88
78 86 97
76 84 94
76 83 94
76 83 93
73 80 91
70 76 86
75 82 92
75 83 93
72 79 89
66 73 82
73 80 90
61 67 76
62 69 77
58 63 71
63 69 77
58 64 71
51 56 63
46 51 57
40 44 50
35 39 43
38 42 47
39 43 48
40 44 50
36 40 45
37 40 45
34 38 42
35 38 43
32 36 40
32 35 39
39 43 48
38 42 47
42 46 51
41 45 51
43 48 54
52 57 63
51 56 63
55 60 67
45 49 55
50 55 62
52 57 64
58 63 71
61 67 75
48 53 60
55 60 68
57 62 70
54 59 66
50 55 62
43 47 52
44 48 54
33 36 41
26 29 33
22 24 27
10 12 13
6 7 8
10 12 13
12 13 15
17 19 21
18 20 22
19 21 24
10 11 13
10 11 12
15 16 18
11 12 14
19 21 24
33 36 41
42 46 52
37 41 46
43 47 53
41 45 50
40 44 50
42 46 52
40 44 49
33 37 42
24 27 30
19 21 23
16 18 20
9 10 11
18 20 22
33 37 41
30 33 37
30 33 36
23 26 29
34 38 43
54 59 66
97 110 126
96 108 125
88 99 114
79 90 104
69 79 91
60 68 79
44 50 58
40 45 51
41 47 54
35 40 47
31 35 40
40 45 52
45 51 59
49 55 64
49 55 64
51 58 68
64 73 85
68 77 89
70 80 92
64 72 84
57 65 75
52 60 70
47 53 62
38 43 50
28 31 36
29 33 38
31 35 41
28 32 37
31 35 41
38 43 50
49 56 64
62 70 81
63 72 83
69 78 90
69 79 92
65 74 85
64 73 84
44 51 59
58 66 76
64 73 84
74 84 98
80 91 106
88 100 114
87 100 116
88 100 116
91 103 119
89 101 117
81 92 106
78 88 101
75 86 99
76 86 100
62 70 81
51 58 67
51 59 68
59 67 77
68 77 89
72 82 94
71 81 94
65 74 86
66 75 87
49 56 65
43 49 56
26 29 34
31 36 41
33 38 43
31 35 41
35 40 46
45 51 59
53 60 70
62 71 82
62 70 81
58 66 76
57 65 75
56 63 72
63 72 83
77 87 100
83 94 108
84 95 110
79 90 105
76 87 100
76 86 99
76 87 100
74 84 97
77 88 101
77 88 101
81 92 106
81 92 106
76 86 99
73 83 96
74 84 97
74 84 97
78 88 102
81 92 106
87 98 113
90 102 118
95 108 126
99 112 130
104 118 135
102 116 134
99 113 131
100 113 131
94 106 122
91 104 120
87 99 115
85 96 111
80 91 105
76 86 99
69 79 91
66 75 86
60 69 79
57 65 75
58 66 77
50 56 65
48 55 64
42 48 56
48 54 62
44 50 57
41 47 54
42 48 55
49 56 65
52 60 69
68 77 89
79 89 103
67 76 88
70 79 91
69 78 90
65 73 85
65 73 85
66 76 88
64 73 85
57 64 74
47 54 63
48 54 63
44 50 58
40 46 53
44 50 57
45 51 59
41 46 53
36 40 47
38 43 50
44 50 58
54 61 71
60 68 78
55 63 73
51 58 67
39 44 51
32 36 42
40 45 52
49 56 64
60 68 79
69 78 90
75 86 99
85 95 109
99 112 129
110 125 145
121 138 160
128 145 168
132 149 172
128 145 168
130 147 169
130 146 168
126 143 165
122 138 160
115 130 150
106 122 141
110 125 144
95 108 124
88 100 115
92 104 121
90 102 118
94 106 121
84 95 110
89 101 116
86 97 111
94 106 122
97 110 127
107 121 139
112 127 147
111 126 146
114 129 148
116 131 152
117 132 153
116 132 152
111 126 145
108 122 141
104 117 135
101 114 132
100 114 132
97 111 128
96 109 126
93 105 122
88 100 116
90 102 118
85 97 112
85 97 112
82 93 108
81 92 107
78 89 103
70 80 92
59 67 77
49 55 64
45 51 59
43 49 57
41 47 54
39 45 52
37 42 49
38 43 50
38 43 50
35 40 46
29 33 38
35 39 46
47 53 62
61 69 80
63 72 83
66 75 87
63 71 83
64 73 85
62 70 81
59 67 78
54 62 72
57 64 74
60 68 78
65 74 85
63 72 84
59 67 78
55 63 73
49 55 64
46 53 61
42 48 55
51 58 67
64 72 83
71 81 94
73 83 96
74 84 97
74 83 96
77 88 101
79 89 103
78 88 102
72 82 94
64 72 84
56 64 74
50 57 65
55 63 73
71 82 95
85 96 111
81 92 106
75 85 97
37 41 46
28 31 35
56 62 69
62 68 76
71 78 87
76 83 93
87 95 107
81 89 100
78 86 96
79 86 97
76 83 93
92 100 111
83 91 102
84 93 104
89 97 109
82 91 102
78 85 95
82 91 102
92 101 113
72 80 90
78 86 97
91 99 111
75 83 93
75 82 92
68 75 85
70 77 86
70 77 87
65 71 80
63 69 77
62 68 75
63 69 77
63 69 78
66 72 81
67 74 83
73 80 90
72 79 89
79 87 97
72 79 88
72 79 88
66 72 81
65 71 80
61 67 76
64 70 79
65 71 80
66 73 82
60 66 74
73 80 89
74 81 91
67 74 83
70 76 85
69 75 84
77 85 95
73 81 90
74 81 91
57 63 71
69 76 85
79 87 97
81 89 99
77 85 94
70 76 85
74 82 92
74 82 93
87 95 106
73 80 89
79 87 97
68 75 83
67 73 82
71 78 87
71 78 88
70 78 87
80 88 98
70 77 86
81 88 98
67 74 83
69 77 86
65 71 80
71 78 87
68 75 83
64 71 81
69 75 84
60 66 74
61 68 76
58 64 72
53 59 66
56 62 69
53 58 65
48 53 59
43 47 53
34 38 43
38 41 46
41 44 50
48 53 59
43 47 52
35 39 44
38 42 47
35 38 43
38 41 46
37 41 46
40 43 48
41 45 50
36 39 45
45 50 56
52 57 64
51 57 63
59 64 72
56 61 68
55 61 68
54 59 67
56 61 69
55 61 68
59 65 73
65 71 79
57 63 70
53 58 65
46 51 57
46 51 57
42 47 52
43 48 53
33 36 40
31 34 38
22 24 28
17 18 21
10 11 13
11 12 14
17 19 21
14 16 18
13 14 16
12 13 15
16 18 20
16 17 20
20 23 26
24 26 30
36 39 44
38 42 47
36 40 45
40 44 49
40 45 50
38 42 48
40 44 50
38 42 47
38 42 47
27 30 33
14 16 18
14 16 18
20 22 25
16 18 20
23 26 29
34 38 42
31 34 39
31 34 38
27 30 34
46 51 57
36 40 46
36 41 48
40 45 52
39 44 51
39 45 52
40 45 52
46 53 61
51 58 68
51 58 66
50 57 66
54 61 71
58 66 77
70 79 91
76 87 101
82 93 107
86 98 113
83 94 109
80 91 104
72 82 95
71 80 92
58 65 75
51 58 67
53 60 70
55 63 73
59 67 77
58 66 76
65 74 85
70 79 91
63 71 83
59 68 79
50 57 66
50 56 65
50 56 64
46 52 60
47 53 62
51 58 68
55 63 73
58 66 75
57 65 75
62 70 81
71 80 93
79 89 103
89 101 118
100 115 133
108 122 142
114 130 151
121 138 160
122 138 160
122 138 160
122 139 161
118 133 153
114 130 149
110 125 144
107 122 141
105 119 138
99 112 129
96 110 127
88 100 115
85 96 111
69 79 92
64 73 85
57 65 75
51 58 67
52 58 67
49 55 64
46 52 60
41 47 54
48 54 62
55 63 72
61 70 81
71 80 93
74 84 98
79 90 103
82 92 106
85 96 111
90 102 118
94 107 124
97 109 126
100 113 131
99 112 129
97 110 127
100 114 132
97 110 127
98 111 128
95 108 124
91 103 119
85 96 111
73 83 96
66 75 87
59 67 78
52 59 68
44 50 58
40 45 52
43 49 57
50 57 66
64 73 85
77 87 101
81 92 106
88 100 115
91 103 119
96 109 126
95 109 126
92 105 121
88 101 117
87 99 114
90 102 118
84 95 110
83 94 109
85 96 111
77 88 101
75 85 98
69 78 90
52 59 69
43 49 56
53 60 70
66 75 87
75 86 100
78 88 102
76 86 100
75 85 98
76 85 98
69 79 92
63 71 82
62 70 81
86 98 113
83 95 109
85 96 112
79 90 104
79 89 102
72 82 94
72 81 94
67 76 88
63 72 83
60 69 80
56 63 73
48 54 63
42 48 55
33 38 44
28 32 37
35 40 46
42 48 55
52 59 69
57 65 75
60 68 79
59 67 78
56 63 73
44 50 58
40 45 52
40 46 54
53 60 70
57 65 76
65 74 86
67 76 88
74 84 96
75 85 98
81 91 105
82 93 107
82 93 108
89 101 117
97 110 128
109 124 144
118 134 154
119 135 156
118 134 155
122 139 161
118 135 156
117 133 153
115 131 151
113 128 148
108 123 142
98 111 129
99 111 128
96 108 125
86 98 113
89 101 117
88 100 115
89 102 118
88 99 114
94 106 122
105 119 136
104 118 136
107 122 142
104 118 136
107 121 140
107 122 141
108 123 142
107 121 140
108 122 141
113 128 148
113 128 148
109 124 144
110 125 144
101 115 133
104 119 137
101 114 132
99 112 130
100 113 131
91 103 120
88 100 116
79 91 105
72 82 94
64 72 84
56 63 73
50 57 66
51 58 67
59 67 77
58 66 77
53 60 70
52 59 69
63 71 82
70 80 93
87 98 113
99 112 129
109 124 143
112 126 146
109 124 143
112 126 145
112 127 146
116 131 151
118 134 155
126 142 164
129 146 168
131 148 171
129 147 170
126 142 164
125 142 163
115 131 152
108 123 143
102 116 134
98 111 128
93 105 121
89 101 117
88 100 116
83 95 111
81 92 106
75 85 98
72 82 95
68 77 90
68 77 89
72 81 94
80 91 105
87 99 114
90 103 120
98 111 129
103 116 134
102 116 134
101 115 132
101 115 132
73 83 95
24 27 30
38 42 47
64 70 78
64 71 80
83 91 103
75 84 95
84 93 104
75 82 91
84 91 102
64 70 79
81 89 100
79 87 97
87 96 107
89 97 109
76 84 94
81 89 100
76 83 93
84 92 102
74 81 90
90 99 112
81 89 100
73 80 90
69 76 85
68 74 84
73 80 90
72 79 88
63 69 77
66 73 82
59 65 73
61 67 75
64 70 79
62 68 77
71 78 87
74 81 91
70 77 87
71 78 88
68 75 84
64 71 80
67 73 82
67 73 82
59 65 73
63 70 78
65 71 80
66 72 81
72 78 87
72 79 89
73 80 90
68 75 84
77 84 93
73 80 89
74 82 91
78 85 94
82 91 102
74 81 90
70 77 86
59 65 74
81 88 98
68 75 84
74 81 91
66 73 81
72 80 90
73 80 89
71 78 87
66 72 81
73 80 90
68 75 84
73 80 90
68 75 85
68 76 86
76 83 93
74 82 92
68 75 84
82 90 101
68 75 85
75 82 92
71 78 88
71 78 87
66 72 81
60 66 74
66 73 81
65 72 81
65 72 80
56 61 68
52 57 64
50 55 62
43 47 53
42 46 52
42 46 52
41 45 51
45 49 55
48 52 59
44 49 55
48 53 59
40 44 50
44 49 54
39 42 47
47 51 58
45 50 56
39 43 48
45 50 56
49 54 60
51 56 64
58 64 71
57 63 70
59 65 73
56 61 69
61 67 75
60 65 73
56 62 69
60 66 74
58 64 71
51 56 64
52 57 64
47 51 58
45 49 55
35 39 43
39 43 48
35 39 44
27 30 34
26 29 33
19 22 24
10 11 13
17 18 20
21 23 26
13 14 16
7 8 9
11 13 14
29 31 35
30 33 37
30 33 37
36 39 44
40 44 49
47 51 57
45 50 56
38 42 47
37 40 45
34 37 42
31 34 38
33 36 40
33 36 41
16 17 19
23 25 28
26 28 32
16 18 20
14 15 17
24 26 30
30 33 37
30 33 37
23 25 28
34 37 42
42 46 52
35 40 46
46 52 60
53 61 70
63 72 83
64 72 84
65 73 85
63 71 83
56 64 73
41 46 54
32 37 43
33 37 43
33 37 43
35 40 46
37 41 48
39 44 51
41 47 55
44 50 57
41 46 54
40 45 52
43 49 56
46 52 61
52 59 69
54 61 70
57 65 75
60 68 79
67 76 89
71 81 94
83 94 109
94 107 123
100 113 131
103 117 136
107 122 142
108 122 141
103 117 135
101 114 132
92 105 122
86 97 112
79 89 103
71 80 93
59 67 77
44 50 58
35 40 46
39 44 51
38 44 51
45 51 58
51 58 67
53 61 71
58 66 76
57 64 75
53 60 70
63 72 83
48 54 63
50 57 66
57 65 75
65 74 86
85 96 111
94 107 124
100 113 131
111 126 145
110 125 145
116 131 151
119 135 155
118 133 154
115 131 151
113 128 147
113 129 149
109 124 143
110 124 144
112 127 147
106 120 138
98 111 128
85 97 112
79 90 104
72 82 95
66 75 87
65 74 85
64 72 83
64 72 83
69 78 90
79 89 104
88 100 115
86 98 113
85 96 111
82 94 108
85 96 111
85 96 111
81 92 106
81 91 105
77 87 101
71 81 94
65 74 86
57 65 75
61 69 80
55 63 73
49 56 65
44 50 58
42 48 56
38 43 50
37 42 48
33 37 43
37 42 48
36 41 47
47 54 62
48 54 63
45 51 59
38 43 49
36 41 48
30 34 40
32 37 42
37 42 48
33 37 43
37 42 48
33 38 44
31 35 41
30 35 40
37 41 47
38 43 50
40 45 52
48 55 63
55 62 72
61 69 81
64 72 84
58 66 77
54 61 71
102 115 132
107 121 140
111 125 144
111 126 145
113 128 148
113 128 148
113 128 147
108 122 141
105 119 137
107 121 140
102 117 136
99 113 131
93 106 123
81 92 106
69 78 90
59 66 76
52 59 68
54 61 70
59 67 77
58 67 78
64 72 84
67 76 87
66 75 86
65 74 85
56 64 74
52 59 69
48 55 64
49 56 64
53 60 69
52 59 67
65 74 86
78 88 102
81 92 106
83 94 108
84 95 110
92 105 120
92 105 121
93 105 122
89 101 117
85 96 111
77 87 100
68 77 89
57 65 75
47 54 62
40 45 53
35 40 46
36 41 48
46 53 61
54 62 71
57 65 75
58 66 76
56 63 73
52 59 68
48 54 63
50 57 66
60 68 78
60 68 79
65 74 85
67 77 90
74 84 97
80 91 105
78 89 103
74 84 97
68 77 89
58 66 76
45 51 59
50 57 65
51 58 67
49 55 64
55 63 73
52 60 69
52 59 68
52 59 68
53 60 70
47 53 62
43 49 57
39 44 51
36 41 48
42 48 55
53 60 70
61 69 80
70 80 93
84 95 109
92 105 122
108 123 141
117 133 154
127 144 166
130 147 170
131 149 172
131 149 173
129 146 168
125 142 164
120 136 158
117 132 152
110 125 145
109 125 144
108 122 140
105 119 137
103 116 134
96 109 126
98 111 128
94 107 124
84 96 110
81 91 105
76 86 99
76 85 98
68 77 89
63 72 83
62 70 81
60 68 79
63 71 81
58 65 75
56 64 74
51 58 67
52 59 69
56 63 73
62 71 82
68 78 90
75 85 99
81 93 108
91 103 119
94 107 124
97 110 127
100 113 131
99 113 131
59 66 76
28 31 35
53 58 65
67 73 82
69 77 86
75 82 93
78 86 96
78 86 97
73 81 90
83 92 103
69 76 86
77 85 95
75 83 93
91 100 112
81 89 100
78 86 97
84 92 103
80 88 99
88 97 108
85 93 104
79 87 97
83 91 102
73 80 90
71 78 87
71 78 88
69 76 86
70 77 86
62 69 77
70 76 85
63 70 78
63 69 77
71 77 86
67 74 82
70 77 87
71 78 87
76 83 94
68 75 84
66 72 81
73 80 89
62 68 76
61 67 75
66 72 81
70 77 85
73 80 90
66 72 81
71 78 87
75 82 92
77 84 94
69 75 84
79 86 97
72 79 90
75 82 91
72 79 89
68 75 83
75 82 91
71 78 87
62 69 78
78 85 95
73 81 91
73 80 89
69 75 85
65 72 80
64 71 79
65 72 80
66 72 81
67 73 82
70 77 86
65 71 80
73 80 90
70 77 86
73 81 91
80 88 98
78 85 95
78 86 96
76 83 93
69 76 86
65 71 80
73 80 89
69 76 85
63 69 78
68 75 84
64 71 79
60 66 74
57 62 69
51 56 63
51 56 62
51 56 63
46 50 57
50 56 63
49 54 61
50 55 61
56 61 68
52 58 65
50 54 61
46 51 58
47 52 58
54 59 66
44 48 54
53 58 65
50 55 63
56 61 68
55 61 69
73 80 90
63 69 77
63 69 78
57 63 70
52 57 64
61 67 75
53 58 66
56 62 70
51 55 62
52 57 64
44 48 55
42 46 52
40 44 49
35 38 43
38 41 46
35 38 43
31 34 38
23 26 29
16 17 20
9 10 11
8 9 10
12 13 15
8 8 9
10 11 12
22 24 27
28 31 35
34 38 42
35 38 43
34 37 42
38 41 46
36 39 44
39 43 48
32 35 40
24 27 30
21 23 26
29 32 36
31 34 38
31 34 38
34 38 42
29 32 36
22 25 28
13 14 16
19 21 23
21 23 26
22 25 28
18 19 22
37 41 45
48 53 60
49 56 64
41 47 55
40 45 52
36 41 47
33 38 44
30 35 40
39 44 51
46 52 61
51 58 67
57 65 75
59 67 76
63 71 82
64 72 83
61 70 81
62 71 82
65 74 85
59 68 78
56 63 73
55 62 72
44 50 57
46 52 60
47 54 62
56 63 73
59 67 78
56 63 73
54 61 71
51 58 67
46 52 60
40 45 51
45 51 59
53 60 70
65 74 85
70 79 92
81 92 106
85 96 111
90 101 117
89 100 116
81 91 106
70 80 92
60 68 78
55 62 72
51 58 67
53 59 68
61 69 80
68 77 89
73 83 96
71 81 94
77 88 102
76 86 100
74 84 97
76 86 99
74 84 97
75 85 98
64 73 84
60 68 78
59 67 78
62 70 81
57 65 75
57 65 75
61 69 80
64 73 85
66 75 87
71 80 93
76 87 101
77 88 101
79 89 104
77 88 102
71 81 94
72 82 95
63 72 83
66 74 86
72 82 94
81 92 106
88 100 117
95 108 124
100 114 131
104 119 138
106 120 138
102 115 133
96 109 126
90 102 118
82 93 107
69 78 90
59 67 77
53 60 70
52 59 68
58 66 76
62 71 82
62 71 82
67 76 89
64 73 84
64 73 84
61 69 80
61 70 81
62 71 82
62 71 82
67 76 88
66 75 88
74 83 96
64 72 84
62 71 82
64 72 84
51 58 68
39 44 51
39 44 51
44 49 57
47 54 62
47 54 62
52 58 67
58 65 75
55 62 71
42 47 55
26 30 35
42 48 55
54 61 70
58 66 77
65 75 87
68 77 89
68 77 90
71 81 93
71 81 93
71 81 93
72 82 95
74 84 97
81 91 105
120 136 157
124 141 163
128 145 168
133 150 173
132 150 174
132 150 173
138 157 182
140 159 184
139 158 182
134 152 177
130 148 172
126 143 166
122 138 159
118 134 154
114 129 149
111 126 145
106 121 139
105 119 137
100 113 131
93 106 123
90 102 118
80 91 104
71 80 92
59 67 78
51 58 67
49 56 65
46 53 61
43 48 56
44 50 58
52 59 68
64 72 84
77 88 101
82 93 108
81 91 106
80 90 104
80 91 105
72 82 96
67 76 88
55 63 73
42 48 55
36 41 47
35 39 45
31 36 41
37 42 48
43 49 57
54 62 71
57 65 75
55 63 72
52 59 69
50 57 66
47 54 62
42 48 56
40 45 52
40 46 53
43 49 57
49 56 65
58 65 76
62 70 81
69 78 90
76 86 99
79 89 102
79 89 103
77 87 100
67 76 88
57 64 73
48 55 63
45 51 59
50 57 66
55 63 72
56 64 74
61 69 80
64 73 85
72 82 95
66 75 87
57 65 75
52 59 68
57 65 76
74 84 97
88 100 115
92 104 120
93 105 121
98 112 129
104 118 137
106 120 139
106 121 140
98 112 129
102 116 134
93 106 123
95 108 124
96 110 127
90 102 118
84 96 111
77 86 99
77 87 101
70 79 91
69 78 91
58 66 77
55 62 72
54 61 71
53 60 70
47 54 62
56 64 74
62 71 82
73 83 96
80 91 105
90 102 118
96 109 126
96 109 127
95 108 125
95 107 123
93 105 121
85 97 112
76 86 100
62 70 81
47 53 62
37 42 49
30 34 40
36 40 46
42 48 55
45 51 59
46 52 61
43 49 57
48 55 64
56 63 73
66 75 86
65 74 85
50 56 64
36 39 44
64 71 80
74 81 91
78 85 96
75 82 92
82 90 101
66 73 82
78 85 95
67 73 81
72 79 89
80 88 98
82 91 102
90 99 110
85 92 103
64 71 80
82 90 101
70 78 88
79 88 99
78 86 97
86 94 105
78 85 96
69 76 85
71 78 88
66 72 81
70 76 86
64 70 78
67 74 83
71 78 87
74 81 91
71 78 88
71 78 88
70 77 86
64 71 79
73 80 89
74 81 90
65 71 79
64 70 80
69 76 85
66 73 82
64 70 79
65 72 81
62 68 75
62 69 77
71 78 87
62 69 77
70 78 87
58 64 72
69 76 85
72 80 90
71 78 88
72 79 89
70 77 87
69 76 85
63 70 78
66 73 82
67 74 83
64 71 79
61 67 75
60 66 74
49 54 61
56 62 69
55 61 68
60 66 73
68 75 84
73 80 89
70 77 86
75 82 91
80 87 98
75 82 92
67 73 82
76 83 93
73 81 91
74 81 90
64 70 79
70 77 87
67 73 82
61 67 75
62 68 77
58 64 72
74 82 92
64 71 79
61 67 75
60 65 73
58 63 71
57 63 70
56 62 69
59 65 73
59 65 73
59 64 72
55 60 67
68 74 83
53 58 65
60 66 74
48 53 60
56 62 70
53 58 65
50 55 62
59 65 73
67 73 82
69 75 84
67 74 83
59 65 73
62 68 76
52 58 65
55 60 68
56 62 69
54 59 66
54 59 67
44 49 55
50 55 62
43 48 54
40 43 48
36 40 45
30 33 38
32 35 39
33 36 40
27 29 33
26 29 32
18 20 22
14 16 18
10 11 12
8 9 10
13 15 16
10 11 12
19 21 23
23 25 29
25 28 31
29 32 36
33 36 40
33 37 41
33 36 41
30 33 37
24 26 30
12 13 15
23 25 28
29 32 36
33 36 41
30 34 38
30 34 38
26 29 32
20 22 25
13 15 17
13 14 16
16 17 19
18 20 23
41 44 50
48 53 61
55 62 72
45 51 59
33 37 43
34 38 44
31 35 40
39 44 51
38 43 49
30 34 40
38 43 50
46 52 60
58 66 77
67 76 88
75 86 100
85 96 111
86 98 113
90 103 119
94 106 123
104 118 136
107 122 141
115 130 151
118 135 156
122 138 160
128 146 169
130 148 171
125 142 165
123 139 160
113 129 150
108 122 142
102 115 133
96 109 126
90 102 118
86 97 112
83 94 108
76 86 99
68 77 89
59 67 77
52 59 68
49 55 64
43 49 57
39 44 51
32 36 42
38 43 50
36 41 47
39 44 51
33 38 44
33 37 43
33 38 44
38 43 50
44 50 58
54 61 71
57 65 75
62 70 81
69 78 90
69 79 91
64 73 84
56 64 74
42 48 56
37 42 48
36 41 48
38 43 50
40 46 53
42 47 54
45 52 60
53 60 69
59 67 78
63 72 83
68 77 89
73 83 95
73 83 97
69 78 90
66 75 87
63 72 83
64 72 84
69 78 89
65 73 84
68 77 89
68 78 90
64 72 83
67 76 87
58 66 76
52 59 68
53 61 70
54 61 71
60 68 79
59 67 78
55 62 72
54 62 72
47 53 61
41 47 55
39 44 51
30 35 40
30 34 40
42 47 54
61 69 79
73 83 96
82 92 106
89 102 117
93 106 123
93 105 122
94 107 124
93 105 121
95 108 125
97 110 127
96 109 126
93 105 121
89 101 117
81 92 106
77 87 101
66 75 87
56 64 74
48 55 63
46 53 62
45 51 58
40 46 53
39 44 51
36 41 48
37 41 48
42 48 55
46 52 61
46 53 61
42 47 54
52 58 67
64 73 85
69 78 90
82 94 108
90 102 118
142 161 187
139 159 185
142 161 186
141 160 186
139 158 183
134 152 175
129 146 167
120 137 158
109 124 143
97 110 126
89 101 117
83 94 109
74 84 98
66 76 88
61 69 80
56 63 73
56 63 73
58 66 76
56 64 74
58 65 75
53 60 70
43 49 57
39 45 51
52 59 68
64 73 84
71 81 94
70 79 92
76 87 100
89 102 118
86 97 112
94 106 122
88 100 116
90 103 119
86 97 112
82 93 108
84 95 109
81 92 107
75 85 98
68 77 88
57 65 76
53 60 69
51 58 66
40 45 53
40 45 53
35 40 47
36 41 48
40 46 53
44 50 58
41 47 54
36 41 47
29 33 38
31 35 41
33 38 43
35 40 46
37 42 49
37 42 49
33 38 43
23 26 31
30 34 40
34 39 45
35 40 46
36 41 47
36 41 47
31 35 41
34 39 45
40 46 53
57 65 75
63 72 83
68 77 89
72 82 95
69 78 90
72 81 94
67 76 87
63 71 82
58 66 76
59 67 77
61 69 80
63 72 83
56 63 73
63 72 83
62 70 81
68 77 89
78 88 101
87 99 114
93 106 122
96 109 127
102 115 133
108 122 140
107 121 141
107 121 140
111 126 145
115 130 149
115 131 151
120 136 157
118 135 157
117 133 155
119 135 156
116 132 153
117 133 154
112 126 146
106 121 140
103 117 135
95 108 126
92 104 120
91 104 120
94 106 123
94 107 124
96 109 126
92 104 120
85 97 112
79 89 103
69 78 90
63 71 83
60 67 77
50 57 66
54 61 70
60 68 78
66 75 87
73 83 96
75 85 98
76 86 99
79 89 103
85 96 111
89 101 116
94 106 123
98 111 128
91 103 119
31 35 40
48 53 59
65 71 79
68 75 84
77 84 94
67 74 84
75 83 92
74 81 91
69 76 86
65 72 81
65 72 80
77 85 95
80 87 97
76 84 94
79 87 97
71 78 87
77 85 95
81 88 98
80 87 98
80 88 98
78 86 96
70 77 86
78 85 95
80 87 98
71 78 87
74 81 90
69 76 85
65 72 80
66 73 82
77 84 94
74 81 91
68 75 84
70 77 87
65 72 81
76 82 92
67 73 82
67 74 83
69 75 84
67 73 82
57 63 71
66 72 81
70 77 86
63 69 78
62 68 77
70 76 85
60 66 74
67 73 81
67 73 81
76 83 94
65 72 81
69 75 84
70 77 86
65 71 80
68 75 83
65 71 80
61 67 75
64 70 79
60 66 73
65 71 80
61 67 75
50 55 62
62 68 76
62 68 76
61 67 75
62 68 77
68 74 83
69 76 86
70 77 86
62 68 76
73 80 90
80 87 97
72 79 89
70 77 86
63 70 78
68 75 84
70 77 86
74 82 91
71 78 88
69 76 85
73 80 90
72 79 89
65 71 80
65 71 80
62 67 75
62 69 77
58 64 72
60 66 74
62 68 76
55 61 69
62 67 75
66 72 81
65 71 79
64 70 79
63 69 77
51 56 63
52 58 65
68 74 83
62 68 77
59 65 73
68 75 84
60 66 74
65 72 80
59 64 72
54 59 66
59 65 72
68 75 83
51 56 62
52 57 64
43 47 52
46 51 57
45 49 54
36 40 44
36 40 45
30 33 37
34 38 42
29 32 36
19 21 23
21 23 26
22 25 28
15 17 19
9 10 12
12 13 15
15 17 19
12 13 14
11 13 14
15 16 18
25 27 30
26 29 33
27 30 33
27 29 33
25 28 31
23 26 29
15 17 19
23 26 29
34 38 42
37 41 46
42 45 51
33 36 41
28 31 35
27 29 33
22 24 27
10 11 13
15 17 19
24 27 30
36 40 44
36 39 44
59 66 75
59 67 77
52 60 69
49 56 65
47 54 62
51 58 67
54 61 70
60 68 78
64 72 84
68 77 89
71 80 93
78 89 103
78 88 102
83 94 109
85 96 112
95 108 125
102 115 134
106 121 140
108 122 141
111 125 144
113 129 149
115 130 150
117 132 152
120 136 157
122 138 159
120 137 158
118 134 156
115 130 150
111 126 146
105 120 139
101 114 132
93 105 122
91 103 119
91 103 119
88 100 116
86 97 112
75 86 99
65 74 86
48 55 63
36 40 46
41 47 54
42 48 56
53 60 69
63 71 82
65 74 86
53 60 70
47 53 62
41 47 55
39 44 51
35 40 47
37 43 49
36 41 47
33 38 43
37 42 49
37 42 49
32 36 42
27 31 36
35 39 45
42 48 56
46 52 59
56 64 73
55 63 72
54 60 70
41 47 54
42 48 56
40 45 52
45 52 60
48 55 64
51 57 66
53 61 70
51 59 69
50 56 65
50 57 66
49 55 64
42 47 55
37 42 49
36 40 47
38 43 50
42 48 55
50 56 65
55 62 72
54 62 71
57 65 75
67 76 87
75 84 97
81 92 107
82 94 109
82 94 109
88 99 115
89 101 117
91 103 119
91 103 118
87 99 115
83 94 108
75 85 98
68 77 89
61 70 81
54 61 70
50 56 66
47 54 63
38 44 51
44 50 57
48 54 63
55 63 73
63 72 83
67 76 88
71 81 94
77 87 100
75 85 98
69 79 91
59 67 78
52 59 68
49 56 65
43 49 56
48 55 64
48 55 63
53 60 70
56 63 72
66 74 86
76 87 100
82 93 107
87 99 114
89 101 116
88 100 116
91 103 120
97 111 129
101 115 133
106 120 139
99 113 132
99 113 130
97 110 127
95 108 124
93 105 121
92 104 120
85 97 113
79 90 105
70 79 91
65 73 85
63 72 83
63 72 83
62 70 81
63 72 83
63 72 82
55 63 73
43 49 57
41 46 54
43 49 57
47 53 62
50 57 66
57 64 74
58 66 77
53 60 70
61 69 80
58 66 76
69 78 90
72 81 94
77 88 101
74 85 98
73 82 94
71 81 93
63 71 82
64 73 84
65 74 86
73 83 96
80 91 106
83 95 110
91 103 119
92 104 121
93 105 121
90 102 119
86 97 111
76 86 99
67 76 87
62 71 82
53 60 69
50 57 66
47 53 62
39 45 52
36 40 47
45 50 58
55 63 72
66 75 87
70 79 91
76 87 101
82 94 109
88 99 114
87 99 115
82 93 108
85 97 112
86 98 114
90 101 117
101 115 133
104 119 137
109 123 143
114 130 151
111 126 146
112 127 147
112 128 148
110 125 145
113 128 148
110 124 144
113 129 149
112 127 147
112 127 147
110 125 144
109 124 143
110 125 144
117 132 152
119 134 155
119 136 157
116 132 153
114 130 150
114 130 151
114 130 150
116 131 151
116 132 153
111 127 147
113 129 149
104 118 137
102 116 133
94 107 124
98 111 128
86 97 112
84 96 111
79 89 103
77 87 101
67 76 88
64 73 84
56 63 74
54 61 70
41 47 55
36 41 48
41 46 53
49 56 65
57 65 75
55 63 72
60 68 78
51 58 68
53 60 69
53 61 71
58 66 76
56 63 73
58 65 76
60 68 79
70 80 92
76 86 100
82 93 108
88 100 115
86 98 114
84 96 111
90 102 118
92 105 121
91 104 119
86 98 113
70 79 91
28 32 36
55 60 68
72 80 90
69 76 85
69 76 85
66 73 82
73 81 91
77 84 95
72 80 90
66 73 83
74 81 91
83 91 101
87 95 106
83 91 101
82 90 102
76 84 94
73 80 90
73 81 91
75 82 91
80 88 99
79 87 97
82 90 101
70 78 88
80 88 99
77 84 94
66 73 82
70 77 87
74 81 91
62 68 77
66 73 81
61 68 76
70 77 86
71 79 88
71 78 88
71 78 88
78 85 95
60 65 73
66 73 81
74 82 92
59 65 73
71 78 88
57 63 71
63 69 78
64 70 78
58 64 71
70 76 85
70 77 86
72 79 89
70 77 87
65 71 80
68 75 84
59 65 72
65 72 81
65 72 80
58 64 72
59 65 73
60 65 73
63 69 77
55 61 68
60 66 74
63 69 77
59 65 73
53 59 66
55 61 69
70 76 85
62 68 76
65 72 82
67 74 83
71 78 87
79 86 97
62 68 76
61 67 76
69 76 85
66 72 81
67 73 82
66 73 82
73 80 89
66 72 81
73 81 90
71 78 87
68 74 83
64 71 80
61 67 75
58 64 72
64 70 79
65 71 79
58 64 72
59 65 72
65 72 81
65 72 80
63 70 78
65 71 80
64 70 78
64 70 79
68 75 84
64 70 79
65 71 80
70 77 86
66 73 81
65 71 79
66 72 81
70 76 85
57 63 70
57 63 70
55 61 68
53 57 64
48 53 60
46 50 56
40 44 49
34 38 43
27 29 33
35 39 43
33 36 40
27 30 33
23 25 29
22 24 27
22 24 27
21 24 27
15 17 19
21 23 26
24 26 29
19 21 23
24 26 29
20 22 24
13 15 16
16 17 19
15 16 18
21 23 26
26 28 32
25 28 31
27 30 33
29 32 35
33 36 41
42 46 51
43 47 52
39 42 48
37 41 45
31 34 38
33 36 40
17 19 21
13 14 16
18 20 23
38 42 48
48 53 60
63 71 82
55 63 73
59 68 79
61 69 80
65 73 84
62 70 82
69 78 90
69 78 90
69 79 91
74 84 97
79 90 104
78 89 102
88 100 116
90 102 117
92 103 118
95 108 124
97 110 127
103 117 135
98 111 128
109 124 143
107 121 140
108 122 142
110 125 144
110 124 143
110 124 143
112 127 146
107 122 140
99 114 132
94 107 125
89 102 118
85 97 113
89 101 116
85 96 112
77 87 101
62 70 81
50 56 65
36 41 47
40 45 53
47 54 62
58 66 76
65 74 86
74 84 97
82 93 107
89 101 117
98 111 128
102 116 134
102 116 135
102 116 135
99 112 129
95 108 125
88 100 116
79 90 104
71 81 94
56 64 74
36 42 48
26 29 34
41 47 54
58 66 76
79 90 103
89 100 116
98 112 129
107 122 141
112 127 147
112 127 147
105 119 138
108 122 140
106 120 139
112 127 146
105 119 139
108 122 142
97 110 127
97 110 127
88 100 115
77 88 101
71 81 94
62 71 81
56 63 72
47 53 61
49 55 64
47 53 61
48 54 63
49 56 64
53 60 70
51 58 67
52 59 68
53 60 69
45 51 58
37 42 48
44 50 58
59 67 78
67 76 88
70 79 91
69 78 90
64 73 85
57 64 74
53 60 70
52 59 68
47 53 61
44 50 58
43 49 57
40 46 53
49 55 64
60 68 79
69 79 91
73 83 95
79 90 105
83 94 108
85 96 111
87 99 114
90 102 118
92 104 121
91 104 120
92 105 122
94 107 124
92 104 120
92 104 120
91 103 119
88 100 116
91 103 119
89 101 117
94 106 123
98 111 128
102 116 134
103 117 135
104 117 135
100 114 132
98 111 128
93 105 121
56 64 74
57 65 75
63 72 84
68 77 89
71 80 93
64 73 84
62 71 82
59 68 78
58 66 76
55 62 71
61 69 79
63 71 82
62 70 81
58 66 77
54 62 72
55 62 71
56 64 74
61 69 79
52 60 69
57 65 75
59 67 77
54 61 70
61 69 80
63 72 83
73 83 96
72 81 94
78 89 103
79 90 104
80 91 106
82 93 107
86 98 113
89 102 118
94 107 124
93 105 121
91 103 119
94 107 123
95 108 125
91 104 121
88 100 116
90 102 117
90 102 118
88 100 116
85 97 113
87 99 114
77 87 100
64 72 83
48 55 63
51 57 66
55 62 72
52 59 69
51 58 67
56 63 73
55 62 72
53 61 71
47 53 62
45 51 59
62 70 82
78 89 102
95 108 124
105 120 139
119 135 157
124 141 162
127 144 166
132 150 174
132 150 173
133 151 175
135 153 177
136 154 178
139 158 182
141 160 185
136 155 179
140 158 182
132 150 174
128 146 170
122 139 160
118 134 155
111 126 146
107 121 139
106 120 138
105 120 139
104 118 135
95 108 125
86 98 113
74 84 98
60 68 78
49 55 64
36 42 48
43 49 57
52 59 68
57 65 76
60 68 79
62 71 82
60 68 79
61 69 80
62 70 81
73 83 96
78 89 103
86 98 113
93 105 122
100 113 131
102 116 134
106 120 139
105 119 138
97 110 127
102 117 136
106 120 139
109 123 142
114 130 151
123 140 162
120 136 157
118 134 155
111 127 147
105 119 138
97 111 128
92 104 121
89 101 117
78 89 103
67 75 87
62 70 81
64 73 84
62 70 81
65 73 84
60 69 80
54 62 72
48 55 64
39 44 51
43 48 55
48 54 62
49 56 65
26 29 33
61 67 74
73 80 89
73 80 90
72 79 88
64 70 78
71 78 87
70 77 87
66 72 80
73 80 90
73 80 89
80 87 98
89 97 109
76 84 94
79 87 97
73 80 90
79 87 97
78 85 95
67 74 84
77 85 94
71 78 87
69 76 85
75 82 91
70 77 86
75 82 91
75 82 92
68 75 85
69 76 86
70 77 86
65 72 80
57 63 71
69 76 85
64 71 80
59 65 73
67 74 83
62 68 77
68 75 84
71 78 88
75 82 92
76 83 92
75 82 91
74 81 91
63 69 77
64 71 79
68 74 83
56 61 69
65 72 81
66 73 82
71 78 87
74 81 91
68 75 84
58 64 71
68 74 83
62 68 76
62 68 76
58 64 71
52 57 65
59 65 72
63 68 76
52 57 64
61 67 75
53 59 66
56 62 69
71 78 87
69 76 85
70 77 86
65 72 81
61 67 75
77 84 93
75 82 91
76 83 93
57 62 70
71 79 89
65 71 80
67 74 82
80 87 97
81 88 98
74 81 90
68 75 84
66 72 81
66 72 80
61 67 76
71 78 87
64 70 79
74 80 89
66 73 82
67 73 81
60 66 74
58 64 72
70 76 86
61 67 75
63 69 78
68 75 84
71 78 87
79 86 96
77 84 93
70 77 87
71 78 87
71 79 88
55 60 68
54 60 67
55 61 68
59 64 72
46 51 58
42 46 51
39 43 48
42 46 52
39 43 48
31 34 39
30 33 37
31 34 39
28 30 34
28 31 35
28 31 35
27 29 33
26 28 32
22 24 27
21 23 26
22 24 27
24 26 29
22 25 28
26 28 32
16 17 20
11 12 14
13 14 16
21 23 26
30 33 37
28 31 35
29 32 37
35 39 44
37 41 46
45 49 55
47 51 57
47 52 58
40 43 48
39 43 48
34 38 42
12 13 15
13 14 16
25 27 30
37 40 45
50 55 63
98 111 128
110 125 145
110 125 144
112 127 147
110 124 144
103 117 134
101 115 134
100 114 131
103 117 134
103 117 135
97 111 128
96 110 127
91 104 120
86 97 112
75 84 97
67 76 88
56 64 74
49 56 65
43 50 58
47 53 62
49 55 64
56 63 73
63 72 84
70 79 92
80 90 104
80 91 105
80 91 105
82 93 108
85 96 111
86 97 113
88 100 116
90 102 118
87 99 115
82 93 107
75 86 99
76 86 100
73 83 96
71 81 94
67 76 88
66 75 87
63 72 83
64 73 85
65 74 86
68 77 89
67 76 88
67 76 87
68 76 88
64 72 84
60 68 79
62 71 82
60 68 78
56 64 74
47 54 63
39 45 52
35 40 46
44 50 58
57 65 75
67 76 87
76 85 98
83 94 109
88 100 116
90 102 117
94 107 125
98 111 128
100 114 132
105 119 138
105 118 136
109 123 142
114 130 151
116 133 155
121 137 158
120 136 156
115 131 151
110 124 144
104 118 137
95 108 124
86 98 113
74 84 97
60 68 78
49 56 64
38 43 50
31 36 41
39 44 51
37 42 49
33 38 44
32 36 42
36 41 47
38 43 50
34 39 45
34 38 44
46 52 60
59 67 77
70 80 93
84 96 111
90 102 118
97 110 128
102 116 134
100 113 131
103 117 135
100 114 131
99 113 131
102 115 133
99 113 130
96 109 125
92 105 121
90 102 118
85 96 111
77 87 101
69 78 90
60 68 78
45 51 59
44 50 58
45 51 60
50 57 66
55 62 72
66 74 85
64 72 83
59 67 77
57 64 74
65 74 86
70 79 91
73 83 96
79 91 105
79 90 105
80 91 105
76 86 100
76 87 101
67 77 89
58 66 77
87 99 115
79 90 103
71 81 93
67 76 87
55 62 72
39 44 51
27 30 35
29 34 39
39 45 51
43 49 57
45 51 58
45 51 59
47 53 62
46 53 61
46 53 61
37 42 49
34 38 45
25 28 33
36 41 47
48 55 64
56 64 74
71 81 94
69 78 91
69 79 90
71 81 93
73 83 96
72 81 94
70 79 91
66 74 86
73 84 97
73 83 96
68 78 90
62 70 81
56 64 74
55 63 72
56 63 73
56 63 73
64 73 85
69 79 91
81 92 106
92 104 121
97 110 127
101 115 133
104 117 135
101 115 133
100 114 132
99 112 129
90 102 118
86 98 113
73 83 96
64 72 83
45 52 60
40 46 53
39 44 51
47 54 63
62 70 80
71 81 94
78 89 103
87 99 113
92 105 121
94 107 124
96 109 126
93 106 122
95 107 123
94 106 123
101 116 134
97 110 127
90 103 120
95 108 124
79 90 105
74 84 98
72 82 94
73 83 95
60 69 80
66 76 88
64 73 84
57 65 75
56 64 74
59 67 77
55 62 72
58 66 77
55 62 72
50 57 66
52 59 69
57 65 74
58 66 76
51 58 67
51 58 66
64 73 84
71 81 94
76 86 99
73 83 96
67 77 89
68 77 89
74 85 98
83 95 109
88 100 116
89 102 119
95 108 125
100 114 131
104 118 136
104 118 137
103 118 136
104 118 136
98 112 130
87 99 114
81 92 107
85 96 111
83 94 109
93 105 122
88 99 115
87 99 115
86 98 114
79 89 103
79 90 104
74 84 97
75 86 100
71 81 95
83 95 110
80 91 106
79 90 104
75 85 98
68 77 89
59 67 77
49 55 64
38 44 50
26 29 34
20 23 27
26 29 34
34 38 44
34 37 42
60 66 73
68 74 83
64 70 79
62 69 77
65 72 81
73 80 90
75 82 91
73 80 89
63 70 78
70 77 87
72 80 90
80 88 99
81 89 100
77 84 94
72 79 89
79 87 98
74 81 91
76 83 93
67 74 83
63 69 78
76 84 93
70 77 86
60 66 75
66 72 81
74 82 91
70 77 86
69 76 85
65 71 80
66 73 81
68 74 82
70 77 86
66 72 81
70 76 86
67 73 82
65 71 80
71 78 87
64 70 79
70 76 85
65 71 80
67 73 82
68 74 84
66 73 81
77 84 94
64 71 79
63 70 78
68 75 84
68 74 83
64 71 79
66 72 80
65 71 79
68 75 83
64 70 79
61 67 75
63 69 78
59 64 71
54 59 65
57 62 69
55 61 69
58 63 71
51 56 63
66 72 81
59 64 72
69 76 86
71 77 87
62 68 77
77 85 95
62 68 77
69 76 85
64 71 80
73 80 90
65 72 81
70 77 86
63 69 78
61 68 76
71 78 88
64 70 79
73 80 90
67 74 83
79 86 95
68 75 84
74 80 90
67 73 82
70 77 86
67 74 83
63 69 77
65 71 79
60 65 73
70 76 85
61 67 76
68 74 83
71 77 86
74 81 91
81 89 99
76 83 93
67 74 83
66 72 81
83 91 102
64 70 79
63 69 77
56 61 69
52 57 64
50 55 61
43 47 53
36 39 45
41 45 50
33 36 40
35 39 43
27 29 33
29 32 36
33 36 41
30 33 37
34 38 42
31 35 39
31 34 38
25 27 30
25 27 31
27 29 33
25 28 31
23 25 28
26 28 32
17 19 21
13 14 16
24 26 30
34 37 42
35 38 42
37 40 45
37 41 46
37 40 46
53 58 65
48 52 59
46 50 56
44 49 54
42 47 52
43 48 54
25 28 31
17 19 21
22 24 27
30 33 37
42 47 53
47 54 62
62 71 82
60 69 79
66 75 86
61 69 80
66 74 86
62 71 82
54 61 70
53 61 70
51 58 67
46 52 60
51 58 67
62 70 80
71 80 93
77 88 101
77 87 100
75 85 98
68 77 89
68 77 88
63 72 83
67 76 87
71 81 93
71 81 93
75 86 99
82 93 107
86 98 113
93 105 121
91 104 121
94 106 123
94 107 124
92 104 121
93 106 123
89 102 118
80 91 105
67 76 88
51 57 66
40 46 53
35 39 45
31 35 41
40 45 53
55 63 72
64 73 84
72 83 96
81 92 107
87 98 113
90 102 117
96 109 126
95 108 125
87 98 113
81 92 106
75 85 99
68 77 89
61 70 81
55 62 72
47 54 62
48 55 63
46 52 61
43 48 56
39 45 52
39 44 51
45 51 59
51 57 66
48 54 63
57 65 75
61 70 81
62 70 81
61 70 81
55 63 73
61 70 81
67 76 88
72 82 95
79 89 103
82 92 106
79 89 103
74 84 98
66 75 86
61 69 80
54 62 72
42 48 55
40 45 52
41 46 53
33 38 43
29 34 39
30 34 39
37 42 48
37 42 49
35 40 46
31 36 41
37 42 48
46 52 60
53 61 70
63 72 84
66 75 87
72 82 95
84 95 109
92 104 121
100 114 132
106 121 140
112 126 145
114 129 149
114 129 149
117 133 154
118 134 154
118 133 154
118 134 154
112 127 148
111 127 146
108 122 141
100 114 132
93 106 122
85 96 111
74 84 97
64 72 83
41 47 54
32 37 42
51 58 67
63 72 83
73 83 96
85 96 112
94 107 123
104 118 136
111 125 144
117 133 154
125 142 165
130 148 171
130 147 169
129 146 169
127 145 168
123 140 162
118 135 156
103 117 135
99 113 131
93 106 122
93 105 121
87 98 114
79 89 104
70 80 92
63 72 83
56 64 75
62 70 80
65 74 86
65 74 85
68 77 89
64 72 84
56 63 73
49 56 65
50 57 65
43 49 56
39 44 51
43 49 57
60 68 78
66 75 87
73 83 97
80 91 105
86 97 112
83 94 109
82 93 108
87 99 115
93 105 121
93 105 120
96 108 125
98 111 128
100 114 131
106 120 138
110 124 143
108 123 143
111 126 146
114 129 149
116 132 152
118 134 155
121 136 157
118 135 156
119 135 156
126 143 164
129 146 169
133 150 174
136 154 178
133 152 176
133 150 173
125 142 165
121 138 159
114 129 149
108 123 142
103 116 134
90 102 118
79 89 103
71 81 94
79 90 104
75 85 99
72 82 95
68 77 89
69 78 91
73 82 95
70 79 92
68 77 89
64 73 84
55 63 72
48 55 64
43 48 56
36 41 47
30 34 39
42 48 55
41 46 54
32 36 42
31 35 41
37 42 48
27 30 35
20 23 27
25 28 32
22 26 30
25 29 33
30 34 40
40 46 53
45 51 59
53 61 71
51 58 68
51 59 68
55 62 72
63 71 82
64 73 85
67 76 89
62 70 81
61 70 80
65 74 85
62 71 82
55 62 72
61 70 80
64 73 84
65 73 84
59 68 78
58 66 77
60 68 79
56 64 73
56 63 72
61 69 80
67 76 88
80 90 104
81 91 105
80 91 105
76 87 101
79 90 104
75 86 100
77 88 102
77 87 101
76 87 100
77 88 102
76 86 99
72 82 94
65 74 85
54 61 71
43 48 56
41 47 54
33 38 44
29 33 38
29 33 39
39 44 50
48 55 63
54 62 71
54 61 71
56 63 73
52 59 68
38 42 48
63 69 77
62 67 75
63 68 76
70 76 86
77 84 94
77 85 95
55 60 68
68 74 83
78 85 95
78 85 95
79 86 96
70 78 88
86 94 105
76 84 94
73 81 92
79 86 96
62 68 76
69 75 85
67 73 82
66 72 81
72 79 87
69 75 84
68 75 84
65 71 79
74 81 91
65 71 80
63 69 78
60 66 74
60 67 75
55 60 68
64 70 79
62 69 77
56 62 70
64 70 79
69 75 84
59 65 73
58 64 72
59 64 72
61 67 75
59 65 73
70 76 86
62 69 77
70 78 87
68 74 83
70 77 87
65 72 81
65 72 80
63 69 78
57 63 71
68 74 83
59 64 72
65 71 79
59 65 72
57 62 70
55 61 68
56 62 69
62 68 75
56 61 68
62 68 76
60 66 74
69 76 84
65 72 81
80 89 100
77 84 94
73 80 90
65 72 81
72 79 89
70 76 85
74 81 90
72 78 87
76 83 93
68 75 83
66 73 82
71 78 87
74 81 91
75 82 93
87 95 106
81 88 98
79 86 96
69 76 86
68 75 84
72 79 89
66 72 81
71 78 88
69 75 84
68 74 83
68 74 83
58 64 72
63 69 78
78 85 95
69 76 85
69 76 85
72 80 89
70 77 86
62 68 77
72 79 89
65 71 79
53 59 66
47 51 58
52 57 64
43 47 52
40 44 49
39 43 47
43 47 53
32 36 40
29 32 36
31 34 38
33 37 41
39 42 48
39 42 47
43 46 52
37 41 46
34 37 42
27 30 34
29 32 36
23 26 29
19 21 24
22 24 27
27 29 33
17 19 21
22 24 27
29 32 36
37 41 46
37 40 46
42 46 51
49 54 60
52 58 65
51 56 63
55 60 68
46 51 58
47 52 58
48 53 59
30 33 37
11 12 14
15 17 19
30 33 37
40 44 49
32 36 42
31 36 41
32 37 42
27 31 36
29 33 39
29 33 38
38 43 50
50 57 66
53 60 70
53 60 70
55 63 73
44 49 57
33 37 43
34 38 44
43 49 56
47 53 62
52 59 69
60 68 78
68 77 89
62 71 82
66 75 87
62 70 82
65 74 85
71 81 93
76 86 99
77 87 100
86 97 112
88 100 116
94 107 124
94 107 124
91 104 120
93 105 122
93 106 122
89 101 117
88 100 116
88 100 115
87 98 113
85 97 113
84 96 111
81 91 105
77 88 102
72 81 94
74 84 97
75 85 98
78 88 102
77 88 101
74 85 98
70 80 93
61 69 80
51 58 67
46 52 60
47 53 62
50 57 66
55 63 73
64 73 84
70 80 92
74 84 98
72 81 93
67 76 88
64 72 84
58 67 77
50 57 65
47 53 62
42 48 56
49 55 64
57 65 75
59 67 78
62 70 81
68 78 90
77 88 101
77 88 102
75 85 99
70 79 91
64 72 84
63 71 83
56 63 73
57 65 76
55 62 72
54 61 70
48 54 63
61 70 81
70 80 93
79 90 104
88 100 115
89 102 118
89 100 116
88 100 116
80 90 104
74 84 97
65 74 85
60 68 78
54 61 71
54 61 71
59 67 78
64 73 84
70 79 92
77 88 101
74 84 98
80 91 105
81 92 106
79 90 104
79 90 105
76 87 100
72 82 95
69 78 89
66 75 86
60 68 78
56 63 72
58 66 76
61 69 80
58 65 75
48 55 64
33 38 44
27 31 36
28 31 36
32 37 42
32 37 42
35 40 46
43 49 57
52 59 68
59 67 77
70 80 93
85 97 112
96 109 126
99 112 130
108 123 142
118 133 154
122 139 160
125 142 165
128 145 168
132 150 173
109 124 144
105 119 137
101 115 133
106 120 139
107 121 139
104 118 136
100 114 132
103 117 135
98 112 129
96 109 127
89 101 118
85 97 112
78 88 102
80 91 105
79 89 103
75 85 98
73 83 95
68 77 89
60 68 78
44 51 59
27 30 35
42 48 56
62 70 81
71 80 93
75 85 99
82 93 107
84 96 111
90 102 118
96 109 127
101 115 134
105 120 139
106 120 139
106 120 139
106 121 139
108 123 142
109 123 143
111 126 146
110 125 144
109 124 143
112 127 147
111 126 147
115 130 150
112 127 147
111 127 147
113 128 149
117 133 154
123 139 160
119 136 158
113 128 148
106 121 140
99 112 130
95 108 124
89 101 117
79 89 102
71 81 93
67 77 90
72 82 94
68 77 90
65 74 85
63 72 83
54 62 71
56 64 74
59 67 77
55 62 72
49 56 65
46 53 62
42 48 56
40 46 53
38 43 50
36 40 47
34 39 45
38 43 49
42 48 56
45 51 59
44 49 57
44 50 58
45 51 59
47 53 61
47 54 62
48 54 62
47 53 62
46 53 61
39 45 52
33 37 43
31 35 41
35 40 46
31 36 41
37 42 49
55 62 72
72 81 94
79 90 104
84 95 110
92 104 120
99 112 130
104 119 137
108 123 142
108 122 141
106 121 141
106 120 139
105 120 140
104 118 136
108 122 142
106 120 139
106 121 140
110 125 144
106 120 140
108 123 142
110 125 144
109 124 143
107 122 141
102 116 134
94 107 124
86 98 114
77 88 102
69 79 91
59 67 78
52 59 68
44 50 57
40 46 53
43 48 56
43 49 57
34 39 45
31 36 41
30 34 39
33 37 43
32 36 42
36 41 47
46 52 61
47 54 62
44 50 58
46 52 60
48 54 63
44 48 54
59 65 72
65 70 78
50 55 62
51 56 64
57 63 70
64 70 78
68 75 85
59 66 74
68 75 84
70 77 86
75 83 93
66 73 83
70 77 87
69 76 86
61 67 75
71 79 88
73 80 90
69 75 84
69 76 85
72 78 86
76 83 92
72 79 88
58 64 72
69 75 84
70 77 86
73 80 89
68 75 84
62 68 77
64 70 79
55 61 68
61 67 75
68 74 82
66 72 80
59 65 74
62 68 77
60 66 74
51 56 63
61 67 75
58 64 71
62 68 76
64 71 79
73 80 89
66 72 81
62 68 76
67 74 82
60 66 74
62 68 77
57 63 70
70 76 85
63 70 78
59 65 73
63 69 78
63 70 78
59 65 73
63 69 78
57 62 70
66 72 81
67 73 82
69 76 84
68 76 85
75 82 91
69 76 85
70 77 85
73 79 89
72 78 88
71 78 87
79 86 96
75 82 93
79 87 97
70 77 87
72 79 89
79 87 97
80 88 98
80 88 98
80 87 97
85 93 104
85 93 105
78 85 95
88 96 107
80 87 98
71 78 88
57 63 71
71 78 87
71 78 87
63 68 76
65 71 80
70 76 85
61 66 74
63 69 77
67 74 83
74 81 91
69 76 85
65 71 80
67 74 83
62 67 75
56 62 69
53 58 65
43 48 54
45 49 55
39 42 47
33 36 40
30 33 37
32 35 39
27 30 34
26 29 32
34 37 42
40 43 48
45 49 55
41 45 50
36 39 44
37 41 46
32 34 38
38 42 47
27 29 33
22 24 27
20 22 25
22 25 28
18 19 22
17 18 20
32 35 39
34 38 43
42 46 52
48 52 59
51 56 62
50 55 62
57 62 70
51 56 63
49 54 60
42 47 52
39 43 49
32 35 39
21 23 25
16 18 20
31 34 38
40 44 49
48 54 63
65 74 86
68 78 90
67 76 88
60 69 79
57 66 77
58 67 77
52 59 68
60 68 78
61 70 81
71 80 93
76 86 98
77 87 100
74 84 97
65 75 87
64 72 84
63 72 83
57 65 75
56 63 73
57 64 75
53 61 70
53 60 69
54 61 71
57 65 75
60 68 79
62 71 82
65 74 86
70 80 92
72 81 93
72 82 95
74 83 95
70 80 93
74 84 97
65 74 85
61 69 79
62 71 82
59 67 78
71 81 93
72 82 95
76 86 100
73 83 96
82 93 108
77 88 102
78 89 102
81 92 106
85 97 112
86 98 113
79 89 103
71 82 95
60 68 78
53 60 69
46 52 61
41 47 54
43 49 57
48 55 64
50 56 65
52 59 68
53 60 70
57 65 76
53 61 70
51 58 67
52 59 68
49 55 64
48 54 63
40 46 53
35 39 45
30 35 40
31 35 40
30 35 40
35 40 46
46 52 60
52 59 68
55 62 72
51 58 67
53 60 69
47 53 62
42 47 54
50 57 66
67 76 89
76 86 98
85 96 112
89 102 118
97 110 127
98 111 128
96 109 125
95 107 124
93 106 122
86 98 113
80 90 104
65 73 85
63 71 82
52 59 68
51 58 67
46 53 61
44 51 59
54 61 71
65 73 85
68 77 89
75 85 98
72 82 95
72 82 94
66 75 87
56 63 73
49 56 64
45 51 58
44 50 58
44 50 58
47 53 61
51 58 67
46 52 60
46 52 60
42 47 55
33 38 44
30 34 39
31 36 41
32 37 43
38 43 50
41 46 54
44 50 58
48 55 64
53 60 69
59 68 78
61 70 82
68 78 90
63 72 83
57 64 74
46 53 62
50 56 65
46 53 61
42 48 55
48 54 62
52 59 68
81 92 106
77 88 102
79 90 103
79 90 103
80 91 106
83 94 108
81 91 105
75 85 98
75 85 98
74 84 97
77 88 102
76 86 100
82 93 108
82 93 108
83 94 109
81 92 107
83 94 108
79 89 103
75 85 98
66 75 87
60 68 78
50 56 65
39 45 52
34 38 45
46 52 61
60 67 78
74 84 98
87 99 114
97 110 127
103 118 136
106 121 139
108 123 142
109 124 144
110 125 145
110 125 145
110 126 145
112 127 146
113 129 149
115 130 150
117 133 154
120 136 157
116 132 153
111 127 147
107 121 140
98 111 128
89 101 117
75 85 98
62 71 82
43 49 57
37 42 49
43 49 57
51 58 68
52 59 68
56 64 73
65 74 86
68 77 89
69 79 91
72 82 94
74 84 97
75 85 98
74 84 97
75 85 99
81 92 107
84 95 109
85 97 112
77 87 101
79 89 104
81 91 105
67 76 88
77 88 102
71 81 94
63 71 82
59 67 77
57 64 74
59 67 78
64 73 84
69 78 90
72 82 94
78 88 103
84 95 109
85 96 111
83 95 109
79 89 103
69 78 89
66 75 86
54 62 72
48 54 62
44 50 57
45 51 60
59 67 77
66 75 87
69 78 90
70 79 91
66 75 87
74 84 97
82 93 108
83 95 109
93 106 122
103 116 134
107 121 140
109 124 144
113 128 148
114 129 149
113 129 149
113 128 147
113 128 148
111 126 145
108 122 141
101 115 133
100 114 132
100 114 132
103 117 136
103 118 136
106 120 138
102 116 134
103 117 136
101 115 133
98 112 130
95 108 125
92 104 120
88 100 116
87 99 115
77 88 102
77 87 101
72 82 95
71 80 93
65 74 86
58 66 76
45 51 59
40 45 51
33 37 43
35 40 46
33 37 43
32 36 40
54 59 66
55 60 68
51 56 63
56 61 69
57 63 70
61 68 76
60 66 73
68 74 82
67 73 81
66 73 82
69 75 83
82 89 100
67 74 83
72 79 88
73 81 91
75 82 92
75 82 93
75 83 92
70 76 86
78 86 95
84 92 103
62 68 77
75 82 92
76 83 93
76 83 93
75 83 93
74 81 90
74 80 90
61 67 75
56 62 69
59 65 73
65 71 80
65 71 80
65 71 79
57 63 71
58 64 71
54 60 67
60 66 74
57 62 70
68 75 84
56 62 70
72 79 88
63 70 78
65 71 79
58 64 72
57 63 71
63 69 77
60 66 73
63 69 77
60 66 74
64 70 79
56 62 70
54 59 67
62 67 75
56 61 68
63 69 77
62 68 76
66 73 82
72 79 88
78 85 94
77 85 95
80 87 97
78 85 95
72 80 89
68 75 84
74 81 91
84 91 102
74 81 91
94 102 114
68 75 85
77 85 94
90 99 110
100 109 122
87 95 106
85 94 105
79 87 97
82 90 101
80 88 98
77 85 95
86 94 104
75 82 91
73 81 90
60 66 74
73 80 89
71 77 86
73 79 88
69 76 86
72 79 88
57 63 71
59 65 74
73 79 89
71 78 86
49 54 61
57 63 71
53 58 65
58 63 70
38 42 47
44 48 54
31 34 38
25 27 30
21 23 26
23 25 28
20 23 26
24 26 29
32 35 40
39 43 48
39 43 48
36 40 45
42 46 52
34 38 42
36 39 44
33 36 41
28 31 35
28 31 35
26 28 31
22 24 26
13 15 16
23 26 29
39 43 48
55 60 66
53 58 64
50 55 61
47 52 58
49 54 60
47 52 58
49 54 60
40 45 51
39 43 49
36 40 44
25 28 31
16 18 20
24 27 31
32 36 40
48 54 62
60 68 79
68 78 90
77 88 101
85 95 110
86 97 113
81 92 107
78 89 103
78 88 102
76 86 99
75 85 98
64 73 85
59 68 78
53 60 69
44 50 58
37 42 49
37 42 49
46 53 61
51 58 67
61 69 80
65 73 85
58 67 77
50 56 65
47 54 62
39 44 51
36 41 48
46 53 61
59 67 78
69 78 90
72 81 94
74 84 97
79 90 104
81 91 106
91 103 119
96 109 126
101 114 132
108 122 141
107 121 139
108 123 142
105 120 139
103 117 135
102 115 133
105 120 138
103 116 134
100 114 132
102 116 134
99 112 130
94 107 123
97 109 126
96 109 126
95 108 124
96 110 128
92 104 120
97 110 127
93 106 123
92 104 121
96 108 125
91 103 119
87 99 114
86 97 112
85 96 111
75 86 100
67 77 89
61 69 80
53 60 70
42 48 56
40 45 52
37 42 49
33 38 44
39 45 52
48 55 63
49 55 64
50 57 66
43 49 56
39 44 51
36 41 47
41 46 53
42 48 55
48 55 64
55 63 74
68 77 89
76 87 100
88 100 115
99 112 129
99 113 130
103 117 135
102 116 134
98 112 129
91 103 119
80 91 106
73 83 96
67 76 88
65 74 85
63 72 83
62 70 82
56 64 74
55 62 72
53 60 70
49 56 65
49 56 65
51 58 67
48 55 63
54 61 71
59 66 76
59 67 77
55 63 72
46 52 60
35 39 45
30 34 39
32 36 42
34 39 45
37 42 48
41 46 53
41 46 53
41 46 53
38 43 49
39 44 51
37 43 50
48 55 63
51 58 67
49 55 64
43 49 56
39 45 52
39 44 51
39 44 51
43 49 57
47 54 62
43 49 57
42 47 55
41 47 54
49 55 64
50 57 66
56 64 73
33 37 43
32 36 42
53 61 70
67 77 89
77 87 100
80 91 105
84 95 110
84 95 110
86 97 112
87 99 114
87 98 114
87 99 114
85 96 110
74 84 97
70 79 91
65 74 85
62 71 81
55 63 73
46 52 61
47 53 61
47 53 62
55 62 72
60 68 79
68 77 90
75 86 99
79 89 103
90 103 119
95 107 124
101 115 134
108 122 140
107 121 140
109 123 142
108 123 142
110 124 143
113 128 148
119 134 155
120 135 156
114 129 150
121 137 158
121 139 161
122 138 160
119 135 156
114 130 150
106 121 141
90 102 119
76 86 100
65 74 85
60 68 79
52 60 69
48 54 63
44 50 58
39 44 51
42 48 56
49 56 64
57 65 75
61 69 80
62 70 81
64 73 84
68 77 89
73 84 97
84 95 110
96 109 126
104 118 137
109 124 143
112 127 147
113 128 148
116 131 151
114 130 150
113 128 149
112 128 148
112 127 147
112 127 147
108 123 142
102 116 134
98 111 128
90 102 118
83 93 108
83 95 110
76 86 100
70 80 93
68 77 89
64 73 84
57 65 76
54 61 70
48 55 64
44 50 58
49 56 65
60 68 78
61 70 82
58 66 76
55 62 72
47 53 62
33 38 44
25 28 33
28 32 37
33 38 44
45 51 59
55 62 71
55 62 72
58 66 77
57 65 75
53 60 70
54 62 72
65 75 87
67 76 88
66 75 87
72 82 94
72 82 96
77 88 102
86 99 115
91 102 118
93 106 123
94 108 125
92 105 121
96 109 127
94 107 125
96 110 127
97 111 128
99 113 131
101 115 132
104 118 137
110 124 143
111 126 146
108 123 143
106 120 138
98 111 128
87 100 115
76 87 100
69 79 91
63 72 83
55 63 73
45 51 58
33 38 44
26 29 34
44 48 53
56 62 70
51 56 62
48 53 59
55 60 67
65 71 80
62 68 76
62 68 76
62 68 76
60 66 74
70 77 86
70 76 85
74 81 90
71 78 87
77 85 95
77 85 95
66 73 82
74 80 89
65 72 80
65 71 79
58 64 72
74 82 91
78 85 95
77 84 94
76 84 93
64 70 79
67 74 84
70 77 87
66 73 82
72 79 88
66 73 81
63 70 78
66 73 82
65 71 79
59 65 74
53 59 66
62 68 76
60 66 74
60 66 74
64 70 78
67 73 81
67 74 83
60 66 74
66 72 81
60 66 74
60 66 74
68 74 83
64 70 78
58 64 71
66 72 80
57 63 71
55 61 69
67 73 81
62 68 77
58 64 72
58 64 71
65 71 80
57 62 70
70 77 86
72 79 88
73 80 90
73 80 89
67 74 84
79 87 96
83 90 100
76 84 94
81 88 99
78 86 97
80 87 98
79 87 98
72 78 87
91 99 110
84 92 103
87 95 107
89 97 108
84 92 103
86 94 106
89 97 108
86 94 105
80 88 98
74 81 90
69 76 85
72 80 90
72 79 88
73 81 90
71 78 87
59 65 73
73 80 89
68 75 84
62 68 76
63 69 77
60 66 73
65 70 78
54 59 65
45 50 57
43 47 53
28 31 35
23 25 28
24 26 29
21 23 25
15 17 19
19 21 23
26 28 31
26 29 33
35 38 43
36 39 44
38 41 47
39 43 48
50 55 61
46 50 55
33 36 40
31 34 38
28 30 34
29 32 36
21 24 26
13 15 16
21 23 26
36 39 44
48 52 58
56 61 68
57 63 70
45 50 56
55 60 67
46 51 57
49 54 60
48 52 58
34 37 42
35 39 44
26 28 32
26 28 32
21 24 27
34 38 43
60 68 79
74 84 97
71 81 94
73 84 97
75 85 98
79 90 104
79 90 104
74 84 97
69 79 91
67 76 88
68 77 89
68 77 89
63 71 82
64 72 84
59 67 78
53 61 70
42 48 56
34 39 45
38 43 50
42 48 56
59 68 78
72 82 95
82 93 108
87 100 116
91 104 120
86 98 113
82 93 107
75 86 99
70 80 93
60 68 79
62 70 81
55 62 71
49 56 65
50 57 66
56 64 74
49 55 64
48 55 64
54 61 71
55 63 73
55 63 72
63 72 82
62 71 83
71 81 94
73 83 96
79 90 104
88 99 115
94 106 123
97 110 128
94 107 124
95 109 126
100 113 130
98 111 128
103 117 135
107 122 141
110 125 145
109 125 144
110 125 145
110 124 143
108 122 141
101 115 133
92 105 121
84 95 109
76 86 99
70 79 92
60 68 79
49 56 64
45 50 58
42 48 56
42 47 54
37 42 48
34 38 45
36 41 48
44 50 58
51 57 67
51 58 67
55 62 72
61 70 80
69 78 90
72 82 95
79 90 104
85 96 112
89 101 117
93 106 122
98 111 129
103 117 135
109 124 143
113 129 148
118 134 154
117 133 154
117 133 154
112 127 147
110 125 145
109 123 143
109 123 142
109 123 142
111 126 145
107 122 140
98 111 128
99 112 130
97 110 128
97 110 127
93 106 122
96 109 126
88 100 115
83 95 110
75 85 99
75 86 99
70 80 92
66 75 87
63 72 82
52 59 68
44 50 58
42 48 55
47 53 62
51 58 67
50 57 66
50 56 65
45 51 59
37 42 48
36 41 47
36 41 47
49 55 64
49 56 65
54 62 71
55 62 72
57 64 74
51 58 67
53 60 70
53 60 69
53 60 70
60 69 80
66 75 87
69 79 91
72 82 94
46 53 61
59 67 77
68 78 90
79 89 103
87 99 115
88 100 115
86 98 114
88 99 115
86 98 113
86 97 112
80 90 104
76 86 99
62 70 81
55 62 71
43 49 57
43 49 57
53 61 70
72 82 95
80 91 105
91 104 120
103 116 134
111 125 145
119 135 156
125 142 164
126 143 165
128 145 168
126 143 165
126 143 165
128 145 168
129 146 169
129 146 169
128 146 169
126 143 166
124 141 162
122 139 162
120 137 158
121 137 159
118 134 154
114 129 150
107 121 140
104 118 137
95 108 125
89 100 115
81 93 107
74 84 97
67 76 87
46 52 60
35 39 46
46 51 59
53 61 70
59 66 77
62 70 82
69 79 92
75 85 98
75 85 98
73 83 96
71 81 94
69 78 91
67 76 88
71 80 93
76 86 100
83 94 109
88 99 115
90 102 119
92 105 122
94 108 125
98 112 129
104 118 136
108 122 141
111 126 146
113 128 149
116 132 152
115 130 150
113 129 149
114 129 149
117 132 153
115 130 150
107 121 140
107 122 142
103 117 135
101 115 133
97 110 127
93 106 122
86 98 114
83 95 110
78 88 102
71 80 93
67 76 88
61 69 80
58 66 76
56 63 73
51 57 66
52 59 68
51 57 67
47 53 61
38 43 50
33 38 44
37 42 49
39 44 51
43 49 57
41 47 54
40 45 52
48 55 64
58 66 77
64 73 85
61 69 80
60 68 79
59 67 78
59 67 78
57 64 73
40 45 52
33 37 43
44 50 58
45 52 60
57 65 75
56 63 74
53 60 70
53 60 69
54 61 70
56 64 74
61 70 81
61 70 81
61 70 81
63 72 83
61 71 82
55 63 72
49 56 65
44 50 58
41 47 54
35 40 47
24 27 32
26 29 34
31 35 41
40 45 52
41 47 54
32 36 41
48 52 58
54 59 66
50 55 62
51 56 63
57 62 70
53 58 66
65 71 79
65 71 79
61 68 76
59 66 74
66 72 81
70 77 87
73 80 88
79 86 97
67 74 83
66 72 80
63 70 78
59 65 73
67 74 83
68 74 83
76 83 93
73 80 89
75 82 91
73 80 89
75 82 91
66 73 82
67 74 83
71 78 87
68 74 83
68 74 83
74 81 90
61 67 75
67 73 82
65 71 80
64 70 78
63 70 78
52 58 65
61 67 75
55 60 68
65 71 79
64 70 78
58 63 71
52 57 63
63 69 77
59 65 72
47 52 59
61 66 74
61 67 75
55 60 68
59 65 73
54 59 65
51 57 64
54 60 68
62 68 76
54 60 67
73 79 88
61 67 76
69 76 86
64 71 79
71 78 87
70 76 85
76 83 93
73 81 90
79 86 97
70 77 87
81 89 100
71 79 89
78 86 97
94 103 115
102 111 124
93 102 115
92 100 112
84 93 103
87 96 108
80 88 99
71 78 87
88 96 107
77 85 95
71 77 86
74 81 90
66 72 81
71 78 87
65 71 80
63 69 78
64 69 77
69 76 86
65 71 80
57 63 71
63 70 78
64 70 78
49 54 60
50 55 61
38 42 47
29 32 36
25 28 31
26 29 33
22 24 27
17 19 21
16 18 20
21 23 26
29 32 36
32 36 40
27 30 34
32 36 40
39 43 48
43 47 52
46 50 56
40 44 49
39 43 48
30 33 37
26 28 32
17 19 21
10 11 13
20 22 25
34 38 42
39 43 48
41 45 50
51 55 61
48 53 60
45 49 54
50 55 62
47 51 57
41 45 50
34 38 43
37 41 46
30 33 37
24 26 30
17 19 21
35 39 44
70 79 91
70 80 92
74 83 96
76 86 99
75 85 99
69 78 90
62 70 81
52 60 70
55 63 73
56 64 74
57 65 75
62 70 82
59 67 77
61 69 80
68 77 89
70 80 92
71 81 94
65 74 85
69 79 91
77 88 102
85 96 111
91 103 119
97 110 127
100 113 131
101 115 133
107 122 142
112 127 146
112 127 147
105 120 139
104 118 137
100 114 132
93 106 122
86 98 114
78 89 102
70 80 92
59 67 78
46 53 61
39 44 51
27 30 35
31 35 40
36 41 47
44 51 59
55 63 72
64 73 84
64 72 84
80 90 104
76 86 99
79 90 104
84 95 110
88 100 115
90 102 118
87 99 114
86 98 113
85 97 112
81 92 107
80 91 106
80 90 105
77 88 102
83 94 109
89 102 118
97 110 128
101 114 132
100 113 131
96 110 127
95 108 125
92 104 121
84 96 111
77 87 100
61 70 81
51 57 66
38 43 50
29 33 38
39 44 50
41 47 54
42 48 56
40 45 53
38 43 49
38 43 50
35 40 46
36 41 48
44 50 58
55 62 72
56 64 74
61 69 80
67 76 88
71 81 93
74 84 98
80 91 105
87 99 114
92 105 121
99 113 130
104 117 135
106 121 140
106 121 141
111 126 145
115 130 150
111 126 146
111 126 146
103 118 137
103 116 134
94 107 124
91 104 121
87 98 113
85 97 113
90 102 117
89 101 117
89 100 115
83 95 110
79 90 104
71 81 94
60 68 79
51 58 68
43 49 56
34 39 45
29 33 39
34 38 44
35 40 46
35 40 46
32 36 42
23 26 30
24 28 32
36 41 48
41 47 54
42 47 55
49 55 64
50 56 65
55 63 72
69 78 90
81 92 106
91 103 119
94 107 124
93 106 122
95 108 125
94 107 125
98 111 128
51 58 67
54 61 71
59 67 77
56 64 74
58 66 77
62 70 81
65 73 85
64 74 85
62 71 82
57 65 75
47 54 62
36 41 47
34 39 45
47 54 62
60 69 80
74 84 97
81 92 106
90 103 119
97 110 126
99 112 130
105 119 138
112 128 148
119 134 155
121 137 159
120 137 158
125 141 163
126 144 167
126 143 165
123 140 161
118 134 155
113 128 149
110 125 144
105 119 137
108 122 141
109 123 143
107 121 140
111 126 146
107 122 142
107 120 139
105 119 139
108 122 141
102 116 134
93 106 123
83 95 110
76 86 100
64 73 84
53 60 70
35 40 47
26 29 34
41 46 54
46 52 61
46 52 61
42 47 54
49 55 64
54 61 71
53 61 71
58 66 76
62 70 81
68 77 90
75 86 99
80 91 105
87 99 114
86 98 114
84 95 110
80 90 105
85 97 112
94 107 124
100 114 133
109 124 144
114 129 149
115 131 152
121 138 159
124 141 162
128 145 167
126 143 166
127 144 165
124 141 163
120 136 157
115 130 150
114 129 149
106 120 139
99 113 131
93 105 121
87 99 114
84 95 110
74 85 98
65 74 85
59 67 78
46 52 60
32 36 42
24 28 32
24 28 32
22 25 29
20 22 26
30 34 39
45 52 60
54 62 72
52 60 69
48 55 64
43 50 58
51 58 68
59 67 78
59 68 78
55 62 72
64 73 84
61 69 80
60 68 79
54 61 71
48 54 63
52 59 68
47 54 63
46 53 61
54 61 71
53 60 70
47 53 62
47 53 62
47 53 61
46 52 60
46 52 61
44 50 57
42 48 56
42 47 55
37 42 48
32 37 43
38 43 50
46 53 61
51 58 68
54 61 71
61 68 79
57 65 75
60 68 79
60 68 79
66 74 86
73 83 96
77 88 102
84 96 111
49 56 65
52 57 64
52 57 64
47 51 58
52 57 64
64 70 77
48 53 59
58 64 71
54 60 67
63 69 77
62 68 77
63 68 77
65 71 79
71 78 87
73 80 89
72 79 88
63 70 78
71 78 87
64 71 79
76 82 92
61 67 75
68 75 83
71 77 86
76 83 92
63 69 77
64 70 78
70 77 86
70 77 86
76 83 93
69 75 84
56 62 69
72 78 87
64 70 78
67 74 83
64 70 78
70 76 85
66 72 81
68 74 83
68 75 84
58 63 71
50 55 63
63 69 77
65 71 80
55 61 69
62 68 76
51 56 63
55 60 66
52 57 64
54 59 66
53 58 64
53 58 65
55 60 68
61 67 75
53 58 66
56 62 70
66 71 79
66 72 81
71 77 86
63 69 78
66 72 81
76 83 93
74 81 90
78 86 96
73 80 90
82 90 101
68 75 85
84 92 103
86 94 104
77 85 96
87 94 105
94 103 115
96 105 117
82 90 100
86 95 106
81 90 101
72 79 90
86 94 105
81 88 99
76 84 94
73 81 90
61 67 75
71 77 87
59 65 73
67 73 81
64 70 78
63 69 77
59 65 73
55 61 68
56 61 68
48 53 60
36 39 44
39 43 48
31 34 38
23 26 29
23 26 29
24 26 29
17 19 21
17 18 20
22 25 27
29 32 35
33 36 40
35 39 44
38 41 46
38 41 46
31 34 38
43 47 53
33 37 41
32 35 39
30 33 36
23 25 28
23 25 28
11 13 14
20 22 25
33 36 40
43 47 52
45 49 55
50 55 61
49 54 60
52 57 64
47 52 59
49 54 60
41 45 50
32 35 40
35 38 43
29 32 35
19 21 23
16 18 20
38 42 48
39 44 51
38 44 51
44 50 58
52 59 68
56 64 74
64 73 85
71 81 93
75 85 98
84 95 110
93 106 124
103 117 135
113 129 149
118 134 154
121 137 158
118 134 156
123 139 161
118 134 155
120 136 157
119 135 155
121 137 159
119 135 155
114 129 148
115 130 150
113 128 148
117 132 153
113 128 148
108 122 141
103 117 136
99 112 129
92 104 120
86 98 114
79 89 103
74 84 97
67 76 88
59 67 78
56 63 73
53 60 70
55 63 72
52 59 68
48 54 63
42 47 55
35 40 47
38 44 51
53 60 70
67 76 88
75 85 98
84 95 110
76 87 101
80 90 104
80 91 105
78 89 102
79 90 105
77 87 101
71 81 94
58 66 77
46 53 61
50 56 65
45 51 59
43 50 58
45 51 59
47 53 62
46 52 60
47 53 62
52 59 68
48 54 63
48 55 63
45 51 59
45 51 59
45 52 60
43 49 57
35 40 46
27 31 36
21 24 28
27 31 36
32 36 41
31 36 42
23 27 31
30 34 40
37 42 48
39 45 52
37 42 49
32 37 42
30 34 39
31 35 40
33 37 43
29 33 38
32 37 43
38 43 50
39 44 51
44 50 58
47 53 61
51 58 67
54 61 71
51 58 67
47 54 62
50 56 65
48 54 62
49 56 65
52 60 69
54 61 70
59 67 77
56 64 74
52 59 69
49 56 65
37 42 49
35 40 46
42 48 56
54 62 71
58 66 77
63 71 83
58 66 76
49 56 65
39 45 52
29 33 38
26 29 33
24 28 32
32 36 41
46 52 60
46 52 60
52 59 68
57 65 75
64 72 83
62 71 82
67 77 89
67 76 88
64 73 84
65 74 86
67 76 88
70 80 92
72 82 95
74 83 96
79 90 104
81 92 107
83 94 108
84 96 112
88 100 115
41 46 54
42 48 56
44 50 58
43 50 58
45 51 59
48 54 62
48 55 63
54 62 72
56 63 73
57 65 75
60 68 79
56 63 73
53 61 70
45 51 60
42 47 55
45 52 60
60 68 79
74 84 97
83 94 109
87 99 115
89 101 118
93 106 122
99 111 128
100 114 131
102 116 134
106 121 139
110 125 145
111 126 145
110 126 147
110 125 145
108 123 143
106 120 139
102 116 134
102 115 133
99 113 131
101 115 133
106 121 140
110 125 145
112 127 147
115 130 151
116 131 152
109 124 144
109 123 143
100 114 131
95 109 126
91 104 120
80 91 105
74 85 98
70 80 93
68 77 88
60 68 78
55 62 72
43 49 57
37 42 49
36 41 47
41 46 53
49 56 65
59 67 77
63 71 82
62 71 82
68 78 90
73 82 95
77 87 100
86 97 112
90 103 119
94 107 124
93 106 124
98 111 128
100 113 131
101 115 133
99 113 131
96 110 128
100 114 131
104 118 135
100 114 132
95 108 125
89 101 117
85 96 111
80 91 106
78 89 103
80 91 105
77 87 101
72 82 96
74 84 97
69 79 92
65 74 85
56 64 74
48 54 63
44 49 57
41 46 54
44 50 57
44 50 58
44 50 58
36 41 48
36 41 48
37 42 49
41 47 54
41 47 54
50 57 66
62 70 81
70 79 92
69 79 91
66 74 86
64 73 84
60 68 78
57 65 74
46 53 61
48 55 63
49 57 66
58 66 76
67 76 87
73 84 97
77 88 102
81 92 106
84 95 109
85 97 113
88 100 115
85 97 112
82 93 107
79 90 104
78 88 102
73 83 96
67 76 88
56 63 73
44 50 58
29 34 39
27 31 35
37 42 48
51 58 68
71 80 93
79 90 104
94 107 123
102 116 134
104 119 137
110 124 143
118 134 155
119 135 156
79 89 102
41 46 52
46 50 56
50 55 62
48 53 59
56 62 69
57 63 71
54 59 65
58 64 72
65 72 80
71 78 87
70 76 85
65 71 79
70 76 85
62 68 76
70 77 86
64 71 79
69 76 84
63 69 78
68 74 82
69 75 84
64 70 79
69 76 85
70 76 84
68 75 84
66 72 81
62 68 76
52 57 64
62 69 77
61 67 75
57 63 70
62 69 77
65 71 80
57 62 69
51 57 64
65 71 79
64 70 78
64 70 79
65 71 79
63 69 77
65 71 79
54 60 68
59 65 73
54 59 66
56 62 69
49 54 60
52 57 64
53 58 65
57 62 69
52 57 63
55 60 68
46 51 57
53 58 66
54 59 66
64 70 78
58 64 71
60 66 74
71 77 86
72 78 87
75 82 91
69 76 86
70 77 86
71 78 87
89 98 109
79 87 98
88 96 107
88 97 108
92 101 113
68 75 85
76 84 94
86 94 105
97 106 118
84 92 103
79 87 97
81 89 99
82 90 100
80 88 98
68 75 84
72 79 88
74 81 90
69 76 85
58 64 71
63 69 77
57 63 71
59 65 72
67 73 82
63 69 78
60 65 73
45 49 55
34 38 43
32 36 40
29 32 36
23 25 28
22 24 27
22 24 27
15 16 18
21 23 26
25 28 31
34 38 42
34 38 42
37 40 44
37 41 45
35 39 44
39 42 47
35 38 42
26 28 32
32 36 40
23 26 29
19 21 23
12 13 15
15 16 18
24 26 29
32 36 40
42 46 51
41 46 51
42 47 52
46 51 57
52 57 63
50 55 61
43 47 52
28 31 35
33 36 41
17 19 21
14 16 18
21 23 25
44 49 56
78 88 102
89 102 118
98 112 129
104 118 137
107 122 141
107 122 140
103 117 136
105 119 137
102 117 136
99 113 130
105 119 138
109 124 143
111 127 147
116 132 153
117 133 154
121 137 159
126 143 166
126 143 166
133 151 176
142 161 186
142 162 188
139 160 186
142 162 187
134 152 175
136 154 178
134 153 177
132 151 175
128 146 170
125 142 164
119 136 157
111 126 146
103 116 134
92 105 121
77 88 101
68 77 89
60 68 78
49 57 66
44 50 58
32 37 43
32 36 42
38 42 49
41 47 54
39 44 51
34 39 46
33 38 44
38 43 49
41 46 54
46 52 61
46 53 61
47 53 61
52 59 68
50 57 66
43 49 57
37 42 48
39 44 51
40 46 53
38 43 49
30 34 40
29 34 39
32 36 42
36 41 48
47 53 61
43 49 57
43 49 57
42 47 54
33 38 44
37 42 49
44 50 58
49 56 64
44 50 58
53 60 70
49 56 65
51 58 67
50 56 65
42 48 55
47 53 61
50 57 66
52 59 68
51 58 67
59 67 77
59 67 78
63 71 83
65 74 86
62 70 82
60 68 79
59 67 77
55 63 73
52 60 69
43 49 57
33 37 43
33 37 43
37 42 49
31 36 42
22 25 30
23 26 30
23 26 30
28 32 37
32 37 43
40 45 52
40 45 52
33 38 44
37 42 49
40 45 52
41 47 54
42 48 55
36 41 47
35 40 46
39 44 51
43 49 56
51 58 68
57 65 75
61 69 80
64 72 83
63 72 83
63 72 83
65 74 86
61 69 80
60 69 79
51 57 67
52 59 69
48 54 63
39 45 52
36 41 47
34 39 45
30 34 39
29 34 39
39 45 52
48 55 63
57 65 75
60 68 79
54 61 71
55 63 72
52 59 68
57 65 76
62 70 81
70 79 91
82 93 107
45 51 59
42 48 55
41 46 53
47 54 62
54 61 70
65 74 85
73 82 94
79 90 103
84 95 109
82 93 108
79 90 104
73 84 97
65 74 86
52 59 68
37 42 49
35 39 46
41 46 53
38 43 50
40 46 53
42 48 56
53 60 70
63 71 82
71 81 94
82 92 106
85 97 111
90 102 119
92 105 122
94 107 124
99 112 130
98 112 130
104 118 136
106 120 139
108 122 140
109 124 143
111 126 146
114 129 149
115 130 151
120 136 158
125 140 161
123 140 161
120 137 158
120 137 158
115 131 152
114 129 149
109 124 143
103 116 135
100 113 131
92 105 121
87 99 114
86 98 113
76 87 100
71 81 93
68 77 89
68 77 89
68 76 88
66 75 87
66 75 87
60 67 78
51 58 67
39 44 51
25 28 33
43 49 56
56 64 73
72 82 95
84 95 110
96 109 125
104 119 138
112 128 148
115 131 152
116 132 152
113 128 148
113 127 147
110 126 146
108 124 143
102 117 135
93 106 122
82 94 109
71 80 93
58 65 76
47 54 62
41 47 54
36 41 48
42 48 55
43 49 56
37 42 48
39 44 51
46 52 61
52 59 68
52 60 70
52 59 69
48 55 64
50 56 65
48 54 63
44 50 58
44 50 58
55 62 72
70 79 91
79 90 104
83 94 109
87 98 113
86 97 113
81 92 107
76 86 100
74 85 98
73 83 96
71 81 94
71 80 92
68 77 89
71 81 93
73 83 97
80 90 104
83 94 109
85 96 111
83 94 109
83 94 109
80 91 105
79 90 104
84 95 110
85 96 111
81 93 108
80 91 106
74 85 98
72 82 95
64 73 85
51 58 68
33 38 44
30 34 39
47 54 63
64 73 84
80 91 106
93 106 122
97 111 128
99 113 130
102 116 133
103 117 136
104 119 138
105 120 139
106 121 140
71 80 93
46 51 57
45 49 55
53 58 64
47 52 58
50 55 61
54 59 66
57 62 70
44 49 56
61 67 75
55 60 68
56 61 68
64 71 79
57 62 70
52 58 65
63 69 77
60 66 75
65 71 80
70 77 86
70 77 86
55 60 67
65 72 81
63 69 77
56 62 69
69 76 85
62 68 76
61 67 76
57 63 71
59 64 72
57 63 70
62 68 76
59 65 72
57 63 71
60 66 74
61 67 75
51 56 63
50 55 62
56 62 69
55 60 66
60 66 74
53 58 65
47 52 58
55 61 68
51 56 63
46 51 57
48 53 59
48 53 59
45 49 55
52 57 63
51 56 63
57 63 70
61 67 75
58 64 71
56 62 69
65 71 79
59 65 73
59 65 73
64 70 78
65 72 80
71 78 87
71 78 87
75 82 92
70 77 87
71 77 86
85 93 105
80 88 99
78 85 95
93 101 112
76 83 93
84 92 103
76 84 94
77 85 95
89 98 109
74 82 92
81 88 99
76 83 93
69 76 85
85 93 104
72 78 87
68 75 84
69 75 84
66 73 81
57 63 71
60 66 73
61 67 74
52 56 63
46 50 56
42 46 51
38 42 47
36 39 43
26 28 32
25 28 31
30 33 36
23 26 29
24 27 30
32 35 39
32 35 39
30 33 37
38 41 46
32 35 40
36 39 44
31 34 38
31 34 38
25 27 31
23 25 28
24 26 30
19 20 23
10 11 13
9 10 11
25 28 31
29 32 36
35 39 43
41 45 51
40 44 50
50 54 61
50 55 61
50 54 60
44 48 54
36 40 44
25 28 31
14 16 17
13 14 16
25 27 30
49 55 63
43 49 57
48 55 64
60 68 78
68 77 89
76 86 100
78 89 103
92 105 121
89 101 117
87 99 114
95 107 124
99 113 131
101 115 133
111 125 143
109 122 140
113 129 149
121 137 158
114 130 151
116 131 151
110 125 144
107 122 142
110 125 145
112 127 146
111 127 147
113 128 149
112 128 149
111 126 144
107 122 141
104 118 136
107 121 140
105 119 137
105 120 139
100 114 132
95 108 126
85 97 112
77 87 100
68 78 90
64 73 84
60 68 78
52 60 69
45 51 59
38 43 50
35 40 47
40 45 52
38 43 50
38 44 51
37 42 49
33 38 44
40 45 52
43 49 56
48 55 63
56 64 74
57 65 75
51 59 68
44 51 59
32 37 43
29 34 39
29 33 39
45 51 59
54 61 71
64 73 84
71 81 94
78 89 103
82 93 107
85 96 111
79 89 103
74 84 97
75 84 97
74 84 97
78 89 104
80 91 105
79 90 104
75 85 98
76 86 100
74 83 96
72 82 95
70 79 91
64 73 85
65 74 85
64 72 84
61 70 81
59 67 78
52 59 68
51 58 67
55 63 72
56 63 73
62 70 81
63 72 83
65 74 85
64 73 84
55 62 72
43 49 57
43 49 56
50 56 65
55 62 72
60 69 79
63 71 82
60 68 79
49 56 65
39 44 51
31 35 41
32 36 42
32 36 42
35 40 46
45 51 60
58 66 76
67 76 88
79 90 104
82 93 109
82 94 108
74 84 97
66 75 87
57 65 76
50 57 66
52 59 68
52 59 68
54 62 71
53 60 69
56 64 75
52 59 68
49 55 64
52 59 69
55 62 72
52 59 69
42 48 55
36 41 47
44 50 58
56 63 73
69 78 91
77 88 102
83 95 110
85 96 110
80 92 106
80 90 104
76 87 101
57 65 75
58 66 77
51 58 67
47 54 62
53 60 69
52 59 69
46 53 61
43 49 57
44 50 58
45 51 59
51 58 67
57 65 75
71 80 92
83 95 110
84 95 110
83 94 109
80 91 105
77 88 101
74 84 97
66 75 86
56 63 73
44 51 58
37 42 49
33 37 43
36 41 47
44 49 57
47 53 61
43 49 56
44 50 57
45 51 59
41 46 53
44 50 58
51 57 66
52 59 68
54 61 71
45 51 59
43 49 57
45 51 59
44 50 58
49 56 64
55 62 72
63 72 84
75 86 99
78 89 103
78 89 102
81 92 106
77 88 102
78 88 102
72 82 95
66 75 87
59 67 77
58 65 75
61 69 79
61 69 80
61 70 81
65 74 85
59 67 77
58 66 75
56 64 74
49 56 65
55 62 72
54 62 71
52 60 69
57 65 75
72 82 95
86 97 112
92 105 122
100 113 131
108 122 141
111 126 146
114 129 149
111 127 148
109 123 143
104 118 136
94 106 123
83 94 109
76 87 100
69 78 90
58 66 77
36 41 48
36 41 48
46 53 61
58 65 75
64 72 83
66 75 87
64 73 85
61 69 80
51 57 66
39 45 52
34 38 44
35 40 46
34 39 45
34 38 44
32 37 43
27 31 35
32 37 43
50 57 66
61 70 81
69 78 90
78 88 102
85 96 111
91 104 120
94 106 123
94 108 125
97 111 129
97 110 127
93 105 121
92 104 120
95 108 125
97 109 126
97 110 127
95 109 127
101 114 132
103 116 135
101 114 132
103 117 136
102 116 134
99 113 130
94 107 124
95 107 124
92 105 121
90 102 118
95 107 124
98 111 129
97 110 128
93 106 123
94 106 122
87 99 115
78 90 104
59 67 77
53 60 69
47 54 62
49 55 64
54 61 71
53 61 70
54 62 72
57 64 75
51 58 67
59 67 77
61 69 79
62 71 83
70 79 91
74 84 97
59 66 76
46 51 57
40 44 50
53 57 64
52 57 63
54 59 66
55 60 67
58 64 71
58 64 71
57 63 71
55 60 67
58 63 70
54 59 66
64 69 77
62 68 76
63 69 77
56 62 70
61 66 74
57 63 71
64 70 79
62 68 76
50 56 63
65 72 80
70 76 84
60 67 76
68 74 82
55 61 68
57 63 70
54 59 66
55 60 67
55 61 68
63 69 77
57 62 69
51 56 62
54 59 66
49 54 61
57 62 70
50 55 61
50 55 61
47 52 58
48 52 59
54 59 66
51 56 62
52 57 64
47 52 58
44 49 55
42 47 53
46 51 57
49 54 60
55 60 67
57 63 70
41 46 51
66 73 81
62 68 76
61 67 75
71 78 86
69 76 85
73 80 89
60 66 75
76 83 93
74 81 90
70 77 86
80 88 98
66 73 82
72 78 88
76 84 95
76 84 94
81 88 98
74 81 91
71 79 88
79 86 96
61 68 77
76 82 92
75 82 92
78 85 95
69 76 86
76 82 91
67 73 82
63 70 78
70 76 85
61 67 75
62 68 76
56 61 69
49 53 60
43 48 54
40 43 48
37 41 46
34 38 42
32 35 39
29 32 35
28 31 35
37 40 45
31 34 38
27 30 34
29 31 35
36 40 44
35 38 43
37 40 45
33 36 40
34 38 42
34 37 41
23 26 29
18 20 23
20 21 24
16 17 19
14 16 17
12 13 15
21 23 26
34 37 42
37 40 44
39 42 47
43 47 53
48 54 61
46 51 57
52 56 63
40 43 48
30 33 38
24 27 30
13 14 16
19 21 24
29 32 36
88 99 114
95 108 125
85 96 111
81 92 106
76 86 100
68 77 89
58 66 76
51 58 68
47 53 62
44 50 58
44 50 57
48 55 64
49 56 65
57 65 75
56 64 75
57 65 75
60 68 79
66 75 87
64 73 84
58 66 77
60 68 78
62 71 82
65 73 84
65 74 85
62 70 81
71 81 94
70 79 91
59 68 79
56 64 74
47 53 62
42 48 55
44 50 57
48 55 64
45 51 60
54 61 71
59 67 78
66 75 87
69 77 89
74 84 96
70 80 92
75 85 97
62 70 81
53 60 69
43 49 57
46 53 61
39 44 51
38 43 50
36 42 48
30 34 40
24 28 32
21 24 27
28 31 37
31 35 41
26 30 35
21 24 28
26 29 34
44 50 57
53 60 70
58 66 76
61 70 81
74 84 97
85 97 112
95 108 125
102 117 136
108 123 141
110 125 145
108 123 143
107 122 141
101 115 133
97 111 129
97 111 128
95 107 124
90 102 117
84 96 112
79 90 104
74 84 97
70 79 92
70 80 92
76 86 100
78 88 103
82 93 108
82 94 109
79 90 105
75 85 98
71 81 94
67 77 89
67 76 88
66 75 87
64 73 84
60 69 79
64 73 85
69 78 90
72 82 95
78 88 101
78 88 102
77 87 100
72 82 95
70 79 92
64 73 84
56 64 74
56 64 74
59 66 77
65 74 85
74 84 98
81 92 106
83 95 109
89 101 116
90 102 119
95 107 124
98 111 129
98 112 130
95 109 126
89 101 117
86 98 113
81 92 106
74 85 98
70 80 92
66 75 86
68 77 89
67 76 88
66 75 87
63 72 83
57 65 75
52 59 68
51 58 67
49 56 64
50 56 64
55 62 72
64 72 84
66 75 86
71 80 93
78 88 102
74 84 97
76 86 99
72 82 95
66 75 87
62 70 82
54 61 71
44 50 58
38 43 49
43 48 55
44 50 57
56 64 74
70 80 92
83 94 109
88 100 115
95 108 125
100 113 131
104 119 138
110 125 145
112 127 147
111 126 146
109 124 143
104 119 138
102 116 134
101 115 133
98 111 128
90 102 117
76 87 100
62 71 82
48 54 63
44 50 58
46 52 60
49 56 64
51 58 67
52 59 68
50 57 66
49 56 65
56 63 73
57 65 75
51 59 68
38 43 50
38 43 50
44 50 57
51 58 67
54 61 71
58 65 76
64 73 85
65 74 86
57 65 75
43 49 57
37 42 48
35 39 45
40 46 53
53 60 70
53 60 70
49 56 65
43 49 57
41 47 54
44 49 57
49 56 65
58 66 76
60 68 78
62 70 82
62 70 81
62 70 81
61 70 81
60 68 79
62 70 80
64 73 85
71 81 94
73 84 97
83 95 109
84 96 111
84 95 110
88 100 115
91 104 121
87 99 116
86 98 113
82 94 109
77 87 101
73 83 96
72 81 94
75 85 98
67 76 89
60 67 78
47 54 62
37 42 49
38 43 50
44 50 58
49 56 64
48 54 63
49 55 64
51 57 66
46 52 61
36 41 48
37 42 49
38 44 50
37 42 49
35 40 47
43 49 57
49 55 64
48 54 63
56 64 74
59 67 78
61 70 81
74 84 96
71 81 93
76 86 99
76 86 100
65 73 85
69 78 91
64 73 85
65 74 85
66 76 88
62 70 81
70 79 92
76 86 99
80 91 105
84 96 111
88 101 117
94 107 123
99 113 130
98 111 129
100 114 132
102 116 134
101 115 132
101 115 132
103 117 135
105 119 138
107 121 140
102 116 133
96 110 128
93 106 123
89 101 117
90 103 120
84 95 110
82 93 107
84 95 111
83 94 109
78 90 104
75 85 99
73 83 96
67 77 89
59 67 78
48 55 63
40 45 52
41 47 54
52 59 69
62 70 80
70 80 92
47 53 61
41 45 50
54 59 66
49 54 60
42 46 52
49 53 60
50 54 61
54 59 65
47 52 58
52 57 64
55 60 67
54 59 66
60 65 73
62 68 76
59 64 71
53 59 66
56 61 68
56 62 69
60 66 73
53 58 65
51 56 63
60 66 73
62 68 75
57 62 70
55 61 68
54 59 66
51 56 63
53 58 64
49 54 60
46 50 56
49 54 60
48 53 59
47 52 59
49 53 60
53 57 64
45 49 55
39 43 49
37 41 46
37 40 45
46 51 57
41 46 51
43 47 52
41 45 50
35 39 43
42 46 52
44 49 55
51 56 63
46 51 57
49 54 61
54 59 66
48 53 60
56 61 69
58 64 72
55 60 67
57 63 71
60 66 74
63 69 78
71 78 86
74 81 90
65 72 80
81 88 98
64 70 79
81 88 99
76 83 94
77 84 93
71 78 87
58 64 73
78 85 95
65 71 80
77 84 93
73 80 89
79 86 97
70 76 85
75 82 91
76 83 92
71 78 86
67 73 81
65 71 80
55 60 68
54 60 67
48 52 59
40 44 50
33 37 41
29 32 36
28 30 34
30 33 37
31 34 38
31 34 38
31 34 39
42 46 51
33 36 40
40 44 49
37 40 45
42 46 52
42 46 52
38 42 47
36 40 45
38 42 47
26 28 32
25 28 31
19 20 23
14 16 18
11 12 13
19 20 23
26 29 32
30 33 37
32 35 40
40 44 49
46 50 56
45 49 55
44 48 54
45 49 55
42 46 52
34 38 43
24 26 29
14 16 18
26 28 32
49 55 63
93 105 122
103 116 133
99 112 129
97 110 128
96 109 126
90 103 119
85 97 112
78 89 104
69 79 91
65 74 85
54 61 71
44 50 58
43 49 57
44 51 59
51 58 67
58 66 77
65 74 86
70 80 93
73 83 96
84 96 112
93 105 121
96 109 126
89 101 117
92 105 122
85 96 110
82 94 109
82 93 107
77 88 102
66 75 87
60 69 80
55 62 72
56 63 73
58 67 77
56 63 74
57 64 74
59 67 78
60 68 79
50 57 66
41 46 53
48 55 63
51 58 67
56 64 75
60 68 79
61 69 80
53 60 70
50 56 65
40 46 53
31 36 41
24 28 32
22 26 30
31 36 42
39 45 52
38 43 50
41 47 54
39 44 51
42 48 56
46 52 60
55 63 73
63 72 83
64 73 84
62 71 82
61 70 80
57 65 76
59 67 77
61 70 80
64 73 84
71 81 95
76 86 100
80 91 105
89 100 116
91 103 119
97 110 128
97 110 127
102 116 134
103 117 135
94 106 123
94 107 124
92 104 120
89 101 118
89 101 117
89 100 115
92 105 122
94 108 125
97 111 128
94 107 124
96 109 126
101 115 133
102 116 134
102 115 133
103 116 134
100 114 131
101 114 132
95 108 125
95 109 126
95 108 124
91 103 120
88 99 115
92 104 120
92 104 120
92 106 124
91 104 120
93 106 122
98 111 129
102 116 134
107 122 142
114 130 150
117 133 155
117 133 154
117 133 154
116 131 152
114 130 150
113 129 149
110 125 146
104 118 136
97 111 129
88 100 115
84 95 111
81 92 106
79 90 104
73 83 95
68 78 90
66 75 87
61 69 80
53 60 70
42 48 55
29 33 38
28 32 38
36 41 47
37 41 48
44 51 59
48 55 63
51 58 66
53 60 69
54 61 70
43 48 56
39 44 52
38 43 50
38 43 50
42 48 55
45 51 59
40 46 53
56 63 73
57 65 75
59 67 78
67 76 88
77 87 100
86 98 113
94 107 124
100 113 130
104 118 136
103 117 135
106 121 140
104 117 136
101 115 133
93 106 123
87 100 116
85 97 112
76 86 100
71 81 94
63 71 82
53 61 70
57 64 74
54 61 71
54 62 71
56 64 74
59 67 77
60 68 79
62 71 82
57 65 75
53 61 70
49 55 64
43 48 56
34 38 44
22 25 30
28 32 38
37 42 48
45 51 59
54 61 71
52 59 68
61 70 80
64 73 84
74 84 96
79 90 104
82 93 108
88 100 115
88 101 117
85 97 112
85 97 112
80 90 104
69 79 91
55 63 74
49 56 65
50 57 66
55 63 72
54 61 71
49 56 65
46 52 61
48 55 64
52 59 69
62 71 82
72 81 94
77 87 101
82 93 107
77 87 101
72 82 94
60 68 79
50 57 66
38 44 51
34 38 44
34 39 45
36 42 48
40 45 52
40 46 53
43 48 56
39 44 51
37 42 48
34 39 45
35 39 46
26 30 35
31 36 41
34 39 45
37 42 49
40 46 54
42 47 55
45 52 60
54 61 71
60 68 79
64 73 84
68 77 89
66 75 87
66 75 87
66 75 87
68 78 90
68 77 90
71 80 92
72 81 94
73 83 96
72 81 94
72 82 95
74 84 97
75 86 99
71 81 94
62 71 82
60 68 78
58 66 76
60 69 80
61 69 80
59 67 77
58 66 76
57 64 74
56 64 74
53 60 70
46 52 60
44 50 57
38 44 51
56 63 73
70 80 93
83 95 111
89 101 117
91 104 121
91 104 120
97 109 126
94 107 124
97 109 126
94 107 124
88 101 117
84 95 110
81 91 105
78 89 103
77 88 101
70 80 93
61 69 80
50 57 65
39 44 51
24 27 32
31 35 40
35 40 46
37 43 49
51 58 67
63 72 83
71 80 93
81 91 105
79 90 104
54 61 69
42 46 52
51 56 62
46 50 56
47 51 57
46 50 56
45 49 55
47 52 58
51 56 62
56 61 68
57 63 70
50 55 62
54 60 67
61 66 74
63 69 78
55 60 67
56 61 69
57 62 69
55 60 67
54 59 66
53 58 64
51 56 63
49 53 60
50 55 62
48 53 60
48 53 59
46 50 56
45 50 55
42 46 51
40 44 49
43 47 53
41 45 51
39 43 48
41 45 50
42 46 52
33 37 41
37 40 45
30 33 37
39 43 48
38 41 46
32 35 39
32 36 40
41 45 51
39 42 47
47 51 57
44 48 54
53 57 64
48 52 59
47 52 58
48 52 58
57 62 69
55 61 68
58 63 71
58 64 72
69 75 83
72 78 86
66 73 81
66 73 82
75 82 92
67 74 82
63 69 77
75 82 92
67 73 82
65 72 80
70 77 86
61 67 76
62 68 76
61 67 76
69 76 86
58 64 73
67 74 83
59 65 72
52 58 65
56 61 68
63 69 77
55 61 68
63 68 76
51 55 62
42 46 51
46 50 56
38 42 46
29 32 36
33 36 40
23 26 29
25 27 30
26 28 32
31 34 37
35 38 42
34 37 42
39 42 47
32 35 39
35 39 44
44 48 53
47 51 57
45 50 56
40 44 49
28 31 34
27 30 33
21 23 26
17 19 21
10 11 13
18 19 22
22 24 27
26 29 33
38 42 47
38 41 46
38 42 48
48 52 58
56 61 68
47 52 59
44 48 54
35 38 43
29 32 36
24 27 30
31 34 38
38 43 49
79 90 104
87 98 114
90 102 117
93 105 122
94 107 123
95 108 125
97 110 128
102 116 135
100 114 132
96 109 127
99 112 130
97 110 127
96 109 126
92 104 120
89 102 118
90 102 119
87 99 114
88 100 116
93 105 121
95 109 126
100 114 132
97 110 128
94 107 124
93 106 123
94 106 122
98 111 128
96 109 126
93 106 122
85 97 112
75 85 98
63 72 83
51 58 67
39 45 52
31 35 41
34 39 45
35 40 47
40 46 53
39 44 51
32 36 42
34 39 45
50 57 66
60 69 80
68 77 89
67 76 89
70 80 92
66 74 86
54 61 71
45 52 60
42 47 55
40 45 53
39 44 51
56 63 72
65 74 86
71 81 94
77 87 101
83 95 110
86 97 112
88 100 115
82 93 107
80 91 106
77 87 101
72 82 96
70 80 93
63 71 82
56 64 74
51 57 66
49 56 65
49 56 65
50 57 66
51 58 67
47 53 62
45 51 59
43 49 57
51 58 67
51 58 67
57 65 75
58 66 76
53 60 70
55 63 72
64 73 84
77 87 101
83 94 109
98 110 127
103 117 135
115 130 150
119 135 157
127 144 166
126 143 165
132 149 171
127 145 168
126 143 165
123 139 161
126 142 164
125 142 165
123 141 163
126 143 165
121 138 160
124 141 163
121 138 160
122 138 159
118 134 155
113 129 150
110 124 143
103 117 137
101 114 132
98 112 130
97 110 128
100 114 131
99 112 130
93 106 122
93 106 122
95 107 123
92 104 120
91 103 120
92 105 122
86 97 112
79 90 105
73 83 96
71 81 94
72 82 95
74 84 97
69 79 91
66 75 86
65 73 85
61 70 80
57 65 75
52 59 68
55 63 73
59 67 78
53 60 69
47 53 62
42 48 55
41 46 53
40 46 53
39 44 51
40 45 53
51 58 67
54 61 71
52 59 68
56 63 73
58 66 76
62 71 82
63 72 84
63 71 83
61 69 80
55 63 72
46 52 61
38 43 50
44 50 57
48 55 64
52 59 68
53 60 69
56 64 74
51 58 67
36 41 48
23 26 30
24 28 33
37 42 49
42 48 55
51 57 67
55 63 73
56 63 73
47 53 61
36 41 47
35 40 47
42 48 55
51 57 66
56 65 75
63 72 83
65 73 85
67 76 88
70 79 91
69 78 90
59 67 77
45 51 59
40 45 53
43 49 57
53 60 69
63 71 82
70 79 91
79 90 104
89 101 116
99 112 130
106 120 139
110 125 144
107 122 142
107 122 142
108 123 143
108 123 142
108 122 141
104 118 136
98 112 129
92 105 122
91 103 120
83 95 110
73 83 96
61 69 80
50 57 66
38 43 50
33 38 44
39 45 51
48 54 62
55 63 72
55 62 72
58 66 76
50 57 65
40 46 53
23 26 31
32 37 42
40 45 52
42 47 54
38 44 51
32 36 42
30 34 40
28 32 37
26 29 34
26 30 35
29 33 38
40 45 52
48 54 63
55 63 73
60 68 78
56 64 73
44 50 58
36 40 47
35 40 47
42 48 55
52 59 69
56 64 74
58 66 77
60 68 79
62 70 81
67 76 89
70 80 92
75 85 98
86 98 114
94 106 122
100 114 132
98 111 128
102 116 135
101 115 134
101 115 133
104 118 137
105 119 138
104 118 137
104 119 138
111 127 147
114 130 151
117 132 153
115 131 152
119 136 157
111 126 145
113 128 149
105 119 138
100 113 131
86 98 114
76 87 101
77 88 102
72 82 95
67 76 88
70 80 92
69 79 91
67 75 87
58 65 75
56 63 74
48 54 62
32 36 42
28 32 37
27 31 35
25 29 33
28 32 38
35 40 46
38 44 51
34 39 46
34 39 45
36 41 48
36 41 47
39 44 50
41 46 53
46 52 60
45 51 60
47 54 62
47 53 61
48 54 63
48 55 63
40 45 52
39 43 48
46 51 57
54 59 66
48 52 58
48 53 59
50 54 61
45 49 54
57 62 69
50 55 62
33 36 41
56 61 68
58 64 72
52 57 63
49 53 60
56 62 69
51 56 63
53 58 65
56 61 68
42 47 53
50 55 61
54 59 65
49 54 60
37 41 45
34 38 43
34 38 43
40 43 48
39 43 48
36 39 43
40 44 49
38 42 47
38 42 47
36 39 44
30 33 38
33 37 41
35 38 43
29 32 36
33 36 40
40 43 48
36 40 44
30 33 37
41 45 50
46 50 56
40 44 49
50 55 61
48 53 59
43 47 52
49 54 61
47 51 57
52 57 64
48 53 59
61 67 74
63 69 77
70 77 85
69 75 83
57 63 72
78 85 95
66 72 80
49 54 62
75 82 92
63 69 78
60 66 74
63 69 77
64 70 78
58 63 71
63 69 77
64 69 77
57 62 69
61 67 75
64 70 78
65 72 81
54 60 67
61 67 75
54 59 66
46 50 57
55 60 66
43 47 53
40 44 49
32 35 40
29 31 35
30 33 37
26 29 32
28 31 34
25 28 31
30 34 38
29 32 36
34 38 42
34 38 42
30 33 37
39 43 48
41 45 51
35 38 43
38 42 47
37 41 47
42 46 52
31 34 39
31 34 39
26 29 32
19 20 23
12 13 15
17 19 22
27 30 33
31 34 38
38 42 46
48 53 60
51 56 63
56 62 69
46 51 57
40 44 50
31 34 38
32 36 40
28 31 35
38 41 46
46 52 60
47 53 61
42 47 54
30 35 40
26 30 35
35 40 47
53 60 69
60 68 79
67 76 87
75 85 99
80 90 104
84 96 111
95 108 125
94 107 124
91 104 120
88 100 116
88 101 117
83 94 109
76 87 100
78 89 102
77 87 101
77 88 103
80 91 105
87 98 114
84 96 111
85 97 112
87 98 113
80 92 107
76 86 99
69 78 91
57 65 75
46 53 62
35 39 45
40 45 53
46 52 60
45 51 60
47 53 62
48 55 64
51 58 67
58 66 76
65 73 84
72 82 95
72 82 95
76 85 98
74 85 98
73 83 95
69 78 90
66 75 87
65 73 85
56 63 73
45 51 59
29 33 38
21 25 28
36 41 47
42 48 56
52 59 69
67 77 89
77 88 101
91 103 120
97 110 128
102 117 136
105 120 139
106 120 138
102 116 134
92 105 121
86 98 114
79 90 104
79 89 102
74 85 98
72 82 94
69 78 90
69 78 90
66 75 87
64 72 83
54 62 72
46 53 61
42 48 56
45 51 59
43 49 56
35 40 47
30 34 39
26 30 34
31 36 41
35 40 46
41 46 53
44 49 57
59 68 78
75 85 99
85 96 112
85 96 111
90 102 118
95 109 126
98 111 128
100 113 131
107 121 140
108 123 142
112 127 148
117 133 153
118 134 156
119 135 156
119 135 155
117 133 154
117 133 154
117 133 154
115 130 150
112 127 147
106 121 140
98 111 129
89 101 117
78 89 102
67 76 88
56 64 74
48 54 63
34 39 45
25 28 32
28 32 36
34 38 45
40 46 53
44 50 58
52 58 68
61 70 81
70 79 91
81 93 107
87 99 114
99 113 131
105 119 137
110 125 145
112 127 148
112 127 147
114 130 150
114 130 150
111 127 147
109 123 143
109 124 143
107 121 141
110 125 145
111 127 147
111 126 146
113 128 147
110 125 145
107 122 141
101 115 132
100 114 132
91 103 120
104 118 137
109 124 143
107 122 141
105 119 138
104 118 135
96 110 127
93 105 122
85 96 111
66 74 86
60 68 79
53 60 70
45 51 59
48 54 63
36 42 49
40 46 53
47 53 61
44 50 57
37 43 49
35 40 46
38 44 51
46 52 61
51 59 68
55 62 72
54 61 71
56 64 74
62 70 81
60 68 79
59 67 78
65 75 87
67 77 90
75 85 98
73 82 94
70 80 93
71 81 93
72 82 95
72 82 95
73 83 97
78 89 102
79 90 104
87 99 114
92 105 120
95 108 124
99 112 129
94 107 124
92 105 121
87 99 114
83 94 108
69 78 90
59 67 77
53 61 70
49 56 64
40 46 53
36 40 47
33 37 43
44 50 58
54 62 71
63 71 82
66 75 86
62 71 83
60 68 79
61 69 80
55 63 73
57 65 75
54 62 71
55 63 72
50 57 66
44 50 58
42 47 55
35 39 46
38 44 50
42 48 55
43 49 57
44 50 58
35 40 46
28 31 36
31 35 40
39 44 50
44 50 58
53 60 69
57 65 75
56 64 74
57 65 75
57 65 75
57 65 75
50 58 67
50 57 67
45 51 59
38 43 50
25 29 33
27 31 36
37 42 48
42 48 55
48 54 62
57 65 76
68 77 89
82 93 107
93 106 121
96 108 125
99 113 130
108 123 142
114 130 151
115 131 151
121 137 158
119 136 157
123 140 163
128 146 170
127 144 167
129 146 168
126 144 167
129 147 171
133 152 176
120 136 158
120 136 157
114 129 149
113 128 147
112 127 147
105 120 139
102 116 135
98 112 129
93 105 121
85 97 113
82 93 108
77 88 102
74 84 97
69 79 92
62 71 82
61 70 80
64 72 84
57 65 76
53 60 69
44 50 58
39 44 51
32 37 42
36 40 47
45 51 59
60 68 79
67 76 87
74 84 97
83 94 109
84 95 110
84 95 110
81 91 105
79 90 104
79 90 104
74 84 97
46 51 58
42 46 51
47 51 57
40 44 50
43 47 53
54 59 65
48 52 58
51 56 62
41 45 51
56 61 68
49 53 59
42 47 52
55 60 67
51 56 63
54 59 67
57 63 70
50 55 61
43 48 54
41 45 51
52 57 64
43 46 52
39 43 49
36 39 44
42 46 51
43 46 52
35 38 43
45 49 55
35 39 43
42 46 52
33 36 40
33 36 41
31 34 38
25 27 30
33 36 41
35 38 43
33 36 40
31 34 38
26 28 32
29 31 34
35 38 43
31 34 38
37 41 46
41 45 50
35 39 43
38 42 46
32 36 40
42 46 51
47 51 57
49 53 59
49 54 60
55 60 67
56 61 68
58 63 71
59 65 73
60 67 75
58 63 71
63 69 78
52 57 64
52 57 64
49 54 60
61 67 75
54 60 67
58 64 72
57 62 69
53 59 66
50 55 61
54 59 65
58 63 71
53 59 66
49 54 60
50 54 61
39 43 48
36 40 44
32 35 39
31 34 38
27 30 34
29 32 36
26 29 32
27 30 33
26 29 32
32 36 40
31 34 38
27 29 33
32 34 38
26 29 33
30 33 37
35 38 43
33 36 41
27 30 34
33 36 40
32 35 40
42 46 52
36 39 44
30 33 37
30 33 36
18 20 22
10 11 13
7 8 9
15 16 18
23 26 29
37 40 45
36 39 44
39 43 48
51 56 62
43 47 52
48 52 58
42 46 51
33 37 41
33 36 41
27 30 34
30 34 38
29 33 38
38 43 50
46 52 60
43 49 56
39 45 52
41 47 54
40 45 52
39 44 51
42 47 55
35 40 46
36 42 48
39 44 51
55 63 72
66 74 86
72 81 94
76 86 99
78 89 103
77 87 101
74 85 99
75 85 99
75 85 99
74 85 98
74 83 96
71 81 94
70 80 92
67 76 88
67 76 89
65 74 85
56 64 74
41 46 53
30 34 40
34 39 45
50 56 65
56 64 74
55 62 72
50 56 64
47 54 63
50 57 66
46 53 61
45 52 60
49 55 64
44 50 58
53 60 70
55 63 73
55 62 72
59 67 78
63 72 83
61 70 81
56 63 73
53 60 69
46 52 60
43 49 57
41 47 54
40 45 52
38 43 50
39 44 51
34 39 45
25 28 33
25 29 33
39 44 51
44 49 57
52 59 69
59 67 78
64 72 83
69 78 89
66 75 87
66 75 87
66 75 87
65 74 86
69 78 90
67 76 88
64 73 84
62 70 81
63 72 83
54 62 72
49 55 63
43 49 57
47 53 61
47 53 61
43 49 57
41 47 55
39 44 51
33 37 43
34 39 45
37 43 50
42 48 55
48 54 63
56 64 74
58 66 76
64 73 85
66 76 88
73 83 96
79 90 105
82 93 108
84 95 110
82 93 107
80 91 106
83 94 109
90 103 119
91 103 119
92 104 120
87 99 115
84 95 110
83 94 109
81 92 107
73 83 95
68 77 90
60 68 78
45 51 59
50 56 65
52 59 68
52 60 69
51 58 67
66 75 88
73 83 97
80 91 105
91 103 119
89 101 117
97 111 128
99 113 131
104 118 136
106 120 138
106 121 141
112 127 146
112 128 148
118 133 154
121 137 158
123 141 164
127 143 165
133 151 175
134 153 177
136 154 179
136 154 178
133 152 176
132 150 174
136 154 178
136 153 176
134 151 174
127 145 169
124 140 161
121 138 159
118 134 155
116 131 151
112 128 148
117 133 153
117 132 153
117 133 153
115 131 151
118 133 153
116 131 152
117 133 153
114 129 149
115 130 150
109 123 142
108 123 142
105 119 138
102 115 134
101 115 133
99 113 131
95 108 125
93 105 121
91 103 119
88 100 116
83 95 110
84 95 110
79 90 104
77 87 101
82 93 109
87 98 114
89 101 117
90 102 118
91 103 119
89 101 116
84 95 110
80 91 105
78 88 101
71 80 92
64 72 83
56 64 75
48 55 64
53 60 70
59 67 78
65 73 85
71 81 93
75 85 99
74 84 98
77 87 100
72 81 94
63 72 83
54 61 71
55 62 72
49 55 64
47 54 62
48 55 63
41 47 54
54 62 72
67 76 88
74 84 97
77 88 102
87 99 114
90 103 120
92 105 122
91 103 119
86 97 112
79 90 104
73 82 95
65 74 85
56 64 74
47 53 61
40 46 53
34 39 46
24 28 32
24 27 31
25 29 33
28 32 37
29 33 39
28 32 37
32 37 42
35 39 45
35 40 47
35 40 46
31 36 41
22 25 29
23 26 31
27 30 35
33 38 44
39 44 51
46 53 61
49 56 65
56 64 74
64 73 85
65 74 85
59 67 77
59 68 79
57 65 76
56 63 73
47 53 62
39 44 50
26 30 34
30 34 39
51 57 66
65 74 85
78 89 103
88 101 116
98 111 128
106 120 139
112 127 147
112 127 147
115 130 150
125 142 164
124 142 165
128 145 169
129 147 170
123 140 162
122 139 161
119 135 156
109 124 144
106 121 139
109 123 142
101 115 133
100 113 130
92 104 120
93 105 122
89 100 116
79 90 105
71 81 93
68 78 90
64 73 84
64 73 85
65 74 85
67 76 88
68 77 90
74 84 97
73 83 96
74 84 98
73 83 96
70 79 91
61 69 80
55 63 72
53 60 69
53 60 69
47 54 62
42 48 55
40 45 52
46 52 60
53 60 69
55 62 72
54 62 71
55 62 72
49 56 65
37 41 47
34 37 42
46 50 56
48 52 58
46 50 56
51 56 62
49 54 61
48 52 59
49 53 60
48 52 58
44 48 53
44 48 54
54 59 65
47 52 58
54 59 66
50 54 60
46 50 57
48 53 59
40 43 48
49 53 59
40 43 49
32 35 39
33 36 40
37 41 45
37 40 44
35 38 43
38 42 47
36 39 43
35 38 43
33 36 41
31 34 38
32 36 40
34 37 41
37 41 46
33 36 41
24 27 30
25 27 31
24 26 29
22 24 27
27 30 33
30 33 37
38 41 46
36 40 44
31 34 38
30 33 37
41 45 50
34 37 42
41 45 50
46 51 56
47 51 57
46 50 57
50 55 61
51 56 63
48 52 59
55 60 68
54 59 66
51 56 63
47 51 57
57 62 69
56 61 68
47 52 58
57 63 70
50 55 61
59 64 72
51 56 62
51 56 63
55 60 67
40 44 50
45 50 56
36 40 44
40 44 50
36 39 44
34 37 42
30 33 37
25 27 31
25 28 31
26 28 31
27 30 33
21 24 27
34 38 42
28 31 35
30 33 37
26 29 32
31 34 39
41 44 49
36 39 44
33 37 41
31 35 39
36 40 44
43 46 52
36 39 44
36 39 44
28 31 35
26 28 31
21 23 26
7 8 9
15 16 18
29 32 36
28 31 34
34 37 42
41 45 51
45 49 55
55 61 68
40 44 50
49 54 60
38 41 47
41 45 51
55 62 71
54 61 71
45 51 58
40 45 52
30 34 39
33 37 43
40 46 53
57 65 75
67 76 87
68 77 89
74 84 98
81 92 106
85 97 112
85 96 111
91 103 118
99 112 129
97 110 127
103 117 136
100 114 132
99 113 131
96 109 126
99 113 131
93 106 122
86 98 114
86 97 112
85 97 112
83 95 109
82 93 108
77 87 101
81 92 106
75 85 99
71 81 95
58 67 77
51 58 67
38 43 49
33 37 43
31 35 41
30 34 39
33 37 43
25 29 33
24 27 32
27 30 35
21 24 28
18 21 24
17 20 23
23 26 30
22 25 29
23 26 30
29 33 39
33 38 44
35 39 46
37 42 49
34 38 44
34 38 44
37 42 49
47 53 62
43 48 56
46 52 60
49 56 65
50 57 66
56 63 72
57 65 75
65 74 86
66 75 87
63 71 82
60 68 79
56 64 75
59 67 78
60 69 79
62 71 81
64 72 84
61 70 81
64 72 83
58 66 77
47 53 62
36 41 48
30 34 40
38 44 51
46 52 60
56 63 73
61 69 80
63 71 82
65 74 86
72 82 94
73 83 96
78 89 103
83 94 109
79 89 103
81 93 107
88 99 114
97 110 127
102 115 133
99 113 131
105 119 137
107 121 140
108 123 142
109 124 144
114 130 151
108 123 142
106 121 141
100 114 132
94 107 123
85 96 112
83 95 110
81 91 106
78 89 103
75 86 99
67 76 88
53 61 71
40 46 53
24 28 32
42 48 55
55 63 73
72 82 94
81 92 106
86 99 114
95 107 124
101 115 132
103 117 135
105 119 138
108 123 142
109 124 143
114 130 151
119 134 154
118 134 156
114 130 150
115 130 149
108 122 142
100 114 132
98 111 128
98 111 128
102 116 134
104 119 138
106 120 140
110 126 146
114 130 150
118 134 155
122 139 161
122 139 161
122 138 159
121 138 160
118 135 156
113 128 148
102 116 134
99 112 130
95 107 124
89 101 117
113 128 148
114 129 150
115 130 149
113 128 148
109 124 144
105 119 138
99 112 129
88 100 116
86 98 114
84 96 112
86 97 112
89 101 117
92 105 122
92 105 121
95 108 125
95 109 126
92 104 120
88 100 116
84 95 110
83 94 109
80 91 105
74 84 97
69 79 92
61 69 80
60 68 79
62 70 81
63 71 82
59 67 78
53 60 70
50 57 65
37 42 48
28 32 37
24 27 32
19 22 26
19 21 25
22 25 28
29 33 39
37 42 49
43 49 57
49 55 64
52 59 68
57 65 75
66 74 86
71 81 93
77 88 101
77 88 102
78 89 103
84 96 111
84 95 110
81 92 106
82 94 109
80 91 105
76 87 101
75 86 99
77 88 102
76 86 99
77 87 101
73 83 96
69 79 92
62 71 81
50 57 67
44 50 58
42 48 56
44 50 57
39 44 52
43 49 57
49 56 65
50 57 67
43 49 57
33 38 44
40 46 53
43 49 56
46 53 61
47 53 61
44 49 57
48 55 64
50 56 65
52 59 68
49 56 64
52 58 67
51 58 67
53 60 70
58 66 76
65 74 86
72 81 94
79 89 103
79 90 104
87 99 114
85 97 113
82 93 107
83 94 109
73 82 95
65 74 85
46 52 61
26 30 34
41 47 54
59 68 78
77 88 101
87 99 115
95 108 124
100 114 132
105 120 139
109 124 144
107 123 143
107 121 140
119 135 157
113 128 148
122 138 159
113 128 148
111 126 146
105 119 138
107 122 140
94 107 124
90 102 118
88 100 115
90 101 117
87 99 114
84 95 110
87 98 113
81 92 106
79 89 103
72 82 95
66 75 87
59 67 78
53 60 69
41 47 54
34 39 45
36 40 47
37 42 49
35 40 46
37 42 49
38 43 49
30 34 40
33 37 43
33 38 44
38 44 50
44 50 58
40 46 54
37 43 50
39 44 51
41 47 54
45 51 59
45 51 58
51 58 67
58 66 76
59 67 77
60 68 79
54 61 71
37 41 47
38 42 47
43 47 52
40 44 49
46 51 57
45 49 55
55 60 67
48 53 59
52 57 64
54 59 66
41 45 51
47 52 58
42 46 52
45 49 55
40 45 51
47 51 57
48 53 59
43 47 52
29 32 36
28 31 34
28 31 35
30 33 37
30 33 37
37 40 45
32 35 39
32 35 40
38 41 46
31 34 38
38 41 46
33 37 41
31 33 37
37 40 45
35 39 43
30 33 37
28 31 35
30 33 36
24 26 29
24 26 30
25 27 30
30 33 36
24 27 30
30 33 37
25 28 32
32 35 39
30 33 37
36 39 44
45 49 55
48 52 58
44 49 54
52 57 63
55 59 66
50 55 62
53 58 65
48 52 59
50 55 62
60 66 73
50 55 61
50 55 61
49 53 60
50 54 60
50 55 61
40 44 49
52 56 63
41 45 50
48 53 59
41 45 51
44 48 54
45 49 54
37 40 45
37 41 45
40 43 48
25 28 31
25 27 30
24 27 30
24 27 30
26 28 31
29 32 36
33 36 40
34 37 42
35 39 43
38 42 47
41 45 51
35 39 43
39 43 48
39 43 48
36 39 44
43 47 52
40 44 49
40 43 49
30 33 37
31 34 38
23 25 29
16 18 20
17 19 22
23 25 28
27 30 33
30 33 37
38 42 47
45 49 55
55 60 67
45 49 56
41 46 51
49 54 60
48 54 62
81 91 105
79 90 104
72 82 95
62 70 81
61 69 80
47 53 61
34 39 45
26 30 34
32 37 43
46 52 60
48 55 63
60 68 79
70 80 92
77 87 101
81 92 107
86 98 114
89 102 118
92 104 121
95 108 124
103 117 135
110 125 144
108 123 143
109 123 142
108 122 141
100 114 132
102 116 133
98 111 128
100 114 131
104 118 136
107 121 139
105 119 137
100 113 131
94 107 124
94 106 123
90 102 118
89 101 117
80 91 105
74 84 97
72 82 94
63 72 83
63 71 83
62 71 82
72 81 93
69 78 91
67 76 89
71 80 93
62 71 83
67 77 89
69 79 91
78 88 102
86 97 113
81 91 105
81 92 107
83 95 110
80 91 106
85 97 112
86 97 112
85 97 112
88 100 116
93 106 123
96 109 126
96 109 125
97 110 128
96 109 126
92 105 121
89 101 117
85 96 111
78 88 102
74 84 98
64 73 84
55 62 72
49 55 63
40 46 54
41 46 54
35 40 46
35 40 46
36 41 47
44 50 57
52 59 69
58 66 76
62 70 81
68 77 89
71 81 94
80 92 106
92 104 120
95 108 125
96 110 128
97 110 127
101 115 133
100 113 131
96 108 125
99 112 129
104 119 138
108 123 142
109 124 144
110 124 143
106 121 140
108 123 142
108 123 142
106 121 139
105 119 138
101 115 133
90 103 119
83 95 109
77 87 101
63 72 83
48 55 64
36 41 48
36 41 48
39 45 52
37 42 49
28 32 38
39 45 52
53 60 69
64 73 84
79 90 104
87 99 115
95 108 125
102 116 135
105 120 138
114 130 150
114 130 150
113 129 149
114 130 150
116 131 151
118 134 154
116 132 152
110 125 145
104 118 137
98 111 128
90 102 118
82 93 107
74 84 98
75 85 98
69 78 90
69 79 91
72 82 95
75 85 99
75 85 98
69 78 90
69 78 90
65 74 85
64 73 84
59 67 78
65 74 86
67 75 87
61 70 81
57 65 76
56 64 74
59 66 76
54 61 71
50 57 67
47 53 62
45 51 59
43 49 57
45 51 59
42 48 56
45 51 60
41 47 54
40 46 53
44 50 59
40 46 53
48 54 63
56 63 73
64 73 84
63 72 84
59 67 78
54 62 72
47 54 62
44 50 58
49 55 64
48 54 63
50 56 65
51 58 68
50 56 65
39 45 52
35 40 47
33 38 44
35 40 46
38 43 50
32 36 42
23 26 30
33 38 44
40 46 53
39 45 52
41 47 54
47 54 62
57 65 75
62 71 82
67 75 87
68 78 90
68 78 90
73 83 96
72 81 94
76 86 100
77 88 101
73 83 96
66 75 86
63 72 83
51 58 66
43 49 56
50 57 66
60 68 78
66 75 86
64 73 84
66 76 88
65 74 86
63 72 84
57 65 75
52 59 69
44 50 58
30 34 40
35 39 45
51 59 68
62 70 81
69 78 91
74 84 97
79 90 104
78 89 102
75 85 98
75 85 98
78 88 102
82 94 108
86 97 112
90 102 117
87 99 115
88 100 115
84 96 111
84 96 111
84 96 111
80 91 105
86 97 112
80 92 106
81 92 106
78 89 103
82 93 108
83 94 109
83 95 110
84 95 111
80 91 105
75 85 98
65 75 87
56 64 74
42 48 56
36 40 46
44 50 57
56 63 73
62 70 81
69 78 90
81 93 108
82 93 108
81 92 107
85 97 112
88 100 115
93 106 123
93 106 123
101 114 132
97 111 129
93 106 123
91 103 119
83 95 109
83 94 108
78 88 102
74 84 98
72 81 93
65 74 86
60 69 79
55 63 72
52 59 68
46 52 60
44 50 58
38 43 49
28 32 37
32 36 42
40 45 52
47 53 61
49 56 65
48 54 63
44 50 57
38 44 51
34 38 44
30 34 39
26 30 34
24 27 31
36 41 48
43 48 56
42 48 56
38 43 50
34 38 45
31 35 41
31 36 41
38 43 50
45 51 59
44 50 57
44 50 57
44 51 59
34 38 44
25 28 32
31 35 39
39 42 47
47 52 58
36 39 44
51 56 62
46 50 56
51 56 63
45 49 55
46 51 57
50 54 60
39 42 47
40 44 50
38 41 47
49 53 59
44 48 54
34 38 42
33 36 40
30 33 37
29 32 36
31 34 38
32 35 39
31 34 38
27 30 33
37 41 45
34 37 41
33 36 40
27 30 34
32 35 39
29 32 36
39 42 47
29 31 35
25 27 30
23 25 28
26 28 31
23 25 28
22 24 26
23 25 27
30 32 36
30 33 37
28 31 34
27 30 33
33 36 41
38 41 46
41 45 50
34 38 42
47 51 56
43 47 53
50 54 60
38 42 47
54 59 66
43 48 54
51 56 62
41 45 51
48 52 58
49 54 60
44 48 54
38 42 47
37 41 46
47 51 57
42 46 52
45 49 54
45 49 55
41 45 51
45 50 56
40 44 49
30 33 37
32 35 39
33 36 40
33 36 40
32 35 39
28 30 34
23 25 28
29 31 35
32 35 40
43 47 53
45 48 54
44 48 53
42 46 51
45 49 55
37 41 45
46 50 56
46 50 56
36 40 45
44 48 54
46 50 55
42 47 52
33 37 41
35 39 43
25 27 30
17 19 21
14 15 17
29 32 36
26 29 32
40 44 49
38 42 47
43 48 53
52 56 62
46 50 56
46 50 56
48 53 59
62 70 81
64 73 83
60 68 79
48 54 62
41 46 54
31 35 41
26 30 34
28 32 37
25 28 33
26 30 35
37 42 49
49 55 64
60 68 78
64 73 84
67 76 87
69 78 90
70 79 92
70 80 93
67 75 86
67 76 88
74 84 97
76 87 100
81 92 106
83 94 109
82 93 107
83 94 109
86 97 112
84 96 111
88 100 116
85 97 112
87 99 115
84 95 110
85 97 112
88 100 116
95 108 125
97 110 127
97 110 127
100 113 131
99 113 131
101 114 132
98 112 129
97 110 127
101 114 131
97 110 127
97 110 127
102 115 132
103 118 136
105 120 139
106 121 140
108 123 142
108 123 143
103 117 136
106 120 139
105 119 138
106 120 138
103 117 135
106 120 139
107 122 141
101 115 133
104 118 136
103 116 133
98 112 130
105 120 139
104 119 137
104 119 137
105 119 137
107 121 140
100 114 131
103 116 133
94 107 124
90 102 118
86 98 114
79 90 104
71 80 93
63 71 83
49 56 65
47 53 61
44 49 57
46 52 61
45 51 60
52 59 69
53 61 70
57 65 75
57 65 75
58 67 77
58 66 77
60 69 79
62 71 82
62 70 81
62 70 81
71 80 92
74 84 97
80 91 106
78 88 102
78 89 102
76 86 100
75 85 98
78 88 102
79 90 104
80 92 106
81 91 105
80 90 104
79 90 105
79 89 103
76 86 100
69 78 90
65 74 85
65 74 86
55 62 72
37 43 50
24 27 31
38 43 50
61 70 80
75 85 98
83 94 108
88 100 116
90 103 119
92 105 121
94 107 124
97 110 128
98 112 130
102 115 133
103 117 135
104 118 137
107 121 140
105 120 139
108 123 142
105 119 138
102 117 135
103 117 135
100 113 131
95 107 124
91 103 118
86 98 113
81 92 107
77 87 101
72 81 94
62 71 82
50 56 65
33 37 43
27 31 36
26 29 34
33 38 43
35 40 46
45 52 60
56 64 74
62 71 82
66 75 87
71 80 93
75 86 99
96 110 127
92 105 121
91 103 118
84 95 109
75 85 99
66 75 86
59 66 77
54 62 72
47 53 62
41 47 54
32 37 42
25 28 33
19 22 25
26 29 34
38 43 50
45 51 59
50 57 66
57 65 75
62 70 82
64 72 84
66 75 86
66 74 86
62 70 80
56 63 73
45 52 60
45 51 59
39 45 52
40 45 53
41 47 54
43 49 56
42 48 55
49 56 64
53 60 70
53 60 69
56 63 73
54 61 71
58 66 77
64 73 84
63 71 82
58 66 77
56 64 74
50 57 66
38 43 50
33 37 43
26 29 34
26 30 35
33 37 43
33 38 44
33 38 43
31 35 40
32 37 43
39 44 51
41 46 54
36 41 47
40 46 53
41 47 54
43 49 57
45 51 59
40 45 53
36 41 48
28 31 36
33 37 43
36 41 48
44 50 58
54 61 71
61 69 80
66 75 87
65 74 85
65 73 84
75 85 98
73 83 96
73 83 97
72 82 94
76 87 100
76 86 100
81 92 106
78 89 103
81 92 106
78 88 102
77 87 101
81 92 106
87 99 115
84 96 111
82 93 108
80 90 105
79 90 104
79 90 105
82 94 108
87 100 115
89 101 117
91 103 119
88 100 116
90 103 119
86 98 113
81 92 107
71 81 94
64 73 84
56 63 74
43 49 57
35 40 47
45 50 58
45 52 60
50 57 65
63 72 83
66 75 87
67 76 88
70 79 91
76 86 99
84 96 110
86 98 113
89 101 117
83 94 109
78 88 102
75 85 98
70 79 92
62 70 81
60 68 79
56 64 74
54 62 71
51 58 67
46 53 62
32 37 42
30 34 40
46 52 61
63 72 83
65 74 86
66 75 86
68 77 89
64 72 84
60 68 78
49 55 64
38 44 51
28 32 37
23 26 30
21 24 28
21 24 27
27 30 35
31 35 41
24 27 31
22 25 29
17 19 22
28 32 37
39 44 51
37 42 48
35 40 46
33 37 43
31 35 40
32 37 42
31 35 40
33 37 43
41 47 54
32 35 40
27 30 33
42 45 50
38 42 47
50 54 61
42 46 52
43 47 52
58 62 69
54 58 65
48 53 59
49 53 59
45 49 55
42 47 52
38 41 46
36 40 45
38 41 46
29 32 36
30 33 37
29 32 36
24 26 29
27 30 33
30 33 37
37 40 44
36 39 43
33 36 41
28 31 35
25 27 31
31 34 38
28 31 34
32 35 39
26 28 32
24 27 30
24 27 30
24 26 29
22 24 27
21 23 26
22 24 27
23 25 28
21 24 26
21 23 26
28 30 34
35 39 43
35 38 43
37 41 46
36 39 44
43 47 52
38 42 47
41 45 50
41 45 50
40 44 49
41 45 50
47 51 57
45 49 55
48 52 57
44 48 54
40 44 49
42 46 51
47 52 57
45 49 55
40 43 49
47 52 57
41 45 50
33 36 41
38 41 45
30 33 37
27 29 33
30 33 37
20 22 24
22 24 27
25 28 31
27 30 33
25 27 31
39 43 48
45 49 54
48 52 58
41 46 52
44 49 55
40 44 49
46 50 56
50 55 61
46 50 56
42 46 52
44 49 54
44 48 54
48 53 58
29 31 35
25 28 31
17 19 21
9 10 11
20 22 25
24 27 30
36 39 44
45 49 54
37 41 46
40 44 49
36 40 45
46 50 55
33 36 41
42 48 55
42 48 55
43 49 57
43 48 56
46 52 60
36 41 48
40 44 51
42 47 55
47 53 61
47 53 61
48 54 62
42 48 55
52 59 68
55 62 72
59 66 77
58 66 76
49 56 65
43 49 57
35 39 46
32 36 42
37 42 48
42 48 55
41 47 54
42 47 55
37 42 49
35 40 46
27 30 35
35 39 45
34 39 45
40 46 53
44 50 57
50 56 65
48 54 63
47 53 61
48 54 63
49 56 65
55 63 72
68 77 88
72 82 94
82 93 108
81 92 106
77 88 102
74 84 97
75 85 98
67 75 87
62 71 82
65 74 86
73 82 95
73 83 96
79 91 105
88 99 114
90 102 117
96 110 127
89 101 118
92 104 120
92 104 121
90 102 118
78 89 103
77 88 102
75 85 98
71 81 94
76 86 99
83 94 109
82 93 108
80 91 106
77 88 102
74 85 98
77 87 101
82 93 107
82 93 108
82 93 107
77 87 100
75 85 99
71 80 93
63 72 82
54 62 71
47 53 62
40 46 53
50 57 66
48 55 64
44 50 58
35 40 46
25 28 32
23 27 31
40 46 54
54 61 71
54 62 72
59 67 77
60 68 78
54 62 72
54 62 71
58 66 77
64 73 84
67 76 88
68 77 88
70 79 92
74 84 97
82 94 108
82 94 109
83 94 109
81 93 107
82 93 108
77 88 102
76 87 100
73 83 96
68 78 90
65 74 86
58 65 76
50 57 66
37 42 49
20 23 27
25 28 33
40 46 53
53 60 69
66 74 86
80 91 105
89 101 116
95 108 124
89 101 116
94 107 124
96 109 126
97 110 127
89 102 118
87 99 115
85 96 112
82 93 108
79 90 105
84 95 110
83 94 109
85 97 112
84 96 111
82 93 108
76 87 100
73 83 96
72 82 95
66 75 87
61 69 80
58 66 76
50 57 65
41 47 54
24 28 32
24 27 32
30 34 39
38 44 50
42 47 54
47 54 62
52 59 68
60 68 79
67 76 88
70 79 91
66 75 86
105 119 137
99 113 131
94 107 124
83 94 109
75 85 99
72 81 94
66 75 87
57 65 75
51 58 68
46 52 60
44 50 58
41 47 54
45 52 60
53 60 69
61 69 80
67 76 88
66 74 86
67 76 87
64 72 83
57 65 75
49 56 65
40 46 53
29 33 38
25 29 33
26 30 35
34 38 45
40 45 52
45 52 60
50 57 65
58 66 77
59 68 78
59 67 77
55 62 72
57 65 75
56 64 74
60 68 79
61 69 80
63 71 83
64 73 84
68 77 89
65 73 85
58 66 77
55 63 73
49 56 65
42 47 55
42 48 56
45 51 59
46 52 60
42 47 55
42 47 55
43 49 57
37 42 49
44 50 57
46 52 61
41 46 53
37 43 49
30 34 39
24 27 31
18 20 24
29 33 38
37 42 49
42 48 55
48 55 63
52 59 68
56 63 73
58 66 77
59 67 77
56 64 74
55 62 72
54 61 71
57 64 74
59 67 78
58 66 77
54 62 72
63 72 83
67 76 88
64 72 84
68 77 89
67 77 90
67 76 89
69 78 90
65 74 85
59 68 79
59 68 78
60 68 78
58 66 77
62 70 81
65 73 83
70 80 93
75 85 99
83 94 108
86 98 113
89 101 117
90 102 117
95 108 125
88 101 117
83 95 110
78 89 103
65 74 86
51 58 67
43 49 57
42 47 55
40 45 52
37 42 49
39 44 50
38 43 49
28 32 37
26 29 34
30 34 39
37 42 49
39 44 50
33 37 43
34 38 44
32 36 42
28 33 38
37 42 49
41 47 54
40 45 52
43 49 56
48 54 62
50 57 66
56 63 73
65 74 86
71 80 93
75 84 97
76 86 100
82 93 107
75 85 98
69 78 90
65 74 85
55 62 72
42 47 54
31 35 40
29 32 38
28 32 37
27 31 36
31 35 40
29 33 38
27 31 36
30 34 39
38 43 50
43 49 56
44 50 59
45 51 59
45 50 58
43 49 57
40 46 53
41 47 54
46 52 60
45 51 59
50 57 66
51 58 66
47 53 61
34 38 44
35 39 43
37 41 46
35 38 43
47 51 57
46 50 55
40 44 49
38 42 47
31 35 39
39 43 48
43 47 53
35 38 43
34 37 41
27 30 33
37 41 45
31 34 38
23 25 28
24 26 29
21 23 25
20 22 24
24 26 30
35 38 42
30 32 36
29 32 36
39 42 47
32 35 40
27 29 33
31 34 38
23 25 28
24 26 29
28 30 34
27 29 33
20 23 25
26 28 31
27 29 33
22 24 27
25 28 31
25 28 31
28 30 34
34 37 41
28 30 34
26 28 32
31 34 38
32 35 40
36 39 44
38 41 46
42 46 51
29 32 37
42 46 51
46 50 56
48 52 58
43 47 53
40 44 49
34 38 43
41 45 50
39 43 48
40 44 49
39 42 48
40 43 48
34 37 42
37 41 46
29 32 36
31 33 37
23 26 29
25 27 30
25 28 31
27 30 34
26 29 33
35 38 43
38 41 45
36 39 44
50 55 61
42 46 52
49 54 60
46 51 56
38 42 47
44 48 54
48 53 59
38 42 47
41 45 50
37 40 45
33 36 40
28 31 34
21 23 26
15 17 19
14 16 18
22 25 27
24 26 30
32 35 39
31 34 39
36 39 43
36 39 43
35 38 43
56 62 70
59 67 77
64 72 83
65 73 84
61 69 80
64 73 84
68 77 88
68 77 89
69 78 90
71 80 92
71 80 92
67 76 88
60 68 78
58 65 75
55 62 71
44 50 58
48 54 62
43 49 56
34 39 45
21 24 28
21 24 27
35 39 45
42 47 55
57 64 74
61 70 82
64 72 84
66 75 87
66 75 87
70 80 91
68 77 89
59 67 77
67 76 88
72 82 95
72 81 93
72 82 95
71 80 93
67 76 88
69 78 90
72 81 93
74 84 97
69 78 90
69 78 90
68 78 91
66 75 87
69 78 90
75 85 98
75 85 99
72 82 95
70 79 91
68 78 91
62 71 82
50 56 65
50 57 66
46 52 60
40 46 54
39 45 52
44 50 57
50 57 66
58 65 75
64 73 84
65 73 84
63 71 82
61 69 79
60 68 78
63 71 82
66 75 87
61 69 80
57 64 74
57 65 75
51 58 67
55 63 73
53 61 70
53 59 68
51 58 67
54 61 71
47 54 62
50 57 66
49 55 64
43 48 56
34 39 46
29 33 39
27 31 36
39 44 51
42 47 55
36 41 47
37 42 49
40 45 52
39 45 52
34 39 45
32 37 42
33 38 44
29 33 38
26 30 35
24 28 32
24 27 32
27 31 35
37 42 48
43 49 56
43 48 56
41 46 54
43 49 57
51 58 68
61 69 81
62 71 83
67 76 88
73 82 94
75 84 97
68 77 89
65 74 87
67 76 88
60 68 78
59 67 78
63 71 83
58 66 76
58 66 76
63 71 82
67 75 87
72 82 95
76 86 100
79 89 103
81 92 106
78 89 104
71 80 93
69 78 90
66 75 86
62 71 83
60 68 79
56 64 75
52 59 69
48 55 64
49 55 64
53 61 70
52 59 69
50 56 65
44 50 58
41 46 53
39 44 51
43 48 56
39 45 52
42 47 55
47 53 62
57 64 74
60 69 80
62 71 82
67 76 89
64 73 84
67 77 89
71 81 93
75 86 99
80 90 105
83 94 109
85 97 113
91 103 119
90 103 119
66 75 86
61 70 81
57 65 75
54 61 70
57 65 75
57 65 76
53 61 70
42 48 55
36 41 48
34 39 45
22 26 30
30 34 40
47 53 62
58 66 77
66 75 87
70 80 92
75 86 100
68 78 90
59 67 78
52 59 69
50 56 65
49 56 65
48 54 63
38 43 50
27 31 36
27 31 36
42 48 55
45 52 60
45 51 59
44 50 58
44 50 58
39 44 51
39 44 51
41 46 54
44 50 58
45 51 58
41 47 54
43 49 56
44 50 58
44 50 58
46 52 61
50 57 65
46 52 61
44 50 58
41 47 54
31 35 40
29 34 39
30 34 39
33 37 43
37 42 49
37 42 48
37 42 49
37 42 48
38 43 50
39 45 52
36 41 47
40 46 53
44 49 57
50 57 66
56 64 74
65 74 86
72 81 94
75 84 97
73 83 96
71 81 94
73 83 97
69 78 90
61 69 80
57 65 75
52 59 68
51 58 67
50 57 66
51 58 68
47 54 62
46 52 61
48 54 62
54 61 71
61 69 79
65 73 85
67 76 87
65 73 85
69 78 91
63 72 84
65 74 86
68 77 89
63 71 82
63 71 83
62 71 82
61 69 80
60 68 79
55 63 72
66 75 86
72 82 95
74 85 99
81 92 106
75 85 99
65 74 86
58 65 75
51 59 68
47 53 62
42 48 55
39 45 51
37 42 49
40 45 52
38 43 50
33 38 44
32 36 42
21 23 27
24 27 31
33 38 44
40 45 53
47 54 62
52 58 67
54 61 71
50 57 66
50 57 65
45 51 59
43 49 56
45 51 58
40 46 53
46 52 60
51 58 67
59 66 76
62 71 82
62 70 82
57 65 75
52 59 68
44 51 59
47 53 61
45 52 60
47 53 62
45 51 58
47 53 61
47 53 61
44 50 57
29 33 38
18 20 23
25 28 33
30 34 40
35 40 46
40 45 52
47 53 61
54 61 71
52 59 68
57 64 74
56 63 73
51 58 67
54 61 70
57 65 75
46 52 59
46 51 59
38 43 50
32 36 42
34 39 44
29 33 38
25 28 31
41 45 50
36 39 44
37 41 45
42 46 51
35 39 44
37 40 45
40 43 48
43 47 52
41 45 51
41 45 51
39 43 48
40 43 48
31 34 38
31 33 37
29 31 34
21 23 26
21 23 26
22 25 27
20 22 25
26 28 32
30 33 37
30 32 36
25 27 31
22 25 28
26 29 32
27 30 33
24 27 30
20 22 24
19 21 23
29 31 35
20 23 26
20 22 25
22 24 27
21 23 25
24 26 29
23 26 29
26 28 31
26 28 32
32 35 39
35 39 43
27 30 34
25 28 32
36 39 43
39 42 47
35 39 43
38 41 46
43 47 52
37 41 46
43 47 53
47 52 58
41 45 50
41 45 50
37 41 46
43 47 53
39 42 48
35 39 43
37 41 45
30 33 36
29 32 35
22 25 28
37 40 45
36 39 43
33 36 41
43 47 52
33 37 42
45 49 54
42 46 52
50 54 61
56 61 68
49 54 60
51 56 63
45 49 55
41 45 51
41 45 50
43 47 53
31 35 39
40 44 48
33 36 40
24 26 30
21 23 26
21 23 25
12 13 14
20 22 25
27 29 33
28 30 34
29 32 36
33 36 40
34 37 41
45 49 56
59 67 78
77 87 101
70 80 92
65 73 85
56 63 72
54 60 69
57 64 74
56 64 73
49 55 64
41 47 54
37 42 48
36 41 48
39 44 51
45 50 58
52 58 67
63 71 82
62 70 81
68 77 89
75 85 99
67 75 86
66 75 87
56 63 72
48 54 63
42 48 55
33 38 44
34 39 45
33 37 43
43 48 56
47 53 61
58 66 76
66 75 86
67 76 88
83 93 107
86 98 113
95 108 125
102 116 134
108 122 141
109 123 142
112 127 146
111 126 147
109 124 143
119 135 156
115 130 149
109 124 144
108 122 140
101 115 134
98 111 128
95 107 124
95 108 124
93 106 123
91 103 119
88 100 116
82 93 107
72 82 95
68 77 90
58 66 76
61 69 80
50 57 66
44 50 58
46 52 61
40 45 53
35 40 46
26 30 35
27 31 36
30 34 40
38 43 50
40 45 52
38 44 51
33 37 43
40 46 53
51 57 66
60 68 79
63 72 84
63 72 83
66 75 86
68 77 89
62 71 82
56 64 75
49 55 64
43 49 57
36 41 48
37 42 49
44 50 58
43 49 57
40 46 53
40 45 52
35 40 46
35 40 47
40 45 53
42 48 55
41 46 54
24 28 32
17 20 23
13 15 17
19 21 25
27 30 35
34 38 44
34 38 44
42 48 55
53 61 71
68 77 90
78 89 104
90 102 118
95 108 125
106 121 139
108 123 142
110 125 145
117 133 154
121 136 156
117 133 153
119 135 156
117 133 154
111 126 146
108 122 140
103 117 136
103 117 135
105 120 139
105 120 140
106 120 139
107 122 141
103 117 136
104 117 135
100 113 131
102 116 134
94 107 124
86 98 114
79 90 104
75 85 99
68 77 89
65 74 85
62 70 81
55 63 73
44 50 58
41 47 54
37 43 49
33 38 44
37 42 49
37 43 49
46 52 60
59 67 78
71 81 94
77 87 101
84 95 110
89 102 117
90 103 120
92 104 120
94 107 123
100 113 131
105 119 137
104 118 136
107 122 141
114 129 149
115 130 150
112 127 148
110 125 145
37 42 49
33 38 44
29 33 38
25 29 34
26 30 34
32 36 42
32 36 42
41 47 54
44 50 58
51 57 66
56 64 75
65 74 86
70 79 92
72 82 96
77 87 100
73 83 96
68 77 89
60 68 78
49 56 64
43 49 57
35 40 47
38 43 50
38 44 51
45 51 59
48 55 63
53 60 70
60 68 78
67 76 88
62 71 82
57 65 75
53 61 70
48 55 63
42 48 55
44 49 57
50 57 66
57 64 74
55 63 72
56 64 74
55 63 73
48 55 64
45 51 59
44 50 57
46 52 60
44 50 58
40 45 52
35 40 46
31 35 40
26 29 34
22 25 29
32 36 42
31 35 40
35 40 46
49 56 65
58 66 76
65 74 86
71 81 94
75 86 99
77 87 101
74 84 96
71 80 93
67 77 89
67 76 87
63 71 83
62 70 82
66 74 86
69 79 91
66 75 87
66 75 87
70 80 92
67 76 88
61 70 81
56 65 75
57 64 74
52 59 68
48 54 62
38 43 50
26 30 35
32 36 42
39 44 51
40 45 52
46 52 61
50 56 65
49 56 64
55 62 72
56 64 74
51 58 67
62 70 81
62 70 81
67 76 88
68 77 89
60 68 79
55 63 73
57 64 74
53 60 70
47 54 63
40 46 53
37 42 49
31 35 41
30 34 39
36 41 48
39 45 52
34 38 44
32 36 42
33 37 43
41 47 54
43 49 57
45 51 59
43 49 56
42 48 55
46 52 60
47 53 61
49 55 63
57 65 75
59 67 77
58 66 77
49 56 65
40 46 52
40 45 52
38 44 50
44 49 57
47 54 62
54 62 71
62 70 81
60 68 79
55 63 72
59 66 75
54 61 70
53 60 69
52 59 68
57 65 75
57 64 73
50 57 65
53 60 70
59 67 77
59 67 77
56 64 74
57 64 73
48 54 62
43 49 56
36 41 47
30 34 39
35 39 45
38 43 49
47 54 62
53 60 69
63 71 82
61 69 80
65 73 84
74 84 97
76 85 98
73 82 94
67 76 86
65 74 85
57 64 73
51 57 66
47 54 62
43 49 56
29 32 36
27 29 33
36 39 43
30 33 37
31 34 38
36 40 44
32 35 40
37 41 46
41 45 50
44 48 53
30 33 37
33 36 41
30 33 37
34 37 41
28 31 34
20 22 25
30 32 36
18 20 22
22 24 27
20 22 25
15 17 19
22 24 27
23 25 28
27 29 33
24 27 30
27 30 33
29 31 35
21 23 26
22 24 26
23 26 29
21 23 26
22 24 27
19 20 23
17 19 21
20 22 24
22 24 27
23 26 29
23 25 28
32 34 38
27 30 34
30 33 37
24 26 29
34 37 41
34 37 42
33 37 41
40 43 48
37 40 45
40 44 49
49 53 59
43 47 52
43 47 52
33 36 41
47 51 57
44 48 53
33 37 41
34 37 41
30 33 38
27 30 34
35 38 42
36 39 44
27 30 34
41 45 50
45 49 55
47 51 57
41 45 51
53 58 64
45 49 55
46 51 57
46 51 57
48 52 59
43 47 53
44 48 54
42 46 51
37 41 46
30 33 38
28 31 34
23 25 28
21 23 26
18 20 22
7 8 9
11 12 13
19 20 23
19 21 23
23 26 29
19 21 24
29 32 36
44 49 57
52 59 67
54 60 70
41 47 54
31 35 40
25 29 33
20 23 27
20 23 27
22 25 29
25 28 32
31 35 40
27 30 35
25 28 32
27 31 35
35 40 46
42 48 55
49 56 64
46 51 59
50 57 66
58 66 76
65 74 85
65 74 85
71 80 92
64 73 85
66 75 86
62 70 81
57 65 75
57 64 75
50 57 66
34 39 45
30 34 39
30 34 39
35 40 46
43 49 57
53 61 71
60 68 78
72 82 94
78 88 103
75 85 98
85 96 111
91 103 120
101 114 131
93 106 122
97 110 127
102 115 132
99 112 129
96 110 127
92 103 119
85 97 112
81 92 106
78 88 101
68 77 89
71 80 92
64 73 84
57 64 74
51 58 67
41 47 54
30 34 40
24 27 31
32 36 41
34 38 44
34 39 46
41 46 54
37 42 48
34 39 45
39 44 51
34 39 45
28 32 37
41 46 54
53 60 69
60 68 79
66 75 87
66 75 87
64 73 84
62 71 81
56 64 73
57 65 75
57 64 74
58 66 76
64 73 84
60 68 78
60 69 80
63 72 84
66 75 87
65 73 85
61 69 80
56 64 74
51 58 66
44 50 57
38 43 50
33 38 44
25 28 33
27 31 36
37 42 49
45 51 60
51 58 67
53 61 70
55 63 73
57 64 74
58 66 77
64 73 84
72 82 95
78 88 102
88 100 116
96 108 125
101 115 133
110 124 143
111 127 147
117 133 155
114 130 151
118 134 156
116 132 152
118 133 154
111 126 145
109 124 142
105 120 139
107 121 140
106 121 140
104 118 137
102 116 134
105 119 138
107 122 141
110 125 144
111 126 145
108 123 142
103 117 135
102 117 137
101 115 133
98 112 129
93 106 123
90 102 118
87 99 114
83 95 110
81 91 106
78 89 103
73 83 96
63 71 82
55 63 73
43 49 56
33 38 44
34 39 45
50 56 65
59 67 77
70 80 93
82 94 108
95 109 126
105 119 137
111 127 146
117 134 155
121 137 157
119 134 155
122 139 161
119 135 157
120 135 156
116 131 152
115 130 150
115 131 152
42 48 56
54 61 71
48 54 63
44 50 58
43 49 56
41 46 54
33 38 44
36 41 47
49 55 64
58 67 77
66 75 87
74 84 97
77 87 100
77 88 101
79 90 104
78 88 102
77 86 100
71 81 93
67 76 87
61 69 80
57 64 74
55 62 72
51 58 67
43 49 56
32 37 43
27 31 36
46 52 61
60 68 78
66 75 88
69 78 90
69 78 90
68 76 88
68 77 89
68 77 89
61 70 81
58 66 77
55 62 71
54 62 72
56 63 73
63 71 82
58 66 77
55 63 72
53 60 70
57 65 75
58 66 77
58 66 77
59 67 78
61 70 81
60 68 80
59 68 78
61 70 81
61 69 80
60 68 79
59 67 77
59 68 79
65 73 84
60 68 79
60 68 78
52 59 68
49 55 64
50 57 66
45 51 59
42 47 55
39 44 51
39 44 51
44 50 58
44 50 58
46 52 60
42 48 55
45 52 60
50 57 67
43 49 56
35 40 46
25 28 33
26 29 34
36 41 48
45 51 59
52 59 68
60 68 79
63 72 83
63 71 81
62 71 81
57 65 75
57 65 75
58 66 76
58 66 77
64 73 84
61 70 81
63 71 82
66 75 87
63 72 84
68 77 89
68 77 89
70 80 93
66 75 87
60 68 79
52 59 69
53 61 70
61 69 80
57 65 76
54 61 71
55 62 72
50 56 65
42 48 56
42 48 55
41 46 54
41 46 54
40 46 53
40 45 52
38 43 50
38 44 50
40 45 52
42 47 55
43 49 56
44 50 57
49 56 65
62 71 82
61 70 80
62 70 81
72 81 94
76 86 99
73 83 96
83 93 107
77 87 100
77 88 101
72 80 92
70 79 91
64 72 84
62 70 81
59 67 77
59 67 77
58 66 75
61 68 79
55 63 72
59 67 78
60 68 78
67 75 87
65 74 85
67 76 88
77 87 99
69 77 88
63 71 82
57 64 74
44 50 57
25 28 32
25 28 32
36 40 47
43 48 55
51 57 66
57 64 74
52 59 67
46 51 58
39 44 50
35 40 46
34 38 43
31 35 40
23 26 30
22 25 29
25 29 33
25 27 31
27 29 32
28 31 35
35 38 42
29 32 36
30 33 37
39 42 46
33 36 40
36 40 44
36 39 44
32 35 40
35 38 42
31 34 38
32 35 39
29 31 35
27 29 32
20 22 24
12 13 15
10 11 13
11 12 13
11 12 14
15 16 18
15 17 19
21 23 26
21 23 25
25 27 30
24 26 29
25 28 31
29 31 35
24 26 30
28 30 34
20 22 25
28 31 34
33 36 40
31 34 37
30 32 36
31 34 37
28 31 34
25 27 31
24 26 29
30 33 37
40 44 49
42 46 51
45 49 54
36 40 44
39 43 48
35 38 43
42 46 51
34 37 41
40 43 48
32 35 40
28 31 35
32 35 39
30 33 37
28 31 35
32 35 38
25 27 30
30 33 37
34 38 42
34 38 43
39 42 47
44 47 53
44 49 54
44 48 53
38 42 47
36 40 45
46 50 55
37 41 46
41 44 49
34 37 41
33 36 40
28 31 35
28 30 34
25 27 30
18 20 22
18 20 23
19 21 24
15 17 19
8 9 10
9 10 12
14 15 17
36 41 46
40 45 52
44 50 57
39 44 51
48 54 62
41 46 52
35 39 45
32 37 43
27 31 36
28 31 36
26 30 34
36 41 47
43 48 55
40 44 51
43 48 55
49 56 64
51 58 66
53 60 68
63 72 84
61 68 79
65 73 84
65 73 84
72 81 94
70 79 91
69 78 90
67 75 87
63 71 82
64 73 84
62 69 79
51 58 67
42 47 54
32 36 41
28 31 36
36 41 47
46 52 60
54 62 71
58 65 75
64 73 84
76 86 99
82 93 107
84 95 110
84 96 112
90 102 118
86 98 114
82 92 106
81 92 106
82 93 106
81 92 106
79 89 103
74 84 97
66 75 87
59 67 77
53 61 70
48 54 63
47 54 62
45 51 59
42 47 55
52 59 68
63 72 83
68 78 90
69 78 90
65 73 85
62 70 81
62 70 81
58 65 76
61 70 81
64 73 85
69 79 91
73 83 96
74 84 97
79 90 104
84 96 110
78 89 102
77 87 101
76 86 100
78 88 102
78 89 102
72 82 95
71 80 93
70 80 93
72 82 95
73 83 96
73 83 96
78 89 103
82 93 108
79 89 103
78 89 103
75 86 99
77 88 102
75 85 97
69 78 90
67 77 89
63 72 83
68 77 89
67 76 88
63 72 83
55 63 73
46 53 61
46 53 61
50 56 65
54 62 72
54 62 72
59 67 78
59 67 77
61 69 81
67 77 89
71 80 92
83 94 108
79 89 103
84 96 111
84 96 111
79 90 104
86 97 112
90 103 119
95 108 125
91 104 121
96 109 126
95 108 124
96 109 126
94 107 123
95 108 124
93 105 122
95 108 124
90 103 119
88 100 115
87 98 114
87 98 113
83 95 109
81 91 105
77 88 102
69 78 90
59 67 78
57 65 75
57 65 75
65 74 86
68 77 89
65 74 86
65 74 85
61 69 80
59 67 77
53 61 70
44 50 57
29 33 38
25 28 33
26 29 33
22 25 29
23 26 30
29 33 38
41 47 54
46 52 60
55 63 73
61 69 79
65 75 87
65 75 87
77 88 101
73 83 96
74 83 96
77 87 101
73 83 97
80 91 105
95 107 124
92 104 120
86 98 114
84 95 110
76 86 100
67 76 88
57 64 74
43 49 57
32 36 42
31 35 41
40 45 52
48 54 63
43 49 57
42 48 55
38 43 50
45 51 59
40 45 53
41 47 54
39 44 51
37 42 48
44 49 57
44 50 57
41 47 55
37 42 48
29 33 39
31 36 41
40 46 52
39 44 51
43 48 56
40 46 53
45 51 59
50 57 67
56 63 73
54 61 71
55 63 73
52 60 69
46 53 61
40 46 54
50 57 65
52 59 68
51 58 68
53 60 69
54 62 71
54 62 71
50 57 67
51 58 67
58 65 75
64 72 83
62 70 81
62 71 83
62 71 82
69 79 91
72 82 95
71 81 94
80 91 106
87 98 114
90 102 117
96 109 126
93 107 124
91 103 119
81 92 107
75 85 98
72 82 95
69 79 91
67 76 88
62 70 81
58 66 77
51 57 66
36 42 48
21 24 28
17 19 22
26 30 35
26 29 34
24 28 32
24 27 32
29 33 38
36 41 47
38 43 50
43 49 57
42 48 55
38 43 49
31 35 40
28 32 37
35 40 46
35 40 47
33 38 44
36 41 48
36 41 48
44 50 57
48 55 63
54 61 70
56 64 74
56 63 73
52 59 68
48 55 64
51 59 68
47 53 62
52 60 69
47 53 61
46 52 60
42 47 54
33 37 42
33 38 43
37 41 47
32 36 42
40 45 52
43 49 57
48 55 63
52 59 69
58 66 75
64 72 83
68 78 90
68 77 89
72 82 94
75 84 97
72 81 92
82 94 108
78 88 102
78 89 103
78 88 101
70 80 92
62 70 82
59 67 77
57 64 74
57 64 74
59 67 78
70 79 91
74 83 96
77 87 101
78 88 102
78 89 103
78 88 102
80 90 105
75 85 98
82 93 107
77 86 99
79 89 102
75 85 97
76 85 98
69 78 89
69 77 89
73 82 94
68 76 87
59 66 76
53 60 69
44 49 56
40 45 51
28 31 36
25 28 32
24 27 31
23 26 30
16 18 21
17 19 22
28 31 36
34 38 44
35 39 45
42 47 54
44 50 57
45 51 58
54 60 69
56 63 72
47 53 61
23 25 29
22 24 27
26 29 32
31 33 37
26 29 32
27 29 33
31 34 38
30 33 37
33 36 41
32 35 38
29 32 36
37 40 44
30 33 37
33 36 40
17 19 22
12 13 15
11 12 13
10 12 13
13 14 15
17 18 21
19 21 24
19 21 23
24 26 29
23 26 29
25 27 31
28 31 34
26 28 32
23 26 29
26 29 32
29 31 35
32 35 39
25 27 31
34 37 41
33 36 40
30 32 36
22 24 27
25 27 30
31 33 37
31 33 37
35 39 43
37 41 45
26 28 32
35 39 43
32 35 39
33 37 41
34 38 42
36 40 44
37 41 46
43 47 53
21 24 27
28 31 35
30 33 37
27 30 33
33 36 40
33 36 41
31 34 38
30 33 37
28 31 35
36 40 45
34 37 41
36 40 45
32 35 39
33 36 40
29 32 35
38 41 46
27 30 33
27 30 33
27 29 33
32 34 38
21 23 26
16 18 20
17 19 21
17 19 21
17 19 21
12 13 14
14 16 18
17 19 21
31 35 40
34 39 45
33 37 42
36 41 47
37 41 47
36 41 48
37 41 46
44 49 56
46 52 59
44 50 57
45 50 58
48 54 62
48 54 62
59 66 76
57 64 74
57 64 73
60 68 78
60 68 78
59 66 76
63 71 81
62 70 81
61 69 79
63 72 82
64 73 84
64 73 84
57 64 74
55 63 73
49 55 63
33 38 43
32 36 42
25 28 32
19 22 25
28 31 37
34 39 44
38 43 49
44 49 57
46 53 61
52 58 67
54 61 71
61 69 79
61 70 80
69 79 91
69 78 90
69 78 90
65 73 84
64 73 84
69 78 91
61 69 80
47 54 62
39 45 51
38 43 49
38 43 50
34 39 45
37 42 48
36 41 47
38 43 49
42 47 54
44 50 58
48 54 63
58 66 76
61 70 81
68 78 90
77 88 102
80 91 105
83 94 108
81 93 107
90 103 119
89 102 118
96 109 126
91 104 121
87 99 115
85 97 112
86 98 113
81 92 106
77 87 101
71 81 94
71 81 93
67 76 88
70 80 92
67 76 87
68 77 89
73 83 95
78 89 103
85 97 112
85 97 111
87 98 113
88 100 116
89 101 116
86 98 114
90 102 117
88 100 116
85 96 110
82 94 108
84 95 110
80 91 106
87 99 114
88 100 116
83 94 108
80 91 105
75 85 98
71 80 93
68 77 89
65 73 85
53 61 70
40 46 53
30 34 40
26 30 35
30 34 39
39 45 52
47 53 61
46 53 61
50 57 65
50 56 65
48 55 63
52 59 68
60 68 78
63 72 84
64 73 85
65 74 86
65 73 84
62 71 83
62 71 82
66 75 87
71 81 94
79 89 103
76 86 100
71 81 93
67 76 88
52 59 68
38 43 50
28 32 37
30 34 40
44 51 59
58 66 76
59 67 78
60 68 78
63 72 84
63 73 84
57 65 75
58 66 76
57 64 74
56 64 74
54 61 71
50 57 66
50 57 66
47 53 61
38 43 50
29 33 38
24 27 31
22 24 28
29 34 39
34 39 45
41 47 54
49 55 64
57 65 75
63 72 83
69 77 89
74 84 97
72 81 93
71 81 93
67 76 88
81 92 106
69 79 91
61 69 80
58 66 76
48 55 64
41 46 54
29 33 38
20 23 27
32 36 42
41 46 54
45 52 60
46 52 60
49 56 65
42 48 55
33 38 44
21 23 27
17 20 23
23 26 30
23 26 30
25 29 33
27 31 36
23 26 31
26 30 35
35 40 46
34 39 45
29 33 38
22 25 29
17 20 23
22 25 29
27 31 37
29 33 38
26 29 34
34 39 46
35 40 46
38 43 49
46 52 60
54 61 71
57 65 75
60 68 79
65 73 85
69 78 91
69 78 90
68 77 89
65 74 85
63 72 84
61 69 80
64 72 84
72 81 93
73 83 96
77 87 101
79 91 105
80 91 105
80 91 106
83 95 110
83 95 110
88 100 116
90 102 118
93 105 121
93 106 122
89 101 117
74 84 98
73 82 95
69 78 90
68 78 90
69 79 91
64 73 85
61 70 81
57 65 75
50 57 66
49 55 63
47 54 62
44 50 58
39 44 51
33 38 44
31 35 40
27 31 36
28 32 37
29 33 38
25 29 33
37 42 49
39 44 50
43 50 57
44 50 58
49 55 64
55 62 72
66 75 86
69 78 91
74 84 97
84 95 110
84 95 109
84 95 109
89 101 117
86 98 113
84 95 110
81 93 108
73 83 96
68 78 90
65 74 85
63 71 81
54 61 71
51 58 67
42 48 56
40 46 53
45 51 59
52 59 68
58 66 76
63 72 83
71 80 93
75 86 99
77 87 100
77 87 99
78 89 103
76 86 99
80 91 105
85 97 112
82 93 108
77 87 100
72 82 95
76 86 100
73 82 95
74 84 96
71 80 92
71 80 92
66 75 87
69 78 89
72 81 93
74 84 97
79 89 103
75 84 97
71 80 92
67 76 87
62 70 81
67 76 87
64 72 83
67 76 87
67 75 87
63 71 82
60 68 78
59 67 77
63 71 81
63 71 82
66 75 86
67 75 86
65 73 84
68 76 87
57 64 73
51 58 66
46 52 60
46 52 59
44 49 56
39 44 50
38 42 48
40 45 51
41 45 52
46 52 59
51 57 65
49 55 63
52 58 66
62 69 79
57 63 72
65 73 83
62 69 78
62 69 79
48 54 62
28 31 36
18 19 22
24 26 29
26 28 32
22 24 27
30 32 36
29 32 35
28 31 34
27 30 33
29 31 34
27 30 34
31 34 38
28 30 34
30 32 36
22 24 27
16 17 19
16 17 19
18 20 22
18 20 23
25 27 30
25 28 31
25 28 31
26 28 31
25 27 30
24 27 30
23 25 28
21 23 26
22 24 27
19 21 24
21 23 25
21 23 26
20 22 24
21 23 25
20 22 24
20 22 24
21 23 26
31 34 38
32 34 38
34 37 42
37 41 45
35 38 42
31 34 37
34 37 42
28 31 34
33 36 41
35 38 42
27 30 33
34 37 41
31 34 38
27 30 34
25 27 31
36 39 43
31 34 37
30 33 36
26 29 33
34 37 41
30 33 36
29 31 35
34 37 41
31 34 38
36 39 43
25 27 30
22 25 28
18 20 23
23 25 28
29 31 35
19 21 23
24 26 29
22 23 26
20 21 24
15 17 19
20 22 24
31 34 39
44 49 55
45 50 57
43 48 54
43 48 55
46 52 60
52 59 67
55 62 71
52 58 66
51 57 65
58 64 73
59 66 75
57 65 75
54 61 70
56 63 73
49 55 63
45 51 58
45 50 58
46 52 60
41 46 53
34 39 45
35 40 45
33 38 43
31 35 41
39 43 50
43 48 55
44 50 58
47 53 61
50 56 65
43 49 56
37 42 48
46 52 60
53 59 67
48 54 62
49 55 64
52 59 68
46 52 60
44 50 58
42 48 55
54 61 70
53 60 69
51 57 66
46 52 60
43 49 57
39 44 51
49 55 63
52 59 68
53 60 70
47 53 61
44 50 57
40 46 53
33 38 44
25 29 33
34 39 45
37 42 48
39 44 51
46 52 60
48 54 62
46 52 61
47 53 61
49 56 65
54 62 71
61 69 79
63 72 83
68 77 89
66 74 86
73 82 95
72 82 94
77 88 102
78 89 102
84 95 109
79 90 104
78 88 101
78 88 102
77 87 100
70 80 93
70 79 92
75 85 99
80 90 104
77 88 101
79 90 105
74 84 98
83 94 108
81 92 107
77 87 100
76 86 99
76 86 99
68 77 89
70 79 91
71 80 93
74 84 97
74 84 98
78 89 103
76 87 101
77 88 102
77 87 100
69 78 90
59 67 78
55 62 72
48 55 63
50 57 66
49 56 65
48 54 63
47 53 62
47 54 62
51 58 67
49 56 65
45 52 60
45 52 60
39 44 51
39 44 51
34 38 44
26 30 34
28 32 37
33 38 44
43 49 56
47 54 62
52 59 68
56 63 73
55 62 72
57 65 75
51 57 66
49 55 64
46 53 61
49 56 65
50 57 66
55 63 73
58 66 76
59 67 78
62 70 81
63 72 83
60 67 78
53 60 69
43 48 56
33 38 43
36 41 47
47 54 62
59 67 78
68 76 88
72 82 94
81 92 106
83 94 108
81 92 107
80 91 105
79 89 103
76 87 101
78 89 102
79 90 105
81 93 107
83 94 109
79 90 104
73 83 96
63 72 83
56 63 73
50 57 66
37 42 49
21 24 28
33 37 43
48 54 63
60 69 79
69 79 91
75 85 99
83 94 108
88 100 115
65 74 85
64 72 84
63 72 83
61 69 80
62 70 81
55 62 72
51 57 66
45 51 59
37 42 49
42 48 56
37 42 49
32 36 42
33 37 43
31 35 41
33 38 44
31 36 41
34 39 45
39 44 51
35 40 47
41 47 55
46 52 61
47 54 62
51 58 68
54 61 71
55 62 72
53 61 70
53 60 70
53 60 69
56 64 74
59 67 78
59 67 78
59 67 78
55 62 72
57 65 75
57 64 74
65 74 85
60 68 79
55 63 73
49 56 65
49 55 64
45 51 59
45 51 58
42 48 55
38 43 50
41 46 53
46 52 61
44 50 58
35 40 46
37 42 49
43 49 57
49 56 65
52 59 68
55 63 73
52 59 68
56 64 74
57 65 75
53 60 70
55 63 73
57 65 75
52 59 68
49 56 64
38 43 50
36 41 47
42 48 56
46 52 60
47 53 61
48 54 63
53 60 70
56 63 73
55 62 72
54 62 72
44 51 59
31 35 40
20 23 27
29 33 38
35 39 46
41 46 54
40 46 53
36 40 46
33 38 44
40 45 52
46 52 60
51 57 66
53 60 69
54 62 72
50 57 66
56 64 74
56 63 73
59 67 78
62 70 80
60 68 79
62 71 82
67 76 88
64 72 84
54 61 70
48 55 63
47 54 62
53 60 70
50 57 66
46 52 60
41 47 54
37 42 49
37 41 47
42 47 54
52 59 68
63 71 81
66 74 86
72 82 94
73 83 95
81 92 107
79 90 104
75 86 99
75 85 98
72 82 94
76 87 100
72 82 95
73 83 95
77 87 101
69 77 89
65 73 85
65 73 84
66 75 86
63 71 82
65 73 84
69 77 89
67 76 88
70 79 91
69 78 89
60 68 78
61 69 79
61 68 78
55 61 70
55 62 71
46 52 59
43 49 56
37 41 47
41 47 54
38 43 50
39 44 51
36 41 47
37 42 48
37 42 49
36 40 46
43 48 55
42 47 54
32 36 41
27 30 35
29 33 37
26 29 33
28 32 36
31 35 39
28 31 36
25 28 33
20 22 25
21 23 27
23 26 29
35 39 45
42 47 53
50 56 63
57 63 72
52 58 65
53 59 67
58 65 74
57 63 72
58 64 73
54 60 68
35 39 44
14 15 17
20 22 24
22 24 27
21 23 25
31 33 37
25 27 30
23 25 28
28 30 34
24 26 29
30 33 36
28 30 34
30 32 36
24 27 30
24 26 29
20 22 25
21 23 25
22 24 27
26 29 32
25 27 31
23 25 28
22 24 26
21 23 26
23 26 28
20 21 24
17 19 21
14 15 17
10 11 12
11 12 13
14 15 17
18 19 22
17 18 21
19 21 23
22 25 27
20 22 25
30 32 36
30 33 37
32 35 39
30 33 36
36 39 44
28 31 34
30 33 37
27 29 33
27 30 34
38 42 46
29 31 34
29 32 35
30 32 36
29 32 36
23 26 29
30 32 36
23 25 28
24 26 29
25 27 30
18 20 23
25 27 30
23 25 28
22 24 27
27 30 33
21 23 26
24 26 28
26 28 31
24 26 29
24 26 29
16 18 20
22 24 26
21 22 25
26 28 32
25 28 32
22 25 28
15 17 19
17 19 21
30 33 38
38 42 48
51 57 65
54 60 68
65 72 82
71 79 90
73 81 92
72 81 93
75 84 95
74 83 95
78 87 100
63 71 81
66 74 85
70 78 89
67 75 86
62 70 81
60 68 77
59 67 77
63 71 81
65 74 84
63 71 81
64 73 83
70 79 90
78 87 99
74 83 96
71 80 92
82 91 104
79 89 103
79 89 102
78 89 102
72 81 93
76 85 98
71 80 91
67 75 86
65 73 84
61 68 78
57 64 74
53 60 70
46 52 60
31 35 41
18 21 24
29 33 37
36 41 47
42 47 54
34 39 45
36 41 47
29 33 38
33 37 43
40 46 53
43 48 56
44 50 57
40 46 53
35 40 46
34 38 44
32 36 42
33 37 43
31 35 41
34 38 43
36 40 46
44 50 58
55 62 72
59 67 77
64 72 83
70 79 91
69 78 90
68 77 89
66 75 87
64 72 84
60 68 79
50 56 65
48 55 64
44 50 58
48 54 63
44 50 58
47 53 61
58 66 77
60 68 79
61 69 80
67 76 87
72 81 94
74 84 97
72 81 94
74 83 95
73 83 96
76 86 99
75 85 98
74 84 98
75 85 98
76 87 100
76 87 101
73 83 96
68 77 89
60 68 79
54 61 71
48 55 64
47 53 62
43 48 56
35 40 46
41 46 53
37 42 48
46 53 61
49 55 64
47 54 63
46 52 61
44 50 57
40 46 53
44 50 57
44 50 57
52 60 69
53 61 70
55 63 73
55 62 72
52 59 68
55 62 72
57 64 74
57 64 75
59 67 77
59 67 77
61 69 80
58 67 77
59 67 77
60 68 79
59 66 77
58 66 76
63 71 82
68 78 90
73 83 95
80 91 106
78 88 103
74 84 97
71 81 93
76 86 100
76 87 101
74 84 97
71 80 93
63 71 82
58 66 77
46 53 61
38 43 50
47 54 63
57 64 74
65 75 87
70 80 93
67 76 88
69 78 91
71 81 94
67 77 89
68 77 89
72 82 94
73 83 96
68 77 89
64 72 83
59 66 77
56 64 74
57 64 75
52 59 68
42 48 55
33 38 43
32 37 43
33 37 43
40 45 53
46 52 60
80 91 105
80 91 105
77 87 101
77 88 102
76 86 99
68 78 90
65 74 86
58 66 77
52 59 68
50 57 66
58 66 76
64 73 84
71 80 93
70 80 92
71 80 93
81 92 107
76 86 100
77 87 101
73 83 97
70 80 93
67 76 89
55 63 73
46 53 61
41 47 54
45 51 59
43 49 57
39 45 52
35 40 46
33 38 43
31 35 41
42 48 55
46 52 61
46 53 61
47 53 62
51 57 66
45 51 59
44 51 59
38 44 51
38 43 50
42 48 55
43 50 57
42 48 56
35 40 46
30 34 40
34 38 44
28 32 37
25 29 33
35 39 46
44 50 58
50 58 67
56 63 73
60 69 80
67 76 88
70 79 92
72 82 95
78 89 103
82 94 109
76 86 100
76 86 99
70 79 92
62 71 82
56 64 74
49 56 64
44 50 58
32 36 42
40 46 53
47 53 61
56 64 73
60 68 79
58 66 76
55 62 72
54 61 71
53 61 70
55 63 72
53 61 70
53 60 70
53 60 70
49 56 65
48 55 64
47 54 62
43 49 56
37 43 49
32 36 42
26 29 34
26 29 34
41 47 54
49 56 65
55 62 71
59 67 77
57 65 75
58 66 77
53 60 69
56 64 74
56 63 73
51 57 66
48 55 63
51 58 67
50 57 65
44 50 57
34 39 45
26 30 35
18 20 24
20 23 27
24 28 32
29 33 38
39 44 51
43 49 56
45 51 59
56 63 73
62 70 81
61 69 80
61 69 81
68 77 88
59 66 76
57 64 74
53 60 69
55 61 70
53 60 69
51 58 67
52 59 69
46 53 61
52 58 66
41 46 53
40 45 52
52 59 68
48 54 62
44 50 57
37 41 47
35 39 45
36 40 46
38 43 49
34 38 44
25 29 33
23 26 30
25 28 32
39 43 50
44 49 56
44 50 56
48 54 62
47 52 60
39 43 49
44 49 56
43 48 55
45 51 58
46 51 58
45 51 58
39 44 50
38 43 49
38 43 48
29 33 37
29 32 37
23 25 29
15 17 19
21 23 27
31 35 40
35 39 45
41 45 52
47 52 60
45 50 57
50 55 63
47 53 60
47 52 59
50 56 64
57 63 71
50 55 63
64 71 80
57 63 71
67 75 84
52 58 65
31 33 37
15 16 18
16 18 19
14 16 17
14 15 17
14 16 18
19 20 23
14 15 17
14 16 18
16 17 19
17 18 20
19 20 23
16 17 19
18 19 22
18 19 21
15 16 18
18 20 22
18 20 22
11 12 14
12 13 15
18 20 23
15 16 18
15 16 18
7 8 9
10 11 12
12 13 15
13 14 16
10 11 13
8 9 10
18 20 22
25 28 31
25 28 31
27 30 34
25 28 32
28 31 34
41 44 49
30 33 36
26 29 32
29 32 36
30 33 36
27 29 33
26 29 32
27 30 33
16 18 20
21 23 26
19 21 24
20 21 24
13 14 16
15 17 18
18 20 22
21 23 26
29 31 35
23 25 27
29 32 36
22 24 27
27 29 32
20 22 24
15 16 18
16 18 19
13 14 15
17 19 21
26 29 32
30 33 38
27 30 34
32 36 40
25 27 31
19 21 24
20 22 25
21 24 27
29 32 36
34 38 43
47 53 60
52 58 65
52 57 65
66 73 84
57 63 72
45 50 57
58 65 73
57 64 72
52 59 67
59 66 75
57 64 73
71 79 91
76 85 98
70 78 89
76 85 96
76 85 98
87 98 111
87 97 111
83 93 107
77 86 98
76 85 97
76 86 98
86 97 111
91 103 119
98 109 125
92 104 119
90 101 116
93 105 120
93 104 120
88 98 112
83 93 106
89 100 115
83 94 108
75 85 98
74 83 95
66 75 86
68 77 88
56 63 73
57 64 74
52 58 67
45 51 58
39 44 50
35 39 46
34 38 44
28 32 37
17 20 23
21 24 27
31 35 40
34 39 45
35 40 46
34 38 44
33 38 44
29 33 38
29 33 38
30 34 39
30 35 40
35 40 46
44 49 57
44 50 58
52 59 69
57 64 74
59 67 77
67 76 87
65 74 86
70 79 91
65 74 86
70 79 91
70 80 92
71 81 93
67 75 86
64 73 84
64 73 84
64 72 83
56 64 74
51 58 67
48 55 63
47 53 62
49 56 64
48 55 63
50 56 65
48 54 62
45 51 59
44 50 58
39 45 52
38 44 51
43 49 57
43 49 57
40 46 53
38 43 50
39 45 52
47 53 61
51 58 67
52 59 69
59 67 77
59 68 78
65 74 86
73 83 95
79 89 102
79 90 104
84 95 109
87 99 114
86 98 113
81 92 107
85 96 111
83 95 109
75 86 100
72 82 95
67 76 88
63 72 83
58 66 77
56 63 73
54 62 72
52 60 69
56 64 74
54 61 71
50 57 65
42 48 56
41 46 54
50 56 65
58 67 77
64 73 85
65 73 85
70 80 92
73 83 96
81 92 106
83 94 108
83 94 109
82 93 108
85 97 112
83 94 109
82 93 107
82 93 108
89 101 116
89 101 117
91 104 120
86 98 113
79 90 104
73 83 97
63 72 83
54 62 72
47 54 62
34 38 44
33 38 44
39 44 51
48 54 63
52 58 68
51 58 67
47 54 62
31 35 41
25 29 33
30 34 39
32 37 42
33 37 43
30 34 40
38 44 51
43 49 57
40 45 52
37 42 49
40 46 53
43 49 57
90 102 118
87 99 114
88 100 116
86 98 114
87 99 115
88 100 116
87 99 114
82 93 107
77 88 101
71 81 94
69 79 91
70 80 93
69 78 90
69 79 91
71 81 95
70 80 92
64 73 84
46 52 60
29 33 38
32 36 42
35 40 46
41 47 54
42 48 56
39 44 51
33 37 43
34 38 44
36 41 47
31 35 41
26 29 34
29 33 39
46 52 60
52 59 68
51 58 68
47 54 62
50 57 66
38 43 50
35 40 46
32 37 42
32 36 42
32 37 43
37 42 49
42 47 55
44 50 57
46 52 60
43 48 56
33 37 44
33 38 44
34 39 45
33 38 44
34 38 44
37 43 50
37 42 49
43 49 56
50 57 66
53 60 70
59 67 77
59 67 78
64 73 85
66 75 87
64 74 86
67 76 88
65 74 86
57 64 74
47 54 62
32 37 43
30 34 39
40 46 53
48 55 64
57 65 75
60 68 78
59 66 77
58 66 77
55 62 72
55 62 72
53 60 69
52 59 68
50 56 65
46 52 60
48 54 63
55 62 72
55 62 71
52 59 69
44 50 57
41 46 54
37 42 48
36 41 48
36 41 47
37 42 48
36 41 48
33 38 44
30 34 39
36 41 48
37 42 48
39 44 51
38 43 50
35 40 46
38 43 50
35 40 46
33 38 44
31 35 40
33 38 44
39 44 51
45 51 58
41 46 53
39 44 50
34 39 45
30 34 39
27 31 35
24 28 32
28 31 36
23 26 30
22 25 29
19 21 24
14 16 18
17 19 22
20 23 26
26 30 34
34 39 45
39 44 50
40 45 52
45 50 58
45 51 59
46 52 60
54 61 70
52 59 68
57 64 74
58 65 74
55 62 71
51 57 65
53 59 68
55 61 70
55 62 71
49 55 63
51 57 65
55 62 72
47 53 61
44 49 57
48 53 61
41 46 52
42 47 54
37 41 47
29 32 37
26 29 33
23 26 30
20 22 25
19 21 24
24 27 31
26 29 33
27 31 35
30 33 38
21 24 27
13 14 16
25 28 32
34 38 43
37 41 46
45 50 56
38 42 48
47 52 59
43 47 53
47 52 59
43 48 54
53 58 66
46 51 57
55 61 69
59 65 73
51 57 64
57 63 71
52 58 65
59 65 73
63 69 78
59 64 72
42 47 53
27 29 33
14 15 17
6 7 8
8 9 10
13 14 15
14 15 17
12 13 15
11 12 13
14 15 17
14 16 18
13 14 16
13 14 16
8 9 10
8 9 10
7 7 8
10 11 12
12 13 15
10 11 12
8 9 10
10 11 12
12 13 14
7 8 9
9 10 11
4 5 5
8 9 10
14 15 17
15 17 18
17 19 21
27 29 32
25 28 31
34 37 40
29 32 35
23 25 28
26 28 32
27 30 33
27 29 32
19 21 24
17 19 21
22 24 27
20 22 24
19 21 23
18 20 22
17 19 21
17 19 21
14 16 18
19 20 22
19 21 23
21 23 26
20 22 24
24 26 29
19 21 23
22 24 27
23 25 27
13 14 16
17 19 21
17 19 21
21 23 26
19 20 23
18 19 22
22 24 28
21 23 26
30 33 38
22 25 28
28 31 35
24 26 30
34 37 42
31 34 39
30 33 37
28 31 34
30 34 38
33 37 42
37 41 46
34 38 44
31 35 40
38 42 47
37 42 48
47 52 59
53 59 68
55 61 70
64 71 80
59 66 75
69 78 89
76 84 96
78 87 100
80 89 102
84 94 108
79 89 102
78 88 100
86 97 111
81 90 104
88 98 112
85 95 109
86 96 111
86 97 112
86 97 111
85 95 109
84 94 108
83 93 107
80 89 102
78 88 101
82 92 106
82 93 106
83 93 107
76 86 99
64 72 83
68 76 87
58 65 75
58 65 74
50 57 65
48 54 62
45 51 58
39 44 51
30 34 40
25 28 33
20 22 26
34 38 44
30 34 39
37 42 49
37 42 48
37 42 48
29 33 38
28 32 37
26 30 35
29 33 39
38 43 50
49 55 64
60 68 79
65 73 84
71 81 94
84 95 110
85 96 111
92 105 121
94 106 123
89 101 117
91 104 120
88 99 114
96 108 125
96 108 125
90 103 119
91 104 120
84 95 110
88 100 116
94 107 124
96 109 126
91 104 120
87 98 112
91 103 119
83 95 110
88 100 115
83 95 110
84 96 111
91 104 120
91 103 119
91 104 120
89 101 116
87 98 113
87 99 115
85 96 110
89 101 117
85 97 112
90 102 118
93 105 122
96 109 127
97 110 128
104 118 137
106 120 139
104 118 136
108 123 142
102 116 134
99 113 131
94 107 124
92 105 122
90 102 118
87 99 114
88 100 116
90 102 118
89 102 118
85 97 112
80 91 105
82 93 108
80 91 106
79 90 104
85 96 111
84 95 109
83 95 110
78 88 102
69 79 91
67 76 88
66 75 87
68 77 90
72 82 95
77 88 101
78 89 102
77 87 101
78 88 102
78 89 104
80 91 105
82 94 109
83 94 109
80 92 107
84 96 111
87 99 114
87 100 116
86 97 113
82 93 107
79 89 103
76 86 100
74 85 98
67 76 89
56 63 73
54 61 71
43 49 56
28 32 37
31 35 41
44 49 57
48 54 62
48 55 64
42 48 55
34 38 44
32 37 43
40 45 52
47 54 62
52 59 68
49 56 65
55 62 72
62 70 81
64 73 85
65 74 85
88 101 117
86 99 115
84 96 111
80 91 105
78 88 102
68 78 90
60 68 78
57 65 75
50 56 65
43 49 57
32 36 42
31 35 41
31 36 41
39 44 51
40 45 52
38 43 49
30 34 39
31 35 41
32 36 42
40 46 53
50 56 65
52 59 68
50 57 66
49 56 64
49 56 65
53 60 69
58 66 76
65 74 86
74 85 98
80 91 105
79 90 105
82 93 107
77 88 102
73 83 96
64 72 84
55 63 74
46 52 60
32 37 43
22 25 29
29 33 38
36 41 48
45 51 59
46 52 60
45 52 60
44 50 58
39 44 51
33 38 44
32 36 42
36 40 47
38 43 50
34 38 44
36 40 47
37 42 49
44 50 58
41 47 55
40 46 54
40 46 53
39 44 51
36 41 47
33 38 44
36 41 48
34 39 45
28 32 37
44 50 58
49 56 65
59 67 78
61 69 80
61 69 80
62 70 81
63 72 84
63 72 83
64 73 84
60 68 79
54 61 70
48 54 62
45 51 59
45 52 60
40 46 54
45 51 59
47 53 61
44 50 58
47 54 62
54 61 70
58 65 76
59 67 78
61 69 79
65 73 84
61 69 79
64 72 83
58 66 77
56 64 74
55 62 71
50 57 66
47 53 61
45 51 59
48 54 62
50 57 65
56 64 74
57 65 75
59 67 77
59 67 78
60 68 79
61 68 78
58 66 76
56 64 74
50 57 66
46 52 60
57 64 74
61 69 80
68 77 88
61 69 80
59 66 77
58 65 74
62 69 80
58 64 73
57 64 74
52 59 69
56 63 73
54 61 70
55 62 71
60 68 78
56 63 72
53 59 68
51 57 66
47 53 60
43 48 55
42 48 55
44 50 57
45 51 58
48 54 62
53 59 68
60 67 77
60 67 77
63 70 80
64 71 81
58 65 75
56 62 71
56 62 71
62 70 80
55 61 70
47 53 61
43 48 54
40 44 51
38 43 49
37 41 47
34 38 43
33 37 42
32 35 40
34 38 44
30 33 38
28 31 35
18 21 23
17 19 21
27 30 34
30 34 38
36 40 45
33 37 42
35 39 44
38 42 48
40 45 51
34 38 43
44 48 55
34 38 43
43 48 54
40 45 51
44 49 55
40 44 49
42 47 53
39 43 48
45 49 55
41 45 51
41 44 49
45 50 56
44 49 55
45 49 54
49 54 60
24 26 29
9 10 11
15 17 18
24 27 29
20 22 24
21 23 26
13 15 16
21 23 26
18 20 22
12 13 15
13 14 16
16 18 20
17 19 21
16 18 20
18 19 21
14 15 17
13 14 16
14 15 17
16 18 20
12 13 15
11 12 13
9 9 11
14 15 17
21 23 25
18 20 23
18 19 21
21 22 25
23 25 28
25 28 31
22 24 27
27 29 32
19 20 23
21 22 25
19 21 23
22 24 26
18 19 22
23 25 28
16 17 19
16 17 19
12 13 15
15 16 17
16 17 19
22 24 27
20 21 24
26 28 32
26 28 31
15 17 19
18 19 22
16 18 20
17 18 21
29 32 36
29 32 36
29 32 36
31 34 38
34 38 43
33 36 41
33 36 41
45 49 55
34 38 43
38 41 46
32 35 40
29 32 36
28 31 35
28 31 35
22 24 27
23 26 30
18 20 22
13 14 16
18 20 23
22 25 28
28 31 35
27 30 34
24 26 30
22 24 28
25 28 31
32 36 41
31 35 39
41 46 53
29 32 37
34 38 44
31 35 40
44 49 56
44 49 56
45 50 57
47 52 59
61 68 77
62 69 79
62 70 80
67 75 85
60 67 76
58 65 74
58 65 74
56 63 73
53 59 68
55 62 71
41 46 54
41 45 52
45 51 58
46 51 59
45 51 58
42 47 54
42 48 55
39 44 50
38 42 48
37 41 47
25 29 33
23 26 30
37 41 48
43 49 56
51 58 67
55 62 71
59 67 77
71 80 92
71 81 93
71 80 92
68 77 89
69 79 91
68 77 89
68 77 88
65 73 84
77 87 101
79 90 104
82 93 107
89 100 115
92 104 119
100 113 131
100 113 130
97 110 128
103 117 135
106 121 140
108 123 142
109 124 143
117 133 154
115 130 149
118 134 155
115 131 151
124 140 161
128 145 168
123 139 160
127 144 167
122 138 160
132 150 174
138 156 179
128 146 170
139 157 181
133 150 174
139 157 181
142 161 186
137 155 179
135 153 176
130 147 170
129 146 169
132 150 173
129 146 169
130 147 170
126 143 166
118 134 154
115 131 151
111 127 146
110 125 145
106 120 139
110 126 146
110 125 144
108 122 141
104 118 136
97 110 127
102 115 133
94 108 125
102 115 133
102 115 133
103 118 136
101 115 133
97 111 128
99 113 130
89 101 117
85 97 113
83 94 109
75 85 98
72 82 95
78 89 103
81 92 107
88 100 115
89 102 119
88 100 115
89 101 117
90 103 119
90 102 118
90 102 118
90 102 118
95 107 123
93 105 122
96 109 126
97 110 126
101 114 132
104 118 136
103 117 136
103 116 134
93 105 122
86 98 113
83 94 109
77 87 101
73 83 96
69 78 90
62 70 81
56 64 74
47 54 63
38 43 50
27 31 36
23 26 30
27 31 37
37 42 48
44 50 58
40 45 53
36 41 47
28 32 37
18 20 24
32 37 42
47 53 62
62 70 82
72 82 95
78 89 104
78 89 103
77 87 100
80 91 105
37 42 49
35 40 47
33 37 43
32 37 43
31 36 42
28 32 37
24 27 31
24 27 32
25 29 34
26 30 35
26 29 33
34 39 45
42 47 54
47 53 61
51 58 67
52 59 69
54 61 71
61 69 80
69 79 91
78 88 101
77 88 101
81 92 107
80 91 105
79 89 103
77 88 102
79 89 103
77 88 101
76 87 101
78 88 102
78 88 102
76 87 100
74 84 97
68 77 90
59 67 77
52 59 68
42 47 55
33 37 43
28 32 37
34 39 45
38 43 50
40 45 52
41 46 53
40 46 53
43 48 56
40 45 53
46 53 61
51 58 67
52 60 69
55 63 72
52 59 69
49 55 64
48 54 63
45 51 59
37 42 48
31 36 41
34 39 45
22 25 29
25 29 34
34 38 45
39 44 52
43 49 56
47 53 62
57 65 75
69 78 90
73 82 95
75 85 98
73 83 95
78 88 103
76 87 101
76 86 98
76 86 99
77 87 100
78 88 102
79 90 104
81 91 105
84 95 109
84 94 109
85 96 110
84 95 110
75 85 98
74 84 97
72 81 94
73 83 96
80 90 104
86 97 113
86 97 112
83 94 109
87 98 114
81 92 107
85 96 111
79 89 102
77 88 102
77 87 101
81 92 106
77 87 100
77 87 101
77 87 101
82 92 106
85 96 111
81 92 106
85 96 110
85 97 112
88 99 114
86 98 113
86 97 112
88 100 115
82 93 108
89 101 116
92 104 120
92 104 120
92 104 121
90 101 117
88 100 115
89 101 116
84 95 110
86 97 111
88 99 113
78 88 101
72 81 93
70 78 90
66 75 86
74 83 96
64 72 82
65 73 84
73 82 94
67 75 87
70 78 90
63 70 80
64 71 81
63 71 81
65 73 84
69 77 87
69 77 88
65 73 84
69 77 88
67 75 85
60 67 76
60 67 76
54 61 70
58 65 74
54 60 69
54 60 68
57 64 74
58 64 73
43 48 54
50 56 64
44 49 56
40 44 51
40 45 51
38 43 48
36 40 46
36 40 45
29 32 36
23 26 30
21 24 27
26 29 33
24 27 30
19 21 24
20 22 25
27 30 34
27 30 34
33 36 41
29 32 36
38 43 48
37 41 46
31 34 38
29 32 35
33 36 41
36 40 45
40 44 49
26 28 32
35 38 42
47 51 57
34 38 42
32 35 39
38 41 46
38 41 46
39 43 47
30 32 36
19 20 23
25 27 30
17 19 21
19 21 23
18 20 22
18 19 21
18 19 22
13 14 15
19 21 23
14 15 17
15 17 19
18 19 21
13 14 16
13 14 16
16 17 19
14 16 17
16 17 19
11 12 14
12 13 15
5 6 6
8 9 10
10 11 12
12 13 14
20 21 24
23 25 27
20 22 24
16 18 20
9 10 12
9 10 12
11 12 13
15 16 18
17 18 20
10 11 13
20 22 25
25 27 30
19 20 23
14 16 18
23 25 27
26 28 31
20 21 24
18 19 21
11 12 13
15 17 18
17 18 20
12 13 15
17 19 21
21 23 26
21 23 25
23 26 29
24 27 30
24 27 30
21 23 26
26 28 32
26 28 32
22 24 27
23 26 29
27 30 33
20 22 25
19 21 23
23 25 28
23 26 30
20 22 25
27 30 34
20 22 25
35 39 44
33 36 41
35 39 44
35 39 44
29 32 37
36 40 45
38 42 48
43 48 55
43 48 54
46 51 58
46 51 58
47 53 60
39 43 49
49 54 62
46 52 59
40 44 50
49 55 63
50 55 63
48 54 61
51 57 65
54 60 69
47 53 61
44 49 56
44 50 57
39 44 51
34 38 44
31 35 40
25 28 32
21 24 27
19 21 24
27 30 34
31 35 40
26 30 34
24 27 31
23 26 30
31 34 39
44 49 56
48 54 62
51 58 67
62 70 81
65 74 85
71 80 92
77 87 100
79 90 104
80 90 104
82 92 106
80 91 106
80 90 103
80 91 105
82 93 107
85 97 111
84 95 110
89 101 117
88 101 117
96 108 124
105 119 138
105 119 137
115 130 150
116 131 150
113 129 149
115 130 150
120 136 156
127 143 164
128 144 167
116 131 151
121 138 159
129 147 171
123 140 161
123 139 161
127 144 166
120 137 158
112 127 146
117 132 152
127 145 167
131 149 171
128 145 168
132 150 173
134 151 174
140 160 186
141 159 184
144 165 191
139 157 181
144 163 189
144 164 190
138 157 181
135 153 177
129 147 169
135 154 178
135 153 177
134 152 176
129 148 171
126 144 166
124 141 163
122 138 160
120 136 157
115 130 150
114 130 150
115 130 150
108 123 142
103 116 134
102 116 134
96 109 127
94 107 124
94 107 124
96 108 125
100 114 132
93 106 123
88 100 115
83 94 109
79 90 104
76 87 101
78 89 103
79 90 104
81 92 106
94 107 124
96 109 127
96 110 127
96 109 126
100 114 132
102 116 135
103 117 135
109 124 143
114 129 149
111 126 145
114 129 149
116 132 152
109 124 143
117 132 152
114 130 150
111 126 145
108 122 141
100 114 132
98 111 129
98 111 128
89 100 115
82 93 107
72 82 95
67 76 88
64 73 85
60 68 78
55 63 73
52 59 68
45 51 59
43 49 56
40 45 53
34 39 45
40 46 53
36 41 47
44 50 58
46 52 61
53 61 70
60 69 80
66 75 87
68 78 90
69 79 92
74 84 97
70 79 91
41 47 54
27 31 36
19 21 25
31 35 41
34 39 45
33 37 43
33 37 43
31 35 40
34 39 45
39 45 52
40 46 53
34 39 45
32 37 42
29 33 38
29 32 37
32 36 42
39 45 52
44 50 59
49 56 65
50 57 66
47 53 61
44 50 58
40 46 53
38 43 50
39 44 51
39 44 51
46 53 61
56 63 74
57 64 75
58 66 77
59 67 77
62 70 81
66 75 86
66 75 87
68 77 90
69 79 91
69 78 91
70 79 91
69 78 90
72 81 94
69 79 91
68 77 90
71 80 93
71 81 93
74 84 97
71 81 94
67 76 89
69 78 90
68 77 89
61 69 80
63 72 83
58 66 76
60 68 79
63 72 83
63 71 82
55 63 72
56 63 73
46 53 61
42 48 56
41 46 53
44 49 57
46 52 61
54 61 70
56 63 73
56 64 74
56 64 75
58 66 77
62 70 81
64 73 84
73 83 95
73 83 96
75 84 97
80 90 104
83 94 109
87 99 114
87 99 114
100 113 130
91 103 119
83 94 108
82 93 107
80 90 104
80 91 105
76 87 100
81 92 105
82 93 108
86 97 112
85 96 111
89 101 117
91 103 118
90 102 118
91 103 119
83 94 109
89 101 116
93 105 121
92 103 118
89 101 116
96 109 126
96 109 125
97 109 126
96 108 125
99 113 130
103 117 135
96 108 124
100 113 130
103 116 134
95 107 123
93 105 122
91 103 118
90 101 116
96 109 127
94 106 122
88 99 113
84 95 109
90 102 117
87 98 112
88 99 113
84 95 109
95 107 124
88 99 113
87 98 113
86 97 111
85 95 109
80 90 103
74 84 96
83 93 107
81 91 104
76 86 98
72 81 92
74 84 97
75 84 96
63 70 79
69 78 89
62 69 79
65 73 84
64 72 82
65 72 82
68 76 86
65 73 83
62 70 79
65 74 85
58 65 74
56 63 72
58 65 74
57 64 73
54 60 68
53 59 67
58 64 73
57 63 72
56 62 70
56 62 71
50 55 63
49 55 63
46 52 59
37 41 46
35 38 43
35 39 44
26 29 33
24 27 30
21 24 27
20 23 25
16 18 20
16 17 20
18 20 23
23 26 29
28 31 35
25 28 31
26 28 32
29 31 35
24 27 30
26 28 32
22 24 27
30 33 37
31 34 38
26 28 32
28 31 35
26 29 32
24 26 29
21 23 26
22 24 27
27 30 33
25 27 30
22 24 26
20 22 25
21 22 25
21 23 25
15 16 18
9 9 11
9 10 11
11 12 14
13 14 15
17 18 20
16 18 20
17 19 21
12 14 15
10 11 12
13 14 15
10 11 12
11 12 13
12 13 15
3 4 4
7 7 8
6 7 8
11 12 13
8 9 10
11 11 13
20 21 23
15 16 18
15 16 17
13 14 16
15 16 18
22 24 26
17 18 20
13 15 16
17 19 20
22 24 26
14 15 17
13 14 15
24 26 28
21 23 26
26 29 32
20 22 24
20 22 25
22 24 26
33 36 40
31 34 38
30 33 37
29 31 35
29 32 36
29 32 36
29 32 36
29 31 35
38 42 47
31 34 39
37 40 45
28 31 35
28 31 34
25 27 31
33 37 41
25 28 32
33 36 41
37 41 46
44 49 55
36 40 45
46 51 57
47 52 60
51 56 63
39 43 49
45 49 56
50 55 63
52 58 65
51 57 64
46 52 59
48 53 60
52 58 66
50 56 64
41 46 52
39 44 50
45 50 56
41 46 52
39 44 50
37 42 48
49 54 61
43 49 57
58 64 73
41 45 52
46 52 59
40 44 50
39 44 50
33 38 43
28 31 36
27 30 34
30 34 39
34 38 44
36 41 47
40 44 51
43 48 55
45 50 58
55 62 70
58 65 75
62 70 80
67 76 87
71 80 91
77 87 100
78 87 100
77 87 100
79 90 103
84 94 108
94 107 123
89 100 115
101 114 132
88 100 115
90 101 117
94 106 122
89 101 115
98 111 128
90 102 118
104 118 135
104 118 136
106 119 137
106 120 139
103 116 133
112 126 145
109 123 142
108 123 141
110 125 144
114 129 149
112 127 146
114 129 149
109 124 144
108 123 141
112 127 147
117 133 154
108 122 141
109 124 143
104 118 136
105 119 138
106 120 139
105 118 136
114 130 150
121 137 159
124 141 162
129 146 167
128 145 168
130 147 171
138 156 179
133 152 177
126 143 165
130 149 173
123 140 161
122 138 159
121 136 156
118 133 154
112 127 148
119 135 155
107 121 140
111 127 148
110 126 146
110 125 145
104 117 135
102 115 133
101 115 133
100 113 131
95 109 126
97 111 128
93 106 123
93 106 122
95 108 126
92 105 121
95 108 124
97 110 127
93 105 121
93 106 122
96 109 126
98 111 128
99 113 131
100 113 130
100 114 132
102 116 134
102 117 135
111 126 146
110 125 144
108 123 143
106 120 139
107 122 141
115 132 153
116 132 153
116 132 152
117 132 152
113 128 148
112 127 147
113 129 149
113 128 148
116 132 154
112 127 147
116 132 153
114 129 149
113 129 150
111 125 144
110 126 146
103 118 136
99 112 130
93 106 122
86 98 113
78 88 102
68 77 89
67 76 87
64 73 84
59 67 78
53 60 70
51 59 68
54 62 71
53 60 70
60 68 78
65 74 86
72 82 95
76 87 100
76 87 100
72 82 95
62 71 82
52 59 68
38 43 49
50 56 65
53 60 69
53 61 70
57 65 76
56 64 74
56 64 74
57 65 76
56 64 74
53 60 69
47 54 62
48 54 62
50 57 66
47 53 62
50 57 67
49 56 65
57 65 75
57 64 75
55 62 72
49 56 65
43 48 55
42 48 55
46 52 60
50 57 66
48 55 64
53 60 69
52 60 69
57 65 76
61 69 80
71 80 92
78 88 102
84 95 110
93 105 121
100 114 131
100 114 131
95 109 126
96 109 126
91 103 120
93 105 122
91 103 120
97 110 128
100 114 132
106 121 139
104 119 138
106 120 138
106 120 139
106 121 140
108 123 141
107 122 141
105 119 138
102 116 134
90 103 119
85 96 111
82 93 107
82 93 107
74 84 98
74 84 97
74 84 97
70 79 91
66 75 87
67 75 87
65 74 85
61 69 80
55 63 72
51 58 67
49 55 64
50 57 66
50 57 65
42 47 55
46 52 60
54 61 70
64 73 84
70 80 92
80 90 105
81 92 107
85 96 111
89 101 117
85 96 110
78 89 103
74 84 97
70 79 92
65 74 86
63 71 82
67 76 87
65 73 85
71 80 93
71 81 94
73 83 96
69 78 91
73 83 95
73 83 96
77 87 101
85 96 111
85 96 110
89 101 117
92 104 120
95 108 125
99 112 129
105 119 137
109 124 143
105 119 137
111 125 144
107 121 139
101 115 133
101 115 132
100 114 131
99 112 129
97 110 127
101 114 131
96 108 124
96 108 124
96 108 124
94 107 122
98 110 127
92 104 120
99 112 129
97 110 126
97 109 124
96 108 125
97 110 126
94 107 123
98 111 127
102 115 133
100 112 129
86 97 110
80 89 102
69 77 89
75 84 96
62 70 80
54 60 68
56 63 72
49 54 62
50 56 65
56 63 72
45 50 58
47 53 61
55 61 70
50 55 63
54 60 68
51 57 65
41 46 52
33 37 42
34 37 43
34 39 44
31 34 38
40 44 51
34 38 43
40 45 51
46 51 58
44 49 55
46 51 58
41 46 52
39 44 49
25 27 31
26 29 33
27 30 34
30 33 37
31 34 39
23 25 28
19 21 24
22 24 27
21 23 25
12 14 15
22 24 27
28 31 35
33 37 41
32 35 39
33 36 41
28 31 34
27 29 33
34 37 42
37 41 46
40 43 48
30 33 36
27 30 33
35 38 42
33 36 39
30 32 36
27 29 32
27 29 32
15 17 18
29 32 35
22 24 27
19 21 23
12 13 14
17 19 21
12 13 15
9 10 11
8 9 9
9 10 11
9 10 11
10 10 12
10 11 12
8 8 9
7 7 8
5 5 6
8 9 10
5 5 6
7 7 8
3 4 4
4 4 5
4 4 5
5 5 6
8 9 10
9 10 11
9 10 11
11 12 13
8 9 10
12 13 14
10 11 12
10 11 12
8 8 9
10 11 12
13 14 15
19 20 23
17 19 21
18 20 22
14 15 17
14 16 17
11 13 14
17 18 20
16 18 20
16 18 20
15 17 19
10 11 12
12 13 15
22 24 27
18 19 21
24 26 30
21 23 26
17 19 21
15 16 18
13 15 17
15 16 18
14 16 18
16 17 20
19 21 24
27 29 33
29 32 36
26 28 32
25 28 31
26 28 32
21 24 26
22 24 28
20 23 26
21 23 27
22 24 27
25 28 31
22 25 28
23 26 29
22 24 27
25 28 32
28 31 35
23 26 30
20 22 26
23 26 29
23 25 29
29 33 38
31 35 40
31 35 40
34 39 44
36 40 46
38 42 48
35 39 45
33 37 42
31 34 39
32 35 40
32 35 40
38 42 48
37 42 48
42 47 54
48 54 62
39 44 50
42 46 53
37 42 48
41 47 54
42 47 54
39 44 50
42 47 54
44 50 57
47 53 61
44 49 57
52 58 67
50 56 64
48 54 62
50 57 66
50 57 66
49 55 64
48 54 62
51 58 66
50 57 66
52 59 68
49 56 65
53 61 71
53 60 69
60 69 79
63 71 82
65 73 84
71 81 94
69 78 90
81 92 106
87 98 113
84 96 111
83 93 107
91 103 119
91 103 120
93 106 122
91 103 118
90 101 116
81 92 107
81 91 105
82 93 108
80 91 104
80 91 106
75 86 101
73 82 95
75 85 98
77 87 100
83 94 109
82 94 109
88 100 116
97 109 126
92 105 122
104 117 135
102 116 134
109 123 141
106 121 140
106 120 138
106 120 139
105 119 137
108 123 142
107 121 140
103 117 136
95 108 125
98 110 126
93 106 123
92 105 120
89 101 116
84 96 111
75 85 98
77 87 101
73 83 96
79 90 104
84 95 110
89 101 116
91 104 119
98 111 128
100 114 132
98 111 129
99 112 129
101 115 133
104 118 136
101 116 134
100 113 131
101 115 133
106 120 139
105 119 137
104 118 137
107 122 141
108 123 142
107 122 141
108 122 140
107 121 141
109 124 143
110 125 145
106 120 139
99 113 131
89 102 118
89 101 117
84 96 111
86 97 111
80 91 105
79 89 103
78 89 102
81 92 107
77 88 101
73 83 96
72 82 95
70 79 91
61 70 80
67 76 89
63 71 82
62 71 82
61 69 80
54 61 71
50 57 66
53 61 70
50 57 66
51 58 67
42 48 55
38 44 50
42 48 55
51 58 67
53 61 70
50 57 66
48 55 64
51 58 67
55 63 73
54 61 70
47 54 62
85 96 111
86 97 112
85 96 110
83 94 109
88 100 115
82 93 108
80 91 106
82 93 108
84 95 110
83 94 109
86 98 114
85 96 112
86 98 113
84 96 111
89 102 118
86 98 113
88 100 116
85 97 111
83 95 109
81 92 107
81 93 108
86 98 113
87 99 115
89 101 117
98 111 128
97 111 128
99 112 130
100 113 131
99 113 130
108 122 141
104 118 137
109 125 145
113 128 148
112 127 147
120 135 155
119 135 156
124 140 162
123 140 162
121 137 159
117 133 154
119 134 154
126 143 165
124 140 162
130 148 171
128 145 167
126 143 166
119 135 157
113 128 148
106 120 139
103 116 134
91 103 120
80 91 106
70 80 93
63 71 82
60 68 79
55 62 71
42 49 56
45 52 60
42 48 55
38 44 51
33 37 43
34 38 45
35 40 47
35 40 46
38 44 51
34 38 45
22 25 29
22 25 29
26 30 34
22 24 28
35 39 45
49 56 64
55 62 72
60 68 78
57 64 74
63 72 83
61 70 80
55 62 71
48 54 62
36 41 47
32 37 43
32 36 42
28 32 37
34 38 44
40 45 52
44 50 58
47 53 62
45 51 59
47 53 61
51 57 66
50 57 66
55 62 71
54 61 70
66 74 86
73 82 94
85 96 111
85 96 111
85 96 111
89 100 116
92 103 118
87 99 114
80 91 105
85 97 112
86 98 113
82 92 106
79 89 103
76 86 100
85 96 111
88 99 113
87 98 113
91 103 118
86 97 111
89 101 117
95 108 124
99 111 128
101 114 132
94 106 121
90 101 115
91 102 117
99 112 129
93 105 121
86 97 112
74 83 96
78 88 101
74 84 96
68 77 88
59 67 76
56 63 72
43 49 56
37 42 48
34 39 44
32 35 40
29 33 37
23 26 30
21 24 28
12 13 15
12 14 16
21 24 27
28 32 36
31 35 39
28 31 35
18 20 23
17 19 22
24 26 30
22 24 28
20 22 25
20 22 25
21 24 27
32 36 40
31 35 39
29 32 36
28 30 34
28 31 35
29 32 37
33 37 42
34 38 43
35 39 44
31 35 39
35 39 45
29 33 37
33 37 41
28 31 35
35 38 43
28 31 35
29 31 35
28 31 35
30 33 37
33 37 41
31 34 38
26 28 32
21 24 27
20 22 25
14 15 17
20 21 23
25 27 31
20 22 24
17 19 21
22 24 27
27 29 32
24 26 29
25 27 30
25 27 30
15 16 18
14 16 17
22 24 26
17 19 20
27 29 32
16 17 19
18 19 21
23 25 28
17 19 21
14 15 17
16 17 19
13 14 16
18 19 21
9 10 11
11 12 13
15 17 18
6 6 7
10 10 11
6 6 7
6 7 8
5 6 7
11 12 14
13 14 16
11 12 13
15 16 18
16 17 18
11 12 13
24 26 29
20 21 24
18 19 21
27 29 32
21 23 26
17 18 20
22 24 27
26 28 31
22 24 27
17 19 21
17 18 20
9 10 11
14 16 17
13 14 16
9 10 11
7 8 8
8 8 9
6 7 8
12 13 15
18 20 23
17 18 20
17 19 21
19 21 23
15 16 18
15 17 19
13 14 16
13 14 16
18 20 22
15 17 19
27 30 34
29 32 37
27 30 33
26 29 32
31 34 39
31 34 39
31 35 39
36 40 45
38 42 47
36 41 46
39 43 49
41 45 51
39 44 50
42 46 52
35 39 44
35 39 44
29 32 37
28 31 35
23 26 29
25 28 32
29 32 36
31 35 40
40 45 52
41 46 52
48 53 61
48 54 62
47 52 59
52 58 66
47 53 60
54 60 68
59 66 75
61 69 78
67 75 85
70 78 89
71 80 92
74 84 97
75 84 97
75 84 96
75 84 96
73 82 93
65 73 84
69 78 89
64 73 84
62 70 80
66 74 85
66 75 86
64 73 83
64 72 83
56 63 73
54 60 69
45 50 58
42 48 55
42 48 55
44 50 57
41 47 54
35 39 45
35 40 46
38 42 49
30 34 39
31 35 40
32 36 41
32 36 41
41 46 53
38 43 50
51 58 67
61 68 79
65 74 85
76 86 99
77 87 101
76 87 100
76 86 99
78 89 102
79 89 102
70 80 93
68 77 89
63 71 83
57 65 75
48 54 62
40 45 52
43 49 57
45 51 59
36 41 47
32 37 43
34 39 45
40 45 52
36 41 47
44 50 57
46 52 60
50 57 66
52 59 68
61 70 81
67 76 88
68 77 89
66 75 87
68 77 88
67 76 88
68 78 90
64 73 84
62 71 83
63 71 82
62 71 82
60 68 78
55 62 72
48 54 62
45 51 59
47 53 62
49 55 64
55 63 73
58 66 77
63 72 83
61 70 81
61 69 80
63 71 82
67 76 88
63 72 83
70 79 91
64 73 85
57 65 75
62 71 82
69 79 91
72 82 95
73 84 97
74 84 97
73 83 97
68 78 90
65 74 85
64 72 83
66 75 87
60 68 78
52 59 69
53 60 70
50 57 66
55 62 71
51 58 67
46 53 61
34 39 45
33 37 43
31 36 42
36 40 47
36 41 48
44 49 57
51 58 67
63 72 84
67 76 88
75 85 99
87 100 116
84 96 112
91 103 119
90 102 118
97 110 128
97 110 127
92 104 120
92 104 120
96 109 126
100 114 132
99 112 130
98 112 129
94 107 123
92 105 122
91 103 120
90 102 117
88 100 115
99 113 130
95 107 124
90 102 118
91 103 119
86 98 114
79 90 105
71 81 93
69 78 91
70 79 92
70 79 91
68 77 90
70 79 92
71 81 94
79 89 103
84 95 110
90 102 117
93 106 122
94 106 123
98 111 128
100 114 132
106 120 139
115 131 151
117 133 153
121 138 159
121 138 160
124 141 164
135 152 174
134 151 174
135 154 179
135 154 178
136 154 178
137 155 179
138 157 181
138 156 181
138 157 181
133 151 175
136 155 179
131 148 171
130 147 170
128 145 168
135 152 175
133 150 173
127 143 166
126 143 165
122 138 160
113 128 148
105 119 137
100 113 130
86 98 113
77 87 101
67 76 89
62 70 80
53 60 70
38 43 50
23 26 30
41 46 54
48 55 64
55 62 72
59 67 77
57 65 75
58 66 77
57 65 75
52 60 69
54 61 71
58 65 76
54 62 71
63 72 83
70 79 91
73 83 95
70 80 92
65 75 87
61 70 81
57 65 74
56 63 72
44 50 57
44 50 58
42 48 56
45 51 59
47 53 61
60 69 80
61 69 80
68 77 89
71 81 94
78 88 101
74 83 96
79 90 104
78 88 102
77 88 101
75 85 98
67 76 88
55 62 71
42 48 55
38 43 49
36 40 47
37 42 48
45 51 59
45 51 60
45 50 58
54 61 71
57 65 75
62 70 81
56 64 74
49 56 64
54 62 72
52 58 67
54 60 69
53 60 70
52 59 67
54 61 70
55 62 71
58 66 75
48 54 63
61 69 80
58 66 76
64 72 83
66 74 85
58 65 75
57 65 74
56 64 73
59 66 76
64 73 83
60 67 77
63 71 82
59 67 77
61 69 79
51 57 66
49 55 63
41 47 53
34 38 44
34 38 44
37 41 47
30 33 38
26 29 33
19 21 24
12 14 16
10 11 13
16 18 21
26 29 33
26 29 33
24 27 31
23 26 29
17 19 22
18 20 23
21 24 27
19 22 25
17 19 22
18 20 23
24 27 31
21 23 27
25 28 31
35 39 44
31 35 39
30 34 38
31 34 38
38 42 48
36 40 45
40 45 50
38 43 49
42 46 52
52 58 65
41 45 50
43 48 54
44 48 55
40 44 50
36 39 44
34 38 43
30 33 38
31 35 39
28 31 35
24 26 29
25 28 32
20 22 24
24 26 29
27 30 33
20 22 25
22 24 27
29 32 36
30 33 37
34 38 42
29 32 36
27 29 33
34 37 41
33 36 40
27 29 33
29 32 35
22 25 27
24 26 28
25 27 31
26 28 32
22 24 27
30 32 36
18 19 22
30 33 37
21 23 25
21 22 25
20 22 24
27 30 33
27 29 32
12 13 15
15 16 18
20 22 24
10 11 12
9 10 11
12 13 14
8 9 10
10 11 12
4 5 5
6 7 8
11 12 13
13 15 16
21 23 25
13 14 16
20 22 25
26 28 32
21 22 25
21 23 25
25 28 31
25 27 30
28 31 34
24 26 29
27 30 34
22 24 27
21 23 26
24 26 30
22 25 28
12 13 15
10 11 13
14 15 17
18 20 22
25 27 31
30 32 36
24 26 29
26 28 32
18 20 23
23 25 28
18 20 23
15 17 19
13 14 16
12 13 15
13 14 16
21 24 27
23 25 28
29 32 36
32 36 41
39 43 49
35 39 44
38 43 49
42 47 54
41 46 52
41 45 51
49 55 63
54 60 69
52 58 67
52 58 66
51 57 65
39 44 50
38 42 48
36 40 46
38 42 48
46 52 59
40 44 50
52 58 66
56 63 72
59 66 76
61 68 78
55 62 71
56 63 72
60 67 76
58 66 75
57 64 73
65 73 84
68 76 86
72 81 93
65 73 83
81 91 104
75 84 96
84 95 108
79 89 102
77 87 100
80 90 104
78 88 101
81 91 105
74 83 96
70 78 89
73 82 95
68 77 89
71 80 92
65 73 83
57 64 74
52 58 67
46 52 60
44 49 57
40 45 52
40 45 52
38 43 50
42 47 54
42 48 55
41 46 53
39 44 51
44 50 58
51 58 67
50 56 65
43 49 57
39 44 51
30 34 39
30 34 39
37 42 48
40 46 53
45 51 59
51 58 66
49 56 64
47 53 61
47 53 61
47 54 63
43 49 57
50 56 65
49 55 63
50 57 66
49 56 64
46 52 61
44 50 58
43 48 56
49 55 64
47 54 62
43 49 57
39 44 51
37 42 49
38 43 49
40 46 53
46 53 61
49 56 65
51 58 66
52 59 68
56 64 74
51 58 67
40 45 52
27 31 36
33 38 44
44 50 57
50 57 66
57 65 75
60 68 79
68 78 90
72 81 94
75 85 98
75 86 100
77 88 102
82 93 107
80 91 105
76 86 100
82 93 108
74 84 97
75 86 100
71 81 94
73 82 95
71 81 94
66 75 86
63 72 82
57 65 75
66 74 86
61 69 80
62 70 81
62 70 81
66 75 87
71 80 92
76 86 100
83 94 109
88 100 115
90 102 118
95 108 124
96 109 126
94 106 123
93 106 123
95 108 126
99 111 128
97 110 127
96 109 126
97 110 128
100 114 133
105 119 138
106 121 141
110 125 144
112 128 148
111 126 145
118 134 156
118 134 156
120 136 158
124 140 162
119 134 155
120 136 157
114 129 149
117 133 154
112 127 147
107 122 141
108 123 142
112 128 148
117 133 154
117 133 155
120 136 157
120 136 157
72 82 96
68 78 90
65 74 85
63 72 83
59 67 78
52 59 68
57 64 74
60 69 79
66 75 86
71 81 93
77 87 101
87 98 113
94 107 124
97 111 129
98 112 129
103 118 137
109 123 142
109 123 143
114 130 149
118 133 154
120 137 160
124 141 162
132 150 174
133 151 174
130 149 172
140 159 184
143 163 188
145 165 190
146 166 192
146 166 192
143 163 189
143 163 189
138 157 182
138 157 182
135 154 178
138 156 180
134 153 179
135 153 177
138 157 182
136 154 178
132 150 174
131 148 172
120 138 160
116 131 152
106 119 137
100 113 130
89 101 117
83 93 107
76 86 100
72 81 94
68 77 89
60 67 78
45 51 59
27 30 35
31 35 41
43 49 57
51 58 68
62 70 81
64 72 84
62 70 82
67 76 88
67 76 88
69 79 92
70 79 91
73 83 95
75 85 98
77 87 101
78 89 103
81 91 106
83 95 110
78 88 102
79 90 104
70 80 93
60 69 79
56 64 73
47 53 61
46 52 59
52 59 68
59 67 77
65 73 84
65 74 86
80 91 105
86 98 113
87 99 114
87 98 113
90 102 118
87 99 114
84 96 112
84 94 108
76 87 100
69 78 89
70 79 92
70 79 91
76 86 99
76 86 99
69 79 91
74 82 94
61 69 79
57 65 74
58 65 75
59 67 77
59 68 78
59 66 76
58 65 75
66 75 86
68 76 87
61 70 81
65 73 84
71 80 92
71 80 92
67 76 88
63 71 81
66 74 85
66 74 84
63 71 81
55 62 71
54 61 70
51 57 66
53 61 70
44 49 56
45 51 59
43 48 55
40 45 52
37 41 47
28 31 36
22 25 29
22 25 28
24 27 31
21 24 28
25 28 33
27 30 35
20 22 26
20 22 25
23 26 30
20 23 26
20 22 25
28 31 35
30 33 38
38 43 49
36 40 46
44 50 57
48 53 61
37 41 47
42 47 54
37 42 47
39 44 50
35 39 44
33 37 42
38 42 48
30 34 39
40 45 51
39 43 49
39 43 49
33 36 41
34 38 43
27 30 34
22 25 28
19 21 24
15 17 19
19 21 24
16 17 20
22 24 27
25 28 32
30 33 37
31 35 39
32 36 40
36 39 45
35 38 43
38 42 48
34 38 42
41 45 51
41 45 51
41 45 51
46 50 57
43 47 53
46 50 57
43 47 54
41 46 51
48 52 59
39 43 48
37 40 45
36 39 44
36 40 44
34 38 42
39 43 48
31 34 38
33 36 40
32 35 39
39 43 47
30 33 37
36 39 44
32 35 39
28 31 34
40 43 48
30 33 36
35 39 43
35 39 43
37 41 45
30 33 37
25 27 31
29 32 35
11 12 14
10 11 12
6 6 7
7 8 9
14 16 18
12 13 15
12 14 15
22 24 27
22 24 27
20 22 24
28 31 34
18 20 22
30 33 37
35 38 43
31 34 39
38 41 47
38 42 47
33 36 41
38 41 46
38 43 48
41 45 51
36 40 45
36 40 45
37 41 46
28 31 35
28 31 35
21 23 26
17 19 22
15 17 19
16 18 20
13 14 16
17 19 21
24 26 29
16 17 19
9 10 11
15 16 18
23 26 29
34 38 43
37 41 46
47 52 59
43 48 54
47 53 60
47 53 60
52 58 65
47 52 59
46 51 58
44 49 55
56 63 72
58 64 72
55 61 70
61 68 78
62 69 79
64 72 82
63 70 80
57 64 73
55 62 70
54 61 69
46 52 59
46 52 59
45 51 59
43 48 55
42 47 54
40 44 51
44 50 57
41 46 53
40 45 51
47 52 60
45 51 58
45 50 58
43 48 55
45 50 58
49 54 62
56 62 71
59 66 76
60 68 78
59 67 77
60 68 78
61 68 78
66 74 85
70 79 91
63 71 82
65 73 85
62 70 80
60 68 77
60 68 78
55 62 71
53 60 69
49 55 63
49 55 64
53 60 69
50 57 65
54 61 70
55 62 72
54 61 70
48 53 61
43 49 56
39 44 50
39 44 51
45 51 59
51 58 67
47 53 62
47 53 61
47 53 61
42 47 55
33 37 43
24 27 32
30 34 39
32 37 42
41 46 53
45 52 60
46 52 60
42 47 54
48 55 63
56 63 73
61 70 81
60 68 79
65 74 85
64 73 84
65 74 86
64 73 84
64 73 84
56 63 73
51 58 67
50 57 66
46 52 60
46 52 61
39 45 52
31 35 40
27 31 36
26 30 35
35 41 47
39 44 51
39 44 51
38 43 50
29 33 38
25 29 33
43 49 57
56 63 73
62 70 81
73 83 96
80 90 105
81 92 106
84 96 111
82 93 108
87 99 115
88 99 114
95 109 126
95 107 123
104 117 135
103 117 135
105 119 138
107 122 141
107 122 142
109 123 142
109 124 143
110 126 145
107 121 140
104 119 138
103 116 135
105 119 138
101 115 133
99 113 131
98 111 128
104 118 137
99 113 131
102 116 134
109 123 142
111 127 148
111 126 147
113 128 147
118 133 154
119 136 158
114 130 150
116 133 154
110 124 143
107 122 141
110 126 146
111 126 146
103 117 136
104 118 136
109 124 143
116 131 152
121 137 158
117 133 155
122 138 159
116 132 152
119 136 157
115 130 149
114 129 150
117 132 152
113 128 148
107 121 140
107 122 142
105 119 138
112 127 146
114 130 150
119 135 156
120 136 158
122 138 158
79 90 104
80 91 105
81 92 106
79 89 103
78 89 102
82 94 108
89 101 116
91 104 120
99 113 131
103 116 134
103 117 134
106 121 140
109 124 143
111 126 146
112 128 149
112 127 147
116 132 152
118 134 155
115 130 150
121 137 158
124 141 162
132 150 174
128 146 169
127 144 167
131 149 173
132 150 175
135 153 177
133 151 174
133 152 176
134 152 176
133 152 176
131 149 173
133 151 174
130 147 169
131 150 174
132 149 172
125 142 164
120 138 161
117 132 152
108 122 141
108 123 142
105 120 140
96 109 126
101 114 132
92 105 121
85 98 114
81 92 106
74 85 98
72 81 94
59 66 77
55 62 72
44 50 58
32 37 42
35 40 46
42 47 55
47 54 63
42 48 56
38 43 50
32 36 42
41 47 54
48 54 63
54 61 71
58 66 77
61 69 79
67 76 88
69 79 91
74 83 96
72 83 96
80 91 105
78 89 103
80 90 104
77 87 100
72 82 95
66 75 87
63 71 83
61 70 80
60 69 79
59 67 77
61 70 80
61 69 80
63 71 81
71 80 93
73 82 95
82 92 106
80 91 105
86 98 112
90 101 117
89 101 117
93 105 121
89 101 117
94 106 123
91 104 120
95 108 124
100 113 130
102 116 134
101 114 131
109 124 143
104 117 134
100 112 129
100 113 130
104 118 136
100 112 129
93 105 120
92 104 119
89 100 115
89 101 116
89 101 117
93 104 120
83 93 107
86 97 111
82 93 108
77 88 101
78 88 101
82 92 105
78 88 101
83 93 106
82 91 104
77 86 99
78 89 102
81 91 105
79 89 102
73 82 95
70 79 91
66 74 85
54 61 70
51 57 65
41 46 53
35 40 46
32 36 41
36 40 46
25 29 33
20 23 26
14 16 18
15 17 19
19 21 24
34 38 43
41 46 53
36 41 46
38 43 49
43 48 55
54 60 69
55 61 70
54 61 69
57 64 73
63 70 79
59 66 76
62 70 79
49 55 62
61 69 79
56 62 71
52 58 66
46 52 59
45 50 57
42 47 53
38 43 49
25 28 32
21 23 26
22 25 28
21 24 27
19 21 24
22 24 27
22 24 28
25 27 31
31 34 39
37 41 46
40 45 51
43 47 54
43 47 54
47 52 58
40 44 50
40 45 51
42 46 52
49 55 62
42 46 52
47 51 58
56 62 70
56 62 70
57 63 71
45 50 56
46 51 57
37 41 46
39 43 49
40 44 50
46 51 57
38 42 47
39 44 49
39 43 48
40 44 49
40 44 49
44 48 54
49 54 61
39 43 49
46 51 57
39 43 48
48 52 58
40 44 49
42 46 52
32 35 39
38 41 46
32 35 40
36 39 44
27 30 33
26 29 33
27 29 33
23 25 28
18 20 22
20 22 25
20 22 24
14 15 18
19 20 23
20 22 25
19 21 23
26 28 32
23 25 28
25 28 31
16 18 20
18 20 22
17 19 21
17 19 22
18 20 22
23 26 29
22 25 28
32 35 40
33 36 41
34 38 42
26 29 32
31 34 39
27 30 34
27 30 33
29 32 36
27 30 34
27 30 33
26 29 32
31 35 39
33 37 41
28 31 35
19 21 24
17 19 21
23 25 28
28 32 36
40 44 50
36 40 46
46 51 58
54 61 69
51 57 64
58 65 73
57 64 72
61 68 78
65 72 81
68 76 86
60 67 76
68 76 87
65 73 84
61 68 78
57 63 72
54 60 68
53 59 68
44 49 56
38 43 49
30 34 39
29 33 38
26 29 33
23 26 30
23 26 29
21 24 27
21 24 28
22 25 29
26 29 33
23 25 29
26 30 34
27 30 34
17 19 22
16 18 20
21 24 27
24 27 31
30 34 39
34 39 45
40 45 52
50 56 65
53 60 70
65 73 84
56 64 73
55 62 71
58 66 76
56 64 73
52 59 67
50 57 65
49 55 64
54 61 70
55 61 70
60 68 77
56 64 73
59 67 77
65 73 84
65 74 85
61 69 80
62 71 82
62 69 80
58 66 77
59 67 77
61 69 80
64 72 84
60 68 79
50 57 65
46 52 60
40 45 52
33 37 42
34 38 44
35 39 46
38 44 51
44 50 58
42 48 55
49 55 64
59 68 79
64 73 84
71 81 93
72 82 95
69 78 90
70 80 92
60 68 79
49 56 65
39 43 50
29 32 37
20 23 27
28 32 37
32 36 42
35 39 46
40 45 52
46 52 60
44 50 58
43 49 56
42 47 55
42 48 56
44 50 58
51 58 67
57 65 75
59 67 77
60 67 78
60 68 79
66 75 86
70 79 91
73 83 96
83 94 109
83 95 110
90 103 118
98 111 128
100 114 132
106 120 139
107 121 140
112 127 147
109 124 143
114 130 150
111 126 146
118 134 155
121 138 159
117 133 154
123 139 161
123 141 164
118 134 154
125 142 163
122 139 160
118 134 155
114 130 150
113 129 150
114 130 150
117 133 154
116 132 153
114 130 151
119 135 157
123 139 161
127 144 167
120 137 158
120 137 159
123 138 158
122 138 159
119 134 154
116 132 153
113 128 147
108 124 143
106 120 138
100 113 132
100 113 131
100 114 132
102 116 134
102 116 135
105 119 138
111 126 146
116 133 153
115 130 151
120 136 158
121 137 158
124 141 163
123 140 162
121 137 158
119 135 156
118 134 154
116 132 153
118 135 156
121 138 159
123 140 163
69 78 90
71 80 93
74 84 97
73 84 98
80 91 105
83 94 109
85 96 111
85 97 112
87 98 113
90 102 118
87 100 116
89 101 117
91 104 120
93 105 122
94 106 123
98 111 128
100 114 131
100 114 132
107 121 139
107 122 141
111 127 147
115 130 150
113 128 148
115 130 150
117 132 153
118 133 152
113 128 148
108 123 143
110 125 144
108 123 143
108 122 140
107 122 141
102 116 135
102 116 134
104 118 137
101 115 133
104 118 136
102 115 133
103 118 136
104 119 137
105 119 137
110 124 143
111 126 145
109 123 143
105 119 137
101 115 134
94 106 123
86 98 113
80 91 105
71 81 94
66 74 85
57 65 75
49 55 64
43 48 56
37 42 49
33 38 43
28 32 37
26 29 34
33 38 43
44 50 58
53 60 69
57 65 75
65 74 85
71 81 93
75 85 98
77 87 101
78 88 102
79 90 104
78 88 102
72 81 94
74 83 96
69 79 91
65 73 84
66 75 86
60 69 80
66 75 86
69 78 90
68 77 89
71 81 94
75 85 98
75 85 99
82 93 108
78 89 103
84 96 111
83 94 108
88 100 115
82 92 106
87 99 114
87 98 113
85 96 111
86 96 110
82 93 107
86 97 111
90 101 117
90 102 117
92 105 121
92 104 120
101 114 132
96 109 125
103 117 136
96 108 124
104 118 136
102 115 133
93 105 121
89 101 117
88 99 114
92 104 120
87 98 113
91 102 117
84 96 110
86 97 111
88 100 114
84 95 109
90 101 116
88 99 114
92 104 119
87 98 113
84 95 108
85 96 110
86 97 111
79 89 102
79 88 101
79 89 102
81 91 104
70 78 90
69 77 89
57 65 74
50 57 65
45 51 58
40 45 51
31 35 40
31 34 39
29 32 37
26 29 34
24 27 32
20 22 26
25 28 32
32 36 41
32 36 41
38 42 49
39 44 50
45 51 58
49 55 62
54 61 69
57 64 73
53 60 68
51 57 65
56 62 71
55 62 71
44 49 56
42 46 52
40 44 50
34 38 43
27 30 34
29 32 36
33 37 42
36 40 46
37 41 47
41 46 52
44 48 55
43 48 54
43 48 54
39 44 50
40 45 51
34 38 43
39 43 49
31 34 39
41 45 51
37 41 46
41 45 51
35 39 44
38 42 48
38 42 48
45 50 56
43 47 54
48 53 60
53 59 67
43 48 54
46 51 57
46 51 58
48 53 60
44 48 55
48 53 60
45 50 56
58 64 72
41 46 52
44 49 55
48 53 60
46 51 57
50 56 63
49 54 61
52 57 64
54 60 68
51 57 64
50 55 62
52 57 65
45 50 56
44 49 55
45 50 56
48 52 59
40 44 50
40 43 48
37 41 47
41 45 51
35 38 43
36 39 44
26 29 32
37 40 45
38 41 47
32 35 39
28 31 34
31 35 39
33 36 41
31 34 38
25 28 31
24 26 30
18 20 22
14 15 17
19 21 23
16 18 20
18 20 22
23 25 29
29 32 36
28 31 35
32 36 41
30 34 38
39 43 49
37 41 46
34 38 43
36 40 46
41 45 51
36 40 45
36 40 45
40 45 51
47 53 60
52 57 65
42 47 53
44 49 55
46 51 58
32 35 40
27 31 35
25 28 32
24 27 31
27 30 34
31 35 41
34 38 43
40 44 50
31 34 39
44 49 56
44 49 56
47 52 60
51 57 66
47 53 60
51 57 65
45 50 57
34 38 44
45 50 57
35 39 44
30 34 39
23 26 30
20 22 25
22 24 28
28 32 37
29 32 37
39 44 51
40 45 52
37 42 48
32 36 41
26 29 34
21 24 27
21 24 27
18 20 23
17 19 22
19 22 25
15 17 19
23 26 30
29 32 37
24 27 32
22 25 29
27 31 35
24 28 32
23 26 30
26 29 34
29 32 37
31 35 40
27 31 35
27 30 35
36 40 46
38 43 49
43 49 56
49 56 64
54 61 71
55 62 72
59 66 76
52 59 68
53 60 70
53 60 69
53 60 68
52 58 67
57 64 74
59 67 77
60 68 79
55 62 72
62 71 82
63 72 83
59 67 77
61 70 81
61 70 81
61 70 80
56 64 74
52 59 68
46 53 61
36 41 47
45 50 57
44 50 58
50 57 66
50 57 66
48 54 63
49 56 65
52 59 68
50 57 65
44 50 57
45 51 59
40 46 53
33 37 43
32 36 42
22 25 29
30 34 40
44 50 58
51 58 66
53 60 70
59 66 76
61 69 80
64 72 83
66 75 87
70 80 93
70 80 92
71 80 92
68 77 89
64 73 84
64 72 83
64 72 83
69 79 92
73 83 96
75 85 98
85 96 111
86 97 111
85 97 113
88 100 115
91 103 119
93 105 121
96 109 126
103 117 135
104 118 137
109 124 144
113 129 150
113 129 149
111 126 145
115 131 152
116 132 152
118 134 155
114 130 150
111 126 145
111 125 144
110 125 144
110 125 144
110 125 144
113 129 150
120 137 158
117 133 153
126 143 166
127 144 167
123 139 161
120 135 155
117 133 153
112 128 149
103 117 135
105 119 138
107 120 139
99 112 130
92 105 121
91 103 118
86 98 114
80 92 106
85 97 112
86 97 112
82 93 108
87 99 115
88 99 115
89 101 116
85 96 111
85 96 111
86 98 114
89 101 118
92 104 121
93 105 121
99 113 130
100 113 131
102 115 132
98 112 129
42 48 55
40 45 52
42 47 55
42 47 55
40 46 53
40 46 53
43 49 57
42 48 55
40 46 53
39 44 51
41 46 54
40 46 53
44 50 58
45 51 59
48 54 62
47 53 61
51 58 67
51 58 67
54 62 71
57 65 75
59 67 77
66 75 87
62 70 81
63 71 82
63 71 82
64 72 84
69 79 91
68 77 89
68 77 89
68 76 88
75 85 98
80 90 104
85 96 111
87 98 113
84 95 110
85 97 112
87 99 115
86 98 114
92 104 120
93 106 122
90 102 119
89 101 117
89 101 117
79 90 104
70 80 93
60 68 79
53 61 70
43 49 57
38 44 50
35 40 46
27 31 36
26 30 35
31 35 40
33 38 44
31 35 41
33 37 43
40 45 52
43 49 56
43 49 57
52 58 67
59 67 77
62 70 81
66 76 88
70 79 92
73 83 96
77 87 100
73 83 96
73 83 95
67 76 88
62 70 81
58 67 77
58 66 76
59 67 77
63 71 82
66 75 88
72 81 94
73 83 96
78 88 101
82 93 108
82 94 108
83 94 109
89 102 118
94 106 122
98 112 129
94 106 123
88 99 115
89 101 117
89 101 117
82 93 107
81 91 105
74 84 97
70 80 92
68 76 88
70 79 91
68 76 88
65 74 86
60 67 78
52 59 68
46 52 60
47 53 61
49 55 63
55 62 71
53 60 68
52 59 68
62 70 81
62 70 80
63 71 82
68 77 88
73 82 95
70 79 91
75 85 99
69 78 89
69 78 89
69 77 88
71 80 92
76 85 98
75 84 97
71 80 92
69 78 90
71 80 92
63 71 81
65 74 85
68 76 88
55 62 71
62 69 79
53 60 69
50 56 64
41 46 53
34 38 43
23 26 29
13 15 18
15 17 20
23 26 30
32 36 41
35 40 46
44 49 56
45 51 58
45 50 57
42 47 54
40 44 51
34 38 43
37 42 48
39 44 51
43 48 54
36 41 46
35 40 45
33 37 43
29 32 37
23 26 30
23 25 29
24 27 31
23 26 29
24 27 31
23 26 29
25 28 31
29 33 38
31 35 40
33 37 42
38 42 48
43 48 55
41 47 53
45 51 58
41 46 53
42 47 54
37 41 47
42 47 54
41 46 52
41 45 51
38 43 48
35 39 45
41 45 51
33 36 41
35 39 45
42 47 53
46 51 57
53 59 67
46 51 58
52 58 65
56 62 70
50 56 63
50 55 62
51 57 64
56 62 71
50 56 63
58 64 73
56 62 70
52 58 66
56 62 71
63 70 79
55 61 68
58 64 73
55 60 68
58 63 71
50 56 64
61 68 78
58 64 72
62 69 78
62 68 77
53 58 65
56 62 70
44 49 55
38 42 48
37 41 46
35 39 44
27 30 33
35 39 44
32 36 40
29 32 36
34 37 42
26 29 32
17 18 21
23 26 29
24 26 30
22 25 28
22 24 28
23 26 29
16 18 20
12 14 15
25 28 32
32 36 41
33 37 42
39 44 50
46 51 58
36 40 45
32 36 40
34 38 43
38 42 48
38 43 48
44 49 55
48 53 60
47 52 59
43 48 55
48 53 61
51 57 65
54 61 69
53 60 68
61 68 78
63 71 81
65 72 82
61 69 78
60 67 77
57 64 73
56 63 72
50 55 63
47 52 59
40 45 51
36 40 46
32 37 42
31 34 39
21 24 27
20 23 26
30 33 38
37 41 47
45 50 57
51 56 64
51 57 65
49 55 64
51 57 65
43 49 56
41 46 52
38 43 49
35 39 45
34 38 44
34 38 43
29 33 37
27 31 35
28 31 36
28 31 36
32 36 42
28 32 37
20 23 26
13 15 18
22 25 29
25 28 32
30 34 39
36 41 46
41 46 54
44 49 56
38 43 50
42 48 55
43 49 57
49 56 64
47 54 62
47 53 61
48 54 63
49 56 64
50 56 64
53 60 70
56 63 73
56 63 72
67 75 86
66 75 86
67 76 88
65 73 85
66 75 86
69 78 89
66 75 86
69 78 90
66 74 86
66 74 85
71 81 93
70 79 90
77 86 99
84 95 110
87 99 113
86 98 113
88 100 116
87 99 115
95 107 124
90 102 118
89 101 117
89 102 119
79 90 104
73 83 96
68 77 88
56 64 74
43 49 57
36 41 48
30 34 39
27 31 36
28 31 36
29 33 38
34 38 45
41 46 53
44 50 57
51 58 67
50 57 66
50 57 66
47 54 63
51 59 68
59 67 78
63 72 83
67 76 88
68 77 90
64 73 85
63 71 82
62 70 81
63 72 83
64 73 85
68 77 89
66 75 87
59 67 77
58 67 77
53 60 70
51 58 68
49 56 65
45 51 59
56 64 74
61 68 79
65 73 85
66 75 87
70 80 93
77 87 101
85 96 110
90 102 118
91 104 120
95 109 127
93 106 122
95 108 125
100 113 130
95 108 125
96 108 125
97 110 127
96 110 127
97 110 128
98 112 129
99 112 129
104 118 137
104 118 136
107 120 138
96 109 126
95 108 124
96 109 126
91 103 118
89 100 115
83 94 109
86 97 112
82 93 108
79 90 104
81 93 108
82 94 109
82 93 107
76 86 99
70 81 94
69 78 91
65 73 85
61 70 81
61 69 80
54 61 70
52 60 69
54 61 71
46 53 61
45 51 58
48 55 63
46 53 61
53 60 69
59 67 78
61 69 80
64 73 84
64 73 85
60 69 79
57 65 76
53 60 69
53 61 70
59 67 78
60 68 78
65 74 86
70 80 92
73 83 97
75 86 99
76 87 100
72 82 94
72 82 96
73 83 96
68 77 90
67 76 89
67 77 89
61 69 80
59 66 77
50 57 66
46 52 60
42 48 56
38 43 50
32 36 42
36 41 48
37 42 48
41 46 53
42 48 56
46 53 61
45 51 59
44 50 58
44 50 57
42 48 55
47 53 62
44 50 58
47 54 63
48 55 64
52 58 67
53 61 70
48 55 63
45 51 59
43 49 56
36 41 48
29 33 39
26 30 35
22 25 30
18 21 24
19 22 25
24 27 32
31 35 41
34 38 44
42 48 56
45 52 60
46 52 60
49 55 64
54 61 71
58 67 78
60 68 78
67 76 87
70 80 92
69 78 91
73 83 96
76 86 100
78 88 103
80 91 105
78 89 103
70 80 93
60 68 78
56 64 74
52 59 68
50 56 65
45 51 59
42 48 56
45 52 60
44 49 57
44 50 57
44 50 58
44 50 57
45 51 59
44 50 58
49 56 65
48 55 64
47 53 62
54 61 70
56 64 74
57 65 75
57 64 74
60 68 79
61 69 79
57 64 74
49 56 65
47 53 61
42 48 55
40 45 52
38 43 49
41 46 53
34 38 44
34 39 45
38 43 50
38 43 50
43 48 56
42 47 55
42 47 54
40 45 52
36 41 47
37 43 49
35 40 46
35 39 45
33 37 43
34 38 44
35 40 45
35 39 45
35 39 45
35 40 45
42 48 55
43 48 55
40 45 52
46 53 61
37 42 49
30 33 38
28 31 36
30 34 39
32 36 41
35 39 45
35 39 45
30 33 38
33 36 42
37 42 48
34 38 44
34 39 45
25 28 32
24 27 31
29 32 37
24 27 31
26 29 34
31 35 40
29 33 38
28 31 36
31 34 39
27 31 35
22 25 29
17 19 23
20 23 26
24 28 32
31 35 41
31 35 40
40 45 51
39 44 50
46 51 59
45 51 58
50 56 64
48 54 62
49 54 62
48 54 61
43 48 55
50 55 63
52 59 68
50 56 63
43 47 54
39 43 50
51 56 63
55 61 70
49 54 61
46 51 58
39 44 50
39 44 50
31 35 40
24 27 31
15 17 20
14 16 18
19 21 24
22 25 28
25 28 32
29 33 37
32 36 40
42 47 53
42 47 53
49 54 61
53 58 66
57 64 72
60 66 75
50 55 62
59 65 73
54 60 68
58 64 73
55 61 69
49 55 62
59 66 75
66 74 83
60 67 76
63 70 79
66 73 83
66 74 83
67 75 85
72 80 91
57 63 72
62 69 78
71 79 89
57 64 73
48 54 61
42 47 53
39 44 50
21 23 27
17 19 22
19 21 24
26 29 33
25 28 31
25 28 31
24 27 30
30 33 37
27 30 34
33 36 41
31 35 40
24 27 30
21 24 27
19 21 24
29 32 37
29 33 37
36 40 45
41 46 52
46 51 58
54 60 68
53 59 67
47 53 60
47 52 59
45 50 57
49 55 63
51 56 64
61 68 78
56 63 72
59 66 75
71 80 91
72 80 90
65 73 83
70 77 88
69 77 88
68 76 87
72 80 91
79 88 99
70 78 89
68 76 87
67 75 85
62 70 80
62 69 78
60 67 76
58 66 75
64 72 83
55 62 70
53 59 68
49 54 62
47 53 61
41 46 53
22 25 29
25 28 32
32 36 41
35 39 45
40 45 51
47 53 61
45 50 57
49 55 64
43 48 55
43 48 55
41 46 52
38 43 49
40 45 52
44 50 58
41 46 53
33 37 43
25 29 33
26 30 34
25 28 32
22 25 28
35 40 46
44 50 57
45 50 58
44 50 57
49 55 63
56 63 72
59 66 76
69 78 90
76 86 100
84 94 108
80 91 105
85 96 110
83 93 107
76 85 98
83 94 108
78 87 99
75 85 97
78 88 102
80 90 104
83 93 107
80 91 105
79 89 102
80 90 103
79 89 103
78 88 102
80 91 105
79 89 103
75 85 98
82 93 107
83 94 109
88 100 115
97 109 126
93 105 122
99 112 129
100 114 131
97 111 129
99 113 130
95 107 123
97 110 126
99 112 129
96 108 124
87 98 112
78 89 102
74 85 98
69 78 90
60 68 79
49 56 64
38 44 51
37 42 48
29 33 39
24 28 32
17 20 23
17 19 22
21 24 28
21 24 28
21 24 28
24 28 32
26 30 35
22 25 28
24 27 31
29 33 38
30 34 39
33 37 42
35 39 45
38 43 50
36 41 48
36 41 47
41 47 55
35 40 46
26 30 35
18 20 23
18 21 24
19 21 24
28 31 36
36 40 47
37 42 49
40 45 53
43 49 57
40 46 53
42 48 56
42 48 55
54 61 71
63 72 83
70 79 92
72 82 95
71 81 94
69 79 91
67 77 89
68 77 90
68 78 89
64 73 84
66 75 87
68 78 90
73 84 97
77 87 100
79 89 103
76 86 100
70 79 92
66 75 87
59 67 78
60 69 79
63 71 82
62 70 81
56 63 73
55 63 73
49 55 64
45 52 60
35 40 46
34 39 45
44 50 58
45 51 59
44 50 58
41 46 54
41 46 54
42 47 54
41 47 54
46 52 60
53 61 70
55 63 73
63 71 82
57 65 75
56 64 74
55 63 73
52 58 67
47 53 61
43 49 56
34 38 44
28 32 37
89 100 116
93 106 122
91 103 119
89 101 116
85 96 112
80 91 105
82 93 107
81 93 108
85 97 112
84 95 110
81 92 106
81 92 107
76 86 99
74 83 96
76 87 101
78 90 104
82 93 108
84 95 110
84 95 111
81 92 106
79 89 102
74 85 98
69 78 91
69 78 91
66 75 87
68 77 89
68 77 90
68 77 89
66 76 88
58 65 76
55 63 72
58 66 77
64 72 84
62 70 82
61 69 80
66 75 86
64 72 84
60 68 79
52 59 68
45 51 60
35 39 45
28 32 37
20 22 26
15 17 20
16 18 21
23 27 31
30 34 40
34 38 44
40 45 53
46 53 61
39 44 52
44 51 59
49 56 64
55 62 72
56 63 73
52 59 69
50 57 66
51 58 67
56 63 74
57 65 75
52 60 69
57 65 75
58 66 76
54 62 72
51 58 68
48 54 62
38 43 50
36 41 48
33 37 42
34 38 44
36 41 48
45 51 59
56 63 73
61 69 79
70 79 92
72 82 95
83 94 108
79 89 103
79 89 103
69 78 90
73 82 95
68 78 90
62 71 82
68 77 89
62 70 81
56 64 74
58 66 76
59 67 77
54 61 71
54 61 71
53 60 70
45 51 60
44 50 58
43 48 55
44 50 58
51 58 67
57 65 75
56 63 74
61 69 80
59 67 77
65 73 84
71 81 93
72 81 93
73 82 95
67 76 87
64 72 83
59 66 77
56 64 74
51 58 66
52 59 69
48 54 62
45 51 59
46 52 60
51 58 67
55 62 72
53 61 70
53 59 68
51 58 66
48 54 63
46 52 60
47 54 62
44 50 58
42 47 54
41 47 54
44 49 57
39 44 51
27 30 35
18 20 22
12 13 15
13 15 17
13 15 17
15 17 19
18 20 23
22 25 29
16 18 21
13 15 17
15 17 20
20 22 26
21 24 27
24 27 31
24 26 30
27 30 35
33 37 42
42 48 55
45 50 58
48 54 62
54 61 70
53 60 68
55 62 71
55 62 72
52 59 67
51 57 66
57 63 72
53 60 68
49 55 62
47 53 61
48 54 62
36 40 46
26 29 33
24 27 31
27 30 35
30 33 38
25 28 32
19 21 24
23 25 29
28 32 36
30 34 39
38 43 49
39 44 50
39 43 49
37 41 47
30 34 38
30 34 39
18 20 23
14 15 17
25 28 32
41 46 52
40 45 51
51 56 64
53 59 68
55 62 70
55 62 70
62 69 78
73 81 92
66 74 84
74 83 95
75 83 94
75 84 95
76 85 97
70 78 89
69 77 87
67 74 84
74 82 94
62 69 78
61 68 77
65 72 81
52 57 64
49 55 62
43 48 54
47 52 60
43 48 54
43 47 53
31 35 40
29 33 37
21 24 27
25 28 32
25 28 31
22 25 28
19 21 24
20 23 26
26 29 32
36 41 46
41 45 51
44 49 55
46 51 57
44 49 55
49 54 62
54 60 68
55 62 71
49 55 62
56 63 71
64 72 81
66 74 85
60 67 77
70 78 89
67 74 84
68 77 87
73 81 92
77 86 98
69 77 88
66 74 84
80 90 103
75 84 96
76 85 96
72 81 92
75 84 96
73 82 94
75 83 95
68 77 88
66 74 85
71 79 90
75 84 96
68 76 87
66 74 85
69 78 89
68 76 87
65 73 83
64 72 83
68 76 87
70 78 89
64 71 82
66 74 85
60 67 77
50 57 65
46 51 59
37 42 48
32 36 41
33 37 43
29 33 38
31 35 40
36 40 46
41 46 53
37 42 48
41 46 52
41 45 52
39 44 51
43 48 55
39 44 51
41 46 53
35 40 46
28 32 37
32 35 40
39 45 51
44 49 57
43 49 56
52 59 68
62 70 81
60 68 78
69 78 89
77 86 99
80 90 105
86 97 112
96 109 125
86 97 112
96 108 124
106 120 138
114 128 147
116 131 151
102 115 132
107 121 139
99 113 130
102 116 133
104 118 136
102 115 133
105 118 136
109 123 141
101 115 133
99 113 131
95 108 124
99 112 130
90 101 116
98 110 127
92 105 122
95 108 125
92 104 120
97 110 128
93 105 121
89 101 118
94 106 122
98 111 128
95 108 125
88 100 115
91 103 119
91 104 120
89 101 116
88 100 116
81 93 108
79 90 104
72 82 95
67 76 88
66 75 87
64 72 83
64 73 84
59 68 78
57 65 75
53 60 70
50 57 66
45 51 60
40 45 53
32 37 43
25 28 33
18 20 24
25 29 33
25 29 33
29 33 39
37 42 48
41 47 54
41 47 54
41 47 54
46 52 60
42 48 56
37 42 49
38 43 50
40 45 52
38 43 50
39 44 51
40 46 53
46 52 60
48 55 64
47 54 62
39 44 51
32 36 42
32 36 42
29 33 38
29 33 38
36 41 48
39 44 51
38 44 51
35 40 46
35 40 46
34 38 44
34 39 45
28 32 37
31 35 41
41 47 54
54 61 70
63 72 83
69 78 90
72 82 95
70 80 92
68 77 89
66 75 87
63 72 83
59 67 78
54 62 72
49 56 65
33 37 43
30 34 40
31 35 41
29 33 39
32 36 42
35 40 47
42 48 56
48 55 63
54 61 70
59 67 78
64 72 84
60 68 79
55 62 72
51 58 66
48 55 64
46 52 60
37 42 48
23 26 30
20 23 27
26 29 34
32 37 43
26 30 35
17 20 23
25 29 33
111 126 146
110 125 145
107 122 142
107 122 141
104 117 136
99 113 131
96 109 126
91 104 120
89 101 116
85 97 112
77 88 102
73 83 96
75 85 98
72 82 95
75 85 97
75 85 99
75 85 98
77 88 102
79 90 105
75 85 99
74 84 97
72 82 95
73 84 97
77 88 102
77 88 101
76 87 101
79 89 103
79 90 104
77 88 102
73 83 97
77 87 101
75 85 99
74 84 98
73 83 96
76 86 100
74 84 98
69 78 89
65 73 84
57 65 74
55 62 72
51 57 66
45 50 58
25 28 33
20 23 26
16 18 21
18 21 24
31 35 41
34 38 44
28 32 37
22 25 29
19 22 25
24 28 32
21 24 28
22 25 29
30 34 40
38 43 50
39 44 51
40 45 52
32 37 42
23 26 30
23 26 30
28 32 37
27 31 36
27 31 36
43 48 56
50 57 66
59 67 77
57 65 75
52 60 70
53 59 68
52 59 68
58 66 76
66 75 87
69 79 92
80 92 107
82 93 108
94 106 123
90 102 118
91 103 119
91 103 119
86 96 110
85 97 111
83 95 110
81 92 107
84 95 110
85 96 110
86 99 114
80 91 105
82 93 108
84 95 110
80 91 104
82 93 107
81 92 106
83 94 108
88 99 114
90 102 118
91 102 117
86 97 112
82 93 107
81 92 106
74 84 97
75 85 98
77 87 100
74 84 97
73 82 95
61 69 78
58 66 76
51 57 66
43 49 56
41 46 53
39 44 51
40 45 51
35 39 45
37 42 48
43 48 55
53 60 70
57 65 74
63 71 82
58 65 75
52 59 68
55 62 71
54 61 71
48 54 62
45 51 58
39 44 51
37 41 47
32 36 42
28 32 37
25 28 33
22 25 29
16 18 21
18 20 23
18 20 23
19 22 25
18 21 24
18 20 23
14 16 19
11 12 14
11 12 14
15 18 20
22 25 28
28 31 36
35 39 45
40 45 51
39 44 50
42 47 54
47 52 60
45 51 58
45 50 57
46 52 59
52 58 67
48 53 61
43 48 55
43 49 56
38 43 49
34 39 44
26 29 33
23 26 30
19 21 24
25 28 32
30 33 38
33 37 42
31 35 40
27 30 35
34 38 43
31 34 39
32 36 42
37 41 47
39 44 50
47 53 61
41 46 52
41 46 53
36 41 47
40 45 51
30 34 39
21 23 27
28 31 35
28 32 36
36 40 46
36 41 46
41 46 53
42 47 54
35 39 45
41 46 52
43 48 55
51 56 64
53 59 67
58 65 74
56 62 71
61 68 77
67 75 85
59 66 75
66 74 84
53 59 67
53 59 67
49 54 62
42 47 54
42 47 54
36 40 45
37 42 47
38 42 48
41 46 52
35 39 45
32 36 41
28 31 36
29 32 37
27 30 34
22 25 28
21 23 26
21 23 26
34 38 44
41 46 53
56 63 72
55 61 69
58 65 74
60 66 76
60 66 75
66 74 85
60 67 76
67 74 85
66 74 84
64 72 83
70 79 90
67 75 85
61 68 77
67 75 86
69 78 89
67 75 86
73 82 94
67 75 85
69 77 88
57 64 73
56 63 72
52 58 67
39 44 50
46 52 60
39 44 50
34 38 44
36 40 46
39 43 49
34 38 44
31 35 40
38 43 49
47 53 61
50 56 64
57 64 73
59 66 75
56 62 71
55 62 72
55 61 71
50 56 64
53 59 68
51 57 66
47 52 60
40 46 53
38 43 50
29 32 37
31 35 40
29 33 38
24 27 31
20 23 26
12 14 16
16 18 21
21 24 27
30 34 39
36 41 47
33 37 42
25 28 32
21 23 27
17 20 23
18 20 23
20 22 26
21 24 27
23 26 29
29 33 38
37 41 48
47 54 62
57 64 73
63 72 82
66 75 87
75 84 97
75 85 98
80 90 104
84 95 109
82 93 107
87 99 114
94 107 123
104 118 136
107 121 140
108 122 140
111 126 144
117 133 153
120 136 157
112 126 145
112 126 145
125 141 162
120 136 157
113 128 148
115 130 150
116 131 150
115 131 151
115 131 151
119 135 155
123 139 161
118 134 156
121 137 157
127 144 166
121 137 157
108 123 142
106 120 140
108 122 140
101 115 133
96 110 127
91 104 121
91 103 119
88 99 115
88 100 116
84 96 111
80 91 106
76 86 99
67 76 87
61 70 81
58 66 76
55 62 71
46 52 60
36 41 47
32 37 43
33 38 43
32 36 42
35 40 46
32 36 42
29 33 38
37 42 49
46 52 60
49 56 65
52 58 68
53 60 70
50 57 66
53 60 70
55 62 71
53 60 70
50 56 65
50 57 66
47 53 61
47 54 62
47 53 62
45 51 59
49 56 64
57 64 74
64 73 84
69 78 90
69 79 92
79 90 105
77 87 101
68 78 91
65 75 87
63 71 83
61 69 80
50 57 66
46 52 60
38 43 50
32 37 43
29 33 38
25 28 32
20 23 27
37 42 49
51 58 67
60 69 80
64 73 84
64 72 84
61 69 80
56 64 73
45 51 59
39 44 51
33 38 44
24 27 32
19 22 25
22 25 29
30 34 39
44 50 58
52 59 69
56 64 74
59 68 78
61 69 80
64 73 85
63 72 83
63 71 82
61 69 79
61 69 80
57 64 74
55 62 72
50 57 66
47 54 63
39 45 52
28 32 37
21 23 27
24 27 31
30 34 39
34 38 44
29 33 38
111 127 146
109 124 144
110 125 144
105 119 138
102 115 133
100 114 132
101 115 133
100 113 130
99 113 130
95 108 125
96 109 126
94 107 124
90 102 118
92 104 120
89 102 118
91 104 119
91 103 120
91 103 119
87 99 114
91 103 120
90 102 118
93 105 121
87 99 115
90 102 118
95 107 124
96 109 127
99 112 129
99 113 131
98 111 129
100 114 132
98 111 129
101 115 133
103 117 134
103 117 135
96 109 127
95 107 124
90 102 118
91 103 119
87 99 114
84 95 109
70 79 92
63 71 82
55 62 72
49 56 65
49 56 65
41 47 54
38 43 49
40 45 52
40 46 53
42 47 54
38 44 51
36 41 48
33 37 43
26 30 35
26 29 34
30 34 39
23 26 30
16 18 21
23 26 30
20 23 27
19 22 25
25 29 34
35 40 46
44 50 58
51 58 67
54 61 71
52 60 69
51 58 67
56 63 73
55 63 72
56 64 74
61 69 80
63 71 81
67 76 88
76 86 99
80 91 105
79 90 105
79 90 103
83 95 109
82 93 107
86 98 113
92 105 122
101 114 132
97 111 128
99 112 130
92 104 121
93 105 121
95 107 124
96 109 126
92 105 121
96 108 125
87 99 115
86 97 111
88 100 116
86 98 112
88 99 114
83 94 108
84 96 110
78 89 103
79 89 103
70 80 92
66 75 86
64 73 85
55 62 72
41 46 53
29 33 38
20 23 26
19 21 25
24 27 31
26 30 35
22 25 29
19 21 25
25 28 33
31 36 41
37 42 49
34 39 45
37 42 48
36 41 47
36 40 47
38 42 48
35 40 46
38 43 50
33 37 43
32 37 42
25 28 33
18 20 24
21 24 27
29 32 37
32 36 41
28 31 36
30 34 38
30 34 39
30 34 39
31 35 41
30 34 40
32 37 42
38 42 49
38 43 49
35 39 45
29 33 38
30 34 39
30 34 39
32 36 41
29 33 37
27 30 35
20 23 26
24 28 32
28 31 36
32 36 42
38 43 50
39 44 51
32 36 41
31 35 41
25 28 32
23 25 29
19 21 25
19 21 24
27 31 35
35 39 45
41 46 53
46 52 60
51 57 66
44 50 57
41 45 52
38 43 50
33 38 43
35 40 46
38 43 49
40 45 51
45 51 58
43 48 55
47 53 60
45 50 57
47 53 61
43 48 55
37 42 47
38 43 49
32 36 42
31 34 39
20 22 25
14 16 18
12 14 16
15 17 20
13 15 17
16 18 20
20 22 25
23 26 30
25 28 32
31 35 41
32 35 40
38 42 48
37 41 48
36 40 45
36 40 45
27 30 34
27 30 34
30 33 38
33 37 42
31 35 40
31 35 40
31 35 40
37 41 47
34 38 44
32 36 41
29 32 37
36 41 46
32 36 41
35 40 46
32 35 40
22 25 29
20 22 25
29 33 37
34 38 44
35 40 45
31 34 39
33 37 42
34 38 43
28 31 36
36 41 47
40 44 51
47 53 60
52 59 67
50 56 65
50 56 64
52 59 67
42 48 55
49 54 62
37 42 48
36 40 46
42 47 54
36 41 47
36 40 46
35 39 44
26 30 34
30 34 39
38 43 50
37 41 47
39 44 50
45 51 58
46 52 60
48 54 62
37 41 47
28 32 36
21 24 27
30 33 38
40 45 51
43 49 56
42 48 55
45 50 58
41 46 52
29 33 38
32 36 41
27 30 34
22 25 28
24 27 31
27 30 35
24 27 31
32 36 41
29 32 37
29 32 37
27 31 36
26 29 34
25 29 33
22 25 29
18 20 23
20 23 27
18 20 23
17 19 22
23 26 30
28 31 36
31 35 40
33 37 43
34 38 44
27 30 35
18 20 23
23 26 30
34 39 45
41 46 53
49 56 64
57 65 75
66 74 85
71 81 94
77 87 101
77 87 100
81 92 106
79 90 104
77 88 102
86 98 113
83 95 109
89 101 118
104 118 136
103 116 134
108 123 142
105 119 137
112 127 146
113 127 146
126 142 164
125 142 164
122 138 159
128 145 168
127 144 166
132 149 172
128 145 167
132 150 174
134 151 174
135 152 176
131 149 173
136 154 178
125 141 163
120 136 158
124 140 161
115 130 151
112 128 148
102 116 135
107 121 140
93 106 123
92 105 122
83 94 109
79 90 104
73 83 95
66 75 87
56 63 73
40 45 52
22 24 28
18 21 24
28 32 37
32 36 42
39 44 51
43 50 58
43 48 56
43 49 56
40 46 53
39 44 52
35 40 46
35 40 46
37 42 49
41 46 53
38 43 49
38 43 49
38 43 49
37 42 49
36 40 47
33 37 43
34 38 44
38 43 50
42 48 56
44 50 58
47 53 62
49 56 64
53 61 70
61 69 80
63 72 83
67 77 89
73 83 95
75 86 99
81 91 106
81 92 106
79 90 104
78 88 102
73 82 95
67 76 88
62 71 82
58 65 76
50 57 66
46 52 61
41 47 54
42 48 55
46 53 61
45 51 58
48 54 63
47 53 61
43 49 57
37 42 49
35 40 46
36 41 47
35 40 46
42 48 55
49 55 64
51 58 67
56 64 73
61 69 80
68 78 90
70 79 92
67 76 88
61 70 81
61 69 80
57 65 75
53 61 70
51 57 66
51 58 68
53 61 70
56 64 74
57 65 75
56 64 74
54 62 72
49 55 64
43 49 56
36 41 48
31 36 41
33 38 44
122 138 159
119 135 156
121 137 158
114 129 150
113 129 150
110 126 146
106 120 138
103 117 135
99 112 130
97 110 127
92 104 121
88 100 116
87 99 115
90 103 119
92 105 122
96 109 126
98 111 129
99 113 130
94 107 123
95 107 124
96 109 126
96 109 126
97 110 127
101 114 132
108 122 141
108 123 142
111 125 144
109 124 142
108 123 142
109 124 143
106 121 141
112 126 146
113 128 148
114 130 150
107 122 142
109 122 140
95 108 125
93 106 123
89 100 116
87 99 114
81 92 107
72 82 96
66 75 87
58 66 77
56 64 74
53 60 69
50 57 66
50 57 66
45 52 60
47 54 62
54 61 71
50 57 66
45 50 58
38 43 50
33 37 43
27 31 35
18 21 24
16 19 22
12 14 16
21 23 27
28 32 37
34 38 44
34 38 45
32 37 43
31 36 42
26 29 34
26 30 34
31 35 41
34 39 45
33 38 44
39 45 52
45 51 59
55 62 72
63 72 83
74 84 97
78 89 102
81 92 107
85 97 112
93 105 121
91 104 120
97 110 128
100 114 132
97 110 128
97 110 126
92 105 121
102 116 133
94 106 123
97 111 128
94 106 122
88 99 115
83 95 110
87 98 113
87 98 113
89 101 117
89 102 118
86 96 111
80 91 105
74 84 98
78 88 102
75 85 98
72 82 95
68 76 88
60 68 79
49 56 64
33 37 43
26 30 35
29 33 38
38 43 50
45 51 59
45 52 60
47 53 62
48 55 63
45 51 58
50 57 65
52 58 67
49 55 64
42 48 56
36 41 47
24 27 31
19 22 25
22 25 28
21 24 27
20 23 26
21 24 28
28 32 36
32 36 41
43 49 57
53 59 68
58 66 76
57 65 74
56 63 72
61 68 78
64 72 84
64 72 83
63 71 82
63 71 82
67 76 87
72 82 94
66 75 86
69 78 90
62 70 80
65 73 84
58 65 75
49 55 63
47 53 61
40 45 52
42 47 53
38 43 50
36 40 46
43 48 55
39 44 50
44 50 58
43 48 55
49 55 64
43 49 56
47 53 61
53 60 68
56 62 71
57 64 74
58 65 75
54 61 69
59 67 76
59 67 77
56 63 72
60 68 78
61 69 79
55 62 71
67 75 86
63 71 81
60 67 77
60 67 77
62 70 80
62 70 80
61 69 79
57 65 75
57 64 73
48 53 61
37 42 47
24 27 31
15 17 19
29 32 37
35 40 45
39 45 51
32 36 41
35 39 45
42 47 55
41 46 52
40 45 51
42 47 53
41 46 53
44 50 57
43 49 55
45 51 58
49 55 62
48 54 62
49 55 63
50 56 64
43 48 55
40 45 51
38 43 49
36 40 46
32 35 41
29 32 37
31 34 39
35 39 45
44 49 56
43 49 56
38 42 48
44 50 57
37 42 48
37 42 48
36 40 46
30 34 39
31 35 40
33 38 43
32 36 41
32 35 40
28 32 36
30 33 38
31 34 39
29 33 38
31 35 41
32 36 41
30 34 39
30 34 39
35 40 45
42 47 54
45 50 58
50 56 64
58 66 76
57 64 73
51 58 66
56 63 72
50 56 64
54 61 71
52 58 67
55 62 70
51 58 66
57 65 74
61 69 80
59 66 76
58 65 75
58 65 74
59 67 77
53 60 68
48 54 63
43 49 56
34 38 44
30 34 38
19 21 24
25 28 32
35 39 45
35 40 46
34 39 44
25 28 32
21 23 27
26 29 33
28 31 36
28 32 37
25 28 32
22 24 28
25 28 32
33 37 42
33 37 43
34 39 45
33 37 42
25 29 33
28 32 36
36 41 47
47 53 61
51 57 66
52 59 68
55 62 72
50 56 64
46 52 60
42 47 54
41 47 54
40 46 53
38 43 50
30 34 40
34 39 45
43 48 56
55 63 72
69 78 90
75 85 98
77 87 100
77 87 100
75 84 97
80 90 104
81 92 106
84 95 110
90 102 116
94 106 121
102 115 133
100 114 133
109 122 140
111 126 145
113 128 148
109 124 143
118 134 155
116 131 151
113 129 148
110 125 144
117 131 151
123 139 160
116 132 152
123 140 161
119 135 157
117 132 152
125 142 165
116 132 153
116 131 151
113 128 148
109 124 143
110 125 145
104 118 136
103 117 135
97 110 127
92 104 120
91 103 118
83 94 109
76 86 100
74 83 96
60 68 78
53 60 69
45 51 59
30 35 40
20 23 26
27 31 35
35 39 46
44 50 58
52 58 67
53 60 69
56 63 73
59 67 78
63 71 82
70 80 92
68 77 89
66 75 86
69 78 90
68 77 89
67 76 88
63 72 83
57 64 74
50 57 66
47 53 62
43 48 56
39 44 50
39 44 51
43 48 56
46 53 61
55 63 73
58 66 77
59 67 78
61 69 80
68 77 89
72 82 95
72 81 94
68 78 90
73 83 96
79 89 103
79 90 105
80 91 106
75 86 99
73 84 97
73 83 96
71 81 94
70 80 92
67 76 88
66 76 88
71 80 92
68 77 89
70 80 93
70 79 92
67 76 87
66 75 86
63 72 83
62 71 82
60 68 78
59 67 78
60 68 79
67 76 88
71 80 93
75 85 98
73 83 96
73 83 96
72 82 94
77 87 100
68 78 90
71 81 93
74 84 97
75 86 99
74 84 97
70 79 91
64 72 84
59 67 77
59 67 77
58 66 76
61 69 80
64 73 84
114 130 151
110 124 142
107 122 141
102 116 134
97 111 129
94 107 124
91 103 120
87 98 114
86 98 114
85 96 111
91 103 119
94 106 123
98 111 128
103 117 135
110 124 144
111 125 144
111 125 144
109 124 143
111 126 146
111 126 146
110 124 144
108 123 142
107 122 142
108 123 143
107 123 142
102 115 133
102 115 133
97 110 127
100 113 130
92 104 120
97 111 128
98 112 130
106 120 138
104 117 135
99 113 131
100 114 131
100 113 131
100 114 131
100 114 132
94 107 124
84 96 111
77 88 102
71 81 94
60 68 79
47 53 61
40 45 52
31 36 42
21 24 28
21 24 27
28 32 37
32 37 43
30 34 40
33 38 44
32 37 43
31 35 41
28 32 37
26 29 34
30 34 40
31 36 42
35 40 46
34 38 44
27 30 35
22 25 28
27 30 35
38 44 50
44 49 57
50 56 65
53 60 69
56 63 73
61 69 80
59 66 76
60 68 79
63 71 82
65 74 85
69 79 92
72 82 95
79 90 104
83 94 109
86 97 113
87 99 114
86 97 113
81 92 107
85 96 111
85 96 111
84 96 111
88 100 115
90 102 117
90 102 118
93 105 122
90 103 119
88 101 117
94 106 121
88 100 115
84 94 109
82 93 107
77 87 101
69 78 90
70 79 91
63 72 83
51 58 66
45 51 59
34 38 44
36 41 48
46 52 60
57 65 75
64 74 85
60 68 79
61 69 79
61 70 80
66 75 86
67 75 86
66 74 85
63 71 82
62 70 81
60 68 79
59 66 76
57 65 74
49 55 64
48 55 63
49 56 64
46 52 59
36 41 47
23 26 30
28 32 37
42 48 56
50 56 65
54 61 71
58 65 76
60 68 78
60 68 78
54 62 71
57 64 74
59 67 77
56 63 73
64 72 83
64 72 84
62 70 80
60 68 78
63 71 81
57 65 74
60 68 78
61 69 79
64 72 83
62 70 80
67 76 88
67 76 87
71 81 93
77 86 99
74 84 96
74 83 96
63 71 81
65 73 83
65 73 84
63 71 82
64 72 83
66 74 85
69 78 89
62 70 80
62 69 80
61 69 80
56 63 72
56 64 73
57 64 74
64 72 83
62 70 81
68 77 88
66 74 86
68 76 87
73 83 96
75 84 96
78 88 101
76 85 97
71 80 92
67 75 86
64 72 83
59 66 76
54 61 70
45 51 58
35 40 46
30 33 38
27 30 34
29 32 37
37 41 47
40 45 52
42 47 54
42 47 54
41 46 52
43 48 55
43 48 55
41 46 52
38 43 49
34 39 44
30 33 38
26 29 34
26 29 33
28 31 36
25 28 32
25 28 32
28 31 36
22 25 28
21 24 27
27 31 35
23 26 30
18 21 24
13 15 17
14 16 18
22 25 29
31 35 41
41 46 53
43 49 56
49 55 63
44 50 58
40 45 52
44 50 57
49 56 64
47 53 61
51 57 65
47 53 61
50 56 64
51 57 65
51 57 65
55 61 70
52 58 67
53 59 68
55 62 71
61 69 79
63 70 81
66 74 85
68 76 87
66 74 85
66 75 86
61 69 80
68 77 88
55 62 71
57 64 73
51 58 66
53 60 69
50 56 64
48 54 63
45 51 58
48 54 63
48 54 62
46 52 59
42 48 55
35 39 45
30 34 39
32 36 41
29 33 38
24 27 31
15 17 20
12 14 16
12 14 16
16 18 21
20 23 26
24 27 31
28 31 36
30 34 39
31 35 40
35 39 45
33 38 43
35 40 46
34 38 44
36 40 46
32 36 42
29 32 37
32 36 42
32 36 42
30 35 40
26 30 34
30 33 39
37 41 48
36 40 47
41 46 53
40 45 52
38 43 50
36 40 47
33 38 43
36 41 48
37 42 48
31 36 41
24 28 32
17 20 23
17 20 23
28 32 37
35 40 46
44 50 57
50 56 65
57 64 73
59 67 77
65 73 84
72 81 93
73 83 95
73 82 95
81 92 107
88 100 115
88 100 116
94 107 123
96 109 126
94 107 124
98 112 129
102 115 133
99 112 129
96 109 126
99 112 129
100 113 131
98 112 129
94 107 123
104 118 137
98 111 128
106 120 138
105 119 137
106 120 139
98 112 129
99 112 129
98 111 128
99 112 129
94 107 124
90 102 118
92 104 119
86 98 113
80 91 105
83 94 108
76 87 100
71 80 92
65 74 85
67 77 89
65 74 86
60 68 79
56 64 73
49 55 64
46 53 61
41 47 54
32 37 42
36 42 49
40 46 53
42 48 56
47 54 62
49 56 65
53 61 70
55 62 72
60 68 79
59 67 78
58 66 76
57 65 75
47 53 61
37 42 49
36 41 47
40 45 52
44 51 59
46 53 61
48 54 63
51 58 68
49 56 65
51 58 68
60 68 79
61 69 80
63 72 83
64 73 84
60 68 78
60 68 78
54 62 72
52 59 69
51 58 68
63 71 82
64 72 84
67 76 88
69 78 90
70 80 92
72 82 95
72 82 95
73 83 96
77 87 101
83 94 109
86 98 113
90 103 118
94 107 124
97 111 129
101 114 132
101 115 133
103 117 136
103 118 137
101 115 133
102 117 136
99 113 130
103 117 135
107 121 140
105 119 137
100 114 133
101 115 133
99 112 130
100 113 130
98 112 129
90 102 117
83 94 109
80 91 106
74 84 97
78 89 103
84 96 110
86 98 113
85 97 112
80 91 106
79 90 105
78 89 103
79 90 104
81 91 105
83 94 108
84 96 111
85 96 111
89 102 118
90 102 118
93 106 122
96 108 125
98 112 129
106 120 139
104 118 137
104 118 136
109 123 142
108 123 143
111 126 146
109 123 143
102 116 135
108 122 140
107 122 141
100 113 131
93 106 122
91 103 120
88 100 115
90 102 118
89 101 117
89 101 117
90 102 118
86 98 114
89 101 117
89 101 117
91 103 119
92 104 121
89 101 117
92 105 121
86 98 114
81 92 106
77 88 102
74 85 98
70 79 91
60 68 79
55 62 72
46 52 61
30 34 40
20 23 26
20 23 27
31 35 41
44 50 58
50 57 66
56 64 74
51 59 68
48 54 62
45 50 58
43 49 57
36 41 48
44 50 58
54 61 70
63 71 82
67 75 87
70 79 91
74 84 98
77 87 101
82 93 108
77 87 101
77 87 101
75 85 99
75 85 98
73 83 96
71 80 93
70 80 92
71 80 93
75 85 98
81 92 107
87 99 114
87 99 113
85 96 111
88 100 115
85 96 111
87 98 112
84 95 109
86 98 113
83 94 109
77 87 100
77 88 101
70 80 92
69 78 90
72 82 94
70 80 93
71 80 92
62 70 82
54 61 70
51 58 67
43 48 56
31 35 41
24 28 32
19 22 25
14 16 18
31 35 41
42 47 54
46 52 61
48 55 64
52 60 69
50 57 66
45 51 59
41 46 53
36 41 47
35 40 46
37 42 49
46 52 60
50 57 65
55 63 72
59 67 77
62 70 82
57 64 74
51 57 66
46 52 60
39 45 52
21 24 28
16 18 21
15 17 20
20 23 27
25 28 33
26 29 34
32 36 42
40 45 52
48 54 62
50 57 66
55 63 73
65 74 85
69 78 90
66 75 87
67 76 88
73 82 94
72 82 94
77 87 100
80 90 103
76 86 99
80 90 104
78 87 100
76 86 98
77 87 101
79 90 104
75 85 98
76 86 99
70 80 92
70 80 92
69 78 90
71 80 92
67 75 86
68 77 88
67 76 87
70 79 90
73 82 95
76 86 99
67 77 89
69 77 88
67 75 86
63 70 80
69 77 89
73 82 94
71 80 91
73 82 95
69 77 89
72 82 94
71 80 92
68 76 87
64 72 83
69 78 89
69 77 88
74 83 95
66 75 86
59 67 78
65 73 83
61 69 79
48 54 62
47 53 61
36 41 47
23 26 30
16 18 21
18 21 24
28 31 36
35 40 46
35 40 45
35 40 45
41 46 53
43 49 56
51 57 65
55 62 71
55 62 71
55 62 72
50 57 65
40 45 52
31 35 40
30 35 40
24 27 31
23 26 30
17 20 23
19 22 25
24 27 31
26 30 34
28 32 37
20 23 27
21 23 27
27 31 35
29 32 37
27 31 36
35 40 46
30 34 39
33 37 43
37 41 47
50 56 64
52 59 67
52 59 68
52 59 67
52 58 67
48 54 62
44 50 58
51 57 65
56 63 72
57 65 75
57 64 74
63 72 83
63 71 82
58 66 75
60 68 78
60 68 78
62 71 81
58 66 76
60 67 78
60 68 78
57 64 74
57 64 73
48 54 62
45 51 59
37 42 48
26 30 34
24 27 31
28 32 36
28 32 36
26 30 34
25 28 32
28 31 36
23 26 30
20 23 26
17 20 23
22 25 29
31 35 41
34 39 45
39 45 52
44 50 58
41 46 53
49 56 64
48 54 62
47 53 61
41 47 54
39 44 50
42 47 55
37 42 49
37 42 48
48 55 63
53 60 69
61 68 79
62 70 81
65 74 85
70 79 92
66 75 87
66 75 86
64 72 84
54 61 70
50 57 66
45 52 60
38 43 49
29 33 38
26 30 34
21 24 27
25 28 32
37 42 48
41 46 53
43 49 56
47 53 61
43 49 56
38 43 49
28 32 36
15 17 20
17 19 22
31 36 41
47 54 62
63 71 82
71 80 92
68 77 90
72 81 93
81 91 105
72 82 95
72 81 94
75 85 98
74 83 96
73 83 96
77 87 100
74 84 97
74 84 98
76 86 99
77 88 103
82 94 108
82 94 108
85 97 112
83 94 110
89 101 116
95 108 124
101 115 133
100 114 132
101 114 132
99 112 130
107 121 139
103 117 135
98 111 128
95 108 126
94 107 123
91 104 120
93 105 122
91 103 119
94 106 123
89 100 115
84 95 110
84 95 109
81 91 105
77 88 101
69 79 91
70 79 90
63 72 83
53 60 70
50 57 65
49 55 64
40 45 52
32 36 42
35 40 46
39 44 51
44 51 59
48 55 64
52 59 68
56 64 75
59 67 77
51 58 67
48 55 64
48 54 62
45 51 59
43 49 57
40 45 52
35 40 46
32 36 42
32 36 41
27 31 36
31 36 42
43 49 56
47 53 62
48 54 63
47 53 62
42 48 56
38 43 50
34 38 45
29 33 38
32 37 43
41 46 54
47 54 63
54 61 71
61 70 81
68 77 89
71 81 93
78 88 101
82 93 107
87 99 114
85 97 113
86 97 112
84 96 111
87 99 115
87 99 115
91 103 120
99 112 129
101 115 133
104 119 139
107 121 140
106 120 139
108 122 141
108 123 142
108 123 143
108 122 141
107 122 142
108 123 142
102 116 135
100 114 132
97 110 127
91 104 121
87 99 115
91 104 120
88 100 116
89 101 117
86 97 112
85 97 112
58 66 76
60 68 79
64 72 84
69 78 90
74 84 97
78 88 102
83 94 109
80 91 105
78 89 103
77 87 100
71 81 94
73 84 98
73 83 96
77 87 100
81 92 107
83 94 109
81 92 106
80 90 105
80 91 105
76 86 99
74 85 98
76 86 99
78 89 103
74 84 97
67 76 87
70 80 92
68 78 90
69 79 91
69 79 90
66 76 88
68 77 90
64 73 85
66 75 87
64 73 85
65 74 86
62 70 80
62 70 81
63 71 83
64 73 84
61 69 80
56 63 73
48 54 63
43 49 57
37 42 49
29 33 38
32 37 43
39 44 51
51 58 67
57 65 75
62 71 82
65 73 85
68 77 89
69 78 90
69 78 90
70 80 93
74 84 97
73 84 97
75 85 98
78 88 102
81 92 107
85 97 113
98 111 129
98 111 127
99 112 129
100 113 131
96 109 126
92 105 122
89 101 116
81 92 107
72 82 95
68 77 89
61 69 80
61 70 81
61 70 81
63 71 82
64 73 84
69 78 89
67 76 88
66 76 88
61 69 80
64 72 84
60 67 78
57 65 76
61 69 80
55 63 73
56 64 74
42 48 55
38 43 50
39 45 52
40 46 53
36 40 47
34 38 45
34 39 45
35 39 45
35 40 46
40 45 53
41 47 54
40 45 52
33 37 43
30 34 40
29 33 38
38 43 50
40 45 52
42 48 55
36 41 48
33 37 43
32 37 42
36 41 48
43 49 56
48 54 63
53 61 71
55 63 73
64 73 84
65 73 84
62 71 82
57 64 74
46 51 59
36 41 48
30 33 39
25 28 32
15 18 20
26 29 34
33 37 43
33 38 43
30 34 39
30 34 39
31 35 40
39 44 51
43 48 56
51 58 66
54 61 71
64 73 84
63 72 83
66 74 86
70 79 91
79 89 103
78 88 102
84 95 109
88 100 115
96 109 125
94 107 124
89 100 116
83 94 109
84 95 108
76 85 98
72 82 95
64 73 84
65 74 86
60 68 78
59 67 77
55 63 72
54 61 70
51 58 67
56 63 72
56 63 72
58 66 76
57 64 74
52 59 68
57 65 74
57 65 75
57 64 74
55 62 72
61 69 79
70 79 92
67 76 88
63 71 82
61 69 79
62 70 81
64 73 84
61 70 80
60 67 77
56 63 73
58 65 74
54 60 69
48 54 61
48 54 62
44 50 57
40 46 53
28 31 36
19 22 25
12 14 16
23 26 30
33 37 43
37 42 49
40 45 52
42 48 55
45 50 57
47 53 61
51 58 66
55 61 70
62 70 81
67 75 87
69 78 90
65 74 85
65 73 84
58 66 76
53 59 69
48 54 62
38 43 50
33 37 43
31 35 41
24 27 32
16 19 21
23 26 30
29 33 38
28 32 36
34 38 43
35 39 45
33 37 43
28 32 37
23 26 30
23 26 29
30 33 38
36 41 47
40 45 52
38 44 50
38 42 49
32 36 41
34 38 44
37 41 48
37 41 47
36 41 47
39 44 51
48 54 62
49 55 63
49 55 64
50 57 66
56 64 73
56 64 74
63 71 82
68 77 89
66 75 86
71 80 92
72 81 93
73 82 93
61 69 80
61 69 80
57 64 74
48 54 62
38 43 49
21 23 27
18 20 23
17 19 22
26 30 34
32 36 42
38 43 49
38 42 49
38 43 50
27 31 35
25 28 32
28 32 37
43 48 55
50 57 65
56 63 73
62 70 81
60 68 78
56 63 73
55 62 72
51 58 66
50 57 65
42 47 54
40 45 52
45 51 59
45 51 59
45 51 59
43 49 57
44 49 57
37 42 49
46 52 60
44 49 57
45 51 59
42 47 55
42 47 54
38 43 49
36 40 47
31 35 40
22 25 29
25 28 33
38 43 49
52 59 68
63 72 84
63 71 82
66 75 86
68 77 89
66 75 86
61 69 79
55 62 72
50 57 66
47 53 62
41 46 54
43 48 55
43 49 57
45 51 58
46 53 61
53 60 69
54 62 71
61 70 80
66 75 86
69 78 90
70 80 93
70 80 93
70 79 92
67 77 89
74 84 96
74 84 97
75 86 99
74 84 97
75 85 99
84 95 110
90 102 118
91 103 119
98 111 128
102 116 134
108 123 142
110 126 146
107 122 140
114 130 150
119 135 156
119 135 155
109 123 142
110 124 144
108 122 141
108 123 142
105 119 137
106 120 139
102 116 135
101 114 132
98 111 128
90 102 118
91 103 119
92 104 120
84 96 111
85 96 111
83 95 110
82 93 108
77 88 102
81 92 107
74 84 97
62 71 82
60 68 78
50 57 67
39 44 52
36 41 47
30 35 40
33 37 43
38 44 51
42 48 56
47 54 62
48 55 63
47 54 62
40 45 52
39 44 51
31 35 40
21 24 28
20 23 27
27 30 35
29 33 39
35 40 46
32 37 43
31 35 41
28 32 38
33 38 44
33 37 43
27 31 36
31 35 41
33 38 44
38 43 50
41 47 54
52 59 69
62 70 81
67 76 88
71 81 94
70 80 92
70 80 92
69 78 90
71 80 93
76 86 100
79 90 105
82 92 106
89 100 116
85 96 111
86 97 113
87 98 113
88 99 115
87 99 115
92 104 120
89 101 118
94 107 123
94 107 123
95 108 126
88 100 116
88 101 117
86 98 113
80 91 105
81 92 106
82 93 108
78 89 103
76 87 100
76 87 100
77 88 102
32 36 41
21 24 27
24 27 32
30 34 40
33 38 44
37 42 49
44 50 58
42 48 55
47 53 62
48 54 63
51 58 67
45 51 59
46 52 60
39 45 52
33 38 44
33 37 43
39 45 52
45 51 60
46 53 61
47 53 62
47 54 63
50 57 65
50 57 66
48 54 63
52 59 68
46 53 61
48 54 63
38 43 50
38 43 49
38 44 51
40 45 52
42 48 56
42 48 55
43 49 57
44 50 59
45 51 58
47 54 63
45 51 59
48 54 63
53 61 70
55 63 73
58 66 76
58 66 77
67 76 87
70 79 92
71 81 93
69 78 91
66 75 87
65 73 85
64 73 85
65 75 87
70 80 92
73 82 95
77 87 101
75 85 98
75 85 97
78 88 102
83 94 109
83 94 108
83 94 109
85 97 113
87 99 114
87 99 115
88 100 116
87 99 114
84 96 111
81 92 107
81 92 107
74 83 96
68 77 89
58 65 75
47 54 62
45 51 59
47 53 62
50 56 65
50 57 66
45 52 60
49 55 63
56 63 73
54 61 71
53 60 70
55 63 74
53 60 70
46 52 60
30 34 40
17 20 23
29 33 38
40 45 52
42 48 56
45 52 60
40 45 52
46 52 60
52 59 68
58 66 76
63 72 83
64 72 84
66 74 86
57 64 74
50 57 66
43 49 57
36 41 48
35 39 45
35 40 47
36 41 48
36 41 47
32 36 42
30 34 40
26 30 35
24 28 32
27 30 35
31 35 40
42 48 55
49 56 65
49 56 65
53 60 69
52 59 68
52 60 69
42 47 54
33 37 43
17 19 22
28 32 36
35 40 46
39 45 51
46 52 60
49 56 64
56 63 73
54 60 70
57 65 75
65 74 85
69 79 91
75 85 99
77 87 101
82 92 106
86 98 112
89 101 116
86 98 113
88 100 116
88 100 115
96 109 126
101 114 131
97 109 125
92 104 119
97 110 127
87 98 114
88 100 115
86 98 113
77 88 101
84 95 110
80 90 104
74 83 96
67 76 87
63 71 82
61 69 80
64 71 82
62 69 80
62 70 80
64 72 83
64 72 83
60 68 78
61 69 79
61 69 80
58 65 75
56 63 72
62 70 81
68 76 88
69 78 89
76 86 99
77 87 100
68 77 89
69 78 90
68 76 88
63 71 82
59 66 76
58 65 75
49 56 65
48 54 63
47 53 61
44 50 58
35 39 45
18 21 24
24 27 31
33 37 43
44 50 57
51 57 66
61 69 79
61 69 79
66 75 87
64 72 83
66 74 85
69 77 89
70 79 92
76 86 99
82 92 106
72 82 94
77 86 99
73 83 95
65 74 85
59 66 76
45 51 58
35 40 46
23 26 30
28 32 37
36 41 47
41 46 54
47 53 61
52 59 68
57 65 74
69 78 90
71 80 92
71 80 93
67 75 86
72 81 93
60 67 77
68 76 88
62 70 81
63 71 81
56 63 72
52 58 67
45 51 59
39 45 51
39 44 51
39 43 50
33 37 43
28 32 36
19 22 25
18 21 24
29 33 38
34 39 45
41 46 53
45 51 59
54 61 70
58 66 76
62 71 82
61 69 79
67 75 87
70 79 90
71 81 93
65 74 85
60 68 78
54 61 70
46 52 60
42 47 55
39 44 50
35 40 46
39 44 50
36 40 47
40 46 53
34 39 45
34 39 45
27 30 35
20 23 26
31 36 41
45 51 59
57 65 75
62 70 81
67 75 87
65 73 84
59 67 77
59 66 76
56 63 72
51 58 68
44 51 59
39 44 51
36 41 47
37 42 48
29 33 38
22 25 29
26 30 34
33 37 42
39 44 51
47 54 63
56 63 72
56 64 73
58 66 76
59 67 78
62 71 82
67 76 87
62 70 82
60 68 79
58 66 76
62 70 81
65 74 85
72 82 95
71 81 93
73 83 95
74 84 97
71 80 92
72 82 95
72 82 95
74 85 98
78 88 101
76 86 99
59 66 77
48 54 62
35 40 46
25 28 33
30 34 39
32 36 42
30 34 39
26 29 34
30 35 40
40 45 52
42 48 56
45 51 59
55 63 73
61 69 80
62 70 81
71 80 93
70 80 92
77 87 101
84 96 110
85 97 112
87 99 115
92 105 121
99 112 130
106 120 138
110 125 145
117 133 154
121 138 160
123 140 162
130 148 171
124 141 164
124 141 163
128 145 167
125 142 164
123 140 161
117 133 154
113 128 148
111 127 146
107 121 140
101 114 132
101 114 131
97 110 128
94 106 123
90 103 119
92 105 122
95 107 124
92 105 122
90 102 118
85 96 111
86 97 112
78 88 102
70 79 92
66 75 86
54 62 71
39 44 51
29 32 38
25 28 32
33 37 43
39 44 51
39 45 52
41 46 53
39 44 51
31 36 41
26 30 35
24 28 32
22 26 30
26 29 34
34 39 45
37 42 48
38 44 50
40 46 53
36 41 47
32 36 42
27 30 35
26 29 34
34 38 44
35 40 46
33 37 43
27 31 35
24 28 32
28 32 37
34 39 45
35 39 46
36 41 47
36 41 47
38 43 50
38 43 49
45 52 60
48 54 63
55 63 73
61 69 80
63 71 82
64 73 85
65 74 85
71 80 93
74 84 97
81 92 107
77 88 102
79 90 104
84 95 109
81 92 107
86 98 113
84 96 111
83 94 109
80 91 105
74 85 99
74 84 97
74 84 97
75 85 98
70 79 91
66 75 87
62 71 82
58 66 77
65 74 86
67 76 88
70 79 92
73 84 97
78 89 103
80 91 105
83 94 109
78 88 103
79 90 104
81 92 107
85 97 113
84 95 110
89 102 118
92 104 119
94 107 124
99 112 130
100 113 131
96 109 126
96 108 125
98 112 129
94 107 123
90 102 118
83 94 109
81 92 107
81 92 106
79 90 105
75 85 99
73 83 96
72 82 95
69 78 90
69 78 91
75 86 100
79 90 104
82 93 107
84 95 109
86 98 114
90 102 118
96 108 125
97 111 128
100 113 130
97 110 127
91 104 120
87 98 114
87 99 114
82 93 107
75 85 99
68 77 90
72 81 94
74 84 97
71 81 94
78 88 103
72 82 96
71 81 93
77 87 101
77 88 101
81 92 106
78 89 103
75 85 98
71 81 94
70 80 92
71 81 94
72 82 95
71 80 93
73 82 95
68 78 90
65 74 86
59 67 78
53 60 69
49 55 64
40 45 52
40 45 53
38 43 50
34 38 44
33 38 44
34 39 45
41 47 54
40 46 53
47 53 61
43 49 57
46 52 60
56 63 73
63 71 82
67 77 89
68 77 89
74 83 96
78 89 103
78 89 102
82 93 108
78 88 102
79 90 105
78 89 103
77 87 101
78 88 102
81 92 106
74 84 98
73 83 96
74 84 97
75 85 98
79 89 102
68 77 90
67 76 88
59 66 76
54 62 71
51 57 66
47 54 62
51 57 66
54 62 72
60 68 79
60 69 80
68 77 89
72 81 94
71 81 94
75 85 98
64 72 83
60 68 78
53 61 70
44 51 59
38 43 50
39 44 51
38 43 49
43 49 57
48 55 64
56 63 73
64 72 84
71 80 93
83 95 109
91 102 118
97 110 127
100 114 132
103 117 136
99 112 130
100 114 131
99 112 129
95 108 124
98 111 128
91 103 119
99 112 129
97 110 127
92 104 119
86 97 112
87 99 115
83 94 108
79 90 104
80 90 104
76 86 99
78 88 102
76 85 98
75 85 97
78 88 101
82 92 106
78 88 101
77 87 100
77 87 101
68 78 90
70 79 92
70 79 91
69 79 91
74 85 98
69 78 90
77 87 100
75 84 97
74 84 96
71 81 93
73 83 96
71 81 94
78 88 101
76 87 100
74 83 96
68 77 88
62 71 81
57 65 75
48 55 63
33 38 44
30 34 40
30 34 40
27 31 36
29 33 38
36 41 47
45 51 59
52 59 68
65 74 86
64 72 83
64 73 84
72 81 93
64 72 83
69 78 90
67 75 86
70 80 92
76 86 99
73 83 96
70 79 91
65 73 84
58 66 76
51 58 66
38 43 49
24 28 32
35 39 45
52 58 67
60 68 78
65 74 85
69 78 91
80 91 104
81 92 106
84 95 109
78 88 102
83 95 110
85 97 111
88 100 115
84 95 110
80 90 104
79 89 102
75 85 98
72 81 94
66 75 87
63 72 83
58 66 76
58 65 75
52 59 68
52 58 67
49 55 64
51 57 66
44 49 57
33 37 43
20 23 27
23 26 30
37 42 49
47 53 61
52 58 67
53 60 69
54 61 71
56 63 73
60 68 78
68 77 89
70 79 91
64 72 83
67 76 87
55 63 72
59 67 77
52 58 68
48 55 63
40 46 52
41 46 54
38 43 50
47 53 61
45 50 58
46 52 60
40 45 52
44 50 58
47 54 62
50 56 65
51 58 67
57 64 74
56 63 73
58 65 74
53 60 69
50 56 65
39 44 51
35 40 46
29 33 38
17 19 22
12 14 16
16 18 20
23 26 30
29 33 38
41 47 54
56 63 73
59 67 78
60 67 78
66 75 87
65 74 85
67 77 89
71 81 94
73 83 95
67 76 88
62 70 81
65 74 86
63 71 82
65 74 85
67 76 88
69 79 91
76 87 100
76 86 99
71 81 93
74 84 97
72 82 95
75 85 98
76 86 99
71 81 94
69 79 91
63 72 83
55 63 72
46 52 60
43 49 57
39 44 51
37 41 48
36 41 48
28 32 37
26 29 34
27 31 36
27 31 36
24 27 32
27 31 36
30 34 39
30 34 40
32 35 41
34 38 44
41 46 53
45 51 59
58 66 76
67 76 88
72 82 95
83 95 110
89 101 117
94 107 123
102 116 134
109 123 142
107 122 141
117 132 153
112 127 148
113 127 147
120 136 157
121 137 158
114 130 150
105 120 138
110 125 145
104 118 136
102 116 135
97 110 128
97 110 127
93 106 123
91 104 121
86 97 112
83 94 109
87 98 113
87 98 113
84 95 110
81 92 107
81 93 107
83 95 110
79 89 103
75 85 98
67 77 89
52 59 68
34 38 44
30 35 40
36 41 48
44 50 58
47 54 62
49 55 64
48 54 63
41 47 54
24 27 31
19 22 25
29 33 39
40 46 53
40 45 52
42 48 56
35 40 47
26 29 34
26 29 34
23 27 31
27 31 36
35 40 46
37 42 49
39 44 51
40 45 53
41 46 54
44 50 58
53 60 69
52 60 69
54 61 71
53 60 70
51 58 67
48 55 64
50 57 65
51 57 66
45 51 59
42 48 55
37 42 49
42 47 55
44 50 58
54 61 71
56 63 73
64 73 85
61 68 79
67 76 88
71 80 93
76 86 99
80 91 105
81 92 106
83 94 109
78 88 102
72 82 95
73 83 95
71 81 94
68 78 90
89 101 117
90 103 119
92 105 121
92 105 121
92 105 122
94 107 124
99 112 130
99 112 130
101 115 133
100 113 131
104 117 135
104 118 137
106 121 140
114 130 150
116 132 153
114 129 150
117 133 154
119 136 157
121 136 157
123 139 161
124 141 163
118 134 155
111 127 147
106 121 140
103 117 136
101 115 132
100 114 132
100 113 130
99 112 129
98 111 129
96 109 127
95 108 125
97 111 129
100 114 132
100 114 132
98 111 129
103 117 136
102 115 132
96 108 125
94 107 123
97 110 127
96 109 126
91 103 120
89 101 117
93 106 122
89 101 116
84 95 109
80 91 105
78 89 103
77 87 101
77 88 102
79 89 103
83 95 109
77 88 101
70 79 91
59 67 78
52 59 68
43 49 57
38 43 49
31 35 40
30 34 39
35 40 46
29 33 38
26 30 35
27 31 35
30 35 40
33 38 44
35 40 46
35 40 46
32 36 42
30 34 40
33 37 43
27 30 35
20 23 26
32 36 42
41 47 54
53 61 70
65 74 85
67 76 88
68 77 90
79 89 103
81 92 107
83 94 109
84 96 111
81 92 106
84 96 110
88 100 116
91 103 119
91 103 119
97 110 127
92 104 121
94 107 123
95 108 125
97 110 127
93 105 122
96 109 125
102 116 134
99 111 128
97 109 126
101 115 133
103 118 136
102 116 134
102 115 133
101 115 132
95 108 125
94 107 123
91 103 119
88 100 116
82 92 107
73 82 95
77 87 101
73 83 96
79 90 104
79 89 103
78 89 102
75 85 98
73 83 96
76 86 100
66 75 86
60 68 78
48 55 64
39 44 51
24 27 31
26 30 35
35 39 45
50 56 64
63 71 82
72 81 93
85 96 112
89 101 117
100 113 130
96 109 126
108 122 140
104 118 136
105 119 138
109 124 144
108 123 143
109 123 142
107 122 141
107 122 141
111 126 146
111 125 144
108 123 142
104 118 137
107 121 140
103 116 133
97 110 127
96 109 126
94 107 124
87 99 115
89 100 116
83 94 109
81 92 106
80 91 105
76 86 99
69 79 91
70 79 91
65 74 85
63 72 83
64 73 84
67 76 88
62 71 82
60 68 78
61 69 80
61 70 81
58 66 76
54 61 70
50 57 66
45 51 59
42 47 54
39 44 51
37 42 48
36 40 47
43 48 55
39 44 51
35 40 46
33 38 44
43 48 56
46 52 60
46 52 60
51 58 67
58 66 76
64 73 84
66 74 86
72 81 94
70 79 91
76 86 99
79 89 103
66 74 86
69 78 90
65 74 85
64 73 84
56 64 74
56 63 72
47 54 62
30 33 38
20 22 26
22 25 29
29 33 38
34 39 45
45 50 58
50 56 65
55 62 71
56 63 73
66 74 85
68 76 88
76 86 99
80 91 104
79 90 104
93 105 121
85 97 111
82 92 106
80 91 106
74 83 95
77 87 100
75 84 96
72 82 94
65 73 85
63 71 81
63 72 83
62 71 81
63 71 82
60 68 78
56 64 73
64 73 84
67 76 87
58 66 76
53 60 69
38 43 49
31 35 41
31 35 40
36 41 48
40 46 53
41 46 53
41 46 53
39 45 52
38 43 50
36 41 48
37 42 49
33 37 43
31 35 40
33 38 44
37 41 47
39 44 51
40 45 52
43 49 57
49 56 64
51 58 67
53 59 69
44 50 58
39 45 52
36 41 47
37 42 48
41 47 54
40 45 53
38 43 49
41 47 54
42 48 56
41 47 54
46 52 61
48 54 63
44 50 58
53 60 69
57 64 74
56 64 73
58 66 77
58 65 75
58 66 76
65 74 87
73 83 96
76 87 101
82 94 109
81 91 106
82 94 109
88 100 115
91 103 118
91 103 118
87 99 114
86 97 112
83 94 108
85 96 111
81 92 107
86 98 114
87 98 113
90 102 118
92 104 120
88 100 116
86 97 112
82 94 110
81 91 105
73 83 95
69 79 91
67 76 88
68 78 90
66 75 86
68 77 89
65 74 86
65 74 85
64 73 85
61 69 80
58 66 76
55 63 73
61 69 80
57 64 74
54 62 72
53 60 69
47 53 62
41 47 54
37 42 49
25 29 34
30 34 39
38 43 50
46 52 61
51 59 68
60 68 78
67 77 89
71 81 94
67 76 88
75 85 98
78 89 103
86 97 113
86 98 113
89 100 116
94 106 123
93 106 122
98 112 129
102 116 133
98 111 130
103 117 136
100 114 133
101 115 134
97 110 127
95 108 125
94 107 124
92 104 121
91 104 120
93 105 121
91 104 120
91 103 119
85 96 111
85 96 111
82 94 109
87 100 116
88 100 115
85 97 113
77 88 102
74 84 97
66 75 86
57 65 76
46 53 61
38 44 50
33 37 44
29 32 37
25 28 33
17 20 23
23 26 30
27 30 35
30 34 39
37 42 49
43 49 57
43 49 57
37 43 50
30 34 39
30 35 40
22 25 29
22 25 29
26 30 35
23 26 30
26 30 34
41 47 54
50 57 66
61 69 79
68 77 89
76 86 100
81 92 106
82 93 108
89 101 117
92 104 120
92 105 122
95 109 126
92 104 120
90 103 119
86 97 113
82 94 109
82 93 107
82 93 108
79 90 104
78 88 101
66 75 87
58 65 76
47 54 63
43 49 57
43 49 56
43 49 57
45 51 59
49 55 64
49 55 64
47 53 62
51 58 67
55 62 72
91 104 120
97 110 127
102 116 134
102 115 134
106 121 140
104 118 136
107 121 140
111 125 144
115 131 152
120 136 157
122 139 161
127 144 168
127 144 167
123 139 162
122 138 159
120 136 157
120 136 157
117 133 154
114 130 150
113 129 149
106 121 139
105 119 138
108 122 141
100 114 132
100 114 131
96 110 127
96 109 127
95 109 126
99 112 128
97 110 126
101 114 132
98 112 130
100 114 133
102 115 133
103 117 136
99 112 130
96 108 124
89 101 118
82 93 107
77 88 102
72 82 94
65 74 85
66 75 87
67 77 89
68 78 90
70 80 93
71 81 93
69 78 90
68 78 90
67 77 89
68 78 90
68 77 89
65 74 86
65 73 85
62 70 81
56 63 73
50 56 65
43 48 56
40 45 52
36 41 47
36 41 47
32 36 42
19 22 26
18 20 24
27 31 36
35 40 46
41 46 54
40 45 52
31 35 41
29 33 39
33 37 43
28 32 37
28 32 37
35 40 46
50 57 66
57 66 76
66 75 87
72 82 94
75 85 98
82 93 108
83 94 108
88 100 116
88 99 115
91 104 120
95 108 125
99 112 130
91 104 120
94 107 124
97 111 129
94 107 123
94 107 124
93 106 122
96 109 126
100 114 131
103 116 133
98 111 127
102 116 134
107 122 141
102 117 136
107 121 140
103 117 135
101 115 133
105 119 138
99 113 130
92 104 120
87 99 114
85 96 111
76 85 98
71 81 93
62 70 80
57 65 74
55 63 73
55 62 72
51 58 66
47 53 62
49 56 64
49 56 64
42 47 55
35 40 46
33 37 43
32 36 42
35 40 47
48 53 61
50 56 65
55 62 72
59 67 77
72 82 95
84 95 110
93 106 122
97 110 127
109 124 143
111 125 144
116 132 153
117 133 154
119 135 156
120 137 159
117 133 153
110 126 145
112 127 147
110 124 143
109 124 144
103 117 136
107 121 140
113 128 147
111 125 145
102 116 134
99 113 131
92 105 121
89 100 115
83 95 110
75 84 97
73 83 96
67 76 88
61 69 80
55 63 73
54 61 70
54 61 70
51 58 66
52 59 68
49 55 64
48 54 62
43 48 55
31 35 41
30 34 40
30 34 39
37 42 49
38 44 51
45 51 58
56 63 73
57 64 74
65 73 84
63 71 82
66 75 86
66 75 87
70 78 90
70 79 91
78 88 102
71 80 91
75 85 98
75 85 97
63 71 81
70 79 92
71 80 92
68 77 89
71 80 93
73 83 95
80 91 105
84 95 109
74 84 97
73 82 94
71 80 92
64 73 84
56 63 73
44 50 58
34 38 44
19 22 25
14 16 19
24 27 32
23 27 31
23 27 31
25 28 33
26 29 34
20 23 27
21 24 27
28 32 37
35 40 46
46 52 59
47 53 61
53 60 69
58 66 76
65 74 86
70 79 92
69 79 92
67 76 88
60 68 78
54 61 71
49 56 65
51 58 67
49 56 64
51 58 66
53 60 69
57 65 74
64 72 84
70 79 92
71 80 93
67 75 87
63 72 83
57 65 75
47 54 62
50 57 66
44 49 57
42 48 55
41 47 54
39 44 51
40 46 53
47 53 61
50 56 65
55 62 72
58 65 75
56 64 74
63 72 83
66 75 87
63 71 82
73 82 95
75 85 98
78 88 102
79 89 103
82 93 107
81 92 106
81 91 105
80 90 104
66 75 87
62 70 80
63 71 82
58 65 75
62 71 82
63 71 83
68 78 90
71 80 93
73 83 95
75 85 99
85 95 110
92 104 119
89 101 116
93 106 122
95 107 124
105 118 136
101 113 130
98 112 130
100 113 131
101 114 132
100 114 132
96 109 125
103 116 134
100 114 131
101 114 131
101 115 133
100 114 131
98 111 128
93 106 122
94 106 123
93 105 121
94 107 124
97 110 127
99 112 129
93 106 123
94 106 122
89 101 117
89 102 118
83 95 110
89 101 117
90 103 119
91 103 119
93 106 123
91 104 120
90 102 118
91 104 120
92 104 120
87 99 115
91 104 120
89 101 117
87 100 116
89 101 117
90 102 118
93 105 120
90 103 119
86 98 113
79 89 103
77 87 101
73 83 96
69 78 90
63 72 84
60 69 79
58 66 76
57 65 75
53 60 69
52 60 69
46 53 61
48 55 64
42 48 56
45 51 59
51 58 67
56 64 74
53 60 70
60 68 78
63 72 83
70 79 92
77 87 100
85 96 111
88 100 116
95 108 124
97 110 127
96 109 127
97 110 128
100 113 131
99 112 130
92 105 121
91 103 119
87 99 114
87 99 115
87 98 114
86 98 114
84 96 111
86 98 113
83 94 109
81 93 107
80 91 105
79 90 104
74 84 97
73 83 96
68 77 90
58 66 77
49 55 64
43 48 56
33 37 43
32 37 43
27 31 36
23 27 31
31 35 41
35 40 46
40 46 53
43 48 55
40 46 53
41 47 54
41 47 54
42 48 55
46 52 61
45 51 59
44 50 58
48 54 63
55 62 72
59 67 77
64 73 84
73 83 96
75 85 99
85 97 112
92 104 120
95 107 123
94 107 123
93 106 123
91 104 120
86 98 113
85 97 112
86 98 113
87 98 113
90 102 119
91 103 119
92 105 120
91 104 120
93 106 122
95 107 124
91 103 119
87 98 114
77 88 102
70 80 92
67 76 88
59 67 77
52 59 69
45 51 59
39 44 51
107 121 140
108 123 142
109 124 143
107 122 142
106 121 140
107 122 141
105 119 138
108 123 142
111 126 145
107 121 140
111 126 146
115 131 152
116 131 152
114 129 149
110 125 145
110 125 144
108 123 143
108 122 141
104 119 137
107 122 141
105 119 138
104 118 137
105 120 138
105 119 137
106 120 138
101 114 132
102 117 135
102 116 134
99 113 131
99 112 130
105 118 136
103 116 134
98 112 130
98 111 128
93 106 122
94 106 122
88 100 115
85 97 112
76 86 99
70 80 92
63 72 83
61 69 80
61 69 80
60 68 79
55 63 73
56 64 74
59 67 78
58 66 76
59 67 77
58 66 76
61 69 80
60 68 78
64 72 83
64 73 84
61 70 81
57 65 75
48 55 64
47 53 61
45 52 60
36 41 47
28 32 37
26 29 34
19 22 26
17 20 23
21 24 27
29 33 38
36 41 47
38 43 50
42 48 56
44 50 58
43 49 57
41 47 54
44 50 58
49 56 65
61 69 80
65 74 86
75 85 98
77 88 101
84 95 110
88 100 116
94 106 123
97 110 127
102 116 133
104 118 136
108 123 142
106 121 140
107 122 140
103 117 134
102 117 135
99 113 131
97 110 127
99 113 131
99 113 131
106 120 138
104 118 136
100 113 131
101 115 133
98 112 130
91 103 119
91 102 118
93 105 121
92 105 121
90 103 118
87 98 113
78 88 102
72 82 95
66 75 86
56 64 74
45 51 59
38 43 50
36 41 48
31 35 40
35 40 46
37 42 49
35 40 46
31 36 41
22 25 29
24 27 32
36 41 47
50 56 65
63 71 83
72 82 96
78 89 102
85 97 113
89 102 118
96 109 126
100 113 131
102 116 133
105 118 137
105 118 136
112 128 148
114 129 150
116 132 152
112 127 147
118 134 154
116 132 152
116 131 151
113 129 149
112 128 147
108 123 142
108 122 141
106 121 140
100 114 131
103 116 134
104 118 136
95 107 123
93 105 121
83 94 109
78 89 102
76 86 100
71 81 94
64 73 83
63 71 82
61 69 79
62 70 81
61 69 79
57 65 75
51 58 67
42 48 56
34 39 46
23 27 31
20 23 26
35 39 45
40 46 53
46 51 59
46 52 60
54 61 70
59 66 77
66 74 86
70 79 91
70 79 92
71 80 92
69 79 91
74 84 97
73 83 96
72 82 94
75 85 99
77 87 100
74 84 96
76 87 101
77 88 101
77 88 102
70 80 92
73 83 95
72 82 95
72 81 93
71 80 93
72 81 93
68 77 89
64 72 83
56 64 73
49 55 64
42 48 56
33 37 43
23 26 30
16 18 21
16 19 22
25 29 34
26 29 34
27 30 34
20 23 27
19 21 25
23 26 30
27 30 35
28 32 37
25 28 32
19 21 24
21 24 28
32 36 42
33 37 43
33 38 44
36 41 47
37 41 48
38 44 50
32 37 42
34 38 44
33 38 43
31 35 40
29 33 39
31 35 41
34 38 44
37 41 47
44 50 57
44 50 58
52 59 68
52 59 67
55 62 71
59 67 77
61 69 80
62 71 82
67 76 88
70 79 92
68 77 89
68 78 90
64 73 85
63 71 82
63 72 83
69 78 90
69 78 90
73 83 96
80 90 104
87 99 114
86 98 113
87 99 115
87 98 113
88 100 116
93 105 121
94 107 124
93 105 121
92 104 120
94 107 123
92 104 119
81 93 107
80 90 104
73 83 97
74 84 98
75 85 98
78 88 102
80 91 105
80 91 106
82 93 108
94 107 123
97 110 126
98 113 131
104 118 136
107 122 140
113 128 148
111 127 147
112 126 145
106 120 139
108 122 141
110 124 144
103 117 135
104 117 135
100 113 131
100 114 132
99 112 130
98 112 129
93 105 121
96 109 126
90 102 117
89 101 117
89 102 117
89 101 117
87 98 114
88 100 115
89 100 115
91 103 118
89 101 117
84 96 111
85 96 111
81 93 108
78 89 103
84 95 110
88 99 114
88 99 115
89 101 117
90 102 118
89 101 117
87 99 114
89 101 117
86 97 112
85 97 112
87 98 113
90 102 117
94 107 123
90 102 118
90 102 118
88 100 115
89 101 117
90 103 119
91 104 120
89 101 117
93 105 121
88 99 115
91 103 119
85 96 111
82 93 108
76 87 100
67 75 87
53 61 70
45 51 59
37 42 49
33 37 43
33 38 44
41 46 54
36 41 48
40 46 54
40 45 52
43 48 55
49 56 65
52 59 69
55 62 72
61 70 80
72 82 94
71 80 92
73 83 97
73 83 96
71 80 93
71 81 93
71 81 93
70 79 92
74 84 97
74 84 97
73 82 95
68 77 89
64 73 85
62 70 81
59 67 78
56 64 74
56 64 74
53 61 70
50 57 66
36 41 47
23 26 30
20 23 27
30 34 40
31 35 41
33 37 44
33 38 44
31 35 40
27 31 35
21 24 28
23 26 30
32 36 41
40 46 53
49 55 64
55 63 73
58 66 77
61 69 80
60 68 79
56 64 74
52 60 69
49 56 64
52 59 68
58 66 76
65 73 84
67 76 87
71 81 94
81 91 105
81 92 106
82 93 108
83 95 109
84 96 111
87 100 116
90 101 117
96 109 126
103 117 135
106 120 139
110 124 144
109 123 143
113 128 148
110 125 145
110 124 143
108 122 141
104 117 134
102 115 133
96 110 127
97 110 127
92 105 121
99 113 131
97 110 127
96 109 126
94 107 124
94 107 124
94 107 124
94 107 124
96 109 126
94 107 124
95 108 124
103 116 135
107 121 140
110 126 145
116 131 151
115 130 151
116 131 152
119 135 156
119 135 156
119 135 156
118 133 153
118 134 154
118 134 155
116 132 152
110 125 145
111 125 145
110 125 145
110 125 145
107 121 140
106 120 140
96 110 128
95 107 123
92 105 122
86 98 114
87 99 115
88 100 116
87 98 114
82 93 107
81 92 106
74 84 97
73 82 95
65 74 86
64 73 84
62 71 81
56 64 74
51 57 66
47 54 62
51 58 67
53 60 69
51 58 67
50 57 66
50 57 66
51 58 68
55 63 73
57 65 76
52 59 68
53 60 70
51 57 66
41 47 54
30 35 40
18 20 23
23 26 30
27 31 36
25 29 33
19 22 25
13 14 17
14 16 19
21 24 28
35 40 47
47 53 62
54 61 71
63 72 84
71 81 93
76 86 101
86 97 112
87 99 114
91 103 119
91 104 120
94 107 124
96 109 127
100 114 131
98 112 129
101 114 132
101 115 133
106 120 139
106 120 138
115 131 152
108 123 142
109 124 143
111 126 146
107 121 140
112 127 146
109 123 141
109 124 143
112 127 147
106 121 139
104 117 135
106 119 137
103 117 135
97 110 128
99 112 130
95 108 125
90 102 117
87 98 113
84 95 110
79 90 104
69 79 92
60 68 78
50 57 66
40 46 53
26 30 35
18 21 24
23 26 30
19 21 25
16 18 21
20 23 26
26 30 34
27 31 36
23 26 30
31 35 40
45 51 59
52 59 68
59 67 78
63 71 82
72 82 95
80 91 105
80 91 106
88 101 116
94 107 123
96 109 126
101 115 133
104 118 136
105 119 138
108 122 141
109 123 141
102 117 136
103 117 135
105 118 137
113 128 149
107 122 141
108 122 141
104 119 137
102 116 134
103 117 135
94 106 123
90 102 118
87 99 114
79 89 103
76 86 100
75 84 97
72 81 94
69 78 89
71 80 92
64 73 84
67 76 87
57 65 75
56 63 73
49 56 64
47 54 62
43 48 56
35 40 46
29 33 38
26 30 34
26 30 34
30 34 39
33 38 44
34 39 45
41 46 53
48 54 62
44 51 58
51 58 67
54 61 70
62 70 81
67 76 88
65 74 85
72 81 94
71 81 93
65 73 85
71 80 92
67 76 88
62 71 82
66 74 86
66 75 87
70 79 91
69 79 91
63 71 81
60 68 78
57 64 74
53 60 69
46 52 60
38 43 50
29 33 38
27 31 36
24 27 31
21 24 28
23 26 31
31 35 40
37 42 48
38 43 49
31 35 41
30 34 39
31 35 41
34 38 44
40 46 53
39 44 51
41 46 54
45 51 58
41 47 54
37 42 48
33 37 43
26 30 35
21 24 27
21 24 28
33 38 44
36 41 47
43 49 57
43 50 58
43 48 56
44 50 58
43 49 56
40 45 53
37 42 49
22 25 29
22 25 29
25 29 34
39 44 50
48 55 64
57 65 75
61 70 81
62 70 81
73 83 97
74 84 97
79 90 104
79 90 104
75 84 97
70 79 92
71 81 94
75 85 99
72 82 95
72 82 95
77 87 100
81 92 106
77 87 100
80 90 104
79 90 104
82 92 106
82 93 108
81 92 107
82 94 108
92 104 120
90 103 120
89 101 117
95 108 125
91 102 117
85 97 112
86 98 113
90 102 118
91 103 120
98 112 129
92 104 121
92 105 122
95 107 123
90 103 118
100 113 130
99 112 129
103 117 135
103 117 135
105 119 137
101 114 132
96 109 127
95 107 124
95 109 126
90 102 119
92 104 120
96 108 125
89 101 117
89 101 117
88 100 115
90 101 117
85 96 111
85 97 112
75 85 98
72 82 94
67 76 87
60 68 79
60 69 80
59 67 77
63 71 81
69 79 91
67 76 87
67 76 88
65 74 85
62 71 82
62 71 82
51 58 67
55 62 71
60 68 78
66 75 87
70 80 92
76 86 99
82 93 108
82 93 108
88 99 114
88 100 116
91 104 120
90 101 117
85 98 113
85 96 111
81 92 107
78 88 102
76 87 100
76 87 101
82 93 107
78 89 103
80 91 105
79 90 104
77 88 102
81 92 107
79 90 104
74 84 96
67 76 88
59 67 78
55 62 72
50 57 65
49 56 64
44 50 58
40 45 53
40 46 53
38 44 51
43 49 57
43 48 56
44 49 57
41 46 53
35 39 45
33 38 44
36 41 48
32 37 42
25 29 34
31 36 41
37 43 50
39 45 52
43 49 57
46 52 61
50 56 65
58 66 76
57 66 76
55 62 72
53 60 70
51 58 67
48 55 63
43 50 58
43 49 57
44 50 58
36 41 47
21 24 28
36 41 47
42 48 55
49 56 65
54 62 72
60 68 79
59 67 78
54 62 72
53 60 70
53 61 70
53 61 71
50 57 66
43 49 57
40 46 54
40 46 53
39 44 51
34 39 45
35 40 46
42 47 54
44 50 58
39 44 51
37 42 49
38 44 51
43 49 57
45 51 59
53 60 70
58 66 76
63 71 83
66 75 87
66 75 87
68 77 89
74 84 97
77 87 100
85 96 112
89 102 119
99 112 130
109 124 144
116 132 152
116 132 153
120 137 159
121 138 159
122 139 161
118 134 156
124 140 162
119 135 155
120 137 158
117 133 154
87 99 115
93 105 121
93 105 121
90 103 119
93 106 123
91 104 120
93 106 123
87 99 114
90 102 118
95 109 126
97 110 126
103 118 136
109 124 143
113 128 148
118 133 154
121 137 158
121 138 160
120 136 157
119 135 156
112 128 148
112 128 148
109 124 143
108 123 142
108 122 140
104 119 137
102 116 135
103 117 135
100 113 131
94 107 124
89 101 116
87 99 115
83 95 110
80 90 104
81 92 106
76 87 101
80 91 105
83 94 109
84 95 110
79 90 104
78 88 102
72 81 94
71 81 93
66 76 88
65 74 85
59 67 78
55 63 73
56 64 74
60 68 79
57 64 74
50 57 67
47 54 62
43 49 56
40 45 53
38 43 49
37 42 49
41 47 54
42 47 55
37 42 48
34 38 44
31 35 41
27 31 36
19 21 25
14 16 19
11 13 15
15 18 21
25 28 32
35 40 46
45 52 60
54 61 71
61 69 79
65 74 86
73 84 97
80 92 107
84 95 110
88 100 117
89 101 117
92 105 121
98 111 129
103 117 135
105 119 137
102 116 134
106 120 139
107 122 142
111 125 145
109 123 142
107 122 142
112 128 148
116 131 151
116 131 151
117 132 153
111 126 145
111 126 146
109 125 144
110 125 143
112 127 147
106 120 139
102 116 134
103 116 134
96 109 126
95 108 125
91 103 118
85 96 111
81 92 106
79 89 103
74 84 97
70 79 91
65 74 85
56 63 73
54 61 71
46 52 60
41 47 54
31 35 40
20 22 26
15 17 19
25 28 33
27 31 36
24 27 32
21 24 27
16 18 21
18 20 23
31 35 41
45 51 59
49 56 64
52 59 69
60 68 79
64 73 84
67 75 87
74 84 97
76 86 99
80 90 104
85 96 111
89 101 117
92 105 121
96 109 126
95 108 125
103 117 135
103 117 135
100 114 132
103 117 135
106 120 138
101 114 132
101 114 132
99 112 130
96 109 126
86 98 112
78 88 102
78 88 102
72 82 95
68 77 88
66 75 87
61 70 81
64 73 85
63 71 83
63 72 83
62 70 81
60 68 78
51 58 68
53 60 69
56 63 72
59 68 78
57 65 76
54 61 71
52 59 68
47 53 62
43 49 57
39 45 52
33 38 44
34 39 45
38 43 50
28 32 37
34 39 45
40 45 52
44 49 57
49 55 64
50 56 64
52 59 68
55 62 72
57 65 75
56 64 74
54 61 70
53 60 69
54 61 70
60 68 78
62 71 81
62 70 81
55 63 73
47 53 62
32 37 43
19 22 25
12 14 16
21 24 28
30 34 40
37 43 49
40 45 52
40 46 53
48 54 63
52 59 69
50 57 66
43 49 56
42 48 55
39 45 52
38 43 50
38 43 50
39 44 51
46 53 61
48 55 64
44 50 57
43 49 57
42 47 55
40 45 52
36 41 47
26 29 34
20 22 26
22 25 29
24 28 32
22 25 29
24 27 31
24 28 32
27 30 35
26 30 35
21 24 28
31 35 41
54 61 70
62 70 82
75 85 98
78 88 101
81 92 107
94 106 122
90 102 117
89 101 117
94 106 123
96 109 126
94 107 124
96 109 125
97 110 128
98 112 129
98 111 128
96 108 124
102 115 133
100 114 131
99 112 130
100 113 130
94 106 123
98 112 129
96 108 125
96 109 126
98 111 127
92 105 121
101 114 132
99 112 129
103 117 136
99 113 130
98 111 129
97 110 128
100 113 130
99 112 129
101 115 133
102 115 133
107 121 139
106 120 140
101 115 133
107 122 140
107 121 140
102 116 134
101 115 132
93 106 123
89 101 116
86 97 112
80 91 106
78 88 101
79 89 103
76 86 99
73 82 95
72 82 95
69 78 90
65 74 86
62 70 81
57 65 75
54 61 70
45 52 60
42 48 56
42 47 54
35 40 46
37 42 48
43 48 56
43 48 55
47 53 61
43 49 57
47 54 62
43 49 57
41 47 54
35 40 46
29 33 38
24 27 32
26 30 35
42 47 54
51 58 67
56 64 74
64 73 84
69 78 90
75 85 98
78 89 103
81 92 106
80 91 104
77 89 104
79 90 104
80 91 106
76 86 100
74 85 98
74 84 97
69 78 91
72 81 94
69 78 90
66 75 87
67 76 87
63 72 83
62 70 81
59 67 77
56 63 73
56 64 74
59 67 77
52 59 69
44 51 59
41 47 54
36 41 47
30 34 39
31 35 40
32 36 41
32 37 42
35 40 46
37 42 49
42 48 55
37 42 49
29 33 38
24 27 32
25 28 32
20 23 27
16 19 21
25 29 33
31 36 41
32 36 42
40 45 52
48 55 63
54 61 71
58 66 76
60 69 80
58 66 77
49 56 65
34 39 45
21 25 28
21 24 27
31 36 42
36 41 47
37 42 49
43 49 56
53 60 69
57 65 75
59 67 77
60 68 79
65 74 86
68 78 90
66 75 87
65 74 85
65 73 85
63 71 82
57 66 76
60 69 80
61 70 81
56 64 74
41 46 53
31 35 41
28 31 36
27 31 36
24 27 32
19 22 25
15 17 20
19 22 25
12 14 16
20 23 27
30 34 39
35 40 46
42 48 56
46 53 61
50 56 66
52 60 69
56 64 74
59 67 78
58 66 76
62 70 81
71 81 93
79 89 103
90 102 118
93 105 121
100 113 131
105 118 135
107 122 141
109 124 144
108 122 141
111 126 145
106 120 139
43 49 57
43 48 56
42 47 55
43 49 56
47 53 62
54 61 71
66 75 86
73 83 96
76 86 99
84 95 110
91 103 120
99 112 130
104 117 135
109 124 144
111 126 146
115 130 151
115 132 153
112 127 148
109 124 144
105 119 138
111 127 147
106 121 140
110 125 144
107 122 141
108 122 142
106 120 139
106 119 138
102 116 134
99 112 129
99 112 129
94 106 122
93 106 122
91 104 120
89 102 118
85 96 111
80 91 105
75 86 99
69 78 90
61 69 80
56 63 74
52 59 68
51 58 67
50 57 66
53 60 69
54 62 71
53 60 70
52 60 69
52 59 68
45 51 60
42 48 56
37 42 48
37 42 49
33 37 43
30 34 40
31 35 40
29 33 38
28 32 38
31 35 41
32 37 43
30 35 40
22 25 29
13 15 18
13 14 17
20 23 26
24 27 31
29 33 38
28 32 37
25 28 33
26 30 35
34 38 44
39 44 51
50 57 65
56 63 73
61 70 81
66 75 87
64 73 85
75 85 99
82 93 107
88 100 116
88 100 116
92 105 122
89 100 116
96 109 126
99 112 130
97 111 128
97 110 127
95 108 125
101 115 133
99 112 129
98 111 129
97 110 127
99 113 131
101 115 132
96 109 127
99 112 130
97 111 128
100 114 132
100 114 132
97 110 128
99 113 131
95 108 125
89 101 116
85 96 111
78 88 101
70 79 92
69 78 90
60 68 79
56 64 75
53 60 69
48 54 63
39 44 51
31 35 40
27 30 35
23 27 31
30 34 39
33 37 43
32 37 43
31 35 41
36 41 48
42 47 54
43 49 57
42 47 55
46 52 61
48 54 63
46 52 61
52 58 67
55 62 72
64 73 84
72 82 95
74 84 97
80 91 106
88 100 114
89 101 117
94 107 123
95 107 124
95 108 126
96 109 126
96 110 127
99 112 129
105 118 136
102 116 134
98 111 128
93 105 121
92 105 121
87 98 113
89 101 116
81 91 106
82 93 107
81 91 105
83 94 109
81 92 106
81 92 107
76 87 100
76 87 100
78 88 102
72 82 95
73 83 95
73 83 96
77 88 102
83 95 110
85 97 113
87 98 113
86 97 112
82 93 107
77 88 102
78 88 102
66 74 86
66 75 87
61 69 80
62 71 82
60 68 79
52 59 68
46 52 61
38 43 50
32 36 42
33 37 43
38 43 50
43 49 57
46 52 60
42 48 55
41 47 54
44 49 57
42 48 56
40 45 52
38 43 51
42 48 56
43 49 57
47 53 61
46 52 60
55 62 72
56 64 74
60 68 78
63 71 82
64 73 85
67 76 88
66 75 86
66 75 86
58 66 76
53 61 70
45 51 59
34 39 45
30 33 38
26 30 34
29 33 38
30 34 40
30 34 39
31 35 40
21 24 27
28 32 37
32 37 42
31 36 41
20 23 26
23 26 31
18 20 24
14 15 18
16 19 21
21 23 27
30 34 39
38 43 50
51 58 67
56 63 73
64 73 84
65 74 85
69 78 90
68 78 90
77 87 101
83 94 109
85 97 112
86 98 113
90 102 118
100 113 131
97 110 128
99 112 129
99 112 129
104 118 137
102 116 134
102 116 134
104 118 136
110 125 144
107 122 141
116 132 152
112 127 147
105 120 139
108 122 142
113 128 148
105 119 138
106 121 141
106 120 138
105 119 138
107 122 140
110 124 143
108 123 142
109 125 145
109 123 142
103 117 135
101 115 134
102 116 135
105 119 138
105 119 138
101 114 132
107 122 141
103 116 133
101 115 133
98 111 129
99 113 131
95 107 124
87 99 115
88 100 115
85 96 111
79 90 104
71 81 94
67 77 89
58 65 76
50 57 66
44 50 58
30 34 39
34 38 44
34 39 45
48 54 62
55 63 73
57 65 76
62 71 82
70 79 91
75 86 99
76 87 101
79 90 104
77 88 101
78 88 103
78 89 103
81 92 106
78 88 102
74 84 98
64 73 85
59 67 78
47 54 62
30 35 40
27 31 36
40 46 52
50 57 65
58 65 76
62 70 81
69 79 91
75 85 99
84 96 111
88 100 115
90 103 119
88 100 115
81 92 107
79 90 104
83 94 109
80 91 104
80 92 106
82 93 107
77 87 101
79 89 103
72 82 95
71 81 94
71 81 93
72 82 95
74 85 98
77 87 101
75 86 99
74 84 97
73 82 95
68 77 89
62 71 82
61 70 81
61 69 79
58 66 76
56 64 74
55 62 72
56 63 73
56 64 74
54 61 71
54 62 72
51 58 67
43 48 56
36 41 48
37 42 49
37 42 49
38 43 50
37 42 49
34 39 45
30 34 39
36 41 47
40 45 52
39 45 52
32 37 42
28 32 36
39 45 52
47 54 62
53 60 70
54 61 70
53 60 70
58 66 77
64 73 85
67 76 88
74 84 97
76 86 100
82 93 107
84 96 111
86 98 114
85 96 111
85 97 111
82 93 108
82 93 107
82 93 107
80 91 105
79 90 104
80 91 105
73 83 97
66 75 87
62 70 81
60 68 79
53 61 70
45 51 60
34 39 45
31 36 41
30 34 39
25 29 34
26 30 34
29 33 38
30 35 41
34 38 45
39 44 51
40 45 53
34 39 46
32 37 42
32 36 42
32 36 42
35 40 46
44 51 59
52 60 69
55 63 72
55 62 72
64 73 85
72 82 94
78 89 102
79 90 104
84 95 111
41 46 53
32 36 42
32 37 43
40 45 52
53 60 70
62 70 81
70 80 92
77 87 100
86 98 113
92 104 120
95 107 124
96 110 127
100 113 131
103 117 135
100 113 131
102 115 134
98 111 128
100 113 130
98 111 128
101 114 132
103 117 135
105 119 137
107 122 142
107 122 141
107 122 142
107 122 142
109 124 143
109 124 143
105 119 137
95 108 125
90 102 118
84 96 110
79 90 104
71 81 94
60 68 79
50 56 66
41 47 54
40 46 53
38 43 50
30 34 39
25 28 33
28 32 37
33 37 43
36 41 47
33 37 43
34 39 45
40 46 53
39 45 52
41 46 54
44 50 58
47 53 62
50 56 65
53 60 69
55 62 72
58 66 77
58 66 76
56 63 73
54 62 72
49 56 64
43 49 57
37 43 50
33 37 43
27 31 35
29 33 38
28 32 37
22 25 29
20 23 26
17 19 22
18 21 24
13 15 18
15 17 19
17 20 23
27 31 35
32 37 43
35 40 46
40 46 53
50 57 66
61 69 80
64 73 84
69 79 91
72 82 95
78 89 103
81 91 105
86 98 113
92 104 120
94 107 124
98 111 128
105 120 139
107 121 140
105 118 136
106 120 138
103 117 136
106 120 139
102 116 134
104 118 137
99 112 130
96 109 126
99 112 130
97 110 128
93 106 123
89 101 117
85 97 112
84 96 111
79 89 103
78 89 103
70 80 93
67 76 87
65 74 86
66 75 87
60 68 78
50 57 66
32 36 42
17 19 22
28 31 36
31 36 41
32 37 42
27 31 36
26 30 34
30 34 40
34 39 45
40 45 52
39 44 51
37 42 49
29 33 38
26 29 34
30 34 40
38 43 49
40 45 53
42 47 55
52 59 68
57 65 74
63 71 82
68 77 89
67 76 88
74 84 98
75 85 98
76 86 100
80 90 104
86 98 113
89 101 116
85 97 112
86 97 112
86 98 113
82 94 108
86 98 113
91 103 119
91 103 118
92 105 122
91 103 119
94 107 124
91 103 119
92 105 122
91 103 119
83 94 108
84 95 110
87 99 114
87 99 114
88 100 116
91 103 119
93 106 122
91 104 120
92 105 122
92 104 120
89 101 117
87 99 114
82 93 108
85 96 111
83 94 108
79 90 104
74 85 98
70 80 93
67 77 89
70 80 93
71 81 93
69 79 91
66 75 87
60 68 78
55 62 72
51 57 66
51 58 67
56 63 73
58 66 76
60 68 78
61 70 81
62 71 82
66 75 87
71 81 94
78 89 102
72 82 95
72 81 94
74 84 97
75 85 98
76 86 99
80 91 104
74 84 98
81 91 106
80 91 105
73 84 97
69 79 91
62 70 81
50 57 66
44 51 59
32 37 43
27 31 36
28 32 37
26 29 34
22 26 30
22 25 29
24 28 32
22 25 29
21 24 28
24 27 31
29 33 38
31 36 41
34 39 45
35 40 46
33 37 43
30 34 39
23 26 30
33 37 43
47 53 62
49 55 64
50 57 66
57 65 75
62 70 81
67 76 88
71 80 92
76 86 99
75 85 99
75 86 99
78 89 104
77 87 101
84 95 109
84 95 110
75 85 99
80 90 104
75 85 98
83 95 110
79 90 104
82 93 107
89 101 116
90 102 118
93 106 122
100 113 130
96 110 127
97 111 129
103 117 135
106 121 141
111 125 144
108 122 141
114 129 149
106 120 138
105 119 138
108 123 142
101 114 132
107 121 140
104 118 136
102 115 132
99 112 129
103 117 135
94 107 124
91 104 120
86 98 114
87 98 113
82 93 108
75 85 99
77 88 102
73 83 97
73 83 96
69 78 89
67 76 88
58 65 76
42 48 55
26 30 34
27 31 35
36 41 48
47 54 62
61 69 80
73 83 96
77 88 101
81 92 107
78 89 103
77 87 101
81 91 105
77 88 101
82 93 107
83 94 109
82 93 107
84 96 111
85 96 110
84 95 110
84 95 110
82 93 108
73 83 96
62 70 81
53 60 70
28 32 36
24 27 31
37 42 48
51 58 67
63 71 82
73 83 96
78 88 102
84 95 109
85 96 111
87 99 114
89 101 117
89 101 117
91 103 118
88 99 115
91 104 120
85 96 111
81 91 105
77 87 101
77 87 101
77 87 100
73 83 96
73 82 94
70 79 92
69 78 91
64 72 84
63 72 84
58 66 77
54 62 71
58 66 76
55 63 73
57 64 74
61 70 81
65 73 85
65 73 85
65 73 84
60 69 80
59 66 76
61 69 80
62 70 81
57 65 76
56 63 73
52 60 69
49 56 64
44 50 58
41 46 54
39 44 51
40 46 54
45 51 59
46 52 61
47 54 63
46 52 61
47 54 62
51 57 66
53 60 70
58 65 76
64 73 85
73 83 96
77 88 102
80 91 105
79 90 105
82 93 107
82 93 107
89 100 116
93 105 121
92 105 121
90 103 119
91 103 119
92 105 122
88 100 116
92 105 122
92 105 122
94 107 124
87 99 114
85 97 113
82 93 107
82 93 108
77 88 102
75 85 98
72 82 95
70 79 92
66 75 87
62 70 82
63 71 83
57 65 76
55 62 72
54 62 71
50 57 66
47 53 61
43 49 57
43 48 56
44 50 57
48 55 63
51 58 67
44 50 58
39 45 52
41 46 54
39 44 50
40 46 53
39 44 51
36 41 48
35 39 46
36 41 48
37 42 48
40 45 52
50 57 66
54 61 71
63 72 84
69 78 91
81 92 106
88 100 116
88 100 116
93 105 121
92 105 122
93 106 123
85 97 113
83 95 110
82 93 107
80 91 106
84 95 110
86 98 113
86 98 114
89 101 116
94 107 124
92 105 122
92 104 120
89 101 117
85 97 112
85 97 112
86 97 112
85 96 110
83 94 109
80 91 106
82 93 108
80 91 105
77 88 101
70 79 91
63 72 84
56 64 74
41 47 55
25 28 33
22 25 29
30 35 40
27 31 36
24 27 32
31 35 40
33 37 43
35 40 46
32 36 42
34 39 45
35 40 46
37 42 49
38 43 50
35 39 45
31 35 41
32 37 43
38 43 50
45 50 58
42 48 55
40 45 52
37 42 49
42 47 55
42 48 56
43 49 56
39 44 51
38 44 51
37 42 48
35 40 46
44 50 57
48 55 63
48 54 63
44 50 58
45 51 59
36 41 48
39 45 52
41 47 54
50 57 65
54 62 71
54 61 71
59 67 77
65 74 86
71 80 92
79 90 103
87 98 114
92 105 121
97 111 128
97 110 127
109 124 143
109 123 142
106 121 141
114 130 151
115 130 149
116 131 152
115 131 152
112 128 148
107 122 142
119 136 157
113 128 149
109 124 143
109 124 143
110 125 144
109 124 143
105 119 138
106 120 139
104 118 136
99 113 130
100 114 132
96 108 125
94 107 123
87 98 113
78 89 103
74 84 97
69 78 90
61 69 79
53 60 70
51 57 66
48 55 63
45 51 59
44 51 59
46 53 61
46 52 60
50 57 66
52 59 68
57 64 74
59 67 77
59 67 78
58 66 76
60 68 78
57 65 75
51 58 67
45 52 60
41 47 55
28 32 37
22 25 30
34 39 45
40 46 53
48 54 62
52 59 68
62 70 81
65 74 85
74 84 97
80 90 104
78 89 104
86 98 113
86 98 113
83 95 110
83 94 108
83 94 108
83 94 109
81 91 105
81 92 106
83 94 108
86 97 113
87 99 114
85 96 111
88 100 116
85 96 112
78 89 104
78 89 103
78 89 104
82 93 107
79 90 105
80 91 106
79 90 105
74 83 96
73 83 96
74 84 97
77 87 101
77 88 102
76 87 100
78 89 103
76 86 99
81 92 105
77 88 101
81 92 106
77 88 102
77 87 100
76 87 101
77 88 101
74 85 98
74 84 96
76 86 100
72 82 95
73 82 95
68 77 89
71 80 93
67 75 87
63 71 83
63 72 83
64 73 85
73 82 95
77 86 99
79 90 105
77 87 101
78 88 102
75 85 99
75 85 97
71 81 93
69 78 90
65 74 86
65 74 86
60 68 79
57 65 75
56 64 74
59 66 77
55 63 72
54 61 71
50 57 65
47 54 62
43 48 56
39 44 51
34 38 44
29 33 38
25 29 33
24 27 31
27 30 35
27 31 36
17 20 23
22 25 29
33 37 43
36 41 48
43 49 57
47 54 62
46 52 61
42 48 56
38 43 50
30 34 39
26 29 34
23 27 31
31 35 41
40 45 53
49 56 65
54 61 70
60 69 80
56 64 74
56 64 74
56 63 73
48 55 63
44 50 58
33 38 44
34 39 45
32 37 42
30 35 40
33 38 43
41 47 54
42 47 55
48 55 63
57 64 74
56 63 73
63 71 82
70 80 92
75 85 98
80 90 105
90 102 118
88 100 116
88 100 115
87 99 115
85 97 112
79 90 105
75 85 98
70 80 92
80 91 105
82 93 107
80 91 105
84 95 110
80 91 105
82 93 107
71 81 93
64 73 84
52 59 68
48 54 63
39 44 51
37 42 49
33 37 44
33 38 44
33 37 43
29 33 39
29 33 38
29 33 38
42 47 55
51 58 68
57 65 75
66 74 86
72 82 95
75 85 99
73 83 96
72 82 96
73 83 97
73 83 96
75 85 99
74 85 98
78 88 102
79 90 104
82 93 107
87 99 114
85 97 112
77 88 102
77 87 101
67 77 88
59 67 77
50 57 65
39 44 51
30 34 39
26 29 34
26 30 35
40 46 53
51 57 66
60 68 79
65 74 85
73 82 95
77 88 101
78 89 103
75 86 99
79 89 103
79 90 104
74 85 99
72 82 95
71 81 93
68 77 89
68 77 89
66 75 87
67 76 87
62 71 82
59 67 77
52 59 68
43 49 57
39 44 52
36 41 47
34 39 45
35 39 46
33 37 43
32 36 42
36 41 48
38 43 49
41 46 53
44 50 58
42 48 55
40 46 53
36 40 47
34 38 45
35 39 46
39 45 52
38 43 50
34 39 45
37 41 48
38 43 50
41 46 54
35 40 46
40 45 53
46 53 61
51 58 67
55 62 72
53 60 70
52 59 68
49 56 65
58 65 76
62 71 83
71 81 94
74 84 97
76 86 100
77 88 102
85 97 112
86 98 114
93 106 122
93 105 121
94 107 124
96 109 125
100 113 131
99 113 131
99 113 130
99 112 130
97 110 127
98 111 128
92 104 120
88 100 115
88 100 115
84 95 110
82 93 108
81 92 107
81 92 107
80 91 106
73 83 97
70 80 93
69 78 90
61 70 81
54 61 71
48 54 63
43 49 56
39 45 51
38 43 50
37 43 49
32 37 43
31 35 41
37 42 48
45 51 59
51 58 67
53 61 70
60 68 78
63 72 83
66 74 86
65 73 84
65 75 87
66 74 86
62 70 81
57 64 75
58 66 76
60 68 79
61 70 82
63 71 82
65 74 86
64 72 83
65 74 85
62 71 82
60 68 79
52 60 69
54 62 71
49 56 64
54 61 71
56 63 74
61 70 81
67 76 88
73 83 96
76 86 100
77 87 101
81 92 106
79 90 105
87 98 114
82 94 109
81 92 106
77 88 103
78 88 102
73 82 95
73 82 95
70 80 92
72 82 95
73 83 96
70 79 92
63 71 82
57 65 75
54 61 70
56 63 73
52 59 68
51 57 66
52 59 69
53 61 70
56 63 73
53 60 69
45 51 59
46 53 61
49 55 63
46 52 60
44 51 59
43 49 57
53 60 69
53 61 71
51 58 67
50 57 66
50 56 65
54 61 71
62 70 80
67 76 88
68 77 88
72 82 94
69 79 92
66 76 88
67 76 88
60 68 79
49 56 65
36 41 47
25 29 33
25 28 33
35 40 46
38 44 51
45 51 59
48 55 64
58 66 76
62 71 82
70 79 91
76 87 101
82 93 107
87 100 116
91 103 119
96 109 127
105 120 139
107 122 142
115 130 151
115 130 150
115 131 151
117 133 153
120 137 158
112 127 147
115 131 151
113 128 148
111 126 146
107 121 140
110 124 143
106 120 139
103 116 133
107 122 141
105 119 138
100 114 132
99 112 130
103 117 135
98 111 129
96 110 127
96 108 125
92 105 121
88 100 116
84 96 111
78 88 102
73 83 96
68 77 89
55 62 72
49 55 64
41 47 54
36 41 48
31 35 41
30 34 39
32 36 42
37 42 48
37 43 49
39 44 51
41 46 54
44 50 58
48 54 63
47 53 62
40 45 53
36 41 47
37 42 48
33 37 43
31 36 41
36 41 47
45 51 60
55 62 72
57 64 74
61 70 81
65 74 86
65 74 86
70 79 91
68 78 90
72 82 95
77 88 102
85 96 111
82 93 108
80 91 105
84 95 110
89 100 115
86 98 113
86 98 113
83 94 109
83 95 110
86 97 112
82 93 107
78 88 101
78 88 102
76 86 99
69 78 91
64 73 84
62 70 81
61 69 80
61 69 79
60 68 79
63 71 82
64 72 83
69 78 90
74 83 96
73 83 96
71 80 93
66 75 87
68 78 90
70 79 91
68 77 89
66 75 86
67 76 88
66 75 86
64 72 83
64 73 84
68 77 89
68 78 91
64 73 85
59 67 78
62 70 80
54 61 71
53 60 69
44 50 58
39 44 50
29 33 38
29 34 39
30 34 39
31 35 41
44 50 58
43 49 57
44 49 56
52 60 69
47 53 61
43 49 57
39 44 51
27 31 36
32 37 42
31 35 41
30 35 40
27 31 36
29 33 38
30 34 39
28 32 37
24 27 32
24 27 32
29 33 39
28 31 36
23 26 30
31 35 40
36 41 48
34 39 45
25 28 33
16 18 21
23 26 30
30 34 39
34 39 46
39 45 52
37 42 49
36 41 48
41 46 53
44 51 58
44 51 59
44 50 58
35 40 46
22 25 29
27 31 35
42 48 55
50 57 66
54 61 71
53 60 70
55 62 72
51 58 67
46 52 61
39 44 51
33 37 43
26 29 34
19 22 25
24 27 31
25 28 32
22 26 30
22 25 29
23 27 31
23 26 31
16 18 21
20 23 27
18 21 24
19 22 26
24 28 32
32 37 42
41 46 54
44 50 58
43 49 57
44 50 58
50 57 66
56 63 73
55 62 72
51 58 67
48 55 64
43 49 57
42 48 56
38 44 50
34 38 45
34 39 44
41 47 54
43 49 57
35 40 46
38 44 50
45 51 59
49 56 65
55 62 72
58 66 76
57 65 75
63 71 83
62 71 82
65 74 87
67 75 87
71 81 94
70 80 93
76 86 99
74 84 96
73 83 95
72 81 94
72 82 94
72 81 94
75 85 98
72 82 95
69 79 92
69 78 90
72 82 95
80 91 106
81 92 106
86 98 114
82 94 109
80 90 104
81 92 106
75 85 99
72 82 95
66 74 86
57 65 75
51 58 67
40 45 52
25 29 33
20 23 27
22 25 29
29 33 38
34 38 45
43 49 57
53 60 70
58 66 77
62 71 82
60 68 79
62 70 81
61 70 81
66 76 88
66 76 88
63 71 82
60 68 79
59 67 78
60 68 79
65 74 85
67 76 88
64 73 84
64 73 84
63 72 83
58 67 77
52 60 69
49 55 64
38 43 50
34 39 45
29 33 38
17 19 22
22 25 29
29 32 37
36 41 48
30 34 40
30 34 39
29 33 38
25 29 33
15 17 20
20 23 26
25 29 34
30 34 39
34 39 45
34 39 45
36 41 47
42 47 55
45 52 60
50 57 66
53 60 69
57 65 75
59 67 77
58 66 76
59 67 78
63 72 84
70 79 92
77 87 101
77 88 103
86 97 112
87 99 115
88 100 115
91 104 120
92 105 123
98 110 127
96 109 127
100 114 132
106 120 139
105 119 137
105 120 139
107 122 141
107 121 139
102 116 135
102 116 133
100 114 132
93 106 122
93 106 123
88 100 116
94 107 124
95 107 124
92 105 122
90 102 118
82 93 108
77 88 101
73 83 95
65 74 86
65 73 85
61 69 80
59 66 76
56 64 74
48 55 64
41 47 54
35 39 45
35 40 46
33 38 44
37 43 50
39 45 52
41 46 53
42 48 56
47 54 63
50 57 66
54 62 72
61 70 81
64 73 85
71 80 93
24 28 32
25 28 33
26 30 35
27 31 36
27 31 36
26 30 34
26 29 34
25 28 32
23 26 30
32 37 42
38 43 49
44 50 58
53 60 69
61 69 80
69 79 91
75 86 99
79 90 104
81 92 107
80 91 105
83 95 110
86 97 111
84 96 112
79 90 104
78 88 102
76 86 100
76 87 100
74 84 98
75 85 99
73 83 96
73 83 96
70 79 91
73 83 95
73 83 95
78 89 103
84 95 110
84 95 110
85 96 112
83 94 109
87 99 114
89 100 116
87 99 114
84 96 111
84 95 110
87 99 115
91 103 120
88 100 116
95 107 124
92 104 120
90 101 117
89 102 117
92 104 120
95 108 125
94 107 124
92 104 121
91 104 121
92 106 123
94 107 123
93 106 123
88 100 116
87 99 114
85 96 111
77 88 102
74 84 97
66 75 86
56 64 74
48 55 63
40 46 53
35 39 45
22 25 29
43 49 57
61 70 81
71 80 92
76 87 101
81 92 107
88 100 116
89 101 117
95 108 125
99 114 132
102 115 134
102 115 133
108 122 141
107 122 141
106 120 139
102 115 133
104 118 137
104 118 136
99 113 131
96 109 126
88 100 116
92 103 119
91 103 119
87 99 114
93 106 122
95 108 125
93 106 123
93 106 122
91 103 119
93 104 120
87 100 116
88 101 117
84 95 110
81 91 106
72 82 95
68 77 89
67 76 88
62 71 82
54 62 72
49 56 65
45 52 60
41 46 53
35 40 46
29 34 39
24 28 33
28 32 37
25 28 33
22 25 29
20 23 27
23 27 31
26 30 35
38 43 50
38 44 50
39 44 51
41 47 54
40 46 53
39 44 51
44 50 58
50 57 66
54 61 71
55 63 72
57 65 75
56 64 74
55 63 73
57 65 75
64 73 84
68 77 89
69 79 91
76 87 101
81 92 106
82 93 107
86 98 113
95 108 125
97 110 127
101 115 134
100 113 131
94 107 124
87 100 116
83 94 108
82 93 108
78 89 103
75 85 98
64 73 84
56 63 73
46 52 60
36 41 47
37 42 48
37 42 49
33 37 43
33 37 43
35 39 46
39 44 50
36 41 48
39 45 52
46 52 60
50 56 65
49 56 65
49 56 65
48 54 63
38 44 51
37 42 49
31 35 41
34 39 45
32 37 43
35 40 46
37 41 48
34 39 45
28 32 37
23 26 30
32 36 41
31 35 40
26 29 34
25 29 34
20 22 26
25 28 33
32 37 43
30 34 39
28 32 37
27 31 36
34 39 45
44 50 58
47 54 62
47 53 62
45 51 59
41 47 55
39 44 51
41 47 55
42 48 55
34 39 45
19 22 25
20 22 26
26 29 34
31 35 41
33 37 42
33 38 44
32 36 42
28 31 36
29 33 38
31 35 41
25 28 33
16 18 21
31 35 40
47 54 62
53 60 69
61 69 80
63 72 84
64 72 84
64 73 84
63 71 81
60 68 79
59 66 76
54 61 71
53 59 69
47 53 62
41 47 54
40 45 52
37 42 48
35 39 45
34 39 45
31 35 41
29 33 39
26 30 35
25 28 32
25 29 33
30 34 39
30 34 39
32 36 42
30 34 39
27 30 35
28 32 36
28 32 38
22 26 30
24 28 32
22 25 29
18 21 24
22 25 29
24 28 32
31 35 41
35 40 46
37 42 49
36 40 47
31 35 41
23 26 30
25 28 32
29 33 38
30 35 40
30 34 40
30 34 40
30 34 40
37 43 49
41 47 54
41 47 54
49 56 64
53 60 70
52 60 69
60 68 79
61 69 81
66 75 87
70 79 91
72 82 95
71 80 92
70 79 91
68 77 89
65 74 86
68 77 89
73 83 96
72 82 95
73 83 96
74 84 98
73 82 95
71 81 94
68 77 89
66 76 88
68 76 88
69 79 91
67 76 89
69 79 91
71 81 94
70 80 93
78 89 103
78 89 104
82 93 107
84 95 109
84 95 110
84 95 109
84 96 111
81 93 107
80 91 104
78 88 102
67 77 89
63 72 83
64 73 85
60 68 79
56 64 74
53 61 70
48 54 63
44 50 58
39 45 52
32 36 42
32 37 43
42 47 55
52 59 68
56 64 75
60 69 79
61 70 80
70 79 92
73 83 96
80 91 105
82 93 108
86 97 113
87 99 115
87 99 115
89 101 118
87 99 115
82 93 108
77 88 101
71 81 94
63 72 84
60 67 78
49 56 65
32 37 43
30 33 38
28 31 36
30 34 39
26 29 34
23 26 31
22 25 28
30 35 40
36 40 47
49 56 65
59 66 77
60 68 79
66 75 88
69 78 89
68 78 90
70 80 92
70 80 92
77 88 101
77 87 101
77 87 101
76 87 101
74 84 97
76 86 100
79 89 103
82 94 109
86 98 113
91 102 117
97 110 126
99 113 130
104 118 137
103 117 134
103 117 135
109 124 143
111 126 145
111 126 146
117 133 153
118 134 154
112 128 149
114 130 151
115 129 149
114 129 149
112 127 147
110 125 145
111 126 146
111 125 144
113 128 149
115 131 152
114 130 151
117 133 153
118 133 154
114 129 149
111 126 147
102 116 134
98 111 128
97 110 128
95 108 125
88 100 115
85 96 111
78 89 103
73 83 95
64 73 85
55 62 72
47 53 61
35 40 46
31 36 41
27 31 36
29 33 38
31 35 40
45 51 59
52 60 69
59 66 76
63 71 82
48 54 62
48 55 64
49 56 64
47 54 62
42 48 56
35 40 46
33 38 44
29 33 38
18 20 24
23 26 30
27 30 35
41 46 54
52 60 69
67 76 88
72 82 95
76 87 100
75 86 99
75 85 97
76 86 100
77 88 102
77 88 102
80 90 105
79 89 103
79 90 104
79 89 104
77 88 102
76 87 101
79 90 103
80 91 105
83 94 109
87 99 114
89 101 116
94 108 125
104 118 138
109 124 144
111 126 145
114 130 151
114 129 148
108 123 142
110 125 144
108 122 142
106 120 140
107 121 139
103 117 135
98 112 130
101 114 132
99 112 130
97 110 127
93 106 123
94 107 124
96 109 127
94 107 124
96 109 126
96 109 126
97 110 128
88 100 116
92 105 121
90 103 120
89 101 117
89 101 117
90 102 118
89 101 116
89 102 118
82 93 108
75 86 99
67 76 88
57 64 74
47 53 62
37 42 49
33 37 43
30 34 39
36 41 47
47 53 62
59 67 78
73 83 97
76 86 100
80 91 106
83 95 110
87 99 115
91 103 119
93 106 123
92 104 121
85 97 112
83 95 109
79 89 104
75 85 98
76 87 100
79 90 104
82 93 108
82 93 108
83 94 110
84 95 110
85 97 113
84 96 110
87 98 114
87 98 114
86 98 113
86 97 113
84 96 111
84 96 111
83 94 109
81 91 105
74 84 98
72 82 94
69 78 91
69 79 91
70 80 92
73 83 95
71 80 93
69 78 90
65 74 86
60 69 79
58 66 76
55 63 73
57 65 76
56 64 73
47 54 62
42 47 55
27 31 36
18 20 23
22 25 29
33 38 44
38 43 50
40 46 53
46 52 60
53 60 70
59 67 78
63 71 82
61 69 80
62 71 81
62 71 82
59 68 79
63 72 83
69 79 91
74 85 98
81 92 106
79 90 105
82 93 107
83 95 109
84 96 111
84 96 111
84 96 111
81 93 107
85 96 112
85 96 110
77 87 101
75 85 98
71 80 93
61 69 80
53 60 69
42 48 56
31 36 41
17 19 22
21 24 28
35 39 45
44 51 59
49 56 65
55 62 72
54 61 71
54 61 71
52 59 68
58 66 77
54 62 71
50 56 65
46 52 61
48 55 63
45 51 59
42 47 55
40 46 53
41 46 53
37 42 49
37 42 48
34 39 45
37 42 49
34 38 44
31 35 40
35 39 45
42 47 55
43 49 56
41 46 54
37 42 48
36 41 48
30 34 39
22 25 29
20 23 27
22 25 29
22 25 29
23 26 31
23 27 31
30 34 39
36 41 48
34 39 45
29 33 38
19 21 25
23 27 31
30 34 39
31 35 40
25 28 32
26 30 35
26 29 34
27 31 36
30 34 39
36 41 48
39 44 51
36 41 48
38 43 50
40 46 53
42 47 54
41 47 55
35 40 46
32 36 42
31 35 40
35 40 46
43 49 57
49 56 64
55 62 72
55 62 72
60 69 79
60 68 78
60 68 78
60 68 79
59 67 78
62 70 81
64 72 83
61 69 80
57 65 76
55 62 72
54 61 71
60 67 78
57 65 75
57 64 74
56 63 73
54 61 71
54 61 71
55 62 72
54 62 73
49 56 64
53 60 69
51 58 67
54 62 72
58 66 76
59 67 78
57 65 75
51 58 68
48 54 63
47 53 62
41 47 55
39 45 52
41 47 54
48 54 63
43 49 56
37 41 48
25 28 33
21 24 28
28 32 37
36 41 47
42 48 55
44 50 58
47 54 63
52 59 68
61 69 80
63 72 83
69 79 91
71 81 94
76 86 100
80 91 105
82 94 109
80 91 105
82 93 107
79 90 103
76 86 100
77 87 100
75 86 100
73 83 96
70 80 93
71 80 93
68 77 89
69 78 91
66 75 87
63 71 82
61 69 80
63 71 81
64 73 84
65 73 85
63 71 82
61 69 79
64 73 84
68 77 88
69 78 91
70 79 92
77 87 100
79 90 104
78 89 102
77 88 102
77 87 101
79 90 104
77 88 102
74 85 98
76 86 99
72 82 94
76 87 100
76 86 99
73 84 97
71 80 92
67 76 88
57 65 76
47 53 61
37 42 49
29 33 39
19 21 25
27 31 36
37 42 49
53 60 69
63 71 83
76 86 100
83 95 110
87 99 114
91 103 119
89 101 117
96 109 126
97 110 128
95 108 125
91 104 120
91 104 120
89 101 117
86 98 114
86 98 113
80 91 106
78 88 102
72 82 95
74 84 97
71 81 94
69 79 91
65 74 86
65 74 86
64 73 85
64 73 84
66 75 87
70 80 93
75 86 100
81 92 106
84 95 110
85 97 113
89 101 117
89 102 119
91 103 119
96 108 125
94 107 124
91 103 120
93 105 121
87 98 114
83 95 110
81 92 106
83 94 109
84 96 112
88 100 116
91 104 120
97 110 128
102 116 134
106 121 141
110 126 146
113 129 149
118 134 155
125 141 163
125 142 164
129 146 169
128 146 168
129 146 169
128 145 168
128 146 169
120 136 157
120 137 159
118 134 155
120 137 159
121 137 158
120 137 159
121 138 160
122 138 160
126 143 165
125 142 164
125 142 166
119 135 156
115 131 152
113 129 149
105 119 139
98 112 129
91 104 120
89 101 117
82 93 107
77 88 102
70 79 91
58 66 77
54 62 71
53 61 70
52 59 69
57 65 75
62 71 82
70 79 91
75 85 99
82 93 108
72 81 94
70 80 92
67 76 87
62 71 82
58 66 76
53 60 70
44 50 57
32 36 42
21 24 28
25 28 32
36 41 48
42 48 56
43 49 56
44 50 57
49 56 65
51 58 68
55 63 73
58 65 75
61 69 80
59 67 77
61 69 80
65 74 86
73 83 95
78 88 102
81 92 107
89 102 118
95 107 123
100 113 130
99 113 131
104 119 138
110 125 144
111 125 145
112 127 147
114 130 150
116 132 152
116 132 153
118 134 155
112 127 147
114 129 149
107 122 141
105 120 139
102 116 134
96 109 125
95 108 125
89 102 118
86 98 114
87 99 114
83 95 110
82 93 108
80 91 105
80 90 105
83 95 110
81 92 107
78 88 102
77 87 100
72 82 95
67 75 87
63 72 84
64 73 84
65 74 85
70 80 93
66 75 87
60 68 79
56 64 74
55 62 72
51 58 67
45 51 59
41 46 54
37 42 49
33 38 44
29 33 39
27 31 35
34 38 44
45 52 59
52 60 69
54 62 71
62 70 81
65 73 84
68 77 89
71 80 93
70 80 92
69 78 90
65 73 84
64 73 84
67 76 87
69 79 91
76 86 99
79 89 103
85 97 112
86 98 114
86 97 112
86 98 113
90 102 118
86 98 113
84 95 110
82 94 109
81 92 106
80 91 105
77 88 103
75 85 98
71 80 93
72 82 95
71 80 93
74 84 97
77 87 101
76 86 100
73 83 96
77 88 102
79 90 104
79 90 105
78 89 103
71 81 94
63 72 83
63 72 82
60 69 79
59 67 77
50 56 65
35 40 46
26 29 34
39 44 51
45 51 59
51 58 67
53 60 70
59 67 77
66 75 87
75 85 99
77 87 101
88 100 115
89 102 118
88 100 116
88 100 115
84 96 111
86 98 113
86 97 112
90 102 118
97 110 127
95 108 125
95 108 126
92 105 121
86 98 113
82 94 109
82 93 108
76 86 100
71 80 93
62 70 81
50 57 66
46 52 60
38 43 50
31 35 40
19 22 25
21 24 28
20 23 26
20 23 27
27 31 36
40 46 53
52 59 68
61 70 80
64 72 84
67 76 88
68 78 90
72 81 94
71 81 94
69 79 91
63 72 83
60 68 79
61 69 80
60 68 79
56 64 73
49 56 65
40 46 53
34 38 44
24 28 32
24 27 31
29 33 38
32 37 42
32 36 42
31 34 40
26 29 33
23 26 30
20 23 27
20 22 25
15 18 20
18 21 24
21 23 27
25 28 33
34 38 44
43 49 56
42 49 56
46 53 61
44 50 58
43 48 56
49 55 64
50 56 65
56 63 73
57 64 74
60 68 79
58 66 76
58 66 77
52 59 68
49 56 65
50 56 65
47 53 62
49 56 65
58 66 77
60 68 78
57 65 74
55 63 73
52 59 68
51 58 67
46 53 61
44 50 58
42 48 55
40 45 53
29 33 38
26 29 34
23 27 31
34 39 45
46 52 60
51 58 67
53 60 70
55 62 72
55 63 73
56 64 74
53 60 69
54 61 71
59 67 78
59 67 77
63 72 83
64 73 84
63 72 84
66 75 87
69 78 90
66 75 86
72 83 96
72 81 94
72 82 94
69 79 91
68 78 90
64 72 83
61 70 80
62 70 81
63 71 82
63 71 83
64 73 84
65 74 86
60 68 78
58 66 77
59 67 78
64 73 84
60 68 79
57 64 74
50 57 66
42 47 55
43 49 57
42 48 55
43 49 57
44 51 59
54 61 71
56 64 74
68 77 89
73 82 95
81 93 108
90 102 118
90 102 118
88 99 114
94 107 124
88 100 116
94 107 123
93 105 121
89 102 118
85 96 111
75 85 98
71 81 93
66 74 86
59 67 77
53 60 70
51 58 67
53 60 69
50 57 67
50 56 65
48 54 63
41 47 54
41 46 54
39 44 51
44 50 58
38 44 50
40 46 53
38 43 50
43 49 56
38 43 50
45 51 59
50 57 66
50 56 65
44 51 59
48 55 64
46 52 61
51 58 67
52 59 69
51 57 66
46 53 61
45 51 59
44 50 57
43 50 58
47 54 62
46 53 61
45 52 60
37 42 48
38 43 50
34 38 45
32 37 43
39 45 52
51 57 66
63 71 83
66 75 88
72 81 94
76 86 99
76 87 101
80 91 105
84 95 110
85 97 112
85 96 111
82 93 108
82 94 109
82 94 109
81 92 107
80 91 105
76 87 100
75 85 98
71 81 95
72 82 95
73 83 96
78 88 101
80 90 104
77 88 101
78 88 101
78 89 103
77 88 101
79 90 105
85 97 112
88 100 116
92 105 121
92 104 120
96 109 126
96 109 126
98 111 129
97 110 127
94 107 124
92 105 121
89 101 116
82 94 108
81 92 107
78 89 103
78 88 101
74 84 97
70 80 93
78 87 101
80 91 105
80 92 107
88 100 116
95 108 125
99 112 130
108 123 142
111 126 146
115 131 151
116 132 152
121 138 161
120 136 158
121 137 159
117 133 154
116 131 150
110 125 145
110 125 145
107 122 141
107 122 142
110 126 146
111 126 145
114 129 150
114 130 150
114 130 151
112 127 147
113 128 148
113 128 149
111 126 146
110 125 145
114 129 149
112 128 148
109 124 143
107 122 141
105 119 138
101 115 132
96 109 127
91 103 119
81 92 106
77 87 101
78 89 102
76 86 99
75 85 98
71 80 93
71 80 93
73 83 96
63 71 82
63 71 83
64 72 83
64 72 84
59 67 78
56 63 73
52 59 69
42 48 55
31 35 40
17 19 23
25 29 34
29 33 38
26 29 34
28 31 36
26 30 34
28 32 37
29 33 38
32 36 42
30 34 40
30 34 40
43 49 56
56 64 74
69 79 91
75 86 100
89 101 118
96 108 125
103 117 134
103 117 136
107 122 141
108 122 141
106 121 140
107 121 140
101 115 133
101 115 134
100 113 131
99 112 129
96 110 127
93 105 122
87 99 114
81 93 108
76 87 101
68 77 89
64 73 84
62 71 82
62 71 82
60 69 79
55 62 72
53 60 70
52 59 69
50 57 66
48 54 63
44 50 58
44 50 58
41 46 54
36 40 47
33 38 43
35 39 46
36 41 47
39 44 51
44 50 58
44 50 58
51 58 68
51 58 68
55 62 72
54 62 72
61 69 79
62 71 81
61 69 80
62 71 82
63 71 82
61 69 80
62 70 81
61 69 80
58 65 76
53 60 70
54 61 71
54 61 71
55 63 73
54 62 71
53 61 70
52 59 68
53 60 70
55 63 73
59 66 77
60 68 79
66 75 87
70 80 92
73 83 96
77 87 100
81 91 105
82 94 108
84 96 111
86 97 111
88 99 114
80 91 106
74 84 98
71 81 93
70 80 93
73 83 96
71 81 94
70 80 93
71 80 92
67 76 88
70 79 91
71 80 92
74 84 98
73 83 97
71 81 94
71 81 94
72 81 94
72 82 95
71 80 92
70 79 92
70 79 92
63 71 83
57 64 74
46 52 60
39 44 51
36 40 46
30 34 40
30 34 40
29 33 39
29 33 39
38 43 50
49 56 64
58 66 77
65 73 85
75 85 98
84 96 112
88 100 114
92 105 121
92 105 121
92 104 120
92 104 120
90 102 118
90 102 118
90 103 119
95 108 126
91 103 120
89 101 117
91 103 120
90 102 118
83 95 110
81 92 106
79 89 103
74 84 97
68 77 90
58 66 77
49 56 65
40 46 54
37 43 49
31 36 42
24 27 32
24 27 31
27 31 35
28 32 38
31 35 41
31 35 41
44 50 57
50 57 65
56 64 74
60 68 79
62 71 82
64 73 84
61 69 80
55 62 72
49 56 65
41 47 54
32 37 43
29 33 38
30 34 39
28 32 37
34 39 45
30 34 40
26 29 34
28 32 37
21 24 28
20 23 27
15 17 19
28 32 37
33 37 44
33 38 44
37 41 47
40 45 52
49 56 65
60 68 78
67 76 87
75 86 99
80 90 104
79 90 104
83 94 108
79 90 104
83 94 109
79 89 103
79 90 103
81 92 107
79 90 104
82 93 107
75 86 99
75 85 98
70 80 93
74 84 97
79 89 103
80 92 106
80 90 104
77 88 102
73 83 96
72 82 95
69 78 91
67 76 88
59 67 77
60 68 78
58 66 77
57 65 75
53 60 69
42 48 55
32 36 42
25 29 33
20 23 27
29 33 38
39 45 52
48 55 63
58 66 76
59 67 78
66 75 87
66 75 87
67 76 88
63 72 83
62 71 82
59 67 78
58 66 76
61 69 80
66 75 87
67 76 88
68 77 89
72 81 93
73 83 95
70 79 92
67 76 87
69 79 91
69 79 91
73 83 95
72 83 96
74 84 97
73 83 96
72 82 95
73 83 95
73 83 96
72 82 96
69 79 92
68 77 88
66 75 86
61 69 80
63 71 82
64 72 84
68 77 90
66 75 88
68 77 90
68 77 90
74 84 97
78 89 103
80 92 106
86 98 113
87 99 114
92 104 120
95 107 124
90 103 118
91 102 118
87 98 113
80 91 105
80 92 106
78 88 102
72 82 94
68 78 90
63 71 82
60 68 79
55 62 72
53 60 70
49 55 64
45 52 60
43 49 57
41 46 53
30 34 40
22 25 29
17 19 22
20 22 26
24 28 32
27 30 35
19 22 25
22 25 29
28 32 37
30 34 40
30 34 39
24 27 31
24 28 32
24 27 31
28 31 36
39 44 51
41 47 54
56 64 74
56 64 74
55 62 72
60 68 78
68 77 89
70 80 93
73 84 97
71 80 93
70 80 92
72 82 94
74 84 97
70 80 92
69 79 91
71 81 94
74 84 97
78 88 102
80 90 105
79 90 104
79 89 103
82 93 107
84 95 109
83 94 109
80 91 106
80 91 106
80 91 105
82 93 108
80 91 106
85 96 111
84 94 109
87 99 114
90 102 118
87 99 115
91 103 118
89 101 117
92 105 121
93 106 123
91 104 120
88 101 117
88 100 115
90 102 118
93 106 122
96 109 125
95 108 125
96 109 125
93 106 123
92 104 120
89 101 117
82 93 108
72 82 94
67 76 88
64 73 84
64 72 83
58 66 76
60 68 79
63 72 84
67 76 88
64 72 83
62 71 82
63 71 82
65 75 87
70 80 93
75 85 98
77 87 101
82 93 108
88 100 116
90 102 117
93 107 124
100 113 131
99 112 130
98 111 129
101 115 133
99 112 130
96 110 127
99 113 131
100 114 131
101 115 133
100 113 131
99 113 131
105 119 138
105 120 139
105 120 139
107 122 141
108 123 143
108 122 141
107 122 141
104 118 136
107 121 140
105 119 138
105 119 137
107 121 140
105 119 137
105 120 139
104 118 137
104 118 136
99 112 130
94 107 123
93 105 121
89 101 118
83 94 109
81 92 106
77 87 101
55 63 73
52 59 68
48 55 64
47 53 62
48 55 64
51 58 68
52 59 68
46 52 61
38 43 50
30 34 40
33 38 44
32 37 43
34 39 45
36 41 48
35 40 47
32 37 42
26 30 35
32 37 43
34 39 45
43 49 57
52 60 69
59 67 78
61 69 80
69 78 90
74 84 98
80 91 105
79 90 105
79 89 103
81 91 106
79 90 104
82 93 108
84 95 111
85 96 111
82 93 108
76 86 100
73 82 95
65 73 85
59 67 78
53 60 69
49 56 65
48 54 63
45 51 59
44 50 58
40 45 52
34 39 45
30 34 39
38 43 50
41 47 54
47 54 62
47 54 63
42 47 55
30 34 40
20 23 27
35 39 46
40 46 53
41 47 54
44 51 59
53 60 70
61 70 81
66 75 87
72 82 94
73 83 96
75 85 98
76 86 100
72 82 95
71 80 93
67 77 89
65 74 86
61 69 80
60 69 80
61 69 80
58 65 75
58 66 76
58 66 77
54 62 72
51 58 67
48 54 63
37 42 48
35 40 47
33 38 44
37 42 49
43 49 57
45 51 60
53 61 71
57 65 76
64 73 84
71 81 93
76 86 100
78 88 102
82 92 107
81 91 105
79 90 104
79 90 104
78 89 103
78 88 102
75 84 97
71 81 94
68 77 89
65 74 86
66 74 85
65 74 86
68 78 90
71 80 93
74 84 97
78 88 102
78 89 104
79 90 104
80 90 104
83 95 110
81 92 107
79 90 105
76 86 100
82 93 108
76 87 100
72 81 94
64 73 85
52 58 68
38 43 50
25 29 34
14 16 18
14 15 18
16 18 21
23 26 31
31 35 41
43 49 56
50 57 67
54 62 72
61 69 80
67 77 89
67 76 88
71 80 93
75 85 98
78 89 103
81 91 105
82 93 109
84 95 110
87 99 114
84 96 110
88 100 115
84 95 109
82 94 109
87 99 114
87 98 113
86 98 114
84 96 111
83 95 110
79 90 104
81 92 107
79 90 105
79 90 105
73 83 96
65 74 86
60 68 79
49 56 65
47 54 62
47 53 62
41 46 54
36 41 48
31 36 42
23 27 31
27 31 36
32 36 42
36 41 48
36 41 47
36 41 47
37 41 47
39 45 52
38 43 50
37 41 48
41 47 55
44 50 58
45 51 60
47 53 62
47 54 62
44 50 58
37 42 48
26 30 35
25 29 33
29 33 38
31 36 41
43 49 56
51 58 67
59 67 78
63 72 83
67 76 88
72 82 95
80 91 105
78 89 102
81 92 106
79 89 103
85 97 113
90 102 117
87 98 114
88 99 114
85 96 111
86 98 113
87 100 115
83 94 109
81 92 106
76 86 100
76 86 99
73 83 97
78 89 103
78 88 102
75 85 99
74 84 98
74 84 97
71 81 94
66 75 87
61 69 80
55 63 73
54 62 71
55 62 72
54 61 70
49 56 65
42 47 55
29 32 38
20 23 27
34 39 45
43 49 56
47 53 61
55 62 72
61 69 79
63 72 83
68 78 90
66 75 87
64 73 84
62 70 82
64 72 83
63 72 83
65 74 86
68 77 89
71 81 93
73 83 96
76 85 98
76 86 100
77 88 101
76 87 101
78 88 102
77 88 102
75 85 98
73 83 97
75 85 98
76 86 100
76 85 98
69 79 91
62 71 82
61 69 80
61 70 81
66 75 86
68 77 89
68 77 89
64 73 85
65 73 85
68 77 89
72 82 95
74 84 98
73 83 95
69 78 90
67 76 88
60 68 79
65 73 85
67 76 88
65 73 84
66 76 88
70 80 92
68 78 91
66 75 87
66 75 86
65 74 86
70 79 92
70 80 93
72 82 95
72 82 95
70 79 92
62 71 82
61 69 80
57 65 74
50 57 66
42 47 55
27 31 36
26 29 34
29 33 38
29 33 38
29 33 39
36 41 47
42 48 55
44 50 58
50 56 65
52 59 69
52 59 69
54 62 72
56 63 73
53 61 71
47 53 62
43 48 56
42 48 56
44 50 58
49 56 64
56 64 74
64 72 84
75 85 98
76 86 100
81 92 107
89 101 116
92 105 122
95 108 125
96 109 126
99 113 130
93 105 122
93 105 121
94 108 125
91 104 120
90 102 118
89 101 117
86 98 114
84 96 111
86 97 112
84 95 110
82 94 109
80 91 106
80 90 103
82 93 107
81 92 106
81 93 107
83 94 108
89 101 117
86 98 113
95 108 125
94 107 124
95 108 124
93 106 122
95 108 125
93 106 122
91 103 120
90 102 119
90 102 118
86 98 114
85 97 112
80 91 105
79 89 103
79 89 103
78 89 102
74 84 98
66 75 88
61 70 81
50 57 66
45 52 60
41 47 55
38 43 49
40 46 53
42 48 55
49 56 65
51 59 68
51 58 66
42 49 57
38 42 49
33 38 44
33 38 43
36 41 47
41 47 54
44 50 57
45 51 58
46 52 60
50 56 65
50 57 66
55 63 73
64 72 83
65 74 86
68 77 90
71 81 94
68 78 90
74 85 98
73 83 96
77 87 101
76 87 101
79 90 104
81 92 107
85 97 113
87 99 116
90 103 119
95 109 126
96 109 126
92 105 122
89 101 117
90 103 119
90 103 119
90 103 120
94 106 123
92 104 121
96 109 126
98 111 129
102 115 133
104 118 136
105 119 138
107 121 141
103 117 135
106 120 139
106 120 139
104 118 136
32 37 42
39 44 51
45 51 60
48 54 63
50 57 66
45 51 59
46 52 60
49 56 64
51 58 67
49 56 65
45 51 59
35 40 46
30 34 40
28 32 37
24 27 32
23 27 31
38 44 51
47 53 62
52 59 68
52 59 69
53 61 70
54 61 71
60 68 79
59 67 78
58 66 77
55 62 72
51 58 67
52 59 68
51 58 67
49 56 65
49 56 65
54 62 71
56 64 73
52 59 69
52 60 69
50 58 67
51 58 68
49 56 65
41 46 53
34 39 45
33 38 43
30 34 40
29 33 38
26 30 34
18 21 24
25 28 32
32 36 42
36 41 47
33 38 44
29 33 38
27 31 36
21 25 29
17 19 23
19 22 25
20 22 26
28 32 37
36 41 47
44 50 57
49 55 64
56 64 74
63 71 83
64 72 84
59 67 78
63 71 83
61 69 80
67 76 87
65 74 86
68 77 88
64 73 85
60 68 79
57 65 75
57 65 75
57 65 76
57 65 75
52 59 68
49 55 64
48 55 64
55 62 72
60 68 79
63 72 84
70 80 93
78 89 103
80 91 106
81 92 107
83 94 110
82 93 108
83 95 111
86 98 114
88 100 116
86 98 114
84 95 110
82 92 106
75 86 100
76 86 100
73 83 96
71 81 94
66 75 87
68 77 89
65 75 86
67 76 88
71 81 94
73 83 96
80 91 105
82 93 108
87 98 113
88 100 115
89 101 117
87 98 114
80 91 106
77 87 101
72 82 96
69 78 90
69 78 90
64 73 85
54 61 71
48 54 62
39 44 51
31 36 42
32 36 42
27 30 35
18 20 23
17 20 23
23 26 30
30 34 40
37 43 49
44 51 59
46 53 61
51 58 67
57 65 75
59 67 77
62 71 83
67 76 88
73 83 96
79 90 104
81 92 107
88 100 116
90 101 116
94 106 122
96 110 127
94 108 125
96 109 126
94 106 122
91 103 119
89 101 117
88 101 117
86 99 115
85 96 111
81 92 106
80 91 106
82 93 108
82 93 108
76 86 99
65 74 86
60 68 79
51 58 67
43 48 56
32 36 42
26 30 34
20 23 26
20 23 26
17 20 23
25 28 33
31 36 42
34 39 45
34 39 45
31 35 40
28 32 37
29 32 38
30 34 39
30 35 40
38 43 49
36 41 47
38 43 49
39 44 51
42 48 56
50 57 66
49 56 65
52 59 68
55 62 72
55 63 73
51 58 67
49 56 64
45 51 59
39 45 52
43 49 57
55 62 72
62 70 81
66 75 87
68 77 90
72 82 95
81 92 106
78 89 103
82 92 106
82 94 108
81 92 106
76 86 100
80 91 105
77 88 102
79 89 104
77 87 101
73 83 96
71 81 94
73 83 96
73 84 97
75 86 100
72 82 94
74 84 97
68 77 89
66 74 86
56 64 74
55 62 72
47 53 61
41 47 55
37 42 49
35 40 46
30 34 40
26 30 35
22 25 29
15 17 19
18 21 24
35 39 46
44 50 57
53 60 69
58 66 76
59 67 78
58 66 76
64 72 83
64 73 84
66 76 87
69 78 90
74 84 98
79 89 103
82 93 107
88 100 115
87 99 114
89 101 116
87 98 114
86 98 113
86 98 113
81 92 107
75 86 100
75 86 99
68 77 89
65 74 86
58 66 76
52 58 68
53 60 69
57 65 75
62 71 82
65 74 86
70 79 91
76 87 100
76 87 100
77 87 101
70 80 92
72 82 95
71 81 93
68 77 89
67 76 88
64 73 85
64 72 84
62 70 81
60 69 80
60 68 79
62 70 81
63 72 83
63 72 84
64 72 84
66 75 86
66 75 87
64 72 84
66 75 87
68 77 89
69 78 90
69 78 91
64 72 84
60 68 79
58 66 76
49 56 65
35 39 45
22 25 29
31 35 40
48 54 62
56 63 74
62 70 81
68 77 89
65 74 86
67 77 88
71 80 93
74 84 97
75 86 99
73 83 96
75 85 99
77 88 101
77 87 101
75 85 98
73 82 95
73 83 96
76 86 100
71 81 94
75 86 100
77 87 101
77 88 102
80 91 105
82 92 107
88 100 115
87 99 114
95 108 125
94 107 124
97 110 127
97 110 127
98 111 129
94 106 123
90 102 118
89 101 117
85 96 111
78 89 103
75 85 99
74 84 98
71 81 94
71 80 92
65 74 86
63 72 84
61 69 79
59 67 77
57 64 74
63 72 83
64 73 84
69 78 90
61 69 80
60 68 79
56 63 73
60 68 79
62 70 81
64 72 83
59 67 78
60 69 79
59 67 78
58 66 76
56 64 75
54 61 71
49 56 65
40 45 52
30 34 40
24 27 31
33 38 44
49 56 66
60 68 78
70 79 92
71 80 93
74 84 97
73 83 97
82 92 107
85 96 111
89 101 117
92 104 121
94 106 123
97 110 128
95 108 125
98 111 129
95 108 125
94 107 124
87 99 114
82 92 107
76 87 100
71 80 93
69 79 91
65 74 85
63 72 83
51 59 68
46 52 61
46 52 60
41 46 53
37 42 49
40 46 53
41 46 54
56 63 73
61 69 80
66 75 87
66 75 87
68 78 90
71 81 94
75 85 98
74 84 98
76 87 101
79 90 104
80 91 105
87 99 114
90 103 119
93 105 122
92 104 120
93 106 123
94 107 123
96 109 126
98 112 130
97 110 127
101 113 130
97 111 128
102 116 134
102 117 135
57 65 75
60 68 79
61 70 81
58 65 75
52 59 68
45 51 59
40 46 53
38 44 51
40 45 52
35 40 46
30 34 39
36 41 47
46 53 61
46 53 61
44 50 58
43 48 56
45 51 60
48 54 63
46 53 61
44 50 58
42 48 55
40 45 53
42 48 55
43 49 56
36 41 48
31 35 41
25 28 32
30 34 39
34 38 44
28 32 37
26 29 33
28 32 38
30 34 40
30 34 40
31 36 42
31 35 41
31 35 41
30 34 39
32 36 42
40 46 53
37 43 49
37 42 49
36 41 47
36 41 47
38 44 51
40 45 52
34 39 45
22 25 29
15 17 19
21 24 27
29 33 38
22 25 29
20 23 27
27 31 36
31 35 41
30 34 39
31 36 41
35 40 46
37 43 49
41 46 54
43 48 56
46 52 60
51 58 67
59 67 78
63 72 83
68 77 90
68 78 90
70 79 92
67 76 87
63 72 83
57 64 74
61 69 80
64 73 84
67 77 89
73 83 96
77 87 101
85 97 112
92 104 120
90 102 119
96 108 125
96 109 126
100 114 132
100 113 131
96 109 125
98 111 128
95 108 126
91 103 119
98 111 128
96 109 125
90 103 120
90 102 118
91 103 120
87 98 114
82 93 108
82 94 109
82 93 108
79 90 105
78 88 102
70 80 92
72 81 93
72 82 95
76 86 100
75 86 100
82 93 108
88 100 116
89 101 118
86 98 113
82 93 108
72 82 95
65 74 85
58 66 77
50 57 66
41 46 53
29 33 38
17 19 22
18 21 24
18 21 24
18 20 23
27 31 36
41 47 55
46 52 61
46 52 60
50 57 66
56 63 73
61 70 81
68 77 90
68 78 90
70 80 92
71 81 94
70 80 92
69 78 90
70 79 91
70 80 92
76 87 101
78 89 104
80 91 105
80 90 105
77 87 101
82 93 107
87 99 114
86 98 113
90 102 118
92 105 122
88 100 116
87 99 114
83 95 109
79 90 103
78 89 103
72 82 95
65 73 85
62 71 81
56 64 73
52 59 69
42 47 55
36 41 48
37 42 48
35 40 46
31 35 41
21 24 28
15 17 20
12 14 16
14 17 19
24 27 32
32 36 42
35 39 46
31 35 41
26 29 34
25 28 33
22 25 29
22 25 29
31 35 41
37 43 49
42 48 55
46 52 60
47 53 62
53 60 70
59 67 78
64 73 85
65 75 86
72 82 95
75 85 98
73 83 97
70 80 93
61 70 81
59 67 77
51 58 68
40 46 53
32 36 42
33 38 43
36 41 48
43 49 57
50 57 66
52 59 68
58 66 77
60 67 78
58 66 76
54 62 72
57 65 75
62 70 82
63 72 84
67 76 88
70 80 93
73 83 95
72 82 94
74 84 97
75 85 99
75 85 99
79 90 104
74 84 97
68 77 89
60 68 79
49 56 65
40 45 52
31 36 42
22 25 29
18 21 24
19 21 24
19 21 25
24 27 32
26 30 34
33 38 44
35 40 46
38 44 51
38 43 50
35 40 46
39 44 51
43 49 58
45 51 60
46 53 61
49 56 65
59 67 78
65 75 87
73 83 96
72 82 95
77 87 101
79 90 104
84 96 111
85 97 112
85 97 112
79 90 104
78 88 102
74 84 97
68 77 89
64 73 85
61 69 80
59 67 78
62 71 82
63 71 83
66 75 86
69 78 91
71 81 93
73 84 97
75 85 99
79 90 104
79 90 104
75 85 98
71 80 93
69 78 91
67 75 87
60 68 79
56 64 74
48 55 64
44 50 58
45 51 59
50 57 67
49 55 64
47 53 62
43 49 57
41 47 55
38 43 50
37 43 50
33 37 43
30 34 40
31 35 40
34 38 45
32 36 42
33 38 43
31 36 41
29 33 38
18 20 23
19 22 25
31 36 41
43 49 57
51 58 67
58 66 77
63 71 83
67 77 89
77 88 102
84 96 112
88 100 116
92 105 122
93 105 122
97 110 128
96 108 125
101 114 132
102 116 134
103 117 135
97 110 127
97 111 129
92 104 119
88 100 115
82 93 107
82 93 107
83 94 109
84 96 111
84 95 111
87 100 116
92 104 121
91 102 118
91 103 119
90 102 118
83 95 110
82 93 108
74 84 97
69 79 91
66 75 87
62 71 82
56 64 74
54 61 71
51 58 67
43 49 57
34 39 46
31 35 40
30 34 39
32 36 42
30 34 40
33 37 43
40 45 52
44 50 58
46 53 61
47 54 62
48 55 63
53 61 70
54 61 71
49 56 65
48 55 64
46 52 61
44 51 59
48 54 62
49 55 64
46 53 61
46 52 60
48 54 63
52 59 69
60 67 78
62 71 82
71 81 93
77 87 101
82 93 108
90 102 118
97 110 127
100 114 132
104 118 137
106 121 139
113 128 147
113 128 148
122 138 159
124 140 162
122 139 162
121 138 159
123 140 162
124 140 162
120 137 159
114 129 150
112 128 148
107 122 141
104 118 136
97 110 127
95 107 124
93 106 123
90 102 118
90 102 118
83 94 108
77 88 102
67 76 88
60 67 78
54 62 72
51 58 68
46 52 60
40 45 53
40 46 53
38 43 50
38 43 50
37 42 49
42 48 55
52 59 69
63 71 82
69 79 91
81 92 106
87 99 115
93 105 121
93 106 122
96 109 127
98 111 128
99 112 130
100 114 131
94 107 123
92 104 121
94 107 124
88 101 117
73 83 96
69 78 90
62 70 82
51 58 67
45 51 59
40 46 53
35 40 46
32 37 43
27 30 35
20 22 26
27 30 35
35 39 46
41 46 54
44 50 57
45 51 60
43 48 56
40 46 53
41 47 54
35 39 46
23 26 30
16 18 21
18 21 24
29 33 39
38 43 50
43 48 56
43 49 57
42 47 55
41 47 54
34 39 45
36 41 47
30 34 39
20 23 27
20 22 26
22 25 29
29 33 38
30 34 40
30 34 39
31 35 41
31 36 41
38 43 49
39 44 51
42 48 55
38 43 49
34 39 45
32 36 41
26 29 34
27 31 36
26 30 34
26 30 34
26 30 35
31 36 41
34 38 44
39 44 51
43 49 56
38 43 50
33 38 44
29 33 39
28 32 37
34 39 45
37 42 49
35 40 46
40 45 52
48 55 63
57 65 76
67 76 87
72 82 95
74 84 97
78 88 101
76 87 101
75 86 99
80 91 105
85 97 112
92 104 120
94 106 122
102 115 133
101 115 133
107 121 139
113 129 149
110 125 144
110 124 143
106 121 141
108 122 142
107 122 141
109 124 143
108 123 142
112 127 148
113 128 148
108 123 143
108 123 142
107 122 141
108 123 142
102 116 134
102 115 133
95 109 126
97 110 128
95 108 125
90 103 119
90 102 118
89 101 118
91 103 119
90 103 119
90 102 118
86 98 114
93 105 122
97 111 129
94 107 124
94 107 124
87 99 114
79 90 104
70 80 92
68 77 89
67 76 88
58 66 77
50 57 66
40 46 53
30 34 39
18 20 23
30 35 40
43 50 58
51 58 67
52 59 68
51 58 67
51 58 68
53 60 69
56 64 74
61 70 81
64 73 85
68 77 88
72 81 94
74 84 97
77 87 100
76 86 99
76 87 101
75 85 98
78 88 102
78 88 101
74 84 97
70 79 92
68 76 88
67 76 88
69 78 90
71 80 93
74 84 97
74 85 98
69 78 90
66 75 88
57 65 75
46 52 60
43 49 56
40 45 53
39 45 52
42 48 55
40 46 53
36 41 47
31 36 41
27 31 36
23 26 30
22 25 29
21 24 28
27 31 35
26 30 34
29 33 38
29 33 39
29 33 38
23 26 30
19 22 26
20 23 27
20 22 26
28 32 37
36 40 47
38 43 50
45 51 59
50 57 66
50 56 65
51 58 67
58 67 77
66 75 86
73 83 95
77 88 102
82 94 109
86 97 112
87 99 114
82 93 107
73 82 95
72 82 95
65 74 86
57 65 76
49 56 64
41 47 54
35 40 46
32 36 42
31 35 40
34 39 45
39 44 51
41 47 55
45 51 59
49 56 65
54 62 72
59 67 78
64 73 85
67 76 88
69 78 90
72 83 96
74 85 98
76 86 99
78 88 101
78 89 102
82 93 107
82 92 106
77 88 101
76 86 99
68 78 90
64 72 84
60 68 79
58 65 75
49 56 65
49 56 65
49 56 65
53 60 69
59 67 77
62 70 81
66 75 87
65 74 86
60 69 80
58 66 76
56 63 73
51 57 66
40 45 53
26 30 35
27 30 35
43 49 56
54 61 70
60 69 80
65 74 85
71 81 93
73 83 96
70 79 92
72 82 94
71 81 94
72 81 93
68 77 89
70 79 92
68 77 90
67 76 88
65 73 85
63 72 83
64 72 83
63 71 82
62 70 82
57 65 75
61 69 80
64 73 85
64 73 85
67 76 89
73 82 95
69 79 91
73 83 97
73 83 96
71 80 92
66 76 88
69 78 90
69 78 91
64 72 84
59 67 78
57 65 75
57 65 75
57 65 75
57 65 74
58 66 76
56 63 73
53 60 69
55 62 71
51 58 67
44 50 58
47 54 62
41 46 54
40 45 52
41 46 53
42 47 55
36 41 48
33 37 43
35 40 47
39 44 51
41 46 54
43 49 57
49 55 64
53 60 69
56 64 74
68 77 88
75 85 98
84 96 111
89 101 117
92 104 121
96 109 125
100 113 131
107 121 140
105 119 137
107 121 139
105 119 138
98 112 130
100 114 131
101 115 133
102 116 134
97 111 129
102 115 134
102 116 134
101 115 133
99 113 131
98 112 129
96 109 126
93 105 121
90 102 118
84 95 110
75 85 99
68 77 89
62 70 82
59 67 77
49 55 64
45 51 59
34 38 44
21 24 27
15 18 20
31 36 41
48 54 63
62 70 81
71 81 94
78 89 103
78 89 103
78 89 103
80 90 105
79 90 105
77 87 101
76 86 100
72 83 96
72 82 94
72 82 94
71 81 94
73 83 96
73 82 95
79 89 103
76 87 101
73 83 96
72 81 94
71 80 93
72 82 95
73 83 97
77 87 101
79 90 104
83 94 108
89 101 117
96 109 126
100 114 132
107 121 140
112 127 148
109 124 144
112 127 146
115 132 153
117 133 154
119 135 157
117 134 155
121 138 160
121 137 159
124 141 163
124 140 161
119 136 158
120 135 155
114 130 151
109 124 143
103 117 135
99 113 130
94 107 124
92 104 121
92 103 119
88 100 116
87 98 113
84 95 110
82 93 108
78 88 102
75 85 99
69 78 90
67 75 87
60 68 79
52 59 68
38 43 50
20 23 27
35 40 46
54 61 71
64 73 84
74 85 98
79 90 104
82 93 108
80 92 106
79 89 103
82 93 107
85 96 112
87 99 115
90 102 118
88 100 116
86 97 113
85 96 111
63 71 82
52 59 68
37 43 49
21 24 28
21 24 28
23 26 30
23 25 29
27 30 35
30 34 40
30 34 39
26 30 34
25 29 33
30 34 39
37 42 49
44 50 58
48 55 63
45 51 59
41 46 54
36 41 48
29 32 38
22 25 29
29 33 38
40 46 53
47 53 61
51 57 66
54 61 71
55 63 73
57 65 76
55 63 73
53 61 70
49 56 64
48 55 64
47 53 61
46 52 60
48 55 63
45 51 59
38 43 50
36 41 47
33 38 44
33 37 43
34 39 45
37 42 49
38 43 50
39 44 51
40 46 53
42 47 55
39 44 51
40 45 52
40 46 53
43 49 57
44 50 57
40 45 52
31 35 41
24 27 32
25 28 33
26 29 34
32 36 42
39 44 51
33 37 43
22 26 30
27 31 36
38 44 51
47 53 62
54 62 72
67 76 88
77 87 101
85 96 111
84 96 112
90 102 118
94 107 124
100 114 131
107 121 140
113 129 150
112 127 147
118 134 155
119 134 155
123 139 161
126 142 164
120 136 158
117 133 154
120 136 158
123 140 162
118 135 157
125 142 164
122 138 160
128 146 170
127 144 166
125 143 165
121 137 159
122 138 159
124 142 164
124 140 162
122 139 160
125 142 163
116 131 152
114 131 153
116 132 153
116 132 154
117 133 155
112 128 148
111 125 144
109 123 143
110 125 144
109 124 143
105 119 138
101 115 133
98 112 130
97 109 126
92 106 123
88 100 116
82 93 108
75 85 98
66 75 86
58 66 76
46 53 61
39 44 51
35 40 47
32 36 42
31 35 41
32 36 42
30 35 40
27 30 35
29 33 38
37 42 49
39 45 52
41 46 54
41 46 54
39 45 52
42 48 56
51 58 67
58 66 76
61 69 80
62 71 82
60 69 80
62 71 82
59 67 78
59 68 78
59 67 78
57 65 75
56 64 74
59 66 76
57 65 75
53 61 70
49 55 64
51 58 67
50 57 66
45 51 59
38 43 50
37 42 48
28 32 37
22 25 29
21 24 28
19 22 25
16 18 21
15 17 20
15 17 19
23 26 30
26 30 34
28 32 37
33 38 44
40 46 53
45 51 60
42 48 56
30 34 40
29 33 38
37 43 49
43 49 57
41 47 54
40 45 53
41 46 53
42 47 55
43 49 56
43 49 57
47 54 63
54 62 72
61 70 81
69 79 91
77 87 100
81 92 107
88 101 116
90 103 120
91 103 119
88 100 117
87 99 115
87 99 114
79 89 103
74 84 97
70 79 92
69 79 91
63 72 83
61 70 81
59 67 77
50 56 65
42 48 55
31 36 41
20 23 26
29 33 39
42 48 55
45 52 60
45 51 58
45 51 60
47 53 62
50 57 66
53 60 69
59 67 77
58 66 76
63 72 83
68 78 90
72 81 94
73 83 96
72 82 95
69 78 91
67 76 87
62 70 81
59 67 78
60 68 79
62 71 82
63 72 83
64 73 84
63 72 83
68 77 89
70 79 92
66 76 88
66 75 86
59 66 77
48 55 64
39 44 51
27 30 35
27 30 35
47 53 61
60 67 78
70 79 92
73 83 96
74 85 98
72 82 95
68 77 90
68 77 89
65 73 85
62 70 81
61 69 80
59 67 77
60 68 78
64 72 84
65 74 85
60 69 79
58 66 76
56 64 75
58 66 76
59 67 78
57 65 75
61 69 80
63 71 83
61 70 81
63 71 83
64 72 83
66 75 87
71 80 92
71 81 93
74 84 98
72 82 95
72 82 95
70 79 91
68 77 90
65 74 86
62 71 83
60 69 79
64 72 84
64 73 85
63 72 83
63 71 82
67 76 87
67 77 89
68 77 88
68 77 90
71 80 93
75 85 98
75 85 99
74 84 97
77 88 102
73 83 95
71 81 94
64 72 83
56 64 74
43 49 57
34 39 45
32 36 42
33 38 44
32 36 42
36 41 48
43 49 57
52 60 69
61 69 80
71 80 93
79 89 104
85 97 113
86 97 112
91 103 119
93 106 122
96 109 125
93 106 123
95 108 125
97 110 127
96 110 128
103 116 134
105 119 138
105 119 138
107 121 139
102 117 136
99 113 130
96 108 125
94 106 123
94 106 123
91 103 120
86 98 113
77 88 102
71 81 94
65 74 85
55 63 73
40 45 52
23 26 30
23 26 30
39 44 51
53 60 69
62 70 81
72 82 95
81 93 107
88 100 116
93 106 123
95 108 125
94 107 124
94 107 124
89 102 118
90 102 118
89 101 117
87 99 115
83 94 109
88 100 115
85 96 111
85 97 112
81 92 106
82 93 108
76 87 100
72 82 96
75 85 98
75 86 99
81 92 107
86 98 113
88 100 116
89 100 115
91 103 118
93 106 122
97 111 129
102 115 133
103 117 136
103 117 136
105 119 138
108 123 142
112 128 148
111 127 147
110 126 146
113 129 149
110 125 145
113 128 148
115 131 152
115 130 150
116 131 152
117 133 154
115 131 151
116 132 153
111 126 147
110 124 144
109 123 142
103 117 135
103 117 136
101 114 132
99 112 130
98 112 129
96 109 126
95 108 125
89 101 117
83 94 109
76 87 100
74 84 96
63 71 82
47 53 62
28 32 37
23 27 31
42 48 55
59 68 78
72 81 94
77 87 100
76 87 101
76 86 99
79 90 104
82 93 108
80 91 106
79 90 104
82 93 108
78 88 102
75 85 99
48 54 63
42 48 56
39 45 52
31 35 40
26 30 34
25 28 33
21 24 28
21 24 28
21 24 27
17 20 23
16 18 21
29 34 39
39 44 51
39 45 52
37 42 49
40 46 53
43 49 57
40 46 53
31 35 40
15 17 20
33 37 43
45 51 59
52 59 68
59 67 77
64 73 85
69 78 91
69 79 91
70 79 91
68 78 90
67 76 88
67 76 87
69 79 91
72 82 95
73 82 96
72 81 94
67 76 88
62 70 82
61 70 81
61 69 80
62 71 82
63 72 83
61 69 80
53 61 70
51 58 67
46 52 60
41 46 54
41 46 53
38 43 50
36 42 48
33 37 43
27 31 36
24 27 32
22 25 28
19 22 26
26 29 34
34 38 44
36 41 47
35 40 46
28 32 37
24 28 32
40 45 52
53 60 69
62 70 82
70 79 91
72 82 95
78 89 103
81 92 106
86 98 114
91 103 120
98 111 129
104 118 136
104 119 138
112 127 147
114 129 148
117 133 154
122 139 161
127 144 166
123 140 162
126 143 166
130 147 171
131 149 172
134 152 177
130 148 171
134 152 175
137 156 181
136 154 178
137 155 179
136 155 179
135 154 178
135 152 176
133 150 173
130 148 171
131 149 173
128 145 168
126 143 166
124 141 163
119 136 158
118 135 156
120 136 157
116 132 152
109 124 143
106 121 141
105 119 138
106 121 140
102 117 135
104 118 136
98 111 129
99 112 129
96 109 126
91 103 120
91 103 120
82 94 109
73 83 96
62 70 81
53 60 69
50 57 66
51 58 67
47 53 61
41 46 54
40 45 52
42 48 55
38 43 49
26 30 34
17 19 22
17 19 22
20 23 27
25 29 33
31 35 41
40 45 52
40 45 52
33 37 43
26 30 34
26 29 34
25 29 33
34 39 45
40 46 53
49 56 65
51 58 67
45 52 60
41 47 54
45 51 59
51 58 66
53 60 69
54 62 71
53 61 70
57 66 76
64 72 83
62 70 81
57 65 76
52 59 68
47 53 61
42 48 55
39 45 51
34 39 45
30 35 40
24 28 32
18 20 24
21 24 28
34 38 45
43 49 57
48 55 63
49 56 65
43 49 57
44 50 58
49 55 64
52 59 68
51 58 67
49 56 65
48 55 64
46 53 61
49 56 64
51 58 67
53 60 69
57 65 75
60 68 79
61 70 81
63 72 83
69 78 90
78 88 101
82 94 109
85 97 112
87 99 114
89 101 116
92 104 121
87 99 115
84 96 111
84 94 109
80 90 104
78 89 102
80 90 104
75 85 98
67 77 89
58 66 77
48 54 63
37 42 48
29 33 38
27 30 35
21 24 27
13 15 17
12 14 16
20 22 26
27 30 35
29 33 38
34 38 45
44 51 59
50 57 67
53 61 70
58 66 77
65 74 85
70 80 92
74 83 96
74 84 98
72 81 94
77 87 101
75 85 99
74 84 98
75 85 98
70 80 92
68 78 90
60 69 80
55 63 73
56 63 73
52 59 68
49 56 65
41 47 54
31 36 41
21 24 28
20 22 26
28 32 37
44 50 58
49 56 65
55 62 72
54 61 71
57 65 75
62 71 82
60 68 79
59 67 78
58 66 76
50 56 65
40 46 53
38 44 50
39 45 52
42 48 55
43 49 57
45 51 59
43 49 57
38 43 50
33 38 44
25 28 33
24 27 31
26 30 34
35 40 46
30 34 39
26 30 34
32 36 42
32 36 42
28 32 37
30 34 40
34 38 45
41 47 54
41 46 53
47 54 63
44 51 59
48 54 63
51 58 67
50 57 66
54 62 72
57 65 74
58 66 77
57 65 76
61 70 81
60 68 79
63 72 83
69 79 92
72 82 95
79 90 104
85 96 111
85 97 112
84 95 110
79 89 103
77 88 102
76 86 99
74 84 97
68 77 89
62 71 82
59 67 77
49 56 65
43 48 56
39 44 51
33 38 43
22 25 29
26 29 34
45 51 59
57 65 75
64 73 85
74 84 97
80 90 104
85 96 111
84 96 111
85 97 112
86 97 112
85 97 113
90 102 117
91 103 119
95 108 125
98 112 130
101 115 133
99 113 130
98 111 129
97 110 127
99 112 130
100 113 131
92 105 121
97 110 127
92 104 121
85 96 111
80 91 105
72 82 95
67 76 88
53 60 70
41 47 54
32 37 42
30 34 40
47 53 62
60 68 79
71 81 94
77 88 103
83 95 110
87 98 113
90 102 119
94 107 123
96 109 126
95 108 125
93 105 121
93 106 122
94 106 123
89 101 117
91 103 119
89 100 116
84 95 110
84 95 111
85 96 110
86 98 114
84 97 112
83 94 109
84 95 110
89 101 117
92 104 121
95 108 126
95 108 125
98 111 129
99 113 130
97 110 128
101 114 131
98 111 129
97 110 128
100 114 132
103 117 135
102 116 134
102 116 135
103 117 135
104 119 138
104 119 138
105 120 138
106 121 139
110 124 143
115 130 150
114 130 150
113 129 149
114 130 150
113 129 149
112 127 148
111 126 146
107 121 140
107 122 141
105 120 139
101 115 133
102 116 134
101 114 131
98 112 129
96 109 125
90 103 119
88 100 115
81 92 107
73 83 95
61 69 80
50 57 66
38 44 50
35 40 47
48 55 64
61 70 81
69 79 91
73 84 97
80 91 106
81 92 106
82 94 108
85 96 110
85 97 112
86 98 114
85 97 112
56 64 75
51 58 67
40 46 53
34 39 45
35 39 46
35 40 46
38 43 50
42 48 56
43 49 56
35 40 47
29 33 39
16 18 21
15 17 19
16 19 22
15 17 20
19 21 25
19 22 26
21 24 28
32 36 42
37 42 49
45 51 59
52 59 68
58 66 76
62 70 81
63 71 83
64 73 85
64 73 84
67 75 87
65 74 85
70 79 91
75 85 98
79 90 104
79 89 103
80 91 105
77 88 102
72 82 96
70 79 92
71 81 93
71 81 93
75 85 98
78 88 101
76 87 101
76 87 101
78 88 102
75 85 99
74 84 97
71 80 92
66 75 86
62 70 81
57 65 76
54 62 72
51 58 67
45 51 60
36 41 48
25 28 33
28 32 37
35 39 45
38 44 50
42 48 55
48 55 64
55 63 72
62 71 82
69 79 92
75 86 99
78 89 103
80 90 104
82 93 107
84 96 111
92 104 121
97 110 128
102 116 134
111 126 145
113 127 147
117 133 153
114 129 149
118 134 154
121 137 159
125 142 164
126 143 166
126 143 165
126 143 166
130 148 171
129 146 168
129 147 170
133 151 174
134 152 176
132 150 174
132 150 174
129 147 170
125 142 164
122 138 160
125 142 164
121 138 160
122 138 160
121 137 158
118 134 154
113 129 149
110 125 145
113 129 149
106 121 140
104 119 137
96 110 127
96 110 127
94 107 124
93 106 122
94 106 123
92 105 122
90 103 119
90 102 118
86 98 113
82 93 108
78 89 103
73 83 96
65 74 86
55 62 72
49 55 64
44 49 57
34 39 45
33 38 44
28 32 37
32 37 43
35 40 46
28 31 36
29 33 39
35 40 47
42 48 56
45 51 60
48 54 63
48 55 64
49 55 64
46 52 60
42 48 56
45 51 59
52 59 68
56 63 73
56 63 73
59 67 78
56 64 75
59 67 78
61 69 80
64 72 84
68 77 89
71 81 94
71 81 94
75 85 98
75 85 98
73 83 95
68 77 89
63 72 84
58 66 76
52 59 69
43 48 55
37 43 49
34 39 45
28 32 37
18 20 24
32 37 43
40 46 53
41 47 54
41 47 55
44 50 58
45 51 59
41 47 55
38 43 50
35 40 47
37 42 48
41 47 54
43 48 56
45 51 59
50 57 66
53 60 70
62 70 81
67 76 87
71 81 93
74 84 97
76 87 100
77 87 101
77 88 103
84 95 110
87 99 115
92 105 121
92 105 121
93 106 123
94 108 125
93 106 122
91 103 119
91 103 119
89 101 116
85 97 112
85 97 112
78 88 102
70 80 93
62 71 82
51 58 67
43 49 57
35 40 46
30 35 40
24 28 32
13 15 18
16 19 22
22 25 28
22 25 29
20 23 26
22 26 30
32 36 42
39 44 51
47 53 62
55 63 73
60 68 79
65 74 85
68 77 89
69 79 91
72 81 94
75 86 99
78 89 103
86 97 112
88 99 115
89 101 117
91 103 119
89 102 118
84 96 111
82 93 108
83 94 109
82 93 108
76 86 99
72 82 95
64 73 85
63 71 82
64 73 84
51 58 67
44 50 58
46 53 62
43 49 56
47 53 61
45 52 60
45 52 60
42 48 56
40 46 53
39 45 52
35 40 46
35 40 46
34 38 44
32 36 42
33 37 43
32 36 42
39 44 51
45 51 59
50 57 66
52 58 67
47 53 62
45 51 58
44 50 57
35 39 45
36 40 47
31 36 41
33 37 42
37 42 48
38 43 50
44 49 57
46 52 60
43 49 57
37 42 49
29 34 39
22 25 29
23 26 30
29 33 38
38 43 50
43 50 58
50 57 65
55 62 72
56 64 74
57 65 75
56 64 74
61 69 80
67 77 89
74 84 96
78 89 103
76 86 100
79 89 103
80 91 105
81 92 107
87 99 114
89 101 117
86 97 113
82 94 109
80 91 105
71 81 93
64 73 84
60 68 79
50 57 66
43 49 57
34 38 44
29 33 38
30 34 40
38 44 50
52 59 68
60 68 78
65 74 85
67 76 88
69 78 90
71 80 93
78 89 102
79 90 104
81 92 106
85 97 112
87 99 114
92 105 121
92 104 121
99 112 130
96 109 127
98 111 129
98 112 129
101 115 134
98 112 129
94 108 125
88 100 116
80 90 104
69 79 91
58 66 77
46 53 62
30 34 39
30 34 39
47 53 61
60 68 79
67 76 88
73 84 97
84 95 110
89 101 117
95 108 125
97 110 127
101 115 133
108 122 141
106 121 141
106 121 140
103 117 136
102 116 135
103 117 135
100 114 131
98 112 129
98 112 130
101 115 132
97 110 127
98 112 130
99 112 129
98 111 128
95 107 123
93 106 122
95 108 125
96 109 126
98 111 128
95 108 125
97 111 128
103 116 134
104 118 136
105 120 139
103 117 135
101 114 132
100 114 131
97 110 127
93 106 122
94 106 122
90 102 118
92 104 121
96 109 126
98 111 129
96 109 126
98 111 128
99 112 130
101 114 132
102 116 134
104 118 137
103 117 136
101 115 134
96 109 126
92 105 122
93 105 121
91 104 120
87 100 116
85 97 112
85 97 113
87 99 114
85 97 113
85 97 113
85 97 112
87 99 115
83 95 110
78 89 103
73 82 95
63 71 82
53 61 71
44 50 58
39 45 51
43 48 56
49 56 64
58 66 77
69 78 90
71 80 93
69 79 91
74 84 97
74 85 98
58 66 76
48 55 64
44 50 58
42 47 55
38 43 50
37 42 49
38 44 50
36 41 47
29 33 38
16 19 22
23 26 30
25 29 34
22 25 29
16 19 22
16 18 21
17 19 22
21 24 27
28 32 37
34 39 45
35 40 47
38 43 50
37 42 48
37 42 49
39 44 51
37 42 48
40 45 52
41 47 55
44 49 57
50 57 66
57 64 75
63 72 83
67 76 89
69 79 91
68 77 88
61 70 81
61 69 80
54 61 71
59 66 77
64 73 85
68 78 90
64 73 84
63 72 84
65 74 85
66 75 88
61 70 81
64 72 84
62 71 82
64 72 83
64 72 84
63 72 84
60 68 79
55 63 73
49 55 64
45 51 60
45 51 59
46 53 61
45 51 60
50 57 65
52 59 68
56 64 74
61 69 80
63 72 83
68 77 89
72 81 94
75 85 99
80 91 106
86 97 113
89 101 117
96 109 126
102 116 134
105 119 138
108 122 140
113 128 148
110 125 145
114 129 150
114 130 151
116 131 152
119 135 155
114 130 150
117 132 153
120 136 157
125 143 165
127 144 167
129 146 169
128 146 168
128 145 168
129 147 170
130 148 171
127 145 167
123 140 163
123 140 162
120 136 158
118 135 156
117 132 152
115 131 151
113 129 150
110 125 145
106 120 139
103 117 135
101 114 131
96 109 126
93 106 123
90 102 118
90 102 118
94 107 125
95 108 125
93 105 122
90 102 118
90 102 118
88 100 115
82 93 108
78 88 102
71 81 94
68 77 89
56 64 75
46 53 61
30 35 40
34 38 44
48 55 63
57 64 74
60 68 79
64 73 85
63 72 83
65 74 85
60 68 79
53 60 70
53 60 70
55 62 72
56 64 73
61 69 79
60 69 80
63 71 82
67 75 87
69 78 90
67 76 88
67 76 89
65 74 86
63 72 84
66 76 88
67 77 88
66 75 87
71 80 93
73 83 97
78 88 102
80 92 106
78 89 104
80 91 104
75 85 98
69 79 91
63 71 83
55 62 72
49 55 64
43 48 56
38 43 50
31 35 40
19 21 24
29 33 38
42 48 55
51 58 67
53 60 70
56 64 74
62 70 81
64 73 85
61 69 80
61 69 80
62 70 81
64 73 84
67 77 89
74 84 97
75 86 99
78 89 103
77 88 102
80 91 106
85 96 111
80 92 106
82 93 108
85 97 112
93 105 122
96 109 125
96 110 127
97 111 128
104 118 137
107 121 140
105 120 139
105 119 137
104 118 137
102 116 135
103 116 134
104 118 136
100 114 131
98 111 128
92 105 121
84 96 111
69 79 91
59 66 77
44 50 58
31 35 41
14 16 18
25 28 33
35 40 47
34 38 44
33 37 43
36 41 47
45 52 60
54 62 72
59 67 78
70 79 92
76 86 99
77 87 101
83 94 109
81 92 107
86 98 113
88 99 114
85 96 111
91 103 119
92 104 120
97 110 127
99 112 130
103 117 135
109 124 143
109 123 143
110 125 146
111 126 147
113 128 147
109 123 143
108 122 141
105 120 139
101 115 133
99 113 131
93 106 122
92 104 120
87 98 114
88 100 115
89 101 117
85 96 111
87 98 113
83 95 110
86 97 112
80 91 105
75 85 98
74 84 97
68 77 90
63 72 84
59 67 77
57 64 75
58 66 76
54 61 70
57 64 74
53 60 69
54 61 71
57 66 76
63 72 83
61 70 80
61 69 80
56 63 73
54 62 71
54 61 71
54 61 70
51 59 68
47 54 62
39 44 51
31 36 41
26 29 34
18 20 23
27 31 35
40 45 52
49 55 64
47 54 63
50 56 65
53 61 70
58 66 76
57 65 75
61 69 80
63 72 83
69 79 91
72 81 94
77 87 101
78 89 103
81 91 105
81 91 105
81 92 107
86 97 112
91 103 120
96 108 125
93 105 122
93 105 121
87 99 114
86 97 112
83 95 111
83 94 109
79 91 105
75 86 99
72 82 94
61 69 80
51 57 66
37 42 48
20 23 27
34 39 45
42 48 56
41 48 55
51 57 66
53 60 70
52 60 69
55 62 73
60 67 78
60 68 79
66 74 85
68 78 90
74 84 97
74 84 97
78 89 103
84 96 111
84 96 111
86 97 112
84 95 110
80 91 105
73 83 95
64 73 85
50 57 66
31 35 41
23 27 31
42 47 54
54 62 72
65 74 85
73 83 96
78 88 102
85 97 112
97 111 129
103 116 135
107 122 141
108 123 142
107 123 142
114 130 150
115 131 152
114 129 150
115 131 152
116 132 154
116 131 152
114 130 150
114 130 151
120 136 158
121 137 158
118 135 156
119 135 156
115 131 151
112 127 147
114 129 149
110 125 145
107 122 141
108 123 142
105 119 138
110 125 144
112 127 148
116 131 152
114 130 151
113 128 148
110 125 145
106 121 140
102 116 134
98 111 128
98 111 129
94 106 123
90 102 118
91 103 119
87 98 112
82 94 109
82 94 108
78 89 103
80 91 105
78 89 103
77 88 101
77 88 102
79 90 105
76 87 100
76 86 99
74 84 98
72 82 95
71 81 94
68 78 90
65 74 86
67 76 88
69 79 91
72 81 94
74 85 98
76 87 101
75 85 98
73 83 96
73 82 95
72 82 95
69 78 90
66 75 87
62 70 81
52 59 69
47 53 61
38 43 50
35 40 46
34 38 44
30 34 39
33 37 43
35 39 45
63 72 83
59 67 77
56 64 73
58 65 75
53 61 70
45 51 59
40 46 53
35 39 45
29 33 38
26 30 34
21 24 28
15 18 21
20 23 27
29 33 39
34 38 44
33 38 44
33 37 43
32 36 41
34 38 44
35 40 46
36 42 48
39 45 52
43 49 57
48 55 63
49 56 64
51 58 67
51 57 66
46 52 61
46 52 60
46 53 61
43 49 57
37 42 49
27 31 37
27 30 35
27 31 36
27 31 36
25 29 33
32 37 43
37 42 48
39 44 51
44 50 58
36 40 47
30 34 40
23 26 30
23 26 30
28 32 37
35 40 46
42 47 55
43 49 57
45 52 60
47 53 62
50 56 65
51 58 67
50 57 65
48 54 63
41 47 54
41 47 54
47 54 62
55 62 72
59 67 78
62 71 82
61 70 81
65 74 86
67 77 89
72 82 95
79 90 103
79 89 103
87 99 115
89 101 117
97 110 127
98 111 128
101 115 133
100 114 132
100 113 131
102 116 134
102 117 136
110 125 144
110 125 145
117 133 154
116 131 152
119 135 157
126 144 166
129 147 170
127 145 167
127 145 167
127 145 168
124 141 162
119 136 157
120 136 157
121 136 157
120 137 158
119 135 157
115 130 151
115 130 150
110 125 144
105 120 138
102 116 135
99 113 131
95 108 125
92 104 121
97 110 128
96 109 125
95 108 125
96 109 126
96 109 126
93 106 123
91 104 120
83 94 109
78 89 103
78 89 102
73 82 95
67 76 88
59 67 77
48 55 63
38 43 49
29 33 39
53 59 69
65 74 85
75 85 97
79 89 103
78 89 103
81 92 107
84 96 111
84 95 110
83 94 109
81 93 108
87 99 114
87 99 115
82 93 108
82 93 108
82 94 109
85 97 112
85 97 112
84 95 110
89 101 117
87 98 113
88 100 115
87 98 114
89 101 116
89 102 118
88 100 116
87 98 113
90 102 117
91 103 119
90 102 118
86 98 113
82 93 108
79 90 104
75 85 99
69 78 91
62 70 81
51 58 67
43 49 57
39 44 51
35 39 46
30 34 40
25 29 33
24 27 31
35 39 45
46 52 61
61 69 80
71 80 92
74 84 97
78 89 103
78 89 103
78 89 103
81 92 107
86 97 112
88 100 115
88 100 116
86 98 113
84 96 111
86 97 111
87 98 114
87 100 116
89 101 117
90 102 117
94 106 123
96 109 126
95 108 125
97 110 127
102 116 134
108 122 142
106 120 139
109 123 142
110 126 147
111 127 146
107 121 140
105 120 139
98 110 127
99 113 130
95 108 126
88 101 117
76 87 101
69 78 91
55 63 73
40 45 53
30 34 39
19 21 25
29 32 38
43 49 57
54 61 70
60 68 79
70 79 91
78 88 102
81 93 108
88 99 115
88 100 116
89 101 116
93 106 124
91 104 120
98 111 129
97 109 126
95 108 125
100 114 132
106 120 138
110 126 146
115 131 152
116 132 152
121 138 160
121 137 159
121 138 160
119 136 158
117 134 155
119 135 156
117 134 155
121 137 159
120 135 155
116 131 152
110 125 146
113 128 149
110 125 145
112 127 148
104 118 137
104 119 137
103 117 134
101 115 133
102 116 134
100 114 131
95 108 126
91 103 120
87 99 114
79 89 102
72 82 95
65 74 85
58 66 76
52 59 69
52 60 69
54 61 70
49 56 65
51 58 67
51 58 67
52 59 68
52 58 67
46 52 60
43 49 56
37 42 49
28 31 36
26 29 34
27 31 36
31 35 40
36 41 47
41 47 55
41 47 54
40 45 52
34 39 45
33 37 43
31 36 41
31 36 41
37 43 49
45 51 59
56 63 73
63 72 83
73 83 96
77 87 101
78 89 104
82 94 109
86 98 113
87 98 113
87 98 114
91 104 120
91 104 120
92 105 121
93 106 124
97 110 128
99 113 130
104 119 137
103 118 137
106 120 138
102 116 134
97 110 127
91 102 118
85 96 111
79 91 106
75 85 99
71 80 92
65 74 86
56 64 74
58 66 76
57 65 75
58 66 76
52 59 69
54 62 71
56 64 74
59 67 77
54 61 70
51 58 67
55 62 72
53 60 70
51 58 68
49 56 64
43 49 57
40 45 52
41 46 52
39 44 51
39 45 51
41 46 54
37 42 48
40 45 52
42 47 55
36 41 47
38 43 50
46 53 61
59 67 77
69 79 91
81 92 106
93 105 122
101 115 133
107 121 140
110 126 146
119 136 157
126 144 167
131 149 172
134 153 177
130 148 171
131 149 172
127 145 168
131 148 171
127 145 168
127 144 166
126 143 165
124 140 162
122 139 162
117 134 155
119 136 158
120 135 155
118 134 156
115 131 151
114 129 149
115 130 151
115 131 151
117 132 152
111 126 146
115 130 151
115 131 152
111 127 146
109 124 144
107 121 141
104 118 137
103 118 136
100 114 132
100 112 129
96 110 127
98 111 128
93 106 123
93 106 122
91 103 119
84 96 112
77 88 101
71 81 94
66 75 88
68 78 90
67 76 88
64 72 83
62 70 81
60 68 79
58 66 76
53 60 69
53 60 69
51 58 67
46 52 60
44 50 59
42 48 55
42 48 55
44 50 58
49 56 65
52 59 68
57 64 74
61 69 80
65 74 85
66 75 87
70 80 93
72 82 95
70 80 93
68 77 89
61 70 80
54 62 72
49 56 64
42 48 55
38 43 49
82 93 107
77 87 101
73 83 96
67 76 88
64 73 84
57 64 74
52 59 68
47 54 62
39 44 51
28 32 37
29 33 38
37 42 48
41 47 54
45 51 59
46 52 60
43 50 58
45 52 60
46 52 61
47 54 62
48 55 64
48 54 63
57 65 75
66 75 87
70 80 92
71 81 93
70 79 92
63 72 83
57 65 75
47 53 62
37 42 49
26 30 34
24 27 32
32 37 43
43 48 56
49 56 64
52 59 68
54 62 72
58 66 77
58 66 77
57 65 75
56 63 73
54 61 71
51 58 67
46 52 60
29 33 38
20 23 26
38 43 50
42 48 55
45 51 60
50 57 66
50 57 66
54 62 71
56 64 73
54 61 71
52 60 69
53 60 69
53 60 70
54 61 71
57 64 74
57 65 75
66 75 87
74 84 97
77 88 102
82 92 106
86 98 114
89 100 116
89 101 117
89 102 118
97 110 127
102 115 133
99 112 130
100 113 131
104 119 138
104 119 138
110 124 144
112 127 148
109 124 144
115 130 150
118 134 155
119 135 157
123 140 161
123 140 162
125 141 163
123 139 161
118 135 156
117 133 154
116 132 153
117 133 154
110 125 145
108 123 143
111 127 147
106 120 139
104 118 136
105 119 137
107 121 140
108 122 141
103 117 136
100 114 133
97 111 129
96 109 126
94 106 123
93 106 122
91 104 120
86 98 113
85 97 113
79 90 104
74 83 96
69 78 91
65 74 86
61 70 81
60 68 79
50 57 66
35 40 47
19 22 26
36 41 47
54 62 72
69 78 90
78 89 102
84 95 110
85 97 113
90 103 119
94 107 124
95 109 127
98 112 131
101 115 133
105 119 138
111 126 146
115 131 151
116 132 153
114 129 149
116 131 151
110 125 145
107 122 142
111 126 145
110 125 145
107 122 141
102 116 134
101 115 134
96 109 126
94 107 123
93 106 123
91 103 118
85 97 112
82 94 108
83 94 109
83 95 110
84 95 110
82 93 108
77 88 102
67 76 89
62 70 81
56 64 74
51 59 68
48 54 63
49 56 65
44 50 58
34 39 45
17 20 23
33 37 43
42 48 55
56 64 73
67 76 87
74 84 98
80 91 105
80 91 106
79 90 105
79 90 104
80 91 105
85 97 112
87 98 114
86 98 113
83 94 108
78 89 103
74 85 98
80 91 106
81 92 106
85 96 111
91 103 119
94 107 124
98 112 130
102 116 134
104 118 137
106 121 140
109 124 143
112 128 148
108 122 142
107 122 141
103 116 134
105 119 138
99 112 130
95 108 124
90 102 118
87 98 114
85 97 112
76 86 100
68 77 90
54 61 71
35 40 47
25 28 33
44 50 58
61 69 80
70 79 91
76 86 100
84 95 110
86 97 112
90 102 118
93 105 121
97 110 127
102 116 134
104 118 137
108 122 141
106 121 140
107 122 141
108 123 142
112 128 148
112 127 147
117 132 152
116 133 154
121 137 159
122 138 160
122 139 160
123 140 162
124 141 163
124 140 161
127 144 166
123 141 164
127 144 166
127 145 168
126 143 165
122 139 161
120 136 158
117 133 154
116 132 153
113 128 148
112 127 147
108 122 142
104 118 137
101 115 132
98 111 129
95 108 125
92 105 123
88 100 116
82 93 108
77 87 101
66 75 86
58 65 75
46 53 61
39 45 51
32 37 42
25 29 33
19 21 25
22 25 29
20 23 27
13 15 17
15 17 20
19 22 26
24 28 32
16 19 22
17 20 23
25 28 32
36 41 47
43 49 57
45 51 59
47 54 62
45 51 59
43 49 56
43 49 57
43 49 56
48 55 63
55 62 72
63 72 83
68 77 89
71 81 93
77 88 102
81 92 106
85 97 112
85 97 112
81 92 106
83 94 109
84 96 111
83 95 109
85 96 111
85 97 113
89 101 117
96 110 127
103 117 135
109 124 143
106 121 141
112 127 147
114 129 149
111 126 145
106 120 138
100 114 132
97 110 126
92 105 121
94 107 124
96 109 126
95 108 124
91 103 120
90 101 117
91 103 119
94 107 123
89 100 116
86 98 112
87 99 114
84 96 111
80 91 105
82 93 108
82 94 108
83 95 110
80 91 105
73 83 97
72 83 96
71 81 93
68 78 91
71 80 93
71 81 93
74 84 97
75 85 99
75 85 98
77 88 102
78 88 102
79 90 104
80 92 106
90 103 120
94 107 124
102 116 134
112 127 147
116 132 153
122 139 161
129 146 170
133 151 174
133 152 175
136 154 177
138 157 181
136 155 179
137 156 181
138 158 183
136 154 178
134 152 175
127 144 167
128 146 169
121 138 159
121 137 158
120 137 160
119 135 156
118 134 156
117 132 153
118 135 156
117 133 155
115 131 151
118 134 155
116 132 153
114 129 149
112 126 146
110 125 144
109 124 144
107 122 142
109 124 144
107 121 140
103 117 135
105 119 137
101 114 132
97 111 128
95 108 125
90 102 119
89 101 117
85 96 111
83 95 110
78 89 104
74 85 98
72 82 95
71 81 93
73 84 97
75 84 98
74 84 98
76 87 100
76 86 100
76 86 100
74 84 97
71 81 93
66 75 87
63 72 84
62 70 81
59 67 77
57 64 75
61 69 79
66 75 87
72 82 95
75 85 98
81 93 108
85 97 112
84 95 110
80 91 106
81 93 107
78 89 103
72 82 95
67 77 89
64 73 85
58 66 76
104 119 137
101 115 133
101 114 131
92 105 122
92 105 122
90 102 118
82 93 107
76 86 100
70 80 93
63 71 82
56 64 74
56 63 73
53 60 69
54 61 70
55 62 71
55 63 72
58 66 76
62 70 81
67 76 88
67 76 88
67 76 88
72 82 95
76 87 101
80 91 105
80 90 104
74 84 97
66 75 87
55 62 72
42 48 56
31 35 41
18 21 24
21 24 28
34 38 44
39 44 51
41 46 53
42 48 55
45 51 59
50 57 66
49 55 64
43 49 57
36 41 47
31 35 41
31 36 41
29 33 38
23 26 31
33 37 43
36 41 48
42 48 56
49 56 65
53 60 69
55 63 72
56 64 73
55 62 72
54 62 72
53 60 70
59 67 77
62 70 81
72 82 95
80 90 104
85 96 112
88 100 115
93 105 122
90 102 119
95 108 124
96 108 125
94 107 124
103 117 136
103 117 136
108 123 142
108 123 143
110 126 146
114 129 150
115 131 151
121 137 159
119 135 156
120 137 159
123 140 162
120 137 159
121 137 158
116 132 152
117 132 153
116 131 151
114 129 149
112 127 146
105 119 138
103 118 137
102 116 135
99 112 130
98 111 128
91 104 119
86 97 113
85 97 112
86 98 113
84 96 111
87 98 114
87 99 114
90 103 120
89 101 117
86 98 114
87 99 114
81 92 106
76 86 100
70 79 92
63 72 83
62 70 82
58 66 76
51 58 67
48 55 63
45 52 60
40 46 53
29 33 39
32 37 43
36 41 47
49 56 65
60 68 78
71 80 93
80 91 105
85 97 112
90 103 119
90 102 117
95 108 126
98 111 129
102 115 132
109 123 142
114 129 150
118 134 154
119 135 157
119 136 158
121 138 160
122 138 159
118 134 155
119 135 155
118 134 154
118 135 156
122 138 160
116 132 152
115 130 150
109 124 143
104 118 137
98 111 129
95 108 126
95 107 123
93 105 120
89 101 116
86 97 112
84 96 111
84 96 111
76 87 100
75 86 99
73 83 96
73 82 95
69 79 91
66 75 87
58 66 76
54 62 71
46 52 60
35 40 46
26 30 34
22 25 29
39 44 51
51 58 68
62 71 82
69 78 90
69 79 92
69 78 91
69 79 91
75 85 98
78 89 103
79 90 104
80 91 105
79 90 105
75 85 99
73 84 97
75 85 98
75 85 98
75 85 98
76 87 100
79 89 103
83 94 108
87 99 114
88 100 116
92 105 121
95 108 125
95 108 125
94 107 123
92 105 122
91 103 119
86 98 113
88 99 115
83 94 110
81 92 106
75 86 100
77 87 101
68 77 90
63 72 84
54 61 71
34 39 45
21 24 28
41 47 54
59 67 77
72 82 95
86 98 113
92 104 120
92 105 121
95 109 126
96 110 127
101 115 133
101 116 135
107 122 141
110 125 145
113 128 148
117 133 153
123 140 161
123 139 161
130 149 172
132 150 174
131 149 172
130 147 170
126 144 168
128 145 168
126 143 165
132 149 172
124 141 163
128 145 168
123 140 162
128 145 169
125 142 165
122 139 161
127 143 165
118 135 156
112 127 147
113 128 148
110 125 145
109 125 145
108 123 142
102 116 135
95 108 125
92 105 121
90 102 118
88 100 116
88 100 115
85 96 111
83 94 109
78 89 103
73 83 97
62 71 82
55 63 72
47 53 62
40 46 53
35 40 47
33 37 43
33 37 43
34 39 45
38 43 49
32 36 42
30 34 40
28 32 37
24 27 32
30 34 40
33 37 43
35 39 45
30 34 40
30 34 40
31 35 41
40 46 53
40 45 52
41 47 55
47 53 62
55 63 73
64 73 84
67 76 89
70 80 92
75 85 98
81 92 106
86 98 113
91 103 119
90 103 120
89 101 118
91 104 120
88 100 116
92 104 121
93 105 121
92 104 120
96 109 126
98 111 129
101 115 133
107 121 139
112 126 145
113 130 151
117 133 153
120 136 158
120 136 157
116 132 153
116 132 153
112 127 146
111 126 146
106 121 140
109 124 143
106 121 140
106 121 140
103 117 136
101 115 133
104 118 136
98 112 129
95 108 124
94 107 123
94 106 122
89 101 117
90 102 118
90 102 118
87 99 115
90 102 118
91 103 118
94 107 123
100 113 131
101 115 133
97 111 128
102 116 134
99 113 132
101 115 133
97 110 128
99 112 130
102 115 133
104 118 137
110 125 144
116 131 152
117 132 152
122 138 159
122 138 161
125 142 165
127 144 166
129 146 169
132 151 175
134 152 176
139 158 183
136 155 180
139 159 184
138 157 182
140 159 185
139 159 184
137 156 180
138 156 180
134 152 177
131 149 173
131 149 172
130 148 172
125 142 163
124 141 163
124 140 162
123 140 162
122 139 161
116 132 153
118 133 154
111 126 146
111 127 147
112 127 147
113 128 148
111 126 146
111 127 147
108 123 143
113 128 148
112 128 147
110 125 145
111 126 145
106 120 140
102 116 134
95 108 125
90 103 119
87 98 113
82 93 108
81 92 106
85 97 112
88 99 115
86 97 112
86 98 114
85 97 112
85 96 112
87 98 113
87 99 115
84 96 111
85 97 112
85 96 112
80 90 104
78 88 102
74 84 98
72 82 95
74 84 97
78 88 103
84 95 109
85 96 111
84 96 111
90 102 118
90 102 119
92 105 121
93 105 121
89 101 117
85 97 112
85 97 112
84 95 110
82 94 109
109 124 145
110 125 145
107 122 142
108 123 142
110 125 144
107 122 141
106 121 140
105 119 138
101 115 132
96 109 126
95 107 123
95 108 125
98 111 128
94 107 124
92 104 121
90 103 119
88 100 115
88 100 116
84 96 110
85 96 111
84 95 110
81 92 106
79 89 104
74 84 98
73 83 96
67 77 89
61 69 81
53 60 70
40 45 52
27 31 36
30 34 39
39 44 52
43 49 56
45 51 59
49 56 65
53 60 70
50 57 66
43 49 56
31 36 42
17 20 23
28 32 37
38 43 50
40 46 53
41 47 54
41 47 54
44 51 59
46 52 61
53 60 70
57 65 76
62 71 82
65 74 86
67 76 88
70 79 90
73 83 96
79 89 103
84 95 110
84 96 111
87 99 114
90 102 118
89 101 118
93 105 121
96 109 126
97 110 127
99 112 129
103 117 136
103 117 135
107 122 141
111 126 145
114 129 149
114 130 150
119 135 156
120 137 158
121 137 157
121 138 160
121 138 160
122 137 158
121 138 160
119 136 158
113 128 148
117 132 152
112 128 148
114 129 149
108 122 142
105 119 138
100 114 132
100 114 132
98 112 130
94 106 122
88 100 115
83 95 110
81 92 106
82 93 107
81 91 105
79 89 103
75 86 99
75 85 98
77 87 101
77 88 102
76 86 99
77 87 100
70 79 92
64 72 83
57 64 75
51 58 66
38 44 51
24 28 32
22 25 29
26 30 35
28 32 37
35 40 46
44 50 58
54 62 72
65 73 84
69 78 90
74 84 98
78 89 103
81 92 107
84 95 110
82 93 107
84 95 110
86 97 112
91 103 119
92 105 121
97 110 127
104 118 137
104 118 137
110 125 145
113 129 149
113 128 149
114 130 151
115 132 153
113 129 149
115 131 152
111 126 147
109 124 143
104 119 137
103 117 136
103 117 135
96 109 127
93 107 124
92 105 122
89 100 116
83 95 110
79 90 105
78 88 102
75 85 98
68 77 89
61 69 80
57 65 76
55 63 72
57 64 75
59 67 77
61 69 80
58 66 76
55 62 72
53 60 70
50 56 65
44 50 58
31 35 41
19 22 25
28 32 37
41 47 55
49 56 65
54 61 70
56 64 74
54 61 71
58 65 75
67 76 88
69 79 92
77 87 101
73 83 96
73 83 96
71 80 93
67 75 87
66 75 87
69 78 91
72 81 94
74 84 97
76 87 100
79 90 104
79 91 106
87 99 114
91 103 120
92 104 120
90 102 118
83 94 109
82 94 109
81 92 106
76 86 99
74 84 97
67 76 88
59 67 78
51 58 67
34 39 45
22 25 29
23 26 30
37 42 49
50 57 66
64 72 84
76 86 99
79 90 104
87 99 115
93 106 123
98 111 128
99 112 129
104 118 136
107 122 141
110 125 144
107 122 141
115 131 152
122 138 160
124 141 163
129 146 170
131 149 172
134 152 175
136 155 179
137 155 179
134 152 177
139 158 183
132 151 175
138 158 183
135 153 177
136 154 178
133 152 176
133 151 175
132 150 173
127 145 167
124 141 164
123 140 161
116 131 152
116 132 153
111 126 146
111 125 145
107 122 142
108 122 141
104 119 137
102 116 134
99 112 130
91 103 119
90 102 118
82 93 107
80 91 106
78 88 101
74 83 96
66 75 88
62 70 81
59 67 78
50 57 65
40 46 53
35 40 46
34 39 45
38 43 50
44 50 58
45 51 59
42 48 55
40 45 53
33 38 44
36 41 47
43 49 56
47 53 61
47 53 61
39 44 51
29 33 39
14 16 19
30 34 40
44 50 57
51 58 67
59 67 77
68 77 89
73 83 96
76 86 100
80 91 105
86 98 114
92 105 121
96 109 126
101 114 132
106 121 139
109 124 143
106 121 140
110 125 144
107 121 140
109 124 144
110 124 143
106 121 141
109 124 143
108 123 142
110 126 146
114 129 150
117 133 154
121 137 159
121 138 159
122 138 160
123 139 161
122 139 161
123 140 161
120 136 157
116 132 153
111 126 147
108 123 142
106 121 140
105 119 138
105 119 138
100 114 132
103 117 136
105 120 139
101 115 132
98 112 129
97 111 128
94 107 124
92 104 120
91 103 120
92 104 120
95 108 125
100 114 132
100 115 133
105 120 139
105 119 138
109 124 143
110 124 144
108 123 141
109 125 145
108 123 143
105 120 139
109 123 141
107 121 141
107 122 141
109 124 143
114 129 149
114 130 150
117 133 153
117 133 154
124 141 163
125 142 164
124 140 162
121 138 160
127 144 167
130 148 172
132 149 173
132 150 173
133 152 177
132 151 174
138 155 178
138 157 181
134 152 175
136 154 178
137 155 178
132 149 173
131 148 172
129 147 171
131 149 172
127 144 167
120 137 158
119 135 155
117 132 153
115 131 151
114 130 150
117 133 155
120 136 156
120 135 156
117 133 154
116 132 153
116 132 153
116 131 151
116 132 153
114 129 149
112 127 148
107 122 141
105 119 138
101 114 132
97 110 127
91 103 119
89 101 117
87 99 115
86 98 114
86 98 113
81 92 107
82 93 107
79 90 105
82 93 108
83 94 109
83 94 109
82 93 108
79 89 103
76 86 100
73 83 96
75 85 99
80 90 104
84 96 111
85 97 112
85 97 112
84 95 110
83 94 109
88 99 113
89 101 116
89 102 118
93 106 123
94 107 123
94 107 123
98 111 128
95 108 126
120 136 158
123 139 161
122 138 160
121 137 159
121 137 159
124 141 163
123 140 162
123 140 163
119 135 157
118 134 155
116 132 152
112 128 148
109 124 143
110 124 143
108 122 140
104 118 136
100 114 132
96 109 127
91 103 118
88 100 116
81 93 107
75 86 99
67 76 87
59 67 78
56 64 74
51 58 68
45 51 59
37 43 49
27 30 35
27 30 35
41 47 55
50 56 65
54 62 71
59 67 78
60 68 79
58 66 77
52 59 68
44 50 57
37 42 48
29 33 39
30 34 40
28 32 37
23 26 30
21 24 28
26 30 34
27 31 36
32 37 42
43 48 56
55 63 72
60 68 78
64 72 84
62 70 81
59 67 78
60 69 80
64 73 84
69 78 91
71 80 92
73 82 95
74 84 97
77 87 100
79 89 103
85 97 112
86 98 114
91 103 119
93 107 124
99 112 128
102 116 135
102 116 134
102 115 133
109 123 143
112 127 147
112 127 146
113 128 149
116 132 152
117 133 154
114 129 150
112 128 148
109 123 143
108 122 141
101 115 134
102 116 134
96 109 126
94 107 123
92 104 120
90 101 117
84 96 111
85 97 112
86 97 112
87 98 113
86 98 113
86 98 113
86 97 112
86 98 113
86 98 114
83 94 109
83 94 109
82 94 108
84 96 111
83 94 109
77 88 102
72 82 95
64 73 85
58 66 77
54 60 70
46 52 61
37 42 49
28 32 37
26 30 35
25 29 33
28 31 36
39 45 52
46 52 60
50 57 66
54 62 71
57 65 76
65 74 86
67 77 89
68 77 89
68 78 91
72 81 94
75 85 98
82 92 106
84 96 111
87 99 114
90 103 120
95 108 125
93 105 122
93 107 124
99 112 129
91 104 120
92 104 120
94 106 122
91 104 120
94 107 124
89 102 118
88 101 117
91 104 120
90 102 118
84 96 111
84 95 109
78 89 102
71 81 94
67 76 87
61 69 81
57 65 74
49 56 65
40 46 53
40 45 53
41 46 54
45 52 60
49 56 65
51 58 67
50 57 66
51 58 66
45 51 58
47 53 62
41 47 54
39 44 51
32 36 42
22 25 29
24 27 31
38 44 50
51 58 67
56 64 74
60 69 79
63 71 82
66 74 85
72 82 94
77 87 100
78 89 103
73 83 96
70 80 93
68 77 89
70 80 92
71 81 94
73 83 96
75 85 98
80 91 105
83 95 109
85 97 112
84 95 110
82 93 108
81 92 107
80 90 105
75 85 99
69 78 90
60 69 80
55 62 72
44 50 58
35 40 47
33 38 43
34 38 44
37 42 49
42 47 54
47 54 62
50 57 65
54 61 71
60 68 79
69 78 90
77 88 101
82 93 109
86 98 114
92 105 121
101 115 133
104 118 137
108 123 142
108 123 143
108 123 142
115 130 150
112 127 147
115 131 151
121 138 161
127 144 167
128 146 168
128 146 169
131 147 170
132 150 173
132 151 175
132 150 173
134 153 176
136 154 177
133 152 175
137 156 181
140 158 183
136 154 178
135 154 178
135 153 177
128 146 170
123 140 162
123 140 161
117 133 154
112 127 148
108 123 142
104 119 138
103 116 134
102 116 133
99 113 131
95 108 125
88 100 116
86 98 114
86 98 113
84 95 110
79 89 103
72 82 96
71 80 93
67 76 88
64 72 83
59 67 77
56 64 74
49 56 65
47 54 62
44 50 58
33 37 43
29 33 38
25 28 33
22 25 29
22 26 30
24 27 32
21 24 28
24 27 31
25 28 33
22 25 29
16 19 22
25 28 33
33 38 44
41 47 55
51 58 67
62 71 82
68 78 91
76 86 99
86 98 114
91 104 119
95 108 124
97 110 128
101 115 134
104 118 137
110 125 145
110 125 145
109 124 144
115 130 151
113 128 147
111 127 147
116 131 151
116 132 152
114 130 150
112 127 147
115 131 151
114 129 149
116 132 152
119 135 156
116 131 151
119 135 156
118 133 154
117 133 154
114 130 150
115 131 150
111 126 147
110 124 144
106 120 138
103 118 136
96 109 126
97 111 128
96 109 125
94 106 123
89 102 118
88 100 115
86 98 114
92 104 120
88 100 116
84 96 111
81 91 105
79 89 103
82 93 107
84 96 111
92 104 120
90 103 120
98 112 130
101 115 132
102 116 134
104 118 136
104 118 136
105 119 137
105 119 137
106 121 140
105 119 138
104 119 138
104 119 138
103 116 134
99 112 130
101 115 133
97 110 127
97 111 128
102 116 134
101 114 131
104 118 136
105 119 138
106 120 139
108 122 140
110 126 146
118 133 154
116 132 152
118 134 154
118 135 156
122 139 161
124 141 162
122 139 161
125 142 165
123 140 163
122 138 159
122 139 160
121 138 159
118 134 155
117 133 153
115 131 151
115 131 153
116 132 153
115 131 152
119 135 156
122 138 159
119 136 158
121 137 158
121 137 158
120 137 158
119 135 156
119 135 157
118 134 155
113 128 148
113 128 149
112 127 147
110 125 144
106 121 140
101 115 133
95 108 125
84 96 111
85 97 112
80 91 106
77 87 100
74 84 98
73 83 96
71 80 93
67 76 88
60 68 79
55 62 72
56 64 74
59 67 78
60 68 79
63 72 83
66 75 87
66 76 88
68 77 89
71 81 94
71 80 93
76 86 100
80 91 105
84 95 110
87 98 113
88 100 115
91 103 119
93 105 122
98 110 127
127 144 167
123 140 162
126 142 164
124 141 163
118 134 155
115 131 151
115 131 152
117 132 153
112 127 147
108 122 142
106 120 139
101 115 133
103 117 136
100 114 133
100 114 132
100 113 130
96 109 127
93 105 121
89 101 117
85 96 111
78 88 102
73 83 97
64 73 85
56 63 73
49 55 64
41 46 53
32 37 43
30 34 40
38 44 51
46 52 60
47 53 61
47 54 63
48 54 63
44 50 57
40 45 52
39 44 51
38 44 50
41 46 53
41 46 53
43 49 56
43 49 57
41 47 54
37 41 48
40 46 53
39 44 51
31 35 40
18 21 24
33 37 43
41 47 54
47 53 61
46 53 61
46 52 61
45 50 58
45 51 59
46 52 60
47 53 61
51 58 67
50 56 65
50 56 65
49 56 64
54 61 70
59 68 79
67 76 87
68 78 90
72 82 95
78 89 104
82 93 108
89 101 117
87 100 116
91 103 119
93 105 122
92 104 120
95 108 125
94 107 123
93 106 122
96 109 126
97 111 129
97 111 128
95 108 125
95 108 125
93 106 122
92 104 120
84 95 111
82 94 108
79 90 105
81 92 107
82 93 107
85 97 113
86 97 112
87 98 114
89 101 117
91 103 119
89 101 116
85 97 112
85 97 112
81 92 107
77 88 102
79 90 105
80 92 106
82 93 107
78 89 103
70 79 92
65 73 85
62 71 82
57 65 75
52 59 68
45 51 60
41 46 53
28 31 36
18 20 23
13 14 17
25 29 33
31 35 41
40 46 53
49 55 64
53 61 70
56 63 73
59 67 78
62 71 82
65 74 85
66 75 87
68 77 89
66 74 86
66 75 87
67 76 88
69 78 91
69 78 90
64 73 85
65 74 86
65 73 85
64 73 85
66 75 87
68 77 89
73 83 96
77 88 102
80 91 105
82 93 108
78 89 103
83 94 109
77 87 101
71 81 94
68 77 89
61 70 80
54 61 71
45 51 60
39 45 52
37 43 49
38 43 50
41 47 55
45 51 59
43 49 57
39 44 51
38 43 50
36 41 48
28 31 36
23 26 30
24 27 32
29 33 38
36 41 48
41 46 54
46 52 60
51 58 67
55 63 73
61 70 81
69 79 92
74 85 99
73 83 96
74 84 97
77 87 101
75 86 99
73 83 96
70 80 92
69 78 89
68 77 90
66 76 88
67 75 87
67 76 88
66 75 88
70 79 91
74 84 97
71 81 94
70 80 92
68 76 88
64 73 85
60 68 79
55 63 73
46 52 60
31 36 42
22 25 29
35 40 46
48 55 63
56 63 74
62 71 82
64 73 85
72 82 94
75 86 99
74 84 97
74 84 97
74 84 96
78 88 102
83 95 111
88 100 115
91 103 119
92 105 122
91 104 120
93 105 121
95 107 124
93 106 123
100 113 131
99 113 131
99 113 130
100 114 132
104 118 136
108 123 142
114 130 150
116 132 152
119 135 156
122 139 161
124 141 163
128 145 167
130 148 172
129 146 169
131 149 171
133 151 175
132 150 174
136 154 177
126 144 166
126 143 166
118 134 154
114 129 149
113 129 149
112 127 146
106 120 138
101 115 133
99 112 129
97 111 128
96 109 125
89 102 118
87 99 114
84 96 111
78 89 103
77 87 100
72 82 95
67 77 88
63 72 83
61 69 80
58 65 75
56 64 74
58 66 76
53 60 69
44 50 58
34 38 44
20 23 27
21 24 28
32 37 43
35 40 46
37 42 48
40 45 52
41 47 54
38 44 51
32 36 42
30 34 40
28 32 37
27 31 36
23 26 30
27 30 35
37 42 48
45 51 60
56 64 74
68 77 88
81 92 107
84 96 110
92 104 120
95 108 125
96 109 127
99 113 130
106 120 139
113 128 148
114 129 150
112 127 147
113 129 150
115 130 151
120 136 157
114 130 150
118 134 155
114 130 150
114 130 150
114 130 150
111 126 146
102 116 134
104 118 136
105 119 138
104 119 137
107 122 141
107 121 141
104 118 137
101 114 132
102 116 134
99 113 131
99 112 130
97 110 127
91 104 120
89 102 118
83 94 109
76 87 101
75 86 99
74 84 97
73 83 96
71 81 94
72 81 94
72 82 94
68 77 89
70 79 91
68 77 89
70 79 91
72 82 96
76 86 100
78 88 102
80 91 105
81 92 107
83 95 111
85 97 111
88 99 114
85 96 111
88 100 115
89 102 118
87 99 114
90 102 117
89 101 117
91 103 119
90 102 118
89 102 118
91 104 120
91 104 120
95 108 125
93 105 122
93 106 122
93 105 122
95 108 126
95 109 127
97 110 128
99 112 129
93 107 124
99 112 129
103 116 133
103 117 136
105 120 139
104 118 137
106 121 141
109 123 142
112 127 147
111 126 146
114 129 150
107 122 141
106 121 140
101 115 133
104 118 137
105 119 137
104 119 138
111 126 145
111 126 146
111 127 147
112 127 147
110 125 145
110 125 145
107 121 141
108 123 142
106 120 140
100 114 132
96 110 127
93 105 122
89 102 118
89 101 117
84 96 110
74 84 98
69 79 91
65 74 86
61 69 80
56 64 74
49 56 65
40 46 53
30 34 39
24 28 32
24 27 32
25 28 33
27 30 35
26 30 35
31 35 41
34 38 44
38 44 51
47 54 62
58 65 76
58 66 77
61 69 80
65 74 86
67 77 89
70 80 93
73 83 96
74 85 98
78 89 102
123 139 161
119 135 157
115 131 152
117 133 153
114 130 150
111 126 146
110 125 145
111 126 145
109 125 145
108 123 143
102 117 136
103 116 134
100 114 132
99 112 129
102 115 132
97 110 127
94 106 123
90 102 118
84 95 110
77 87 100
69 78 90
62 71 82
52 60 69
40 45 52
23 26 30
18 21 24
32 36 42
32 37 44
36 41 48
38 44 51
43 49 57
43 49 57
47 53 62
46 53 61
46 53 61
44 50 59
38 43 50
36 41 47
38 43 50
38 43 50
32 37 43
27 30 35
27 31 36
25 29 33
22 25 29
18 21 24
25 28 33
24 27 32
24 27 32
28 31 36
29 33 38
32 36 41
34 39 45
29 33 38
28 31 36
23 26 31
24 27 32
25 28 33
26 29 34
21 24 27
28 32 37
37 42 49
46 52 61
56 63 73
60 68 79
66 74 86
68 77 89
71 81 94
75 85 98
75 85 98
73 83 97
73 84 97
74 85 98
78 89 103
82 93 107
83 94 109
82 93 107
86 98 113
92 104 119
95 107 124
93 106 123
92 104 121
88 100 115
88 100 115
89 101 117
92 104 120
91 103 119
93 105 122
92 105 122
94 107 124
97 110 128
98 112 130
100 113 130
98 111 129
94 107 124
88 99 115
88 100 116
88 100 115
85 97 113
85 96 112
82 93 107
75 85 98
71 80 93
66 75 87
61 70 81
57 65 75
48 55 63
38 43 50
30 35 40
30 34 40
28 33 38
26 30 34
28 32 37
24 27 32
30 34 39
35 40 46
37 42 49
40 45 52
41 46 54
37 42 49
38 43 49
37 42 49
33 37 43
33 37 43
30 34 39
32 37 42
33 38 44
31 35 40
31 35 41
31 35 41
30 35 40
32 36 42
34 39 45
38 43 50
37 42 49
41 47 55
41 46 54
44 50 58
49 55 64
46 52 60
44 50 58
46 53 61
48 54 62
44 49 57
42 47 55
34 39 45
28 32 37
20 23 26
14 16 19
13 15 17
18 21 24
21 24 28
26 30 34
30 34 39
35 40 46
42 48 56
51 58 67
56 64 74
59 68 78
62 71 83
66 75 87
74 84 97
76 86 99
79 89 103
82 94 109
87 99 114
89 102 118
90 102 118
90 102 118
91 103 120
82 93 107
82 93 108
74 84 98
68 77 89
62 70 81
53 61 71
48 55 63
45 50 58
43 49 57
42 48 55
43 49 56
44 50 59
45 50 58
42 47 55
38 44 50
32 36 42
26 29 34
32 36 41
42 48 56
51 59 68
60 69 80
66 74 86
67 76 88
71 81 93
72 82 96
78 88 101
78 88 101
79 90 105
76 87 101
74 84 98
74 84 97
71 81 93
70 80 93
71 80 92
70 79 92
71 80 93
77 87 101
77 88 101
79 90 104
85 96 110
87 98 113
87 99 115
93 106 123
96 109 126
100 114 131
106 121 139
108 123 141
108 123 143
109 124 143
113 127 147
117 133 154
117 132 152
116 131 151
118 134 154
113 129 150
115 130 151
111 126 145
112 128 148
102 116 134
102 116 134
101 114 132
95 108 125
91 103 119
86 98 114
84 96 111
85 97 112
82 93 108
74 85 98
69 78 91
63 71 83
52 59 69
42 47 55
36 41 48
35 40 46
36 41 47
35 40 47
31 35 41
28 32 37
29 33 38
26 29 34
27 31 35
29 32 37
29 33 37
32 36 42
38 43 50
41 47 54
41 47 55
35 40 46
23 25 29
21 24 28
28 32 37
29 33 38
31 35 41
19 22 25
19 21 25
30 34 39
40 46 53
47 53 62
53 60 70
59 67 78
65 74 86
72 83 96
80 91 105
88 101 117
95 107 124
98 111 129
103 117 135
105 119 138
108 122 141
105 119 138
110 124 143
110 125 146
106 121 141
109 124 143
102 116 134
99 112 130
99 112 129
96 109 126
96 109 126
94 106 123
94 106 123
93 106 123
93 106 123
91 103 119
88 100 116
88 100 115
86 98 113
85 96 111
86 97 112
83 94 108
79 90 104
79 90 105
78 87 100
73 83 96
68 77 90
67 76 88
62 70 81
61 70 81
61 69 80
61 70 81
62 70 81
57 65 75
53 60 70
48 55 64
40 45 52
35 40 47
32 36 42
33 38 44
38 44 51
42 48 55
50 57 65
60 68 79
66 75 87
68 78 91
68 78 90
71 80 93
75 85 98
78 89 103
80 91 105
85 96 111
86 98 113
87 98 114
89 101 117
91 103 119
92 104 120
92 105 122
93 105 121
90 102 118
89 101 116
90 102 118
89 102 119
92 104 121
92 105 122
91 103 120
89 102 118
90 102 118
88 100 116
89 101 116
89 100 115
85 96 111
86 98 113
88 100 116
85 97 112
81 92 107
83 95 110
85 97 112
77 88 102
81 92 106
76 86 99
77 88 101
81 92 107
86 97 113
88 100 116
87 99 114
81 93 107
78 88 101
72 82 95
71 80 93
57 65 76
53 60 69
50 57 65
42 48 55
43 49 57
43 49 56
39 44 50
38 43 51
40 46 53
39 45 52
39 45 52
33 37 43
23 27 31
19 22 25
26 30 35
37 42 49
38 43 50
35 39 45
29 33 38
23 26 30
19 22 25
15 17 20
20 22 26
25 28 32
25 28 33
29 32 37
38 43 49
45 52 60
49 56 64
52 59 68
53 60 69
51 58 67
116 132 152
116 131 152
116 131 151
115 131 151
111 125 145
112 127 147
110 125 145
110 125 144
106 120 139
106 120 139
102 117 135
101 114 132
102 116 134
101 115 133
100 113 130
97 110 127
91 103 119
84 96 111
76 86 100
66 75 87
59 67 77
49 56 65
39 44 52
29 33 38
21 24 28
23 26 30
33 38 44
41 47 54
44 50 58
47 53 62
49 55 64
50 57 66
53 61 70
54 61 71
51 58 67
53 60 70
53 61 71
51 59 68
49 56 65
44 49 57
34 38 45
31 35 41
32 36 42
35 40 46
40 45 52
40 46 53
38 43 49
32 36 42
27 31 36
21 24 28
13 15 17
14 15 18
12 14 16
12 13 16
13 14 17
21 24 28
21 23 27
29 33 38
34 39 45
35 40 46
38 43 50
42 47 55
51 58 67
58 66 76
61 69 80
67 76 87
70 80 92
73 83 97
78 89 102
79 90 104
82 93 108
82 93 108
86 97 112
85 97 112
87 99 114
92 104 120
92 105 122
98 111 128
101 114 132
108 122 140
108 122 141
105 119 138
106 121 140
107 122 140
107 121 140
111 126 145
111 126 146
114 129 149
113 127 147
110 124 144
109 124 143
108 123 143
107 122 142
101 115 133
103 116 133
98 111 129
97 110 127
93 106 123
92 105 121
90 102 119
87 99 115
79 90 103
73 83 96
68 77 89
61 70 81
60 68 79
60 68 79
60 67 77
60 68 79
58 66 77
55 63 73
57 65 76
58 66 77
56 63 73
51 58 68
45 51 59
37 42 48
39 44 51
44 50 58
52 59 68
55 63 72
52 60 69
50 57 65
50 57 67
51 58 68
53 61 70
56 64 74
57 65 75
57 65 76
53 60 70
54 61 71
60 68 79
60 68 79
62 70 80
59 68 79
59 67 78
58 66 77
58 66 76
55 62 72
51 58 67
47 53 62
46 52 61
49 55 64
47 54 63
47 53 61
46 53 62
42 48 55
37 43 49
38 44 51
39 45 52
43 49 57
42 47 55
41 47 54
46 53 61
51 58 67
56 64 74
60 69 80
63 71 83
64 73 84
66 75 87
70 79 91
72 82 95
73 83 96
78 88 102
82 93 107
86 98 114
90 102 119
96 109 126
97 110 127
95 108 124
93 105 122
90 102 117
86 97 112
85 97 113
82 93 108
76 86 100
67 77 89
56 63 73
53 61 70
47 53 62
41 47 54
30 34 39
16 18 21
21 24 28
30 35 40
45 51 59
52 59 68
54 62 71
56 64 73
60 68 79
62 70 81
67 76 88
66 75 86
64 72 84
63 72 84
62 70 81
65 74 85
69 78 91
71 80 93
71 81 93
70 80 92
72 82 96
70 79 92
67 76 87
63 71 82
63 71 82
62 70 82
55 63 73
55 62 72
56 64 74
61 70 81
65 74 86
66 75 86
69 79 91
73 83 96
76 86 100
78 88 101
80 91 105
81 91 106
86 98 113
83 95 110
88 100 116
89 101 118
89 102 118
93 105 122
97 109 126
93 106 123
92 103 119
85 97 113
85 97 112
80 92 107
78 89 103
75 85 98
68 78 90
61 70 81
53 60 70
50 56 65
47 53 62
39 45 52
31 35 41
31 35 41
37 42 49
43 49 57
51 58 67
54 61 71
61 69 80
62 71 81
61 69 80
59 67 77
58 66 76
55 62 72
57 64 74
55 62 72
48 55 64
40 46 53
39 44 51
36 41 48
32 37 42
27 30 35
15 17 20
15 17 20
17 20 23
20 22 26
23 26 30
17 19 22
19 22 26
33 37 43
47 53 61
55 62 72
61 70 80
62 71 82
67 75 87
74 84 97
78 89 103
83 94 109
83 94 109
88 100 116
94 106 123
94 107 124
93 106 123
94 107 124
93 105 122
92 104 120
91 103 119
91 104 121
90 102 118
89 101 116
82 93 108
78 89 103
76 87 100
74 84 97
71 81 93
70 80 93
68 78 90
71 81 93
73 84 97
77 87 101
72 81 94
67 76 88
60 68 79
58 66 77
57 64 74
57 64 74
56 64 74
57 65 75
55 63 73
50 57 66
46 52 60
45 51 59
45 50 58
43 49 57
39 44 51
34 38 44
22 25 29
20 23 27
31 35 41
37 43 50
40 46 53
41 46 54
38 43 50
36 42 48
32 36 42
26 29 34
31 35 40
37 41 48
48 54 63
61 70 81
67 76 88
76 86 100
80 91 106
85 97 111
88 100 116
88 100 116
91 103 118
92 104 120
94 106 123
90 102 118
91 104 121
94 107 123
90 102 118
85 97 113
86 98 113
85 96 110
82 93 107
83 94 109
78 89 103
78 88 102
70 80 92
66 75 87
57 65 75
49 56 64
46 52 61
41 47 55
32 37 42
32 36 42
32 37 42
33 38 45
40 45 53
36 41 48
33 38 44
34 38 45
34 39 45
38 43 50
40 45 53
42 48 55
36 41 47
36 41 47
30 35 40
27 30 35
22 25 29
21 24 27
32 37 43
49 55 64
53 61 70
55 62 72
58 66 76
55 63 73
54 61 71
54 61 71
53 61 70
54 62 71
60 68 78
60 69 80
62 71 82
62 71 82
60 68 79
59 67 78
56 64 74
50 56 65
37 42 49
26 29 34
20 22 26
25 29 33
30 34 39
28 31 36
24 28 32
27 31 36
26 30 35
22 25 29
21 24 27
103 116 134
101 115 134
100 114 132
98 112 130
99 113 130
101 115 132
98 112 129
98 112 130
101 115 133
103 116 135
103 116 135
102 116 135
100 114 131
103 117 135
100 113 131
95 108 125
90 102 118
82 93 108
77 87 101
72 81 94
66 75 86
56 63 74
41 46 53
21 24 27
31 35 40
41 46 53
51 58 67
60 68 78
66 75 86
67 77 89
67 76 88
70 79 91
71 81 94
70 80 93
71 81 93
73 83 96
73 83 96
74 83 96
70 79 91
63 72 83
58 66 76
52 60 69
48 55 63
49 56 65
46 53 61
43 49 56
38 43 50
31 36 42
27 30 35
25 29 33
22 24 28
20 23 27
19 21 25
17 19 22
25 28 32
32 37 43
40 46 53
37 42 49
34 39 45
31 35 41
27 31 36
36 41 48
48 54 63
56 63 73
63 72 84
70 79 91
71 81 93
74 84 97
78 89 102
84 95 110
89 101 117
90 103 119
92 105 122
96 109 126
98 112 130
105 119 138
109 123 142
111 126 146
112 127 147
117 132 153
118 134 155
120 135 156
122 137 158
116 133 154
125 142 163
121 136 157
123 140 161
124 141 163
124 141 163
123 140 162
118 134 155
119 135 156
117 132 153
111 126 146
111 126 146
107 122 141
104 119 138
103 116 134
101 115 132
97 111 129
97 110 127
90 103 119
88 100 116
85 96 111
86 97 111
85 96 112
83 94 109
88 99 115
87 99 114
87 99 114
88 100 116
86 98 113
83 94 109
83 94 109
85 97 112
84 95 110
87 98 113
82 93 108
80 91 105
81 92 107
79 90 104
81 92 106
85 97 112
86 98 113
87 99 115
87 99 114
86 98 113
85 97 112
82 94 108
75 85 99
79 90 104
79 90 104
78 89 103
78 89 103
76 86 100
80 91 106
79 90 103
80 91 105
78 89 103
80 91 105
82 93 107
82 94 109
85 97 112
86 98 113
83 94 109
79 90 104
74 83 96
74 84 98
70 80 93
68 77 89
65 74 85
62 71 83
59 67 77
56 64 74
58 66 76
56 64 74
58 66 76
62 70 81
59 68 78
59 67 78
62 71 82
72 82 94
76 86 100
84 95 110
87 99 114
90 102 118
90 102 118
96 109 127
98 111 128
96 109 126
92 105 122
91 104 120
92 104 121
89 102 118
88 99 114
87 99 114
84 95 110
77 88 102
73 83 96
64 73 84
56 64 73
46 52 61
35 40 47
24 28 32
18 21 24
25 29 33
37 42 48
45 51 59
51 58 67
53 60 70
55 63 72
60 69 79
64 73 85
63 72 83
64 73 84
61 70 82
61 69 80
62 71 82
64 73 84
61 70 82
60 68 79
54 61 70
50 57 66
41 47 54
32 36 42
22 25 29
28 32 38
30 34 39
33 38 44
29 33 38
20 22 26
27 31 36
31 35 41
35 40 46
35 40 46
41 47 54
44 50 58
51 58 67
52 60 69
54 62 71
57 64 75
60 68 79
64 73 85
66 75 86
71 80 93
74 84 97
75 85 98
75 86 99
75 85 99
71 81 94
70 80 92
66 75 87
64 73 84
57 65 75
49 56 64
30 34 40
29 33 38
34 39 46
43 49 56
52 59 68
61 69 80
66 75 87
73 83 96
78 88 102
77 87 101
77 87 100
78 88 102
79 89 103
77 87 100
73 83 95
72 81 94
66 75 87
61 69 80
55 62 72
51 58 67
39 44 51
28 32 37
15 18 20
17 19 23
25 28 33
30 35 40
27 31 35
17 19 22
15 17 20
21 24 27
26 29 34
34 39 45
45 51 60
60 68 79
68 77 90
72 82 95
73 82 95
70 80 93
75 85 98
79 90 104
84 96 111
89 102 118
91 103 120
93 106 123
95 108 125
93 106 123
94 106 123
94 107 124
94 107 123
89 101 117
85 97 111
83 94 109
80 91 105
78 89 103
74 84 97
70 80 92
64 73 84
63 71 82
62 70 81
65 74 85
62 71 82
61 69 80
58 67 77
52 59 68
44 50 58
38 43 50
35 40 47
30 34 39
27 31 36
31 36 42
33 38 43
36 41 48
30 35 40
22 26 30
31 35 41
36 41 48
38 43 49
41 47 55
40 46 53
43 50 58
49 56 64
48 54 63
49 55 63
50 56 65
53 60 70
56 64 73
54 61 70
45 51 59
35 40 46
19 22 25
19 21 24
32 37 43
46 52 61
59 66 77
69 78 90
75 85 99
79 90 103
78 89 103
80 91 105
82 93 107
83 94 109
79 90 104
79 90 105
76 86 99
72 81 94
71 80 93
70 80 93
70 80 93
67 77 89
64 72 83
60 68 79
57 65 75
53 60 69
48 55 63
43 49 57
33 37 43
17 19 22
33 38 44
40 45 52
42 47 55
39 44 51
43 49 57
45 51 59
44 50 59
47 53 62
47 54 62
51 58 67
55 63 73
58 66 76
61 70 81
66 75 87
70 79 91
69 78 90
67 76 88
64 73 84
65 75 86
63 71 82
66 75 87
71 81 94
73 83 96
76 86 100
75 86 100
76 86 100
77 87 101
81 91 105
81 92 106
82 93 107
81 92 107
81 92 106
80 91 105
77 87 101
74 84 97
72 81 94
68 78 90
64 72 82
56 64 74
50 56 65
43 49 57
43 49 57
35 39 46
29 33 38
26 30 34
23 27 31
16 18 21
14 17 19
86 97 113
85 97 112
87 99 115
86 98 114
85 97 113
86 98 113
83 94 109
80 90 104
78 89 102
81 92 107
81 92 107
84 95 110
85 96 112
83 94 109
85 97 112
80 91 106
77 87 100
73 82 95
65 74 86
55 62 72
53 60 69
41 46 53
29 33 38
37 42 49
53 61 70
61 70 81
72 83 96
77 87 101
79 90 104
80 90 104
83 94 108
81 93 107
83 95 110
88 100 115
90 102 118
85 97 112
82 93 108
80 91 105
73 82 95
61 70 81
51 58 67
44 51 59
38 43 50
29 33 39
25 28 33
18 21 24
18 20 23
23 26 30
32 37 42
36 41 48
35 39 46
33 38 44
37 43 49
37 43 50
32 37 42
31 35 41
31 35 41
30 34 40
28 32 37
26 30 35
26 29 34
27 31 36
33 37 43
43 49 56
54 62 72
64 73 85
73 82 95
77 87 100
82 93 108
85 97 112
92 104 120
94 108 125
99 113 130
102 115 133
106 120 139
109 124 143
112 127 147
113 128 149
113 128 148
111 127 147
116 131 152
119 134 154
118 134 155
122 138 159
124 141 164
122 139 161
126 143 165
121 138 160
122 139 160
122 139 160
114 130 152
113 128 149
112 128 147
112 127 147
112 127 147
109 124 143
107 121 139
101 115 134
98 111 128
96 109 126
96 108 125
95 108 125
94 107 123
96 109 126
95 108 125
100 114 132
101 115 133
103 118 137
102 116 135
102 116 134
100 114 132
102 116 134
102 116 133
103 116 134
100 114 132
103 117 136
105 120 138
104 118 137
100 114 132
100 114 133
103 118 136
104 117 135
108 122 141
106 120 139
107 122 141
106 121 140
109 125 145
107 122 142
109 123 142
105 119 138
103 117 136
101 115 133
98 111 128
97 110 127
92 104 120
88 100 116
89 102 118
88 100 116
91 103 119
94 107 125
94 108 125
95 108 125
95 108 125
93 105 121
94 107 124
93 106 123
90 103 120
89 101 116
85 96 111
80 92 106
79 89 103
76 87 101
74 84 97
73 82 95
68 77 90
69 78 89
65 73 84
59 67 77
58 66 76
61 70 81
67 77 89
76 86 99
80 91 106
85 96 111
92 103 119
93 106 123
97 110 127
100 114 131
101 114 132
96 109 126
92 105 122
95 108 125
93 105 122
93 105 121
89 100 115
85 97 112
79 90 104
77 88 101
73 83 96
71 80 93
65 74 86
58 65 76
50 56 65
37 42 48
20 23 26
23 26 31
32 36 42
40 45 52
48 54 63
49 55 64
53 60 70
58 65 75
61 69 80
58 66 77
57 65 75
55 62 72
47 54 63
43 49 57
39 44 52
35 39 45
31 35 41
28 32 37
32 37 42
36 41 47
36 41 48
40 45 52
44 50 57
46 52 60
49 56 65
51 58 67
49 56 65
45 52 60
42 47 55
37 42 48
39 44 51
35 40 46
29 33 38
23 27 31
22 26 30
17 19 22
14 16 18
20 23 26
23 26 30
24 27 31
37 42 48
48 54 63
51 58 67
58 66 76
63 72 83
66 74 86
65 73 85
64 73 85
63 72 83
55 62 72
41 46 54
24 28 32
24 27 32
42 48 56
52 59 68
66 74 86
70 80 92
70 79 91
70 79 91
69 78 90
68 78 90
70 80 93
67 76 88
67 77 89
71 81 94
73 83 96
68 78 90
65 74 86
64 72 82
59 67 77
59 67 77
57 64 75
54 61 71
48 55 63
44 51 59
35 40 47
30 34 39
29 33 38
28 32 37
34 39 45
40 46 53
47 54 62
52 59 69
64 73 84
70 79 92
79 90 104
83 94 109
85 96 111
85 97 113
84 95 110
86 98 113
86 97 112
84 95 110
83 95 109
83 94 109
82 93 108
79 90 104
80 92 107
81 92 106
82 94 109
85 97 112
86 97 113
83 94 110
81 92 106
77 87 101
74 84 98
75 85 98
75 85 98
73 82 95
68 77 89
60 69 79
56 64 74
51 58 67
48 54 63
41 46 54
36 41 47
32 36 42
23 26 30
20 23 26
23 26 30
20 23 26
22 25 28
27 31 36
33 37 43
40 46 54
48 54 63
54 61 71
62 70 80
66 75 87
68 78 91
74 84 98
77 87 101
81 92 107
79 90 104
72 82 95
67 77 89
62 70 81
63 71 82
60 68 79
55 62 72
46 53 61
35 39 45
25 29 33
35 40 46
51 58 67
62 71 83
67 76 88
68 77 89
66 75 87
62 70 82
66 75 87
70 79 91
73 83 97
75 86 100
74 84 98
74 84 97
76 86 100
73 83 96
72 82 95
67 76 89
64 73 84
63 72 83
61 70 82
59 67 77
49 56 65
41 47 54
35 40 47
31 35 41
29 33 38
30 35 40
31 35 40
36 40 47
46 53 61
50 56 65
52 59 69
58 66 76
62 70 81
66 75 88
74 84 98
76 87 101
82 94 109
87 99 114
91 104 120
95 108 124
96 110 127
99 112 130
101 115 132
98 112 130
97 111 128
96 109 127
94 107 124
94 106 122
91 103 119
89 101 116
86 98 113
84 95 110
83 95 109
85 96 110
84 96 110
87 99 114
85 97 112
84 95 110
82 93 108
79 90 104
74 84 97
73 83 96
69 79 91
67 76 88
64 73 85
62 70 81
61 70 80
63 72 83
61 70 80
57 65 75
50 57 66
43 49 57
60 69 79
58 65 75
53 61 71
54 61 70
49 56 64
43 49 56
42 48 55
39 45 52
38 43 50
37 43 49
41 47 54
46 52 60
48 55 64
53 59 69
52 59 69
46 53 61
41 46 53
35 40 47
35 40 46
37 42 48
44 49 57
48 55 64
59 67 77
69 78 91
75 85 98
80 90 104
82 94 108
81 92 106
79 90 103
74 84 97
78 89 103
83 94 108
87 99 115
90 102 118
89 100 116
87 99 114
84 96 111
82 92 106
75 86 99
67 76 88
60 68 79
53 60 70
45 51 59
38 43 50
25 28 32
18 20 23
30 34 40
33 38 44
38 42 49
41 46 53
43 49 56
43 48 56
40 45 52
34 39 45
28 32 37
21 25 28
33 37 43
39 44 51
39 44 51
35 39 45
32 37 42
35 40 47
40 46 53
48 55 63
59 67 78
70 80 92
77 88 102
87 99 114
93 105 122
101 114 132
105 119 138
106 121 139
108 123 142
107 122 141
111 126 146
117 133 153
114 129 149
114 129 150
115 131 153
116 132 154
116 132 153
115 131 151
117 133 154
114 129 150
119 135 156
118 134 155
121 137 158
115 131 151
118 133 153
111 126 146
113 128 148
109 124 144
107 122 141
104 118 137
103 117 135
101 115 133
102 116 134
100 114 131
98 112 130
101 115 133
103 117 136
102 116 135
108 122 140
107 122 141
111 125 144
112 127 147
112 128 148
115 131 152
114 130 151
112 127 146
107 121 140
110 124 143
101 115 133
104 118 137
105 119 138
107 122 141
108 123 143
110 124 143
111 127 147
116 131 151
118 133 154
116 132 152
115 132 153
117 133 154
120 135 156
121 137 158
118 135 157
122 138 159
120 136 157
120 136 158
115 131 151
108 124 143
110 125 144
107 122 141
105 119 137
103 117 134
106 120 139
103 117 135
105 119 137
105 119 138
107 121 140
106 120 139
103 117 135
100 114 132
99 112 130
96 109 126
95 108 125
90 102 118
89 101 116
86 97 113
83 94 108
81 92 106
80 91 105
78 89 103
79 90 104
78 88 102
82 92 106
79 90 104
76 86 100
77 88 102
81 93 108
84 95 110
86 98 114
92 104 120
95 108 125
100 113 131
102 116 135
102 116 135
98 112 130
98 112 129
96 109 126
96 110 127
92 104 120
91 104 120
86 97 112
80 91 105
74 84 97
70 80 93
63 72 83
60 67 78
53 60 69
46 53 61
40 45 53
35 39 46
19 22 25
24 27 31
40 46 53
49 56 64
51 58 67
50 57 67
51 58 67
54 62 71
60 68 78
59 67 78
60 68 79
59 67 77
53 60 70
45 51 60
32 36 42
17 20 23
24 28 32
37 42 48
47 54 62
54 61 71
59 68 79
62 70 81
63 72 83
65 74 85
70 80 92
69 78 90
69 79 91
68 77 89
67 75 87
67 75 87
65 74 85
60 69 80
55 62 72
51 58 67
44 50 59
44 50 58
45 51 59
41 46 54
35 40 46
28 32 37
20 23 27
22 25 29
34 39 45
40 46 53
46 53 61
54 61 71
54 61 71
54 61 71
53 60 69
45 52 60
30 34 39
25 29 33
45 52 60
53 60 70
57 65 75
67 76 88
72 82 94
74 84 98
74 85 99
72 82 95
71 80 93
71 81 94
74 84 98
74 84 97
77 87 101
77 87 101
76 86 100
79 89 103
76 87 101
75 85 99
73 83 96
69 79 91
68 77 89
67 76 88
64 73 84
57 64 74
52 59 68
51 57 66
54 61 71
52 59 68
57 65 75
61 70 80
66 75 87
73 83 96
77 88 101
85 96 111
88 100 115
88 101 117
92 105 121
92 105 122
86 98 113
82 94 109
78 89 103
76 86 99
75 85 98
74 84 97
74 83 96
76 87 101
78 89 103
81 92 106
81 93 107
86 97 112
81 92 106
76 87 101
75 85 99
71 80 93
70 80 92
67 76 88
66 76 88
65 74 86
61 70 80
55 63 73
47 54 62
39 44 51
29 33 38
22 25 29
26 30 35
29 33 39
31 36 42
36 40 47
39 44 51
39 44 51
40 45 52
39 44 51
46 52 61
53 60 70
59 67 78
61 70 80
61 70 81
66 75 88
77 88 102
84 95 110
86 98 114
89 101 117
89 101 117
84 96 112
81 92 107
77 87 101
67 77 89
59 68 78
53 61 70
47 54 62
34 39 45
24 27 31
25 29 33
32 36 42
35 39 45
41 47 54
44 50 58
48 55 63
59 66 76
62 70 81
65 74 85
66 75 87
67 76 88
68 77 90
70 80 92
70 79 92
66 75 87
62 71 82
58 66 77
54 62 71
52 59 68
47 53 62
41 46 53
32 36 42
30 34 40
30 34 40
38 43 50
40 45 52
36 40 47
25 28 33
21 24 28
39 44 51
51 58 68
62 71 82
72 82 95
78 89 103
81 92 106
83 95 110
85 97 112
92 105 121
94 106 122
97 110 128
101 115 133
107 121 139
108 122 141
108 122 141
105 119 138
105 119 137
101 114 132
103 117 135
97 111 128
96 108 125
92 104 121
93 106 122
90 102 118
88 100 116
86 97 113
88 100 116
89 101 117
88 100 116
92 104 120
90 102 118
91 103 119
90 102 119
86 98 113
81 92 107
77 87 101
75 85 98
73 83 96
72 82 95
70 80 92
67 76 88
64 73 84
58 65 75
19 21 25
30 34 39
44 51 59
55 62 72
62 70 81
61 70 81
59 67 78
59 67 77
60 68 78
62 70 81
62 71 82
59 67 78
58 66 76
59 67 77
62 71 82
67 76 87
74 84 97
74 84 97
77 88 102
76 86 99
75 85 98
74 84 98
74 84 97
78 88 101
81 92 106
82 93 108
82 93 107
81 93 108
80 91 106
82 93 107
81 92 107
80 90 105
80 91 105
79 89 103
76 86 99
72 82 95
68 78 90
65 74 85
62 71 81
61 69 80
58 66 76
54 61 71
46 53 61
38 43 49
22 25 29
20 23 27
26 29 34
30 34 39
32 37 43
34 38 44
34 39 45
36 41 48
40 45 53
39 44 51
31 36 41
33 38 44
36 41 47
46 52 60
50 57 66
52 59 68
56 64 74
61 69 81
68 77 89
73 83 96
83 94 108
90 102 118
97 110 128
103 117 136
104 119 138
107 121 140
110 125 144
113 128 149
111 126 146
110 125 145
114 130 150
118 134 155
117 134 155
118 134 155
114 130 150
115 130 151
113 129 150
116 132 153
117 133 154
115 131 152
116 132 153
115 130 151
109 125 145
109 125 145
108 122 141
105 120 139
102 116 134
101 115 133
98 112 130
100 113 131
102 116 133
102 116 135
101 114 132
99 113 132
104 118 137
108 123 142
110 124 144
110 125 144
113 128 148
111 127 147
112 126 146
118 133 154
116 132 154
115 131 152
115 131 152
115 130 150
111 127 147
111 126 145
109 124 144
110 125 145
110 124 143
109 124 143
112 127 146
114 129 150
117 133 154
121 138 160
122 139 162
121 137 158
122 139 160
124 141 163
127 144 166
123 141 163
125 142 165
120 136 158
120 136 156
113 129 149
112 127 146
111 126 145
112 127 147
110 126 146
110 125 144
104 118 137
106 121 141
107 121 141
109 124 143
109 123 142
111 126 146
110 125 144
108 124 143
106 121 139
103 118 137
102 116 134
102 116 134
103 117 134
102 116 134
101 115 133
96 109 126
96 109 125
91 103 119
86 97 112
86 98 113
87 99 115
89 101 117
87 99 115
90 102 118
91 103 120
93 106 124
95 108 125
95 108 124
98 111 128
98 112 130
101 115 133
100 114 131
101 115 133
101 116 134
98 112 129
94 108 125
93 106 123
89 102 118
84 96 112
80 91 105
74 84 97
71 81 94
67 77 89
60 69 80
57 64 75
51 58 67
40 46 53
31 35 41
20 22 26
19 21 24
29 34 39
35 39 45
34 39 45
33 38 43
37 42 49
44 50 57
49 56 65
55 63 73
53 61 70
50 56 65
50 57 66
47 54 62
46 53 61
42 48 56
39 44 51
25 29 33
21 24 28
38 43 49
45 52 60
53 60 70
55 63 73
56 64 74
61 70 81
70 79 91
75 85 97
77 88 103
74 84 97
73 83 96
74 84 97
77 88 102
77 87 101
76 86 99
72 82 95
71 80 93
67 76 88
62 71 83
59 67 78
52 59 68
49 56 65
51 58 67
50 57 66
49 55 64
47 54 62
46 53 61
45 51 59
48 55 64
45 51 59
50 57 66
50 56 65
51 59 68
55 62 72
61 69 80
69 78 91
73 82 95
74 84 97
75 86 100
79 90 105
80 92 106
83 94 108
88 100 115
88 100 116
91 103 118
89 101 117
93 105 121
91 103 120
93 106 123
93 105 121
93 105 121
90 103 119
84 96 111
81 93 108
81 92 107
81 92 106
79 90 104
78 88 101
76 86 100
71 81 94
72 82 95
69 78 90
72 83 96
71 80 93
73 83 96
73 83 97
73 83 96
73 83 96
76 87 101
78 89 103
81 92 106
81 92 107
79 90 104
75 85 99
70 80 93
65 74 86
60 68 79
60 68 79
61 69 80
61 69 80
63 72 83
63 72 83
70 80 92
72 81 94
76 87 100
76 86 100
75 86 99
73 83 96
72 81 94
68 77 88
66 75 87
62 70 81
60 68 79
57 65 75
52 59 68
44 50 58
32 36 42
19 22 25
27 30 35
41 46 53
51 58 67
55 62 72
55 63 73
56 64 74
54 62 72
56 64 74
58 66 76
64 72 83
68 77 89
74 84 97
77 87 101
74 84 97
79 89 103
82 93 107
88 99 115
86 98 114
87 99 114
86 99 115
87 99 115
87 99 114
83 94 108
79 89 103
74 84 97
69 78 90
64 72 84
58 65 75
50 57 66
46 52 60
39 45 52
32 36 42
17 20 23
31 35 41
44 49 57
51 58 68
52 60 69
56 63 73
57 65 75
62 71 82
65 75 86
67 76 89
63 72 82
56 63 74
48 55 64
44 51 59
40 46 53
34 38 45
31 35 40
24 28 32
21 24 28
28 31 36
34 38 44
34 39 45
30 35 40
27 31 36
39 45 52
55 63 73
66 75 86
76 87 101
85 96 110
89 101 117
91 104 120
95 108 125
101 115 134
105 119 137
107 122 141
109 124 144
110 125 145
111 126 145
108 122 142
110 125 145
110 124 143
111 126 146
113 129 148
111 126 146
108 123 142
104 118 137
106 121 139
102 116 135
100 114 132
94 106 123
91 104 120
89 100 115
88 100 116
88 100 115
88 100 116
87 98 114
84 96 112
84 95 109
83 94 108
83 94 109
81 92 106
78 89 102
75 86 99
73 84 97
73 83 96
69 79 91
67 76 88
63 72 83
44 49 57
49 55 64
50 57 67
54 61 71
57 64 74
57 65 76
59 67 78
65 73 85
70 79 91
72 81 94
77 88 101
80 91 105
83 95 110
86 98 113
88 99 114
85 97 111
83 94 109
83 94 108
81 92 107
80 91 105
73 83 97
71 81 94
71 81 94
70 80 92
71 81 94
73 83 96
75 86 99
76 87 100
76 87 101
75 85 98
69 78 91
63 72 84
64 72 84
64 73 84
64 73 85
64 73 84
63 71 82
60 69 79
59 66 77
56 64 74
54 61 71
53 60 70
48 54 63
45 51 58
38 43 50
32 36 42
25 28 32
20 23 27
26 30 34
39 44 51
48 55 64
59 67 77
62 71 82
63 71 82
64 72 84
62 70 81
62 70 81
63 72 84
65 74 86
70 79 92
73 82 95
71 82 95
76 87 101
85 96 111
92 104 120
98 110 127
105 119 137
110 125 144
113 128 148
116 132 153
114 129 149
118 134 155
116 132 153
115 131 151
119 134 155
117 133 154
117 134 155
120 136 157
120 136 157
117 133 153
117 133 154
115 131 152
118 133 153
112 128 148
107 122 142
106 120 139
106 120 139
106 121 140
104 118 137
102 116 134
106 121 140
107 122 141
109 124 143
105 120 139
110 125 145
113 127 147
112 127 147
112 127 146
113 129 149
114 131 152
113 128 149
115 130 150
115 130 151
116 132 153
121 137 159
124 142 164
125 143 166
123 140 162
123 140 162
121 137 158
119 135 155
119 135 156
111 127 147
113 128 147
109 124 144
112 127 147
112 128 148
113 128 148
114 129 150
116 132 152
117 132 152
118 133 154
115 131 152
115 131 152
112 128 149
113 128 148
113 128 148
112 128 148
109 124 143
108 122 142
105 119 139
106 120 139
105 120 139
107 122 140
105 120 138
104 118 136
102 116 134
100 114 132
100 114 132
102 116 135
104 118 136
105 119 137
102 115 133
102 116 135
104 118 138
106 120 139
106 120 138
105 120 138
99 113 130
98 112 129
97 110 128
98 111 128
96 109 126
95 108 125
92 104 121
90 102 117
89 101 116
87 99 114
87 99 114
87 99 115
85 96 111
84 96 111
89 101 117
90 103 118
91 103 120
96 109 126
95 109 126
97 110 128
92 105 121
89 101 117
87 98 113
85 97 112
80 91 105
77 87 101
73 83 96
73 83 96
68 78 90
62 70 81
54 62 72
51 58 67
44 51 59
37 42 49
29 32 37
22 25 30
21 24 27
20 22 26
19 22 25
23 26 30
27 31 36
33 38 44
32 36 42
31 35 41
28 32 38
22 25 29
24 27 32
27 30 35
29 33 38
31 35 41
30 34 40
26 30 35
17 19 22
27 31 36
37 43 50
40 45 52
43 49 57
47 53 61
46 53 62
51 58 67
53 60 70
56 64 73
55 63 73
55 63 73
65 74 85
68 78 90
72 82 95
73 83 95
75 86 99
75 86 99
76 86 100
75 85 99
76 85 98
73 83 96
69 79 92
70 80 92
68 78 91
74 84 97
75 85 99
81 93 107
84 96 111
85 96 111
90 101 117
88 100 115
85 96 111
88 100 115
91 103 118
90 102 118
91 103 119
94 108 125
97 109 126
97 111 129
96 108 125
97 110 127
97 109 126
97 110 127
100 114 132
102 115 133
103 117 135
103 117 136
101 115 133
101 115 133
102 116 134
101 114 131
104 117 135
102 116 134
102 116 134
101 115 132
101 115 133
98 111 128
96 109 126
91 103 119
89 101 117
89 101 116
85 97 112
83 95 110
83 95 109
81 93 108
78 89 104
76 86 100
73 83 97
72 82 95
70 80 93
70 79 91
70 80 93
66 75 87
62 71 82
56 64 74
52 59 68
50 57 66
43 49 57
40 46 53
38 43 50
37 42 48
33 37 44
36 40 47
38 43 50
49 56 65
57 65 75
57 66 76
58 66 76
61 69 79
64 73 84
64 73 84
61 70 81
53 60 70
47 53 61
45 51 59
41 46 53
38 44 51
27 31 36
17 19 22
30 34 39
43 49 57
47 53 62
50 57 66
55 63 72
55 63 73
56 64 74
57 65 76
60 68 79
64 73 84
68 77 89
74 84 98
76 87 101
80 91 105
80 91 105
81 92 106
85 97 113
86 98 113
85 97 112
83 94 109
82 93 107
82 93 108
78 88 102
76 87 100
73 83 96
74 84 97
76 87 100
75 85 99
72 82 95
68 77 89
61 69 79
44 50 58
31 36 42
29 34 39
32 37 43
37 42 49
43 49 57
50 57 66
52 60 69
55 63 72
55 63 73
55 62 72
56 63 73
57 65 75
55 62 72
48 55 64
41 46 53
32 37 42
24 27 32
24 27 32
31 35 41
35 40 46
34 38 45
38 43 50
42 48 55
51 57 66
61 69 80
70 79 92
79 90 104
85 97 112
91 104 121
96 109 126
101 115 133
106 119 137
109 124 144
116 131 151
118 133 154
118 134 155
115 130 151
115 130 150
117 132 153
116 131 152
117 133 154
118 134 154
114 129 150
109 124 144
106 120 139
108 123 142
106 120 139
106 120 139
102 116 135
101 115 134
97 110 128
92 105 122
91 104 120
89 102 117
90 103 119
89 102 118
91 103 119
93 105 121
92 105 121
93 106 123
92 104 121
90 102 117
84 95 109
80 91 106
77 88 102
77 88 101
74 84 98
71 81 94
27 31 36
32 37 43
38 44 50
39 44 52
42 48 55
46 53 62
53 60 70
59 67 77
62 70 80
66 75 87
68 78 90
72 82 95
75 86 100
76 87 101
76 86 100
75 85 99
74 84 97
74 84 97
72 82 95
70 80 92
70 80 92
69 78 90
72 82 94
70 80 93
70 80 92
73 83 95
74 84 97
74 84 97
73 82 95
72 83 96
73 83 96
71 80 93
74 83 96
72 82 95
69 78 91
70 79 92
69 78 91
66 75 87
60 68 79
61 69 80
59 67 77
56 63 74
49 55 64
39 45 52
31 36 42
23 26 30
21 24 28
33 38 43
39 44 51
48 54 62
55 63 73
61 70 81
65 73 84
66 75 87
71 81 94
76 86 100
82 94 109
85 96 111
88 100 116
92 105 121
96 109 126
100 114 132
101 114 132
99 113 130
106 121 140
109 123 142
109 123 142
109 123 142
111 126 146
111 126 146
112 126 146
111 126 146
110 125 144
112 127 147
116 132 153
120 136 158
125 142 164
126 144 166
122 139 160
126 143 165
120 136 157
123 140 162
122 138 158
121 137 158
114 130 151
113 129 149
114 130 150
116 131 151
113 128 147
117 133 154
117 132 153
122 137 158
117 133 154
118 134 155
121 138 160
122 139 160
124 141 163
125 141 163
125 142 164
124 140 162
119 135 156
119 135 156
122 138 160
120 137 158
125 142 164
125 142 165
123 139 160
117 133 153
119 135 156
119 135 156
118 135 157
116 132 153
116 131 152
112 127 147
114 129 149
110 124 144
111 125 144
109 124 144
109 124 144
111 126 146
112 127 147
114 129 150
115 130 150
115 130 149
113 129 150
110 125 145
110 125 144
109 124 144
109 124 143
107 121 140
105 120 139
106 121 140
103 118 136
104 117 135
101 115 133
101 115 133
101 114 133
103 117 135
103 117 136
99 112 130
100 114 131
97 110 128
97 109 126
97 110 128
98 111 128
96 109 126
96 110 127
96 109 126
94 107 124
95 107 124
91 103 120
93 106 122
92 104 120
93 106 123
93 106 123
90 102 117
86 97 113
84 95 110
82 93 107
78 89 102
72 82 94
67 77 89
67 76 88
67 76 88
67 76 88
67 76 88
69 78 90
68 77 89
70 80 92
68 77 90
63 71 83
59 67 77
52 59 69
44 50 58
38 43 50
37 42 48
33 38 44
34 38 45
33 37 43
29 33 38
24 27 32
22 25 29
23 26 30
31 35 40
36 41 48
39 45 52
42 48 56
42 48 56
39 45 52
38 43 50
36 41 48
37 43 49
39 44 50
37 42 49
37 43 50
38 43 49
36 41 47
33 38 44
30 34 40
27 31 36
17 20 23
26 29 34
28 32 37
31 35 40
30 35 40
30 34 39
34 38 44
38 43 49
37 43 49
32 37 43
30 34 40
37 41 48
43 50 57
52 59 68
58 66 76
65 75 86
69 78 90
75 85 98
77 87 101
76 86 99
78 89 103
80 90 104
82 93 107
84 96 111
83 95 110
83 94 108
86 98 114
88 100 116
93 106 123
96 109 126
98 110 127
101 114 132
105 119 138
107 121 140
109 123 142
106 120 139
108 122 141
106 121 140
109 124 144
109 123 143
110 124 143
111 126 145
110 125 144
111 127 147
113 128 148
114 130 149
114 129 149
114 129 149
109 124 143
111 127 147
106 121 140
110 125 145
109 124 143
106 121 140
108 123 142
109 123 142
106 120 139
103 118 137
103 117 134
103 117 135
101 115 133
97 110 127
93 105 121
91 103 119
86 98 114
89 101 117
88 100 115
86 97 113
80 91 106
76 87 100
69 78 90
61 69 80
55 63 74
50 57 66
46 52 60
40 45 52
34 39 45
32 37 43
31 35 41
28 32 37
19 21 24
26 30 34
31 36 41
30 34 39
21 24 27
25 28 32
37 42 49
43 50 58
48 54 63
54 61 71
57 65 75
59 67 77
59 66 77
57 65 75
54 62 72
49 55 64
46 52 60
45 51 59
44 50 58
35 40 46
24 28 32
22 25 29
34 39 46
45 51 59
51 58 67
55 62 72
54 61 70
52 59 68
49 56 65
49 56 65
51 58 68
55 62 72
59 68 78
60 68 79
60 67 77
56 64 74
62 70 81
66 75 87
69 79 92
71 81 94
72 82 95
77 88 101
79 90 103
79 90 105
83 95 110
87 98 113
87 98 114
86 97 113
86 98 114
84 95 110
79 89 103
70 79 91
60 69 79
53 60 70
47 53 61
35 40 47
22 25 29
21 24 28
33 37 44
42 47 55
41 47 54
36 42 48
37 42 49
40 46 53
47 53 62
42 47 55
34 38 44
20 23 26
24 28 32
35 39 46
44 50 57
48 55 64
55 63 73
59 68 78
62 70 82
69 78 91
73 83 97
78 89 102
79 90 104
83 95 109
90 103 119
95 107 124
99 112 130
105 119 138
108 123 142
111 126 146
118 134 156
120 136 158
119 136 158
122 138 159
124 141 163
122 138 159
122 139 162
122 138 160
122 137 158
114 130 151
111 126 147
110 125 144
110 125 144
109 124 144
105 119 138
100 114 132
97 110 128
95 108 124
95 109 126
95 109 126
96 109 126
97 110 128
94 107 125
96 109 126
94 107 124
94 107 123
95 107 124
93 106 123
95 108 124
92 105 122
88 101 116
88 101 117
87 98 114
82 93 108
18 21 24
23 26 30
25 28 33
27 31 36
26 29 34
25 29 33
34 39 45
46 52 60
52 59 68
56 64 74
60 68 78
65 73 85
68 77 89
69 79 91
68 78 90
69 79 91
71 80 93
73 83 96
72 82 95
76 86 99
77 88 102
77 87 100
80 91 105
82 93 108
82 94 108
81 92 106
79 90 104
79 89 102
74 84 98
74 84 97
72 82 95
71 80 92
69 78 91
65 74 86
64 73 84
59 67 77
56 64 74
53 60 70
51 58 67
53 61 70
53 60 69
55 63 73
51 58 67
47 53 62
44 50 58
42 47 54
37 42 49
29 33 38
19 22 26
22 26 30
36 41 47
46 52 60
54 61 71
62 70 80
68 77 90
74 84 97
83 94 109
89 102 118
97 110 128
101 114 132
103 117 135
107 121 140
108 123 141
107 121 140
109 124 143
111 125 145
110 126 147
110 125 145
108 123 142
109 124 144
109 124 144
110 125 145
112 127 147
112 128 148
114 130 150
114 130 151
115 130 151
116 131 151
115 131 153
116 132 152
116 133 154
115 131 151
119 135 155
118 135 156
115 131 152
120 137 158
121 137 159
119 135 157
126 142 164
125 142 165
125 141 162
123 139 160
120 136 157
120 136 157
119 135 157
117 133 154
117 134 155
119 135 156
119 136 158
118 135 156
119 135 156
119 135 156
118 134 155
120 136 156
121 137 158
118 134 156
120 135 156
118 133 154
116 133 154
118 135 156
117 133 154
116 132 152
116 131 151
113 129 149
113 129 150
117 133 153
113 129 149
115 130 150
117 133 153
113 128 148
113 128 148
110 125 145
107 122 141
108 123 142
108 123 143
109 124 144
111 126 145
113 128 147
112 128 148
107 122 142
103 117 135
101 116 134
100 114 131
101 114 132
100 114 131
102 116 134
101 115 134
99 112 129
98 112 130
98 112 130
98 111 128
98 111 127
95 108 125
92 104 120
90 103 119
90 102 118
90 102 118
92 104 121
94 107 123
93 105 122
92 104 121
91 103 119
89 100 115
90 102 118
89 101 117
88 100 115
87 99 114
80 91 106
76 86 99
76 86 99
71 81 93
68 77 89
61 70 81
63 71 83
64 72 84
65 74 86
67 76 88
64 73 84
61 69 80
58 66 76
51 58 67
42 48 55
32 36 42
29 33 38
22 26 30
19 22 26
21 24 28
22 25 29
20 23 27
19 21 25
30 34 39
39 44 51
37 42 49
36 40 47
34 39 45
33 38 44
33 37 43
39 44 51
43 49 57
45 51 58
42 48 55
42 47 55
42 48 55
41 46 54
42 47 55
43 49 56
38 43 50
28 31 37
24 27 32
20 23 26
17 19 23
14 16 18
15 17 20
21 24 27
23 26 31
23 26 30
18 21 24
27 31 35
30 34 40
33 37 43
34 38 44
33 38 43
30 34 39
31 36 41
36 41 47
44 50 58
54 61 71
61 69 80
65 74 85
66 74 86
67 77 89
70 79 92
72 82 94
78 89 102
78 89 102
78 89 103
81 91 106
87 99 115
91 103 119
98 110 127
100 113 131
104 118 136
108 122 140
110 125 145
113 129 149
116 132 152
117 132 153
116 132 153
120 136 158
120 137 159
121 137 159
122 138 160
121 137 159
121 138 160
123 140 162
122 139 160
124 140 162
123 140 161
119 135 157
122 139 160
120 137 159
119 135 157
121 137 158
117 132 153
115 131 151
113 128 148
112 127 147
110 125 144
109 124 143
112 126 146
110 125 145
105 119 138
101 115 133
98 111 128
97 110 127
96 110 127
93 106 123
90 102 118
85 97 112
84 95 109
77 88 102
71 81 93
67 75 87
59 68 79
55 63 73
46 52 60
39 44 51
36 41 48
34 39 45
32 36 42
24 27 31
24 28 32
28 32 37
29 33 38
36 40 47
39 44 52
50 56 65
54 61 71
51 58 67
49 55 64
51 58 67
53 61 70
55 63 73
58 66 76
57 64 74
56 63 72
51 57 67
50 57 66
54 61 71
50 57 67
47 53 62
39 44 51
29 33 38
23 27 31
19 22 25
22 25 28
21 24 28
23 26 30
25 29 34
23 26 30
22 25 29
18 21 24
16 18 21
22 25 29
21 23 27
24 28 32
35 40 46
38 43 50
44 50 58
46 52 61
48 55 63
56 63 74
62 70 81
67 76 88
70 79 91
76 86 100
76 87 100
80 91 105
83 94 109
80 91 105
75 86 99
67 76 89
66 75 87
59 67 77
52 59 69
45 51 59
39 44 51
41 46 54
44 50 58
40 46 53
34 38 44
36 40 46
33 38 44
35 40 47
36 41 48
39 44 51
43 49 57
47 54 62
45 51 59
43 48 56
39 45 51
42 47 55
44 50 58
49 56 65
52 60 69
58 66 76
63 72 83
68 77 90
74 85 98
81 92 106
89 101 117
92 104 120
97 110 127
101 114 132
103 118 136
107 122 141
109 124 143
111 125 144
115 131 151
114 130 150
113 129 149
114 130 150
112 127 147
111 126 146
108 123 142
111 126 146
114 129 150
114 130 150
112 127 147
108 123 142
103 117 136
96 109 126
91 104 120
90 102 118
90 102 117
89 101 116
90 103 119
92 105 121
95 108 125
96 109 126
94 107 124
92 105 121
88 100 115
87 99 114
88 100 115
88 100 115
85 96 112
83 95 110
82 93 107
79 90 105
38 44 50
39 44 51
39 44 51
33 38 44
25 29 34
17 19 22
30 33 39
37 42 48
44 50 57
44 50 58
48 54 63
57 64 74
60 68 78
62 70 81
60 67 78
58 66 76
63 71 81
63 71 82
63 72 83
66 75 86
67 76 88
66 75 87
70 79 91
70 79 92
71 80 92
74 83 95
75 85 98
74 84 97
72 82 95
73 83 96
73 82 95
69 78 90
67 76 88
60 68 78
58 66 76
52 59 68
48 54 62
46 52 61
44 50 58
46 52 60
47 54 62
47 53 62
48 54 63
41 47 54
33 37 43
27 30 35
28 32 37
29 33 38
35 40 46
40 45 52
48 55 64
54 62 72
58 66 76
63 71 82
69 79 91
77 87 101
84 95 110
91 104 120
96 109 126
101 115 133
101 115 133
109 123 142
111 126 146
116 131 152
115 131 151
117 133 153
115 131 152
118 134 154
116 132 153
118 134 155
117 133 154
115 131 152
117 133 153
116 132 153
112 128 149
112 127 147
109 124 144
110 124 143
107 122 141
105 120 138
107 122 141
110 125 145
111 126 146
112 127 147
114 129 149
111 126 145
115 131 151
113 129 149
114 129 149
115 132 153
116 131 151
115 130 151
114 129 150
112 128 147
108 122 141
113 128 148
112 128 148
111 126 146
111 126 146
112 127 147
111 126 146
109 124 143
110 125 145
113 129 149
113 129 149
111 126 146
114 130 151
116 132 153
119 134 155
116 132 152
114 129 150
114 130 150
112 128 148
114 129 150
112 127 147
110 125 145
111 127 147
111 126 145
108 122 141
103 117 136
102 116 135
97 111 129
101 114 132
103 117 135
102 115 133
103 117 135
104 118 136
105 119 138
104 118 136
104 119 137
103 116 135
107 121 140
104 118 137
105 119 138
103 117 135
104 118 137
103 118 137
106 121 140
104 118 137
101 115 133
101 115 132
97 110 127
96 109 126
97 110 127
95 108 125
94 106 123
91 104 119
88 100 116
87 98 114
86 98 113
86 98 113
87 99 115
91 104 120
95 109 126
91 103 119
92 105 122
92 105 122
93 106 123
89 101 117
86 98 113
79 90 105
72 82 96
71 80 93
71 81 94
73 83 96
69 79 92
71 81 94
69 79 92
63 72 83
55 63 73
51 58 67
44 50 58
38 43 50
34 39 45
29 33 38
31 35 40
30 34 39
23 26 30
23 26 30
33 37 43
40 45 53
46 52 61
46 52 61
45 51 59
44 50 57
43 49 57
48 54 63
54 62 72
61 69 80
63 71 82
65 74 86
67 76 88
64 73 85
55 63 73
46 53 61
38 43 50
27 30 35
18 20 23
14 16 18
15 18 21
22 25 29
23 26 30
21 24 27
19 21 25
22 25 29
22 25 29
16 18 21
18 20 24
18 21 24
13 14 17
21 24 28
33 37 43
32 37 42
24 28 32
21 24 28
28 32 37
32 36 42
34 39 45
40 46 53
46 52 60
52 59 68
60 68 79
66 75 87
70 79 92
73 83 96
78 88 102
84 96 111
88 100 116
97 111 128
102 116 135
108 122 141
110 125 144
116 131 152
118 134 155
119 135 157
124 140 161
123 140 162
122 139 162
125 143 165
128 144 166
130 147 170
130 147 170
127 145 169
127 144 166
133 152 175
131 149 172
132 150 173
129 147 171
129 147 169
129 147 170
130 146 168
126 143 165
123 139 161
123 140 161
118 134 155
115 130 150
115 131 151
116 131 152
109 124 144
109 123 142
108 123 142
107 122 141
105 118 136
101 114 133
98 111 128
88 101 117
86 98 114
82 93 108
81 92 107
76 87 101
74 84 97
71 80 93
66 74 86
63 72 83
54 61 71
39 45 52
26 29 34
20 23 27
24 27 32
26 29 34
25 29 34
25 29 34
21 23 27
27 31 35
36 41 47
47 53 62
50 57 66
53 60 69
53 61 70
55 63 73
53 60 70
52 59 68
52 59 68
53 60 69
51 58 67
50 57 66
52 60 69
55 62 71
50 57 66
47 54 62
39 44 51
26 29 34
22 25 29
21 24 28
15 17 20
11 13 15
22 25 29
32 37 43
33 38 44
27 31 35
22 26 30
16 18 21
22 24 28
29 33 38
29 33 38
27 30 35
21 23 27
18 21 24
14 16 18
13 15 18
26 30 35
42 48 55
49 56 65
55 63 73
59 67 78
61 69 80
60 68 79
60 68 79
58 66 77
57 65 75
56 63 73
53 60 69
51 58 67
48 54 63
47 53 61
46 52 61
48 54 63
52 59 68
60 68 78
60 69 80
59 67 77
59 67 77
60 68 79
63 71 82
65 74 87
67 76 88
66 75 88
64 73 84
62 71 81
59 67 78
57 65 75
55 62 72
57 65 76
61 69 80
62 70 81
66 75 87
70 79 91
77 87 100
80 91 106
86 97 112
92 104 120
96 109 126
100 113 129
105 118 136
102 116 134
106 121 140
106 120 139
107 122 141
110 124 143
108 123 142
106 121 139
104 118 135
99 113 132
97 110 128
96 109 125
98 111 128
96 110 128
96 109 126
93 105 122
92 104 120
88 100 116
87 99 114
83 95 110
83 94 109
85 96 111
82 94 109
85 96 111
88 99 115
88 100 115
85 96 111
85 97 112
84 95 110
82 94 109
81 93 107
82 93 108
81 92 106
80 91 105
77 87 100
74 84 97
72 82 95
42 47 55
42 47 55
41 47 55
41 47 54
34 39 45
22 25 29
12 14 16
14 16 19
22 25 29
30 34 39
37 43 49
45 51 59
47 54 62
49 56 64
45 51 59
42 47 55
46 52 60
49 57 66
55 63 73
59 67 78
60 68 78
62 70 81
62 71 83
62 71 82
61 70 81
59 67 77
59 66 77
58 67 77
61 70 81
63 72 83
61 69 80
56 64 74
53 60 70
45 51 59
34 39 45
24 27 32
22 25 29
15 17 20
23 26 30
30 34 40
33 38 44
31 34 40
31 35 41
25 29 33
25 29 33
29 33 39
37 42 48
43 49 57
47 53 61
53 60 69
59 67 77
62 70 81
64 73 84
70 79 92
75 85 98
81 93 107
90 102 118
91 104 121
95 109 127
98 112 129
104 117 135
107 121 140
109 124 143
113 128 148
114 130 150
117 132 152
116 131 151
120 136 158
121 137 159
121 137 158
122 138 160
119 136 157
119 135 156
117 133 154
114 130 150
114 129 149
112 127 146
107 122 141
105 120 139
101 115 133
104 118 137
103 118 136
104 118 137
106 121 140
104 118 137
105 120 139
105 119 138
105 119 137
107 122 141
105 119 138
110 124 143
105 120 138
105 119 138
104 118 137
105 119 138
104 118 136
106 121 140
102 117 135
104 118 136
103 117 136
103 117 135
101 114 132
101 115 132
101 115 132
101 115 133
101 114 132
101 115 133
98 112 129
95 108 125
96 109 126
96 109 127
96 109 126
96 109 126
100 113 130
97 110 128
96 108 125
91 103 118
88 100 116
88 100 116
87 99 115
86 98 113
86 98 113
86 98 113
89 101 116
91 104 120
98 111 128
99 113 132
105 118 136
104 117 135
107 121 139
105 120 139
105 120 138
109 124 144
110 125 145
110 125 144
111 126 146
110 126 146
109 123 142
105 120 138
103 116 134
101 115 132
100 114 132
97 110 127
91 103 119
89 101 116
87 99 115
85 96 111
81 92 106
80 91 105
79 90 104
80 92 106
85 96 111
92 105 121
98 111 128
100 114 131
102 115 133
100 114 132
97 110 127
93 106 122
91 104 120
87 99 114
84 95 110
77 88 102
75 85 98
72 83 96
72 81 94
71 81 94
69 78 91
64 72 84
59 68 78
57 65 75
54 62 71
47 53 61
38 44 50
22 25 29
23 26 31
36 42 48
46 52 60
49 56 64
54 62 71
57 65 75
52 60 69
49 55 64
46 52 60
44 50 59
45 51 59
42 48 56
41 47 54
40 46 53
42 48 56
49 56 65
53 61 70
56 64 74
55 62 72
46 52 61
33 38 44
25 28 33
20 23 27
16 18 21
22 25 29
29 33 38
31 35 41
30 34 39
21 24 28
15 17 20
14 16 19
19 22 26
15 17 20
15 17 20
20 22 26
19 21 25
26 30 34
27 31 35
22 26 30
20 23 27
21 24 28
25 28 32
21 24 28
33 38 44
43 49 57
52 59 68
57 65 75
67 76 88
69 79 91
71 80 92
74 85 98
77 88 102
86 98 113
92 105 122
99 112 129
100 114 132
103 117 136
111 126 145
110 126 146
110 124 144
113 128 147
111 126 147
116 131 151
115 130 150
120 136 157
119 135 156
123 139 161
125 142 164
123 140 163
126 143 166
127 145 168
127 145 168
124 141 163
128 145 167
128 146 168
128 146 168
127 145 168
121 138 159
118 134 156
114 130 150
112 126 146
107 122 141
101 115 133
102 115 134
96 110 128
95 107 124
91 103 119
87 99 114
82 93 107
74 84 97
68 77 90
62 70 81
57 65 75
48 55 64
44 51 59
38 43 49
40 45 52
40 46 53
38 44 51
37 42 49
35 40 47
42 48 55
46 53 61
48 55 64
52 59 68
57 64 74
60 68 79
54 61 71
46 53 61
38 43 50
31 35 40
24 28 32
24 27 32
28 32 37
31 35 41
36 41 48
37 43 50
38 43 50
34 39 45
34 39 45
34 39 45
32 36 42
34 38 44
38 43 50
35 40 46
26 29 34
16 19 22
23 26 31
35 40 46
42 47 55
39 44 51
36 41 47
34 39 45
28 32 36
19 22 25
19 21 25
15 17 20
21 24 28
34 38 44
36 41 47
37 42 49
29 32 38
24 28 33
27 30 35
30 35 40
37 42 48
45 52 60
51 58 67
53 60 69
55 63 73
56 64 74
59 67 78
63 71 82
63 72 83
61 69 80
62 71 82
65 74 86
64 72 84
59 67 77
55 62 72
52 59 68
53 59 68
56 63 73
62 70 80
64 72 83
67 76 88
72 82 95
77 88 101
78 90 105
82 93 108
80 91 105
80 91 105
79 90 104
78 88 102
82 92 106
78 89 103
82 93 108
84 96 111
85 97 112
85 96 111
86 97 112
81 92 108
85 96 110
88 100 115
91 103 119
96 109 126
97 111 128
104 118 136
106 121 140
107 122 141
110 125 144
108 122 141
106 121 140
106 120 139
104 118 137
102 116 134
99 112 129
94 107 124
86 97 113
85 96 111
82 93 107
82 93 107
79 90 104
76 86 100
72 82 95
68 78 90
68 78 90
69 79 91
70 79 92
74 84 97
75 86 99
78 88 101
76 87 101
74 84 97
74 84 97
74 84 97
76 86 99
76 87 100
78 89 103
79 90 104
82 93 108
85 97 111
86 97 112
84 96 111
83 95 109
44 50 58
46 53 61
48 55 63
46 52 60
43 48 55
34 39 45
27 31 36
21 24 28
24 27 31
30 34 39
29 33 38
31 35 41
26 29 34
25 28 32
26 30 35
32 36 42
42 47 54
48 54 63
53 61 70
56 64 74
53 61 70
46 52 60
38 43 50
32 36 41
29 33 38
27 31 36
27 31 35
32 36 42
38 43 50
40 45 52
38 43 49
35 41 47
27 31 36
21 24 28
12 14 16
15 17 20
27 31 36
35 39 45
39 44 51
43 49 57
47 53 62
45 51 60
38 44 51
27 30 35
19 22 25
23 26 30
31 35 41
41 47 54
51 58 67
56 63 73
58 66 75
57 66 76
62 71 82
66 76 88
74 84 97
77 88 102
87 99 115
92 105 121
96 109 126
101 115 133
102 116 135
106 120 138
109 124 143
111 127 148
115 130 149
115 131 151
118 133 154
120 136 158
122 138 159
121 138 160
122 138 159
121 138 161
120 137 160
121 137 159
118 134 155
115 131 151
109 124 143
109 124 143
107 121 140
106 121 140
103 118 136
104 119 138
105 119 138
108 122 142
108 123 143
110 126 145
107 122 142
106 122 141
107 122 140
104 118 137
104 118 137
98 111 129
100 113 130
97 111 128
100 113 130
95 108 125
97 111 129
96 109 126
94 107 125
95 108 125
96 109 127
94 108 125
93 106 122
90 102 118
90 103 119
91 103 120
88 100 116
90 103 119
94 107 123
92 105 121
89 102 118
86 98 113
82 94 109
83 95 109
85 96 111
83 94 108
79 89 103
74 84 98
66 75 87
65 74 86
66 76 88
70 80 92
78 89 103
81 93 108
89 101 117
91 103 119
95 107 123
95 108 125
99 113 131
101 115 133
104 118 137
106 121 140
106 121 141
109 123 142
109 123 143
106 120 138
100 113 131
100 113 131
98 112 130
96 110 127
94 107 124
89 101 117
84 95 111
82 94 108
80 91 105
82 93 108
80 91 105
82 93 108
86 97 112
84 95 110
81 93 108
85 96 111
90 103 119
97 110 127
100 113 131
102 116 134
102 116 134
97 111 129
99 112 129
93 106 122
92 105 121
90 103 119
88 100 115
86 98 113
80 92 107
73 84 97
66 75 87
60 69 80
51 58 67
46 52 60
44 50 57
42 47 55
34 38 45
25 29 34
22 25 29
38 43 50
49 55 64
53 61 70
57 64 75
61 70 81
63 71 82
62 71 82
60 68 79
54 62 72
47 54 62
42 48 55
37 42 48
33 37 43
33 37 43
36 41 48
43 50 57
46 52 60
44 50 58
42 47 55
35 40 46
26 29 34
19 22 25
22 25 29
29 33 39
31 35 41
30 34 39
28 32 37
26 29 34
25 28 32
26 29 34
27 31 37
26 30 35
26 30 35
26 30 34
25 29 33
25 29 33
23 27 31
18 21 24
17 20 23
25 29 33
33 38 44
39 44 51
43 49 57
47 54 63
49 56 65
50 57 66
54 61 71
55 63 73
59 67 77
62 71 82
67 76 88
72 81 94
74 85 98
79 90 104
81 92 107
84 96 112
89 102 118
91 103 119
97 109 126
99 112 129
104 119 139
108 123 143
111 125 145
113 127 147
110 125 145
110 126 146
110 126 146
114 129 150
113 129 149
113 128 149
113 129 149
116 133 154
115 131 152
117 132 153
117 132 152
116 132 153
114 130 150
111 126 146
111 127 146
107 121 140
101 114 132
94 106 123
86 98 113
80 90 104
75 86 99
71 81 93
69 79 91
60 68 79
51 58 67
42 48 56
37 42 49
34 38 44
36 41 47
42 47 54
47 53 61
46 52 60
50 57 66
58 66 76
64 73 85
67 76 88
72 81 94
69 79 91
70 80 92
72 82 95
78 89 103
75 85 99
73 82 95
70 79 91
64 73 84
61 69 80
55 62 72
53 61 70
50 56 65
50 56 65
49 56 65
59 67 77
60 68 79
61 70 81
61 69 80
62 71 82
56 64 74
54 62 72
52 59 68
44 50 58
47 53 62
46 52 61
52 59 68
55 62 71
57 65 76
63 71 82
64 73 85
58 66 76
55 62 72
55 63 73
53 60 69
50 57 66
50 56 65
51 57 66
55 63 73
63 72 83
66 75 87
64 73 85
63 72 83
63 71 82
59 67 77
56 64 74
56 64 74
59 67 77
61 69 80
66 75 87
75 85 98
81 93 108
84 96 111
81 92 106
78 89 102
74 84 98
73 83 96
73 83 97
73 84 97
72 82 95
73 83 95
72 82 95
72 82 95
73 83 96
72 82 95
75 85 98
77 87 101
82 92 106
86 98 113
89 101 117
92 104 121
98 110 127
101 115 133
102 116 135
105 119 137
106 121 140
109 123 143
109 124 143
108 123 142
108 123 142
106 121 141
107 121 140
103 117 136
101 115 133
106 120 138
106 121 140
107 121 140
108 122 141
113 127 146
110 124 144
114 129 150
115 130 150
112 127 148
109 124 143
105 119 137
101 114 133
93 105 122
85 97 112
78 89 103
78 88 102
74 84 97
74 84 97
73 82 95
73 84 97
71 82 95
74 85 98
71 81 94
67 76 88
59 67 78
59 67 77
58 66 77
58 66 77
60 68 78
59 67 77
58 66 77
56 64 74
55 62 72
54 61 70
59 68 78
65 73 84
68 78 90
73 83 96
72 82 95
66 75 87
66 75 87
56 64 74
56 64 74
54 61 71
51 58 68
52 59 68
53 60 70
52 59 68
52 58 67
50 56 65
52 59 69
54 62 71
52 59 69
51 58 67
44 50 58
38 43 50
29 33 38
26 29 34
29 33 38
31 35 40
31 35 41
31 35 40
31 36 41
34 38 44
40 46 53
38 43 50
37 42 48
34 39 45
30 35 40
27 31 36
21 24 28
13 14 17
14 17 19
18 20 23
20 23 27
24 27 31
23 27 31
22 25 30
22 25 29
25 28 32
27 31 35
29 33 39
24 27 31
17 19 22
11 13 15
14 16 19
15 17 20
15 17 20
27 30 35
36 41 48
43 49 57
49 56 65
57 64 74
63 71 82
72 82 95
76 87 102
82 93 108
85 97 112
90 103 119
96 109 125
100 114 133
102 116 134
107 122 141
109 124 143
117 132 152
117 133 154
117 133 154
119 136 157
118 134 154
118 134 154
118 134 155
121 137 158
120 136 158
119 135 156
115 131 151
115 130 150
113 129 149
108 123 142
108 123 142
106 120 139
102 116 135
102 116 134
103 117 135
104 119 138
108 123 143
109 125 145
108 123 142
105 120 139
105 119 138
106 120 138
109 123 143
107 122 141
106 120 139
100 114 133
100 113 131
94 107 124
94 107 124
93 106 122
89 101 117
82 93 108
80 91 105
80 91 105
82 93 107
85 96 111
83 94 109
82 93 108
81 93 108
84 95 110
82 94 109
81 92 107
79 90 104
77 87 101
76 86 100
74 84 97
73 82 95
72 83 96
70 80 92
65 74 85
61 70 81
59 67 77
59 67 78
61 70 81
67 76 88
70 80 92
77 87 101
82 93 108
85 96 111
88 100 115
88 99 115
90 102 119
90 102 118
93 105 121
92 105 122
93 106 122
92 104 121
89 101 117
92 105 121
91 104 120
93 107 125
94 107 124
93 105 122
92 105 121
90 102 118
89 101 116
88 99 114
87 98 113
84 96 111
81 92 107
78 89 103
77 87 100
80 90 104
80 92 107
86 98 113
90 102 117
91 103 119
94 107 124
96 110 127
98 111 128
98 112 129
97 110 127
99 112 130
99 113 131
95 108 125
93 105 122
86 98 114
78 88 102
72 82 95
65 74 86
55 62 72
41 47 54
29 33 38
21 24 28
22 25 29
19 22 25
13 15 18
20 23 26
31 35 41
39 45 51
45 51 59
46 52 60
47 54 63
50 57 66
52 59 68
53 60 69
52 59 68
50 57 66
50 56 65
51 58 67
50 57 66
56 63 73
57 65 75
60 68 79
61 69 80
58 66 76
54 61 71
54 61 71
54 61 71
47 54 62
41 46 54
35 40 46
31 35 40
23 27 31
14 16 19
18 21 24
25 29 33
31 35 40
33 37 43
23 27 31
16 19 22
16 18 21
17 19 22
17 20 23
23 27 31
26 30 35
25 29 34
18 20 24
23 26 31
30 35 40
26 29 34
23 26 30
24 28 32
31 36 41
37 42 49
42 48 55
46 52 61
51 58 67
54 61 71
60 68 79
67 77 89
75 85 98
78 88 102
79 90 105
83 94 109
87 98 114
89 101 117
95 108 124
97 110 128
99 113 131
100 114 132
98 111 129
99 113 130
100 113 130
102 116 135
102 116 134
103 117 134
100 114 132
98 112 130
101 115 133
102 115 133
103 118 137
108 122 142
106 121 140
109 124 143
106 120 138
99 112 130
100 113 131
94 107 124
84 96 111
75 85 98
65 74 86
49 56 65
38 43 49
34 39 45
41 47 54
48 54 62
50 57 66
58 66 77
63 72 83
70 80 93
77 87 101
82 93 107
81 93 108
85 96 111
85 97 112
88 100 116
89 101 117
91 103 119
91 103 119
90 102 119
92 105 121
93 106 122
93 106 123
91 104 120
93 105 121
88 101 117
89 101 117
90 102 118
88 100 117
86 98 113
85 96 111
86 97 113
84 96 110
87 99 114
86 98 113
88 100 116
89 101 116
88 100 115
89 100 116
92 104 120
90 102 118
90 102 118
87 98 114
87 100 115
88 100 115
90 102 118
87 99 114
88 100 116
86 98 113
83 94 109
78 88 102
77 88 103
79 89 103
78 88 102
78 89 103
79 89 103
81 92 107
82 93 107
80 91 105
80 91 105
81 92 107
81 92 107
80 91 105
78 90 104
78 89 103
77 88 101
80 91 106
82 93 108
87 99 115
91 104 121
92 104 120
91 103 119
89 101 117
89 101 117
88 99 115
88 101 117
89 102 118
92 104 120
92 105 121
91 103 119
88 100 116
90 102 118
87 99 115
88 100 116
90 102 118
88 100 115
97 109 126
98 112 130
99 113 131
101 115 133
103 117 135
106 120 138
109 124 143
109 124 144
114 129 149
115 130 151
113 129 148
114 129 149
111 126 146
111 126 145
108 123 142
108 123 142
110 124 143
112 127 147
113 128 149
113 129 149
114 130 150
114 129 149
114 129 150
112 128 148
110 124 143
102 116 135
97 110 128
89 101 117
84 96 111
79 90 104
72 82 95
70 79 91
67 77 89
64 73 84
64 73 84
66 75 87
69 78 91
73 83 95
72 81 94
68 77 89
65 73 85
62 71 82
66 75 86
67 75 87
65 73 85
62 71 82
60 68 79
57 64 74
53 60 69
52 59 69
54 61 71
54 62 71
56 64 74
56 64 74
53 60 69
43 49 57
60 68 79
60 68 79
60 68 78
62 70 81
64 73 84
66 75 87
69 78 90
71 80 93
71 81 94
74 84 97
75 84 97
67 76 87
62 70 81
60 68 79
56 64 75
53 61 70
56 64 74
58 66 76
59 66 77
60 69 79
56 64 74
54 61 70
52 59 68
47 54 62
38 43 50
33 38 44
28 32 37
22 25 29
19 21 25
14 15 18
11 13 15
10 12 13
9 11 12
18 20 23
29 34 39
34 39 45
35 39 45
30 34 40
21 24 27
14 16 19
12 13 15
15 17 20
15 17 20
14 16 18
11 13 15
12 13 15
13 15 18
20 23 26
31 35 40
38 44 51
42 48 55
47 53 62
53 61 70
59 68 79
65 74 85
71 81 94
77 88 102
82 93 108
88 100 115
96 109 125
99 112 130
103 117 135
108 122 140
107 120 139
105 120 140
109 124 144
112 127 147
112 128 148
111 126 147
115 130 150
114 129 150
115 131 152
113 128 148
113 128 148
112 128 148
110 125 144
110 125 144
110 124 143
105 119 137
102 116 133
100 114 132
101 115 133
100 113 130
99 113 130
99 112 130
99 113 130
102 116 133
106 120 139
105 120 138
107 122 141
101 116 134
98 111 129
95 109 126
89 101 118
81 93 108
76 86 99
72 81 94
65 74 85
60 69 79
62 70 81
62 70 82
61 69 80
60 68 79
63 71 82
62 70 80
57 65 75
59 67 78
60 68 78
62 70 81
61 70 81
60 69 80
59 68 79
61 69 80
62 70 81
58 66 76
54 61 70
46 53 61
46 52 60
46 53 61
49 56 65
50 57 65
51 58 67
50 56 65
50 57 66
51 58 67
57 65 75
59 67 78
62 71 82
70 80 93
71 81 93
75 85 98
77 88 102
80 90 104
78 89 102
74 84 98
77 87 101
80 90 104
82 94 109
85 97 112
89 101 117
91 104 121
94 106 122
96 109 126
94 107 124
92 105 121
86 98 113
83 95 110
84 95 109
80 91 105
79 90 104
80 91 106
81 92 107
81 92 107
84 96 112
89 102 118
93 106 123
99 112 129
99 112 130
97 110 128
92 105 121
92 105 121
91 103 119
86 97 112
79 90 105
73 83 96
66 74 85
57 65 75
47 54 62
41 46 54
38 43 50
34 39 45
34 38 44
30 35 40
29 32 37
31 36 41
26 29 34
21 24 27
20 23 27
22 25 29
29 33 39
37 42 49
41 47 55
41 47 54
40 45 52
43 49 56
50 57 66
60 67 78
65 75 86
74 84 97
79 90 105
80 91 106
77 88 103
75 86 100
67 76 88
63 72 83
59 67 78
52 59 69
47 53 62
41 46 53
33 38 43
26 30 34
17 19 22
8 9 11
11 12 15
14 16 19
16 18 21
20 23 26
21 24 27
25 29 33
29 33 38
18 21 24
24 28 32
35 40 46
39 44 51
37 42 48
26 30 35
19 21 25
19 21 25
16 19 22
24 27 31
30 35 40
30 35 40
38 43 50
42 47 55
40 45 53
40 45 53
43 48 56
50 57 66
53 60 70
62 71 82
70 79 92
73 83 96
73 83 96
75 85 98
79 90 104
83 94 108
86 98 113
88 100 117
89 101 116
92 104 121
90 102 118
93 105 121
92 105 121
94 107 124
91 103 120
91 103 120
89 100 116
89 101 117
89 101 117
89 100 115
90 103 119
93 105 122
92 105 122
95 107 124
88 100 116
79 90 104
68 77 89
58 66 77
44 50 58
26 30 35
26 29 34
47 54 62
62 71 83
74 84 97
79 91 105
85 97 112
91 104 120
98 112 129
99 113 131
102 116 134
102 116 135
104 118 137
100 114 132
100 113 131
99 112 129
100 114 132
103 117 135
103 117 135
104 118 137
107 121 140
110 124 144
111 125 145
116 131 152
115 131 153
118 133 154
117 133 154
114 130 151
112 127 147
106 121 140
107 122 141
107 121 140
107 121 140
106 120 139
104 118 137
103 117 135
102 116 134
103 117 135
107 120 138
108 123 142
112 126 146
113 128 148
114 129 149
111 126 146
111 125 145
112 128 148
113 129 148
114 130 151
108 123 142
110 125 145
110 124 143
107 121 140
102 116 135
102 116 134
98 111 129
97 110 126
93 106 123
92 105 121
95 108 125
94 106 123
93 105 122
89 100 116
86 98 113
86 97 112
87 99 115
88 100 116
91 103 120
95 108 126
100 114 132
100 114 132
101 115 132
103 117 135
104 119 137
103 118 136
103 118 136
100 114 132
101 115 133
100 114 132
97 110 128
98 111 128
95 108 125
96 109 126
97 109 126
99 112 129
98 112 129
98 112 130
102 115 133
101 115 133
105 119 138
108 122 141
110 125 144
110 125 145
112 127 146
112 127 147
111 126 146
110 125 145
110 125 144
111 126 146
105 119 137
105 120 139
105 120 139
111 126 146
112 127 147
114 130 150
116 131 152
117 133 153
114 129 149
111 126 146
108 122 142
103 117 135
97 110 128
90 102 119
86 97 112
82 93 108
82 93 107
81 92 107
76 87 101
72 82 95
69 78 91
65 74 85
68 77 89
69 78 91
67 77 89
67 76 88
67 76 88
67 76 88
67 76 88
65 75 87
66 75 86
63 71 82
60 68 79
59 67 77
58 65 75
56 64 74
52 59 69
49 56 65
44 49 57
39 45 52
35 40 46
28 32 37
17 20 23
57 65 75
57 65 75
60 68 78
63 71 83
65 74 85
65 74 86
69 79 91
73 83 96
74 84 97
72 81 93
68 77 89
64 73 84
62 71 82
59 68 78
54 61 71
55 63 73
54 61 71
50 57 67
51 58 67
46 53 61
43 49 57
40 46 53
36 41 48
27 31 36
24 27 31
24 27 31
31 35 41
28 32 37
26 30 35
27 31 36
29 33 38
30 34 40
37 43 49
40 46 53
46 52 60
49 55 64
46 52 61
42 47 54
34 39 45
29 33 38
26 29 34
23 26 31
19 22 25
16 18 21
17 19 22
17 19 22
24 27 32
31 35 41
38 43 50
44 50 57
48 54 62
56 64 74
61 70 81
65 74 85
67 77 89
73 82 95
76 86 99
83 95 110
90 102 118
95 108 125
97 110 127
99 113 131
101 114 132
102 116 134
104 119 138
107 121 141
108 123 143
107 122 142
103 118 136
106 120 138
104 118 136
105 119 137
104 119 138
105 120 139
108 122 140
105 119 138
101 115 133
99 112 129
94 107 124
95 107 124
92 104 120
91 103 120
90 102 118
89 101 117
90 102 117
93 106 123
92 105 122
96 109 126
90 102 118
86 98 114
86 98 113
82 93 108
80 91 105
72 82 94
66 75 87
59 67 77
49 56 65
42 48 55
35 40 46
31 36 41
31 35 41
36 41 47
38 43 50
41 47 54
41 47 55
39 44 51
34 39 46
32 37 43
36 41 47
37 42 49
33 37 43
38 43 50
45 52 60
47 54 63
50 57 66
45 51 59
41 46 53
34 38 44
34 39 45
34 39 45
32 37 42
32 37 43
27 31 36
22 25 28
24 27 31
28 32 37
29 33 38
24 27 32
39 44 51
46 53 61
55 62 72
62 71 82
66 74 86
67 76 88
66 75 86
68 77 90
74 84 98
79 90 105
85 97 112
89 101 117
89 101 117
93 105 122
93 105 122
93 105 121
90 102 118
87 99 115
85 97 112
83 94 109
84 95 109
87 99 115
86 98 114
86 98 114
86 98 113
87 100 116
90 103 119
91 103 119
91 104 120
88 100 116
88 100 115
83 94 109
79 90 104
75 86 99
68 78 91
65 74 86
60 68 79
56 63 73
52 59 68
44 50 58
44 49 57
43 49 57
39 44 52
33 37 43
28 32 37
28 32 37
31 36 41
27 30 35
26 30 34
21 24 28
20 22 26
18 21 24
21 24 28
28 32 37
36 41 47
41 47 54
48 55 64
56 64 74
63 72 83
67 76 88
71 81 93
73 83 96
73 83 95
74 84 97
72 82 95
68 77 89
61 69 80
56 64 74
53 61 71
51 58 68
48 54 63
45 51 59
35 40 47
26 30 34
20 23 27
20 23 27
19 21 25
16 18 21
26 29 34
29 33 38
28 32 37
30 34 39
29 33 38
29 33 38
30 34 39
32 37 43
31 35 41
28 32 37
28 31 36
33 38 44
38 44 50
37 43 49
37 43 49
38 43 50
40 45 52
39 44 51
38 43 50
31 35 41
28 32 37
38 43 50
48 54 62
55 62 72
57 65 75
59 67 77
61 69 80
65 73 85
69 78 91
74 85 99
79 90 104
80 91 105
82 93 107
83 94 109
85 97 111
83 95 110
82 94 108
79 90 105
77 88 102
76 86 99
76 86 100
75 85 99
78 88 102
77 87 100
75 86 99
76 86 99
78 89 103
80 90 104
74 84 98
66 75 87
56 64 74
39 44 51
24 27 32
33 38 43
48 55 63
62 71 82
70 79 92
77 88 102
83 94 109
89 102 118
95 108 125
100 113 131
103 117 135
100 114 132
101 115 133
102 116 135
102 115 132
101 115 134
103 117 135
106 121 141
109 124 144
114 129 149
116 132 153
118 134 156
123 139 160
122 138 160
123 139 161
132 149 171
130 147 170
133 151 174
131 149 172
128 145 168
131 148 170
130 147 169
128 146 168
125 143 165
124 141 164
122 138 159
119 135 156
115 130 151
119 135 156
120 136 157
119 136 157
119 135 156
119 135 156
119 135 156
116 132 153
119 136 157
120 137 158
119 136 158
119 136 158
122 138 159
118 134 156
118 133 153
116 132 153
119 134 155
114 130 150
112 127 147
110 125 145
107 122 142
106 120 140
108 123 142
110 124 144
111 126 145
108 122 141
105 120 139
105 119 138
101 115 133
102 116 134
105 120 139
105 120 139
111 126 146
110 125 144
114 129 149
110 125 145
115 129 149
116 131 152
112 128 147
109 124 144
108 123 142
104 119 139
105 119 138
105 118 135
103 117 135
102 116 134
102 116 135
102 116 134
104 118 136
102 116 134
102 117 135
102 117 136
103 117 135
104 118 137
107 122 140
109 124 144
109 124 143
113 129 149
113 128 149
116 131 152
113 129 149
113 128 148
113 129 150
111 127 146
116 132 153
117 133 153
114 129 150
117 132 152
114 130 150
116 132 152
113 129 150
112 127 147
108 123 143
104 118 136
101 115 133
97 110 128
92 105 122
92 105 121
93 106 123
93 105 121
90 102 118
88 99 114
80 91 105
76 86 100
75 85 98
74 85 98
72 83 96
73 83 96
71 81 93
67 77 89
64 73 84
59 66 77
54 62 72
53 61 70
54 61 71
55 62 71
55 62 72
54 61 71
50 57 66
40 45 52
24 27 31
18 20 23
24 27 31
33 37 43
35 40 47
53 61 70
59 67 78
65 74 85
70 80 93
73 83 96
74 84 97
73 83 96
71 80 93
64 73 85
58 66 76
50 57 66
41 46 54
35 39 46
35 40 46
35 40 46
39 44 51
45 51 59
40 45 52
38 44 50
31 36 42
25 28 33
16 18 21
23 26 30
31 36 41
40 46 53
46 53 61
48 54 63
45 52 60
41 46 53
39 45 52
40 45 52
44 50 57
48 55 63
53 61 71
59 66 77
60 68 79
59 68 79
59 67 78
60 68 79
57 65 75
56 64 74
55 62 72
47 53 62
39 45 52
34 39 45
26 29 34
20 22 26
19 22 25
31 35 41
43 49 56
48 54 63
57 64 74
63 71 82
65 73 85
69 78 91
73 84 97
78 88 101
80 91 106
83 94 109
85 96 111
86 97 112
86 97 112
87 99 115
92 104 120
98 110 127
97 110 127
94 108 125
96 108 125
95 107 124
93 106 123
92 104 120
93 105 122
96 109 126
95 108 125
97 110 128
93 106 122
93 106 122
90 102 118
88 101 117
86 98 113
87 99 114
82 93 108
79 91 105
80 91 106
80 91 104
80 91 105
77 88 101
74 84 98
71 81 94
71 80 93
68 78 90
67 76 88
63 71 82
53 61 70
42 48 55
37 42 48
33 38 44
36 40 47
47 53 61
47 53 61
49 56 65
47 54 63
40 46 53
42 48 55
41 47 54
36 40 46
45 51 59
48 55 64
49 55 64
50 57 65
45 51 59
37 42 48
34 38 44
32 36 42
29 33 38
26 30 35
26 30 34
27 31 36
30 35 40
35 39 46
35 39 45
33 37 43
37 41 48
40 45 52
41 47 54
40 45 52
30 34 39
16 18 20
21 24 28
27 30 35
30 34 39
39 44 51
45 52 60
53 60 70
61 69 80
65 73 85
72 82 95
78 89 103
80 91 106
87 100 116
92 104 120
90 102 118
91 103 119
87 99 115
87 98 114
86 98 113
85 97 111
83 94 109
83 95 110
84 95 111
85 96 111
84 96 111
85 97 113
85 97 112
86 98 113
84 96 111
84 95 110
81 93 107
74 84 96
65 74 85
61 70 80
58 66 76
53 60 70
49 55 64
43 48 56
31 35 41
25 28 33
28 31 36
27 31 36
23 26 31
25 29 33
28 31 36
33 38 44
42 48 56
47 53 61
46 52 60
47 53 61
50 57 65
53 60 70
56 63 73
58 66 76
63 72 83
67 76 88
71 81 93
75 85 98
76 86 99
77 87 101
80 91 105
79 90 104
77 88 102
75 85 98
70 80 93
65 74 85
57 65 76
57 65 74
52 59 69
48 55 63
38 43 50
31 35 41
28 32 37
32 36 42
38 43 50
38 44 50
38 44 50
40 46 53
43 49 57
47 54 62
51 58 67
53 61 70
51 58 67
52 59 68
51 58 67
54 61 70
56 64 74
59 67 78
60 68 79
62 70 81
60 68 79
61 69 79
60 68 79
60 68 79
53 60 70
46 52 60
39 44 51
34 38 45
27 30 35
31 35 40
40 45 53
48 55 63
57 65 75
65 74 85
70 80 93
70 80 92
73 83 96
75 85 98
78 88 102
78 89 103
76 87 100
74 85 98
73 84 97
75 86 99
75 85 99
76 86 100
75 85 99
76 86 100
73 83 96
72 82 94
70 80 93
67 76 87
63 72 83
54 62 71
50 57 66
46 53 61
45 51 59
41 46 54
40 45 52
35 39 45
34 38 44
42 49 56
54 62 72
65 74 85
70 79 91
69 78 90
70 80 92
76 87 100
81 92 106
89 102 118
96 109 126
100 114 132
104 118 136
107 121 139
106 120 139
105 119 137
106 121 140
107 122 141
110 125 145
114 130 151
116 133 154
120 136 157
124 140 161
129 145 167
128 145 168
130 148 172
133 151 175
132 150 173
134 152 176
132 149 173
129 147 170
129 147 170
130 147 170
131 149 171
130 148 171
130 148 172
131 148 170
130 148 172
134 152 175
131 149 173
127 145 169
126 143 166
124 141 163
123 140 162
123 140 162
126 143 165
127 144 166
130 148 171
125 142 165
130 148 172
132 150 173
128 146 169
126 143 166
124 141 163
125 142 163
121 138 160
121 138 159
119 136 158
121 137 158
118 134 156
115 131 152
116 131 152
121 137 158
119 134 154
119 136 157
117 133 153
115 131 152
115 131 151
114 129 150
112 127 147
112 128 148
114 130 151
117 133 154
116 132 152
119 136 157
118 135 156
118 133 153
117 133 154
118 134 155
117 132 152
111 127 147
112 127 147
110 125 145
111 126 146
108 123 143
107 122 141
102 116 134
101 115 133
103 117 135
104 118 137
107 121 139
106 120 140
107 122 142
109 124 143
112 127 147
111 126 145
112 127 147
116 132 153
117 132 153
116 131 151
116 131 152
119 136 157
123 139 161
122 138 160
122 138 158
120 136 158
118 134 156
125 142 164
123 139 160
118 133 154
118 134 155
114 130 150
111 126 145
106 121 140
104 117 135
100 114 132
100 113 130
95 108 125
92 105 122
93 106 122
92 104 120
90 102 118
86 98 113
83 94 109
85 97 112
80 91 105
78 89 103
76 87 101
72 82 95
64 72 84
58 66 76
52 60 69
46 52 60
40 45 52
37 42 49
36 41 48
37 42 48
32 37 43
21 24 28
12 14 16
23 27 31
30 34 39
36 41 47
57 65 75
64 73 85
70 80 93
76 85 98
77 88 102
77 87 101
76 86 99
73 83 96
64 73 84
54 61 71
44 50 58
37 41 48
34 38 44
29 34 39
27 31 36
24 27 32
14 15 18
20 23 27
27 31 36
34 39 45
36 41 47
41 47 55
48 54 62
51 58 67
52 59 69
49 56 65
49 56 64
49 56 64
49 55 64
44 50 58
39 44 51
38 43 50
41 46 53
46 53 61
52 59 68
57 65 75
59 67 77
58 66 76
61 70 80
60 69 79
60 68 79
57 65 75
52 59 68
49 55 64
44 50 58
35 40 47
22 25 29
16 18 21
27 31 36
34 39 45
40 46 53
49 56 65
55 62 72
58 66 76
60 68 79
63 72 83
65 74 86
68 78 90
74 84 97
76 87 101
79 90 105
80 91 105
80 91 105
80 91 106
75 85 99
77 87 100
77 87 101
75 85 98
74 84 97
69 79 91
65 74 86
69 78 90
64 73 85
68 77 89
75 85 98
77 87 100
75 86 99
67 76 88
66 75 87
65 74 85
69 78 90
66 75 87
64 72 84
64 73 84
61 70 80
59 67 78
57 65 75
55 62 72
49 56 65
43 49 56
38 43 50
37 42 49
41 47 54
47 54 62
60 68 79
68 77 89
76 86 99
79 90 104
78 88 103
79 89 104
79 89 103
78 89 103
80 91 106
80 91 105
80 91 105
79 90 104
78 89 103
79 89 104
80 92 106
80 91 106
78 89 102
77 88 102
76 86 100
70 80 92
72 81 94
68 77 89
70 79 92
68 78 90
66 74 86
62 71 82
58 66 77
60 68 78
60 68 79
60 68 79
60 68 78
53 61 71
50 57 65
45 51 59
41 47 55
33 38 44
20 23 27
27 31 36
46 52 60
59 67 77
68 77 90
70 79 92
73 83 96
77 87 101
78 88 102
79 90 104
81 92 106
86 97 112
84 96 111
86 98 113
88 100 115
87 99 114
82 94 109
82 94 108
79 90 104
80 91 106
80 92 106
82 93 107
76 86 99
75 85 99
69 79 92
65 73 85
61 69 80
53 60 70
41 46 54
32 37 42
33 37 43
40 45 52
40 46 53
42 47 54
48 55 63
53 61 70
58 66 76
59 67 77
62 71 82
61 69 80
62 70 81
66 75 87
67 76 88
70 79 90
70 79 92
71 80 93
76 87 100
81 92 107
84 95 110
87 99 114
86 98 113
83 94 109
85 96 111
87 98 114
86 98 113
90 102 118
91 103 119
90 102 118
89 101 116
86 97 112
83 94 109
80 90 104
75 86 99
68 77 89
63 71 83
55 63 73
47 53 62
31 35 41
20 23 27
25 28 32
33 38 44
43 49 57
49 56 65
56 64 74
63 72 83
68 78 90
71 81 93
73 82 95
75 85 98
77 87 100
76 87 101
76 86 100
78 89 103
80 91 106
84 95 109
85 97 112
82 93 108
79 90 104
74 84 97
72 81 94
66 75 87
61 70 80
53 60 70
49 56 64
44 50 58
40 46 53
46 53 61
53 60 70
59 67 78
66 76 88
71 81 93
75 85 98
77 88 101
78 89 104
76 87 100
76 86 100
76 86 99
73 84 97
70 80 93
68 77 89
67 76 88
66 75 87
69 78 90
72 81 94
72 81 94
69 78 90
64 73 85
55 62 72
38 43 50
28 32 37
35 40 47
44 50 59
51 58 67
60 68 79
58 66 76
59 67 78
66 75 87
69 79 91
70 79 91
68 77 90
68 77 89
68 78 91
71 80 93
75 85 98
78 88 102
78 89 103
83 94 109
84 96 111
85 97 113
89 101 117
95 107 123
97 110 127
99 113 130
101 115 133
104 119 138
110 124 143
114 129 150
119 136 157
125 142 164
127 144 166
128 145 167
128 146 169
126 143 166
127 143 165
125 141 163
125 142 165
123 140 162
124 140 162
125 142 164
126 143 165
128 145 167
129 146 169
131 147 169
132 150 173
128 146 169
128 146 170
131 148 171
131 149 172
131 149 172
132 150 173
128 146 169
131 148 171
132 150 174
132 150 174
133 150 174
132 150 173
132 151 175
135 153 177
131 149 172
134 152 175
131 149 173
129 147 169
126 143 165
123 139 160
120 137 160
122 138 160
125 142 163
124 140 163
126 143 164
121 138 161
121 137 158
123 139 160
121 136 157
117 133 153
114 130 151
115 131 152
113 128 148
114 130 150
113 128 149
117 132 153
115 130 151
118 135 156
119 135 156
117 133 154
116 132 153
119 135 156
118 134 156
119 135 155
116 132 154
118 134 155
121 137 158
121 137 158
120 135 156
114 130 151
113 128 148
111 126 146
111 126 145
112 127 147
114 129 149
115 130 150
117 133 154
113 129 149
117 132 152
118 135 156
122 139 160
124 140 161
122 139 161
123 140 162
124 141 164
124 141 163
124 141 163
124 141 163
123 140 162
122 138 160
125 142 164
128 145 168
127 144 167
127 145 168
127 144 167
122 139 161
118 134 156
116 131 152
109 124 143
108 122 141
102 116 135
100 113 130
99 112 129
97 110 127
97 111 128
98 111 129
97 110 128
94 107 124
92 105 121
88 100 116
85 96 111
80 91 106
77 87 101
72 81 94
64 73 84
56 63 73
52 59 68
47 53 61
41 47 54
42 48 55
42 48 55
35 40 46
17 20 23
31 35 41
41 47 55
50 56 65
57 64 75
62 70 81
64 73 85
66 75 87
65 74 86
67 76 88
67 76 88
64 72 84
62 70 81
60 68 79
55 63 73
51 59 68
47 54 62
48 55 63
49 56 64
48 54 63
41 46 54
32 37 43
28 31 36
28 31 36
29 33 38
30 34 39
40 46 53
46 53 61
47 54 62
49 55 64
47 54 62
44 51 59
44 51 58
40 45 53
33 37 43
25 28 33
19 21 25
19 22 25
22 25 29
29 33 38
36 41 48
41 47 54
49 56 64
53 60 70
52 59 69
48 55 63
45 51 59
41 46 53
34 39 45
24 28 32
25 28 32
37 42 48
44 50 58
48 55 63
49 56 65
53 60 69
56 64 74
60 68 78
60 68 78
58 66 77
59 68 78
62 71 82
64 73 84
64 73 84
62 71 83
62 70 81
58 66 77
55 62 72
53 60 69
50 56 65
49 56 65
44 50 58
36 42 48
32 36 42
33 38 44
34 39 45
34 38 44
31 36 41
27 30 35
31 35 41
30 34 40
29 33 38
35 40 46
43 48 56
44 49 57
41 46 54
35 39 46
26 30 34
25 28 32
26 30 35
35 40 46
40 46 53
53 60 69
62 71 83
67 76 88
70 79 92
79 89 103
83 94 108
87 98 113
89 102 119
94 106 123
93 105 121
95 107 124
95 108 125
95 107 124
94 107 124
95 109 126
95 108 125
95 107 124
94 107 124
94 107 123
92 104 120
92 105 121
93 105 122
92 104 119
90 102 118
91 103 119
87 99 114
90 102 117
88 100 116
88 100 115
85 96 112
81 92 107
77 88 101
73 83 97
74 84 98
74 83 96
69 78 90
69 79 91
68 78 91
66 75 87
59 67 78
54 62 72
49 55 64
41 46 53
37 42 48
41 47 54
39 44 51
38 43 49
37 42 49
47 54 62
52 59 68
53 60 70
52 59 69
59 67 78
58 65 75
56 63 73
61 69 80
61 69 80
58 67 78
58 65 75
52 59 69
50 57 65
53 60 70
52 59 68
54 61 71
45 51 59
42 48 56
35 40 46
30 34 40
26 29 34
27 30 34
34 39 45
49 55 64
60 68 79
69 78 90
73 83 96
75 85 99
77 88 102
76 86 100
78 89 103
79 89 103
79 90 104
81 91 105
82 92 107
83 94 109
82 93 107
82 93 107
81 92 106
84 95 110
90 102 118
91 103 119
95 108 124
92 105 121
92 105 121
92 104 120
88 101 117
89 102 118
90 103 119
90 102 117
91 103 119
90 102 118
89 101 116
89 101 117
86 98 113
83 95 109
78 88 101
71 81 94
65 74 85
60 68 79
53 60 69
41 47 54
30 34 39
15 17 19
25 29 33
37 43 49
48 55 63
59 67 78
65 74 86
74 84 97
80 90 104
81 92 106
84 96 111
85 95 109
87 99 114
91 103 118
88 101 117
87 99 114
88 100 117
88 100 116
86 97 112
82 94 108
75 86 99
72 82 94
71 79 91
64 73 85
63 71 82
61 69 79
61 70 81
57 66 76
60 69 80
65 73 85
70 80 92
72 82 94
74 84 97
73 82 95
75 85 99
74 84 97
76 86 99
71 81 94
68 77 89
66 75 87
64 73 84
62 70 82
61 70 80
61 69 80
62 70 81
59 67 78
53 60 70
46 53 61
37 42 49
20 23 27
24 27 32
35 40 46
44 50 58
54 61 71
60 69 80
70 79 91
76 86 99
79 90 104
82 94 109
86 98 114
87 99 115
87 98 113
83 95 110
86 97 112
82 93 107
85 97 112
87 99 115
90 102 118
90 102 118
93 106 123
94 107 124
90 102 117
95 108 124
96 110 127
100 114 131
101 114 132
104 118 136
102 116 135
106 120 139
113 128 148
116 131 151
117 133 153
119 137 159
122 139 161
125 141 162
119 136 157
117 133 154
117 133 154
118 134 155
117 134 155
115 131 152
116 132 153
114 128 148
114 130 151
117 133 154
114 130 150
118 134 154
118 134 154
116 133 154
117 133 153
118 133 154
119 134 155
121 138 159
124 140 161
124 141 164
124 141 163
126 143 166
128 145 168
128 145 167
130 147 170
129 146 169
130 147 169
131 149 172
129 146 169
129 147 171
127 144 167
125 142 164
125 143 165
126 143 165
123 140 162
120 136 158
118 134 155
119 136 158
123 139 161
120 136 157
122 138 159
118 135 156
118 134 155
117 133 154
118 134 156
121 137 158
124 140 162
123 139 161
128 145 167
130 147 170
125 142 165
126 143 166
129 146 169
130 148 171
127 144 166
130 147 170
127 145 168
131 148 171
123 141 164
126 143 166
124 140 162
121 137 159
121 137 158
115 130 150
116 132 153
119 134 154
118 133 154
118 134 154
119 134 155
118 134 156
119 135 157
123 140 161
122 138 159
122 138 160
122 138 160
122 139 160
119 135 156
119 135 156
118 134 154
118 133 154
118 134 155
118 134 155
117 132 152
120 136 158
122 138 160
122 138 160
120 136 158
120 136 158
119 135 157
119 135 156
117 133 154
115 131 152
111 127 147
111 126 145
108 123 143
108 123 143
105 120 139
102 116 134
98 111 127
91 104 121
87 99 116
85 97 112
88 99 115
86 97 113
82 93 108
77 88 102
71 80 93
63 72 83
55 62 72
49 55 64
44 49 57
36 41 47
24 28 32
24 27 32
36 41 47
47 53 61
59 66 77
68 78 89
70 80 92
69 79 91
65 73 85
64 73 85
65 74 85
66 75 86
65 74 86
67 77 89
66 75 87
67 77 89
66 75 87
67 76 88
68 77 89
66 75 88
65 73 85
60 68 79
54 62 72
50 56 65
46 52 60
40 46 53
36 41 48
30 34 39
30 35 40
34 38 44
32 36 42
32 36 42
31 35 41
33 38 44
28 32 37
25 28 33
25 29 33
27 31 36
30 35 40
29 33 39
26 30 34
16 18 21
21 24 28
30 34 39
27 31 35
27 30 35
26 30 34
26 29 34
27 31 35
28 31 36
35 39 45
43 49 57
47 53 62
47 53 62
46 52 61
47 54 62
52 59 68
54 61 71
51 58 67
48 55 64
43 49 57
38 43 50
30 34 39
29 33 39
31 35 40
34 39 46
32 37 43
26 30 35
21 24 28
22 25 29
18 21 24
16 19 22
25 28 33
36 41 47
40 46 53
44 50 57
44 50 58
39 45 52
30 35 40
26 30 35
25 29 33
30 35 40
32 36 42
29 33 38
26 30 35
23 27 31
27 31 36
34 38 44
43 48 56
51 57 66
60 68 78
66 75 86
72 82 95
74 84 98
82 94 108
86 97 112
88 100 115
90 102 117
92 104 121
93 106 122
93 106 122
94 107 123
95 108 125
92 105 121
94 106 122
95 108 124
96 108 125
96 109 126
96 110 127
97 110 127
96 109 126
97 110 128
96 109 126
96 109 126
98 111 128
98 111 129
98 111 129
96 109 126
95 108 125
93 105 121
91 104 120
91 103 119
89 101 117
88 100 116
84 96 111
81 92 106
77 87 101
75 85 99
76 86 99
73 83 96
72 82 95
73 83 97
72 82 95
71 81 94
69 79 91
73 83 96
74 84 97
76 87 100
72 81 94
68 77 90
63 72 84
55 62 72
44 50 58
41 46 54
37 42 48
31 35 41
29 33 38
29 33 39
25 29 34
23 26 30
25 28 33
27 30 35
29 33 38
27 31 36
32 37 42
32 36 42
39 45 52
45 52 60
48 55 63
51 58 68
48 55 63
48 54 63
47 53 61
44 50 58
48 54 63
56 64 74
64 73 85
69 79 92
76 86 100
80 91 105
84 95 109
84 96 111
88 101 117
93 106 123
92 105 121
91 103 119
88 100 116
85 96 110
78 89 103
79 89 103
81 92 106
83 94 109
86 98 113
88 100 116
87 99 115
88 100 116
91 103 119
93 105 121
97 110 127
99 113 131
98 112 129
99 113 131
99 113 131
97 110 127
97 109 126
92 104 121
92 105 121
89 101 116
84 95 110
77 88 102
69 78 90
64 73 85
56 64 74
43 49 57
28 32 37
20 23 27
37 42 48
49 55 64
57 65 75
64 73 84
71 80 92
76 87 100
81 92 106
80 92 106
81 92 107
83 94 109
87 98 113
86 97 112
84 96 110
80 92 106
74 84 97
71 81 94
70 80 92
71 81 93
71 81 94
73 83 96
74 83 96
72 81 94
74 84 97
71 81 94
68 78 90
69 79 92
69 79 92
69 79 91
69 78 91
69 79 91
72 82 95
75 85 98
73 84 97
73 83 97
70 80 93
66 75 87
63 72 84
64 73 84
67 77 89
67 76 88
65 74 86
59 67 79
55 63 73
54 61 71
50 57 66
47 53 61
43 48 56
34 38 44
26 29 34
24 27 31
42 48 56
53 61 71
63 71 83
70 80 93
78 88 102
85 96 111
88 101 116
92 104 120
94 107 123
92 104 120
90 102 118
92 104 120
94 107 123
95 108 125
97 110 127
101 114 132
102 117 135
101 115 133
99 113 132
95 108 125
97 110 127
100 113 130
101 114 132
104 118 136
104 118 137
103 118 136
103 117 134
103 118 136
103 117 136
103 118 137
106 121 140
111 126 145
112 127 148
115 130 151
112 128 149
113 128 148
110 126 146
112 126 145
111 126 145
108 123 142
108 122 141
105 119 138
107 120 138
105 120 138
108 123 142
104 118 137
105 120 139
108 123 142
109 123 142
108 123 143
112 126 146
113 128 147
112 127 147
112 126 146
110 126 146
115 131 152
118 134 154
120 136 158
122 139 160
125 141 163
124 142 165
126 144 167
127 144 167
126 144 166
128 145 168
124 141 163
123 139 161
122 139 161
125 141 163
122 138 159
125 142 164
125 142 164
125 142 164
126 143 165
128 145 168
125 142 164
127 144 166
123 140 162
126 143 166
128 146 169
131 149 172
130 149 173
134 153 178
133 152 175
135 154 178
134 151 174
134 152 176
135 154 178
137 155 180
136 154 178
138 157 182
136 154 178
133 152 176
133 151 175
127 145 168
132 150 172
129 146 168
124 140 162
120 137 159
119 135 156
117 133 154
120 136 157
124 140 162
123 139 160
122 139 161
124 140 162
122 139 161
124 140 161
116 132 153
116 132 153
116 132 152
114 129 149
112 128 149
112 127 147
114 130 150
115 130 150
116 132 154
117 133 154
120 136 157
118 134 155
116 132 153
116 133 154
118 134 154
118 134 155
118 134 156
116 133 154
114 129 150
110 125 144
109 124 143
108 122 140
104 118 137
102 115 133
101 115 133
98 111 129
93 105 122
87 98 114
84 96 111
83 94 108
77 88 102
68 77 89
61 69 79
51 58 67
42 48 56
32 36 42
17 19 23
25 28 32
40 46 53
49 55 64
57 65 75
82 93 108
83 94 108
81 92 106
78 89 103
76 87 100
76 86 100
76 87 101
76 86 100
73 83 96
71 81 94
72 82 95
71 80 93
71 80 93
74 83 96
74 85 98
73 83 96
68 78 90
66 74 85
67 76 88
69 78 90
69 78 91
70 80 92
67 76 88
69 78 90
65 74 86
66 74 86
65 75 87
59 67 77
54 61 71
47 53 62
45 51 59
47 53 62
47 54 62
45 51 59
38 43 50
31 35 41
22 26 30
21 24 27
22 25 29
23 27 31
26 29 34
28 32 38
39 44 51
46 52 60
51 58 67
52 59 69
50 57 66
46 52 60
41 46 54
40 45 52
38 43 49
34 38 44
27 30 35
27 31 36
27 30 35
25 29 33
21 23 27
15 17 20
19 21 25
26 30 35
28 32 37
30 34 39
34 38 45
39 44 51
41 46 54
45 51 59
49 56 64
55 62 72
57 65 75
58 66 76
58 65 75
54 61 71
51 58 66
48 55 64
50 57 66
45 51 59
40 45 53
37 42 48
32 36 42
32 36 41
37 42 49
45 51 59
50 57 66
55 63 73
59 68 78
63 71 83
65 74 86
71 80 93
73 83 97
79 90 105
86 97 112
88 101 117
93 106 123
95 107 124
95 108 124
97 110 127
95 109 126
98 111 129
97 110 128
97 110 127
98 111 128
100 114 132
101 114 132
104 118 136
102 115 133
104 118 136
106 119 137
103 117 136
107 121 139
105 118 137
106 120 138
105 119 138
104 118 137
100 113 131
94 108 125
91 103 119
87 99 115
85 97 112
83 94 109
77 87 101
77 88 101
76 86 100
75 86 99
77 88 102
80 91 105
82 93 107
81 91 105
81 92 107
85 96 110
82 94 109
83 94 109
86 98 113
87 99 115
84 96 111
80 91 105
76 86 100
69 78 91
63 72 83
56 64 74
56 63 73
55 63 74
50 57 66
41 46 53
37 42 49
38 43 50
40 46 54
42 48 56
39 44 51
39 44 51
43 49 57
48 55 64
56 64 74
61 69 80
62 70 81
61 69 79
61 69 80
59 67 77
57 65 75
59 67 77
61 69 79
67 76 88
72 82 95
79 90 104
81 93 108
86 97 113
92 105 121
94 108 125
99 113 130
97 111 128
99 112 130
94 107 124
92 104 121
88 100 116
84 95 110
85 96 111
84 96 110
84 96 111
84 96 112
89 101 116
88 100 115
90 101 117
93 105 121
97 110 128
100 112 129
99 112 130
101 114 132
99 113 130
99 112 129
98 111 128
96 110 127
99 112 129
98 111 128
97 110 127
94 107 124
92 105 122
91 103 119
83 94 109
74 84 97
65 73 84
52 59 68
42 47 55
33 37 43
30 33 39
32 36 42
35 39 46
47 53 62
59 66 76
66 75 87
72 82 94
76 86 99
76 86 100
76 87 101
76 86 100
77 87 100
73 83 96
70 79 92
68 77 89
67 76 88
67 77 89
67 76 88
64 73 85
66 75 87
66 75 86
67 76 87
65 74 85
61 69 80
60 68 79
65 73 85
69 78 90
71 81 93
73 83 96
71 81 94
75 85 99
75 85 99
76 86 100
77 88 102
77 87 101
77 88 102
77 88 103
76 87 100
77 87 100
73 83 97
72 82 94
70 79 91
66 75 87
65 74 85
63 71 82
60 68 79
52 59 69
43 49 57
28 32 37
32 36 42
42 48 55
55 63 73
62 69 80
65 74 86
68 77 88
71 80 93
72 81 94
71 80 93
71 81 94
77 88 102
82 93 107
86 98 113
87 100 115
90 101 117
91 104 121
93 106 122
96 109 127
95 109 126
97 110 128
97 110 128
104 117 135
104 118 136
103 118 137
104 118 137
106 121 140
105 119 139
106 121 141
107 122 141
106 120 139
107 121 139
108 122 141
107 122 142
111 127 147
110 125 146
112 127 148
110 125 145
110 125 144
105 119 138
107 121 140
106 120 139
105 120 138
102 116 135
103 117 136
103 118 136
102 117 135
104 119 137
104 119 138
105 120 138
103 117 136
101 115 134
102 116 134
100 113 131
100 113 131
100 114 132
102 116 133
104 117 135
107 122 141
107 121 140
111 126 146
111 126 146
113 128 149
114 129 150
116 132 152
118 134 155
118 133 154
116 132 153
120 136 157
120 136 158
122 137 158
124 141 163
128 146 170
133 151 175
132 150 174
135 153 176
133 151 175
134 152 177
136 154 177
136 154 177
133 151 176
134 153 177
135 154 178
136 155 178
136 154 178
137 155 179
135 152 176
135 153 178
134 152 176
132 151 175
135 153 177
132 150 173
133 151 174
132 150 174
129 147 170
129 147 170
127 145 168
126 143 165
124 140 161
119 136 158
122 138 160
122 138 159
123 139 161
125 142 164
127 143 165
128 145 167
125 141 163
123 140 162
124 139 160
120 136 157
119 135 156
116 131 152
113 129 149
110 125 145
109 123 142
106 122 141
109 124 143
109 124 143
110 125 144
109 124 143
109 124 143
107 121 140
104 118 136
102 115 133
101 114 131
101 114 132
99 112 130
98 111 129
99 112 129
96 109 125
95 107 124
93 105 121
94 107 125
97 109 126
95 108 125
94 107 124
94 107 123
89 101 117
88 100 115
84 95 111
75 85 99
72 82 95
60 68 79
47 54 62
37 42 49
25 28 33
20 23 26
34 38 45
44 50 58
52 59 68
90 102 118
90 103 118
86 97 113
88 99 115
90 102 118
93 105 121
92 104 120
91 104 121
93 105 122
91 104 121
90 103 119
88 100 116
88 100 116
86 99 115
86 98 114
85 97 112
85 96 111
84 96 111
85 96 111
87 98 113
87 99 115
87 99 114
86 99 114
84 96 111
84 95 110
80 91 106
77 87 101
75 85 98
67 76 88
62 70 81
61 69 80
58 66 77
59 67 78
60 68 79
57 65 75
54 61 71
51 58 67
47 53 61
45 51 59
40 45 53
43 48 56
48 54 63
51 58 67
49 56 65
49 55 64
50 57 66
50 57 66
54 61 71
54 62 71
53 60 70
51 58 68
46 52 60
41 47 54
37 42 49
34 39 45
35 40 46
29 32 38
14 16 19
19 21 25
30 35 40
36 41 47
40 45 52
45 51 58
49 55 63
51 58 68
53 60 69
53 61 70
51 58 67
48 54 62
45 51 60
50 56 65
50 57 66
48 54 63
45 51 59
38 43 50
37 42 48
39 44 51
31 35 41
25 28 32
24 27 32
27 31 36
33 37 43
40 45 52
44 50 58
48 54 63
51 59 68
56 63 73
60 68 79
64 73 85
71 81 94
77 87 101
82 93 107
89 101 117
92 104 120
91 104 120
92 104 120
90 102 118
90 103 119
93 106 123
93 106 123
93 105 122
94 107 124
95 108 126
100 114 131
96 109 126
96 108 125
97 109 126
96 109 126
100 113 130
100 114 131
101 114 132
99 113 131
99 112 130
94 107 125
89 101 117
89 101 116
87 99 115
87 98 113
86 97 113
84 96 112
84 95 110
84 96 110
87 98 113
89 101 117
92 104 120
92 105 121
91 103 120
91 103 119
90 102 118
92 104 121
94 107 124
91 103 120
93 105 121
92 104 120
91 104 120
84 96 111
78 89 104
77 87 101
72 82 95
66 74 86
59 67 77
54 61 70
48 54 63
49 56 65
53 60 69
56 63 73
57 64 75
56 63 73
58 66 76
60 68 79
62 71 82
63 72 83
62 71 82
63 72 83
62 71 82
66 75 87
72 82 95
74 84 97
72 82 95
74 84 97
79 90 104
83 94 109
87 98 113
91 103 120
95 108 125
96 108 125
98 111 127
97 111 128
94 107 123
96 109 127
94 107 123
97 110 127
98 111 129
95 109 127
97 110 127
95 108 125
94 107 123
93 105 122
92 105 122
93 105 122
97 110 127
99 113 131
101 115 133
102 117 135
101 115 134
103 117 136
104 118 137
104 119 138
103 116 134
102 116 134
104 117 135
103 117 135
100 114 132
98 111 129
95 108 124
91 104 121
88 100 116
84 96 111
79 89 103
70 79 92
65 74 86
59 67 77
56 64 74
50 57 66
41 47 54
28 32 38
37 43 49
51 58 67
58 66 76
62 70 80
65 74 85
63 71 83
61 70 81
62 70 81
59 67 78
53 60 69
51 58 67
51 59 68
55 62 73
55 62 72
51 58 67
50 56 65
48 55 63
46 52 61
43 49 56
43 49 57
45 51 59
50 56 65
51 58 67
54 61 70
55 62 72
57 65 76
63 72 83
67 76 88
68 78 90
69 78 90
72 82 95
74 84 98
74 84 97
74 84 97
75 85 99
76 86 100
75 85 98
73 83 97
69 78 90
67 77 89
68 77 89
66 74 86
57 65 76
50 56 65
39 44 51
27 31 36
20 23 27
37 42 49
44 50 58
50 57 66
55 63 73
57 65 75
56 64 74
54 61 71
57 65 75
62 71 82
66 75 87
72 82 95
75 85 98
74 85 99
80 91 105
86 98 113
89 101 117
90 101 117
90 102 119
92 105 122
97 110 128
102 116 135
106 121 140
106 121 140
109 124 143
109 124 143
109 124 144
108 122 141
108 123 142
105 120 139
107 121 141
105 120 139
106 121 140
106 120 139
107 122 141
103 118 137
101 114 133
100 114 131
93 106 123
91 104 121
93 105 120
90 102 118
87 99 115
87 99 115
83 95 110
89 101 116
91 103 119
90 102 118
91 103 118
84 96 111
86 97 113
86 98 113
88 100 116
87 99 114
88 99 115
93 105 122
93 106 123
96 109 126
98 111 129
101 115 132
101 115 134
103 118 137
104 119 138
109 123 143
113 128 147
112 128 148
116 132 153
115 130 150
117 132 153
118 135 156
120 136 158
121 137 158
124 140 162
127 144 166
126 143 165
132 149 172
133 151 175
134 151 174
134 152 175
132 150 173
132 150 174
133 151 175
133 151 174
135 153 176
132 149 172
131 148 172
128 145 168
126 144 166
126 143 166
124 141 163
121 138 159
122 139 160
121 138 159
121 138 160
119 135 156
121 138 160
121 137 158
120 136 157
117 133 152
117 133 154
120 136 158
119 135 156
120 137 158
122 139 160
122 139 160
121 136 157
118 134 154
117 133 154
116 132 152
109 124 143
109 125 145
109 124 143
108 122 142
103 118 137
101 115 133
96 109 126
95 108 125
93 106 123
93 106 122
89 101 117
84 96 111
81 92 106
79 90 104
78 88 102
75 85 98
76 87 100
75 85 99
77 88 102
78 88 102
78 89 103
83 94 109
86 98 114
88 100 116
89 101 117
88 100 116
85 96 112
83 94 108
81 92 107
75 86 99
68 77 90
58 65 75
43 49 57
23 26 30
17 20 23
28 32 37
36 41 47
39 45 52
44 50 57
98 111 129
98 112 129
101 115 133
103 117 135
105 119 138
102 117 135
105 119 137
102 115 133
99 113 130
96 109 126
98 111 128
95 108 126
94 107 124
96 109 126
94 107 124
96 108 124
94 106 122
93 106 123
92 105 121
90 102 118
87 99 115
87 98 114
82 92 107
82 94 108
78 89 103
76 86 100
72 82 95
69 78 90
65 74 86
62 70 81
62 70 81
62 71 82
63 72 83
63 72 83
62 71 82
61 69 79
58 65 76
56 64 74
55 62 72
55 63 72
58 66 76
61 70 80
60 68 79
56 64 74
55 63 73
56 64 74
54 62 72
54 62 72
57 65 75
58 66 77
58 66 77
55 63 73
52 59 68
43 49 57
28 32 37
14 16 19
22 25 29
29 33 38
37 42 48
45 51 58
48 55 63
50 56 65
52 59 69
52 60 69
53 60 69
56 64 74
59 68 79
61 69 80
61 69 80
60 68 79
56 63 73
51 58 67
43 49 56
34 39 45
26 29 34
22 25 29
23 26 30
17 20 23
15 17 20
22 25 29
29 33 38
34 39 45
40 45 52
46 53 61
54 61 71
55 63 73
58 66 76
60 68 79
60 68 79
60 68 78
61 69 80
65 74 86
73 83 95
74 84 97
73 83 96
73 83 96
73 83 95
77 87 100
81 92 106
84 95 110
82 94 108
85 97 112
87 99 115
85 96 111
82 93 108
81 92 106
80 91 106
83 94 109
86 98 113
90 102 118
93 105 121
91 104 121
91 104 120
90 103 119
91 104 120
91 103 119
92 104 120
91 103 120
89 101 117
89 101 117
91 103 120
92 104 121
94 106 123
96 109 126
97 110 127
95 108 125
97 110 127
95 108 125
93 105 122
90 102 118
91 103 119
92 104 121
95 108 124
96 109 126
95 107 123
91 104 119
87 100 116
85 96 111
81 93 107
77 87 101
73 82 95
69 79 92
69 78 90
68 78 90
64 74 86
63 71 82
61 69 80
61 69 80
62 71 82
64 73 85
67 76 88
70 79 91
69 78 90
70 80 93
72 82 96
77 87 101
79 90 105
82 93 108
81 92 106
80 91 106
84 95 110
87 99 114
90 102 118
91 103 119
95 108 125
94 107 124
93 106 122
92 105 122
92 105 121
90 102 118
90 103 119
94 107 123
96 109 126
96 109 126
98 111 129
100 113 131
102 116 134
103 117 136
101 114 132
98 111 128
96 109 126
98 111 128
96 109 127
96 109 126
97 110 127
98 112 129
98 112 129
98 111 129
95 107 124
96 108 125
96 109 127
94 106 123
89 101 116
89 102 118
91 103 118
88 101 117
88 100 115
86 98 112
81 91 106
76 86 99
72 82 95
70 80 93
66 75 88
62 70 81
54 62 72
45 52 60
35 39 45
28 32 37
29 32 37
25 29 34
25 28 33
30 35 40
34 39 45
38 43 49
31 35 41
29 33 38
29 33 39
27 30 35
27 30 35
30 34 39
27 31 36
20 23 26
16 18 21
14 16 18
17 19 22
24 27 32
25 29 33
20 22 26
11 13 15
19 21 25
24 27 31
29 33 39
39 44 51
49 56 65
55 63 72
60 69 79
64 73 85
66 75 87
63 72 83
62 71 82
61 69 80
60 68 79
59 68 78
64 72 84
63 71 82
62 70 81
61 69 79
55 62 72
48 55 64
41 46 54
30 34 39
18 21 24
22 26 30
35 39 45
43 49 56
47 53 61
50 56 65
53 61 70
55 62 72
55 63 73
57 64 75
57 64 74
58 65 75
62 71 82
68 77 89
70 80 92
76 86 100
83 94 109
87 99 115
92 105 122
93 106 123
96 109 126
97 110 128
104 118 137
108 123 141
109 124 143
114 130 150
112 128 148
111 125 145
110 125 144
108 123 143
107 121 139
103 118 137
99 112 129
99 112 130
94 107 124
94 107 125
92 105 122
91 103 118
85 97 112
80 90 104
77 88 101
78 89 103
73 83 95
66 76 88
62 70 81
59 67 77
55 62 72
56 63 73
58 66 76
55 63 73
55 63 72
57 65 75
59 67 77
66 75 86
67 76 89
69 79 92
76 86 99
80 90 104
84 95 110
87 99 114
86 98 114
88 100 116
88 100 116
90 102 118
90 102 118
93 105 121
96 108 125
97 110 127
96 109 126
97 110 126
98 112 130
104 118 136
104 118 137
106 121 140
112 127 146
113 128 148
119 134 155
126 142 164
126 142 164
127 144 167
128 145 168
129 147 170
129 146 169
127 145 168
130 147 169
124 141 162
123 140 162
123 140 161
119 135 157
121 138 160
118 134 155
117 132 152
115 130 151
116 132 152
115 131 151
114 130 150
114 130 150
111 126 146
111 125 145
110 126 146
109 123 143
113 128 148
113 128 149
116 132 153
115 131 151
115 131 152
119 134 155
116 131 151
113 128 149
112 127 147
109 124 144
109 124 144
111 126 145
109 124 143
107 121 140
103 116 134
99 112 129
92 105 121
85 97 112
82 93 107
79 90 104
76 87 100
71 81 93
68 77 90
63 72 83
58 66 76
57 64 74
56 63 73
58 66 76
61 70 81
68 77 90
68 77 90
69 78 90
69 78 90
68 78 90
65 74 85
65 74 86
65 73 85
63 71 82
59 67 78
54 61 70
47 53 61
41 47 54
29 33 39
17 19 23
33 37 43
45 51 60
52 59 69
60 68 78
109 124 143
109 124 143
110 125 145
110 124 144
107 122 141
109 123 141
106 120 139
102 115 133
98 112 129
96 110 127
99 112 129
98 112 129
99 112 129
97 110 127
98 110 128
92 105 122
90 102 117
88 100 116
87 99 115
88 100 115
87 98 114
81 92 107
77 88 102
74 84 97
71 81 94
62 71 82
55 62 72
51 57 66
47 54 63
42 48 55
40 46 54
39 45 52
35 39 46
37 42 49
37 42 49
39 44 51
38 44 50
39 45 52
44 50 58
46 52 61
45 51 59
41 46 54
44 50 58
42 47 54
40 46 53
41 46 53
43 49 56
45 51 58
44 49 57
46 53 61
46 53 61
47 53 61
44 50 58
38 43 50
28 32 37
20 23 26
18 20 23
30 34 39
42 47 55
48 55 64
53 60 69
52 60 69
55 63 73
57 64 74
58 66 77
59 67 78
60 68 78
57 65 75
56 63 73
48 55 63
41 47 54
38 43 50
37 42 49
29 33 38
20 23 27
20 22 26
17 20 23
24 27 32
32 36 42
44 50 57
47 54 62
51 58 67
55 62 72
61 69 80
61 69 80
61 69 80
60 68 79
61 69 81
57 65 75
54 61 71
53 60 70
51 58 68
47 53 62
45 51 59
47 54 62
51 58 67
53 60 70
59 67 77
64 73 85
66 75 87
71 81 94
73 83 96
76 86 99
75 85 99
76 86 100
77 88 101
80 91 106
84 95 111
87 98 114
89 100 116
89 102 118
92 105 121
93 106 123
95 108 124
97 110 128
96 109 126
95 108 125
92 104 119
90 102 118
92 105 122
92 105 121
92 105 122
93 106 122
91 104 120
90 103 119
94 107 124
95 108 126
96 108 125
92 104 120
93 105 122
92 105 122
91 104 121
93 106 123
95 108 124
93 106 124
92 105 122
92 105 122
91 103 119
88 100 115
86 98 113
86 97 112
84 96 112
83 94 110
81 92 107
77 87 101
72 82 96
73 83 96
72 82 94
71 81 94
73 83 96
73 82 95
72 82 95
74 84 98
76 87 100
77 88 101
78 89 103
79 90 104
83 95 110
85 96 111
85 97 112
88 100 116
93 104 120
92 104 121
93 107 124
95 108 125
96 108 124
94 107 124
93 105 122
93 106 123
93 106 123
95 108 124
94 107 123
91 104 121
95 108 125
95 108 124
95 108 124
95 108 125
95 109 126
95 108 124
93 105 122
89 100 115
88 99 114
85 96 112
82 93 108
83 93 108
86 97 113
87 99 114
88 100 115
85 97 112
83 95 111
83 94 109
82 93 107
78 88 102
74 83 96
74 85 98
78 89 103
79 90 104
80 90 105
79 89 103
77 87 100
73 83 96
69 78 91
70 79 91
64 73 84
64 72 84
60 68 78
54 61 70
46 52 60
37 42 49
33 37 43
22 25 29
17 19 22
15 17 20
17 19 22
19 22 25
21 24 28
12 14 16
19 22 25
21 24 28
20 22 26
21 24 27
22 25 29
25 28 32
25 29 33
25 28 33
23 26 30
21 24 27
17 19 23
16 18 21
16 18 21
20 23 26
21 24 28
19 21 24
25 29 34
39 45 52
46 53 61
51 58 67
60 68 79
65 73 84
65 74 85
63 72 84
65 74 85
64 73 84
65 74 85
67 76 88
66 76 88
64 72 84
60 68 79
53 60 69
47 53 62
41 47 54
32 36 42
23 26 30
19 22 25
25 28 32
33 37 43
37 42 49
41 46 54
47 53 61
48 55 64
49 56 65
50 56 65
54 61 71
60 68 79
64 73 84
68 78 90
73 83 96
79 90 104
81 92 107
83 95 110
88 100 115
93 105 121
97 110 127
101 114 131
102 116 135
102 116 134
109 124 143
111 125 145
109 123 143
107 121 141
108 123 142
105 119 138
102 115 133
99 112 129
98 110 127
91 104 120
86 98 114
84 95 111
82 93 109
80 91 105
73 83 97
67 75 87
60 69 80
54 61 71
50 57 66
47 54 62
45 52 60
43 49 56
37 42 49
28 31 36
18 21 24
25 29 33
28 32 37
28 32 37
31 35 41
34 39 45
33 37 43
40 46 53
46 52 60
50 57 65
60 68 79
66 75 86
66 75 87
70 79 91
68 77 90
71 80 92
70 80 93
74 84 97
76 86 100
77 88 102
77 87 101
79 90 104
86 97 113
91 103 120
92 104 120
95 108 125
100 113 131
105 120 139
110 124 144
113 129 149
117 133 153
119 134 155
118 134 155
119 135 157
122 138 159
117 133 153
121 138 160
117 133 153
115 131 151
110 125 145
108 123 142
106 121 140
106 119 137
102 116 134
104 117 135
101 114 131
95 108 126
91 104 120
89 102 118
90 102 118
89 101 117
97 110 127
99 112 130
102 115 133
104 117 135
103 117 135
103 118 137
106 121 140
110 125 145
113 127 147
112 128 148
111 126 147
111 126 145
108 123 142
107 121 140
102 115 133
98 112 129
95 108 125
91 104 121
87 99 114
83 94 108
79 90 104
74 85 99
69 79 91
63 72 83
59 67 78
53 60 69
49 55 64
46 53 61
42 48 56
42 48 55
46 52 60
46 53 61
43 49 56
39 44 51
42 48 55
44 50 57
45 52 60
48 54 63
49 56 65
48 54 62
45 51 59
45 52 60
42 48 55
36 41 47
26 30 35
24 27 32
37 42 48
47 54 62
51 58 67
111 126 145
113 128 147
110 125 145
107 122 140
106 120 139
102 116 134
100 113 131
97 110 127
95 108 125
95 108 125
92 104 121
94 107 123
93 106 122
92 104 120
90 103 119
87 99 115
88 100 115
86 97 113
82 93 107
77 87 101
74 83 96
71 80 92
67 76 88
64 72 84
56 64 74
48 54 63
40 45 52
27 31 36
21 24 28
20 23 26
26 29 33
39 44 51
39 45 52
39 44 51
34 39 45
34 39 45
29 33 38
24 28 32
21 24 28
21 24 28
29 33 38
35 40 47
30 34 39
17 19 22
18 21 24
25 29 33
26 30 35
30 34 39
35 40 47
37 42 49
38 43 49
37 43 49
37 42 48
36 41 47
30 34 40
25 29 34
18 20 23
16 19 22
27 31 36
31 35 40
34 39 45
38 43 50
38 43 50
44 50 58
49 56 65
52 60 69
52 59 68
48 55 63
39 45 52
30 34 39
22 26 30
23 27 31
26 29 34
25 29 33
29 33 38
33 38 43
39 44 51
47 53 61
54 61 71
54 62 72
56 64 74
58 66 76
61 69 80
63 72 83
62 70 81
59 67 77
54 62 72
53 60 70
53 60 70
53 60 70
50 57 66
48 55 63
44 51 59
45 52 60
47 53 62
49 55 64
55 62 72
58 66 76
58 66 77
62 70 81
67 76 87
70 80 93
72 82 94
74 84 98
78 88 102
81 92 106
83 95 110
86 98 113
88 100 116
88 100 116
93 105 122
93 105 121
95 107 124
97 110 127
97 110 127
97 109 126
98 111 128
97 111 129
101 115 132
100 114 131
99 113 130
99 113 130
97 110 127
99 113 130
99 113 131
99 112 129
97 110 128
96 109 126
96 109 126
97 110 128
101 114 132
102 115 133
100 113 131
101 114 132
100 114 131
97 110 128
95 108 126
94 106 122
88 100 116
84 95 110
83 94 109
82 94 108
81 91 106
82 93 107
82 93 108
83 94 109
82 93 108
81 92 106
78 88 102
74 84 97
67 76 88
64 73 85
64 72 83
63 72 83
64 72 84
65 74 85
66 75 87
70 79 92
68 78 90
70 79 91
74 84 97
81 92 106
85 97 112
89 102 118
91 104 120
92 105 122
93 106 122
94 106 122
89 101 117
91 103 119
90 103 119
90 102 118
89 101 116
90 102 118
89 101 116
87 99 114
85 97 111
82 93 108
80 91 105
79 90 104
77 88 102
75 85 99
69 79 91
67 76 88
69 78 90
67 76 88
66 74 85
65 74 86
66 75 87
60 68 79
52 60 69
55 63 73
54 61 71
54 61 71
53 60 69
56 64 74
59 68 78
63 71 83
64 73 85
63 72 84
63 72 84
61 70 81
61 70 81
62 71 82
61 69 80
60 68 78
57 65 75
52 60 69
45 51 59
36 41 48
31 35 41
31 35 41
32 36 42
33 37 43
28 32 37
26 30 35
21 24 28
14 16 19
22 25 29
27 31 36
33 38 44
36 41 48
42 48 55
43 48 56
37 42 49
31 36 41
28 32 37
25 29 33
18 20 24
30 35 40
36 41 47
36 41 48
31 36 41
20 23 27
25 28 33
28 31 37
37 42 49
45 51 59
50 57 65
51 58 67
53 60 70
54 61 71
58 66 76
60 68 79
64 72 84
68 77 89
70 80 92
70 79 92
66 75 87
61 69 80
58 66 77
54 61 71
50 57 66
46 53 61
43 48 56
35 40 46
26 30 35
27 31 36
28 33 38
34 38 44
34 39 45
36 41 47
38 43 49
43 49 57
50 57 66
58 65 76
61 69 80
65 74 85
70 80 93
74 84 97
78 89 104
81 92 107
87 99 115
90 101 117
93 106 122
98 111 128
98 112 129
100 113 131
102 115 133
99 113 130
98 112 129
98 111 129
96 109 127
95 108 125
90 102 118
87 99 114
81 92 107
79 89 103
75 85 99
72 82 95
66 75 86
59 67 78
51 58 67
41 47 54
34 39 45
31 35 41
26 29 34
25 29 33
20 23 27
21 24 27
20 23 27
14 16 18
19 22 25
26 29 34
26 29 34
23 26 30
19 22 25
20 23 27
21 24 28
19 22 25
26 29 34
33 37 43
35 40 46
40 45 52
40 46 53
43 49 57
45 51 59
40 45 53
47 53 61
54 61 71
61 69 80
66 75 87
70 79 91
73 84 97
78 88 102
81 92 107
87 98 113
90 102 118
96 109 126
100 114 132
103 117 135
108 122 141
111 125 144
108 123 142
107 121 140
107 121 140
105 119 138
105 120 139
103 117 135
104 118 136
101 114 133
97 110 127
91 103 119
83 94 108
79 89 103
74 84 97
71 80 93
65 74 86
67 75 87
65 74 85
65 74 85
72 82 95
76 87 101
85 96 111
86 98 114
89 101 117
93 106 122
99 112 130
101 114 132
104 118 137
106 121 140
107 122 142
105 120 139
103 117 135
99 113 131
94 106 122
91 104 120
84 96 111
80 91 105
75 85 99
67 76 88
63 72 83
60 68 79
57 65 75
53 60 70
47 54 62
37 42 49
30 34 39
27 31 36
23 27 31
23 26 30
20 23 26
18 21 24
18 21 24
19 22 26
21 24 27
22 25 29
22 24 28
21 23 27
20 23 27
18 20 23
20 23 27
26 29 34
30 34 39
29 33 38
25 29 33
34 38 44
38 43 49
39 44 51
41 46 53
107 122 142
110 125 145
112 127 146
107 122 141
103 117 136
97 111 129
93 105 121
88 100 116
85 97 113
86 97 113
82 94 108
82 94 109
82 93 108
79 89 103
78 88 102
74 84 98
70 80 93
70 79 91
67 76 88
64 73 84
60 68 79
55 63 72
49 55 64
37 43 49
27 31 36
15 17 19
23 27 31
31 35 40
35 40 46
42 48 56
48 55 63
52 59 68
53 61 71
55 62 72
58 66 76
58 66 77
53 60 69
46 53 61
46 53 61
47 54 63
49 55 64
45 51 59
39 45 52
29 33 39
19 22 25
17 20 23
18 20 24
19 22 26
23 26 31
25 28 33
23 27 31
18 20 24
18 20 24
24 27 31
24 27 31
20 23 27
16 18 21
16 18 21
20 23 27
29 33 38
35 40 47
36 41 48
34 39 45
37 42 48
40 45 52
43 48 56
42 48 55
42 47 55
35 40 47
26 29 34
19 22 25
20 23 27
22 25 29
29 33 38
36 41 48
36 41 48
37 41 48
40 45 52
45 52 60
50 57 65
46 52 60
48 55 63
48 55 64
52 59 68
56 64 74
60 68 78
62 70 81
63 71 82
62 70 80
61 70 81
59 67 78
61 70 80
63 72 83
61 69 80
58 66 77
60 68 79
62 71 83
67 76 88
68 77 89
68 78 90
73 82 95
77 88 102
80 91 105
82 93 108
85 97 112
85 96 111
87 99 115
88 100 116
90 102 118
89 101 117
92 104 121
96 109 126
99 112 129
101 114 132
99 113 131
100 114 131
100 114 132
103 118 137
108 122 141
107 122 141
109 124 144
106 120 139
105 119 137
102 116 134
105 120 138
105 119 138
104 119 137
106 120 139
105 119 138
106 120 139
105 119 137
103 117 135
101 115 133
99 112 130
96 110 127
97 110 128
96 108 125
93 106 122
89 102 119
90 102 119
87 99 114
88 99 115
85 97 112
83 95 110
79 90 105
77 87 102
75 85 99
70 79 91
67 76 88
61 69 79
53 60 69
39 44 51
33 38 44
31 36 41
33 38 44
33 38 44
37 42 49
39 45 52
47 53 62
55 62 72
61 69 80
68 77 89
72 82 94
77 87 101
76 87 100
80 91 105
80 91 105
77 88 103
76 86 100
77 87 100
75 85 99
77 87 101
74 84 97
72 82 95
68 78 89
63 72 84
62 71 82
61 70 81
61 69 79
59 67 77
57 65 75
55 63 73
53 61 70
50 57 66
49 55 64
49 55 64
42 48 56
39 44 51
32 37 42
23 27 31
22 25 29
22 25 29
25 28 32
24 27 32
27 30 35
30 35 41
38 43 49
38 44 50
46 52 59
45 51 59
46 52 60
48 54 63
50 56 65
47 53 61
46 53 61
46 52 60
47 53 61
48 54 63
46 52 60
45 51 59
44 50 58
42 47 55
38 43 50
33 38 44
27 31 36
17 20 23
13 15 18
16 18 20
19 21 25
25 28 33
27 31 36
29 33 38
30 34 39
27 31 36
27 31 36
25 29 33
27 31 35
33 37 43
41 46 54
48 54 62
51 58 67
48 55 63
44 50 58
38 43 50
31 36 41
27 31 36
24 27 31
24 27 31
23 26 30
22 25 29
23 26 30
28 32 37
39 44 51
48 55 63
57 65 75
58 66 76
63 72 83
64 72 84
65 74 85
63 71 83
61 70 80
60 68 78
58 65 76
58 66 76
53 61 70
48 55 64
42 48 55
35 40 46
23 26 30
17 19 22
23 26 30
33 37 43
41 47 54
52 59 68
59 67 77
64 73 85
68 77 89
69 78 91
75 84 97
79 90 104
84 95 110
87 99 115
90 102 118
93 105 122
93 106 122
96 108 125
96 110 127
99 112 129
100 113 131
100 113 131
97 110 128
96 109 126
95 107 124
91 103 120
92 104 120
87 99 114
83 94 109
79 90 104
74 84 98
69 79 91
65 74 85
59 67 78
49 56 64
34 39 45
24 28 32
19 22 25
22 25 28
21 24 27
16 19 22
17 19 23
23 26 30
30 34 39
31 35 40
38 43 50
42 48 56
46 53 61
46 53 61
48 54 63
52 59 68
52 59 68
54 62 72
58 65 76
54 62 72
55 62 72
53 60 69
46 53 61
43 48 56
40 46 53
36 40 46
24 28 32
28 33 38
31 35 41
35 39 46
34 39 45
41 46 53
47 53 61
55 63 73
57 65 75
64 73 84
65 74 86
72 82 95
75 85 98
81 92 107
84 96 111
81 92 107
79 90 104
72 81 94
72 82 95
74 84 97
74 84 98
75 85 99
73 83 96
66 75 87
61 69 80
49 56 64
45 51 59
40 46 54
36 41 48
42 47 55
41 47 54
45 52 60
51 58 67
57 65 76
63 71 83
67 76 88
74 83 96
78 88 102
80 90 105
84 96 111
87 99 114
87 99 115
85 97 112
84 96 111
83 95 110
86 98 114
82 94 109
80 91 106
77 88 102
68 77 89
59 67 77
49 56 64
33 37 43
25 29 33
29 32 38
30 34 39
30 34 40
32 37 42
36 41 47
40 46 53
41 47 54
43 48 56
42 48 55
43 49 57
39 44 52
34 39 45
35 40 46
38 43 50
41 47 54
44 50 58
40 46 53
36 41 48
33 38 44
36 41 48
40 46 53
44 49 57
48 54 63
52 59 68
55 63 73
56 64 74
56 64 74
99 113 130
97 110 128
94 106 121
88 99 115
83 94 109
77 87 101
73 84 97
73 82 95
71 81 94
69 78 90
67 77 89
61 69 79
54 61 71
47 54 63
47 53 62
45 51 59
46 52 60
45 52 60
43 49 57
37 41 48
39 44 51
45 51 59
47 53 62
45 51 59
39 45 52
29 33 39
17 19 22
25 28 33
36 41 48
41 47 54
45 51 59
51 58 67
55 62 71
56 64 74
58 65 76
56 64 73
55 63 72
53 60 69
51 58 67
51 57 66
46 53 61
42 48 56
39 45 52
33 38 44
27 30 35
23 26 31
14 16 19
12 14 17
12 13 16
14 16 18
19 22 25
22 26 30
26 30 35
28 31 36
26 29 34
28 32 37
28 31 36
31 35 41
34 39 45
41 46 54
41 47 55
37 42 48
31 35 41
28 32 37
25 29 33
27 31 36
31 36 41
35 39 46
33 38 44
29 33 38
29 33 38
23 26 30
17 20 23
15 18 20
15 17 20
18 20 23
20 22 26
23 26 30
25 29 33
26 30 34
28 31 36
27 30 35
31 35 40
38 44 51
49 55 64
54 61 71
58 66 77
63 71 82
67 77 89
71 81 94
72 82 95
74 84 97
73 83 97
72 81 94
71 81 93
74 83 96
73 84 97
74 85 99
78 88 102
80 91 104
78 88 102
79 89 103
79 89 103
77 87 101
78 89 103
80 91 104
80 91 105
82 93 108
82 93 107
80 91 105
80 91 105
83 95 109
87 99 114
88 100 115
88 100 116
91 104 120
92 105 122
97 110 127
100 114 132
101 115 133
102 116 133
103 117 135
104 118 136
104 118 137
105 119 137
105 119 137
103 117 136
102 116 133
100 114 132
97 110 127
97 110 127
95 108 126
93 105 121
92 104 120
93 105 121
88 100 115
86 97 113
84 95 109
81 92 106
82 93 107
83 95 110
81 92 106
78 88 102
74 84 97
67 76 88
61 69 80
51 58 68
42 47 55
34 39 45
33 38 45
28 32 37
30 34 40
37 42 49
40 46 53
43 49 57
45 52 60
43 49 57
39 44 51
28 32 37
21 23 27
37 41 48
45 51 59
51 58 67
57 65 75
62 70 81
62 70 81
63 71 83
65 74 86
64 73 85
64 72 84
60 68 78
57 65 75
52 60 69
46 53 61
35 40 47
34 39 45
32 37 43
31 35 41
34 39 45
35 40 46
35 40 46
39 45 52
38 43 50
37 42 49
40 45 52
45 52 60
43 49 57
47 53 61
46 52 60
48 54 63
50 57 66
51 58 67
50 57 65
46 52 60
42 47 55
36 41 48
35 40 46
33 38 43
32 36 42
37 42 49
37 43 50
32 37 42
21 24 28
20 23 27
24 27 31
25 29 33
24 27 31
22 25 29
25 28 33
28 32 36
27 31 35
27 31 36
27 31 36
28 31 36
34 38 45
38 43 50
43 49 57
44 50 58
43 49 56
44 50 58
47 53 62
49 56 64
49 56 65
44 50 58
38 43 50
35 40 46
35 39 46
36 41 48
39 45 52
41 46 54
40 46 53
39 44 51
32 37 42
28 32 37
23 26 31
27 31 35
33 38 43
36 40 46
32 37 43
24 27 32
24 27 32
22 25 29
18 21 24
15 17 19
27 30 35
37 42 49
46 53 61
50 57 66
50 57 66
47 54 62
42 48 56
34 39 45
39 44 51
42 48 56
42 48 55
42 48 56
38 43 50
33 37 43
27 31 36
28 32 37
42 48 55
53 61 71
63 72 84
71 80 93
80 91 105
80 91 105
88 99 114
87 100 115
92 105 122
94 107 124
99 112 129
102 115 132
105 119 138
108 123 142
110 124 144
108 123 143
107 121 140
107 122 141
104 119 138
102 115 133
99 112 129
96 109 126
95 108 125
94 106 122
93 106 123
93 105 122
88 100 116
80 91 105
76 86 99
68 77 89
61 70 81
53 60 69
41 46 53
23 26 30
26 29 34
34 39 45
36 41 47
34 39 45
33 37 43
33 37 43
33 38 44
34 38 44
39 45 52
48 54 63
54 61 70
59 67 77
61 69 80
60 68 79
61 69 80
63 71 82
66 75 87
69 79 91
72 82 94
70 80 92
66 75 86
63 71 82
55 63 73
52 59 68
49 56 65
46 53 61
43 48 56
41 46 53
41 47 54
42 48 55
40 46 53
32 37 43
23 26 30
23 27 31
32 37 42
38 43 50
40 45 53
38 43 50
41 46 53
39 45 52
39 44 51
40 46 53
33 38 44
33 38 44
35 40 46
45 52 60
47 54 62
46 52 60
39 45 52
34 38 44
26 29 34
20 23 26
19 22 25
20 22 26
20 22 26
23 26 30
24 28 32
27 31 36
33 37 43
39 44 51
39 44 51
38 43 50
38 44 51
37 42 49
45 52 60
49 56 65
50 57 66
51 58 67
56 63 73
54 61 71
59 66 77
60 68 79
59 66 77
56 63 73
50 57 67
44 50 57
31 36 41
21 23 27
35 39 46
45 51 59
52 59 68
58 66 76
59 68 79
58 66 77
58 66 77
61 70 80
67 76 88
69 78 90
70 79 91
71 81 94
70 80 92
67 76 88
67 76 87
67 76 88
68 77 90
70 79 90
67 77 89
65 74 86
68 77 90
69 78 90
70 80 92
70 80 93
71 81 93
70 79 91
66 76 88
67 77 89
80 91 105
74 84 97
67 76 88
62 71 82
59 67 78
54 62 72
49 55 64
46 52 61
42 48 55
31 36 42
31 36 41
25 29 33
22 25 29
23 26 30
28 31 36
31 36 41
32 36 42
29 33 38
23 26 30
21 23 27
29 32 38
33 38 44
32 36 42
28 32 37
22 25 28
19 21 25
20 23 27
27 31 36
33 38 44
35 40 46
38 43 49
41 47 55
44 50 58
45 51 59
46 52 61
47 53 62
47 54 62
49 56 65
53 60 69
56 64 75
59 67 77
58 66 76
58 66 76
52 60 69
45 51 59
38 43 50
34 39 45
31 35 40
30 34 39
29 33 38
30 34 39
37 42 49
41 47 54
42 48 55
41 46 54
42 48 56
45 50 58
45 51 59
45 51 59
41 46 54
36 41 48
29 33 38
27 31 36
28 31 36
24 28 32
20 22 26
17 20 23
27 30 35
38 43 50
42 48 56
44 50 58
43 49 57
43 49 57
42 48 55
41 47 54
40 46 53
41 47 54
42 48 55
43 48 56
41 47 55
42 48 55
36 41 48
30 34 39
22 25 29
20 23 27
27 30 35
36 41 47
47 54 62
56 64 74
63 72 84
68 77 89
70 79 92
70 79 92
69 79 91
71 81 94
72 81 93
72 82 94
72 82 95
74 84 98
71 81 94
71 80 93
71 80 93
71 80 93
70 80 93
70 80 92
75 84 97
77 88 101
78 88 102
80 90 104
79 89 103
76 86 99
77 87 101
77 87 101
80 91 104
80 91 105
84 95 109
84 96 111
88 100 115
93 105 121
92 105 122
96 108 125
96 109 126
96 109 127
94 107 123
96 108 125
96 109 125
97 109 126
94 106 123
89 102 118
84 96 111
82 93 108
83 94 108
83 95 110
85 97 112
88 100 115
83 94 108
80 91 105
75 85 98
73 83 96
70 79 92
66 75 86
63 71 82
52 60 69
45 51 59
35 40 46
23 27 31
28 32 37
41 47 54
52 59 68
57 65 75
58 66 76
61 69 80
64 72 83
63 72 82
62 71 82
61 70 81
60 68 78
53 60 69
46 53 62
42 48 55
35 40 46
31 36 41
27 30 35
31 35 40
37 42 49
41 47 54
43 49 57
48 55 64
47 54 63
45 51 59
38 43 50
33 38 44
29 33 38
22 25 29
28 31 36
39 45 52
51 59 68
61 69 80
70 80 92
75 85 98
77 88 101
77 87 101
78 88 101
76 85 98
74 84 97
76 86 99
75 86 99
75 85 99
73 83 96
74 84 98
71 80 92
65 74 86
61 69 80
56 64 74
56 63 73
58 66 77
58 66 76
54 62 72
55 62 72
53 60 69
50 57 66
46 52 60
42 47 55
38 43 50
31 35 41
30 34 39
28 32 37
27 31 36
30 34 39
29 34 39
31 36 42
31 36 41
23 26 30
15 17 20
30 34 39
39 45 52
46 52 60
48 55 63
49 55 64
50 57 66
49 56 64
49 56 65
46 53 61
43 49 56
36 41 48
33 37 43
31 35 41
31 35 40
28 32 37
23 26 30
17 19 22
14 16 19
16 18 21
22 25 29
20 23 27
23 26 30
29 33 38
33 37 42
34 39 45
34 39 45
35 39 45
35 40 46
35 39 45
25 29 34
21 24 27
25 29 33
35 40 46
38 43 50
41 46 53
36 41 48
24 28 32
15 17 20
17 19 22
25 28 33
32 36 41
31 35 41
36 41 47
47 53 61
57 65 75
64 73 85
71 81 93
79 90 104
87 99 114
95 108 125
100 114 133
106 120 139
105 120 139
105 119 138
107 122 141
109 124 144
111 126 146
115 131 152
118 134 154
116 131 152
116 132 154
116 131 151
115 130 150
111 126 146
111 126 146
110 125 144
106 120 140
105 120 138
100 114 131
99 112 130
96 109 126
94 106 123
93 105 121
89 101 117
85 96 112
79 89 103
72 82 94
64 73 84
55 63 73
47 54 62
40 46 52
37 42 48
33 37 43
34 38 44
34 39 45
31 35 40
25 28 33
21 24 28
23 27 31
28 32 37
33 38 43
42 48 55
48 55 63
49 55 64
51 58 67
52 59 68
53 60 69
55 63 73
60 68 79
63 71 82
63 72 84
62 70 82
59 67 77
57 65 75
57 64 74
55 63 73
52 59 67
43 48 56
35 40 46
33 37 43
31 35 41
31 35 40
35 39 46
36 41 48
39 44 51
37 42 49
38 44 51
40 45 52
42 48 56
45 52 60
47 53 62
45 51 59
43 49 56
37 42 49
31 35 41
24 28 32
23 26 30
24 28 32
24 28 32
16 18 21
10 12 14
15 17 20
19 22 25
20 23 27
24 27 32
31 35 41
37 42 48
37 42 49
36 41 47
32 36 41
36 41 47
38 43 50
40 45 52
37 42 49
32 36 42
28 32 38
28 31 36
30 34 39
30 35 40
31 35 41
30 34 39
28 32 37
27 30 35
28 32 38
29 33 39
32 36 42
38 43 50
48 55 63
59 67 78
66 75 87
73 83 96
78 89 103
82 93 108
81 92 106
81 92 107
82 93 107
86 97 113
89 101 117
93 106 122
96 109 126
97 111 129
94 107 123
92 104 120
88 100 116
88 100 115
90 102 119
91 103 119
94 107 125
93 106 122
93 106 123
93 107 124
94 106 123
93 106 122
93 106 122
93 106 123
93 106 122
49 56 66
44 50 58
38 43 50
37 42 48
32 37 42
27 30 35
24 28 32
18 20 24
18 20 23
21 24 28
22 25 29
22 25 29
18 21 24
16 18 21
24 27 31
26 30 35
28 32 37
28 32 37
27 30 35
24 28 32
21 24 28
21 23 27
23 26 30
20 23 27
14 16 18
24 28 32
32 36 41
39 44 51
40 45 52
41 46 53
39 45 52
39 45 52
42 48 55
47 53 61
48 55 64
50 56 65
50 56 65
56 63 73
57 65 75
57 65 75
59 67 77
57 65 75
58 66 76
54 61 71
47 53 61
44 50 58
43 49 57
47 54 62
48 55 63
49 56 65
53 60 70
54 62 71
53 60 69
50 57 66
48 54 62
46 53 61
43 49 58
43 48 55
41 46 54
39 45 51
35 39 46
28 32 37
25 29 33
13 15 18
17 20 23
22 25 29
26 30 34
35 40 47
46 52 60
54 61 71
58 66 76
60 67 77
55 62 72
52 59 69
50 56 65
47 54 62
47 54 62
45 51 59
40 46 53
31 35 41
23 26 30
23 27 31
21 24 27
19 21 25
16 18 21
19 21 25
30 34 40
43 48 56
49 56 65
57 64 74
61 69 79
60 68 79
63 72 83
63 72 83
65 74 86
65 74 86
65 74 86
66 75 87
65 74 86
65 73 85
63 72 83
64 73 84
67 76 87
68 77 88
68 77 90
72 82 95
76 87 101
80 90 105
79 90 104
77 88 103
75 86 99
73 83 96
71 81 94
72 81 94
74 84 97
74 84 97
79 90 104
82 93 108
83 95 109
85 97 112
85 97 113
84 95 110
81 91 105
83 94 108
86 97 112
85 97 112
88 100 115
87 99 114
87 98 113
83 95 110
81 92 106
79 89 103
75 85 98
73 83 96
68 78 90
63 71 82
54 62 72
48 55 64
47 54 62
40 46 53
29 33 38
24 28 32
32 36 42
37 42 48
42 48 56
46 52 60
54 61 70
61 69 79
64 72 84
63 72 83
62 70 81
61 70 81
63 71 83
68 77 89
70 79 92
70 80 93
72 82 94
70 80 92
66 75 88
64 73 84
63 72 83
60 68 79
58 66 76
59 68 78
61 69 80
59 67 77
53 60 70
50 57 66
50 57 66
45 51 59
49 56 65
55 63 73
60 69 80
58 66 76
64 73 84
66 75 87
74 83 96
79 90 104
83 94 108
85 96 112
89 101 117
92 105 122
93 106 122
92 105 121
94 106 123
93 105 122
93 105 122
93 106 122
90 103 119
87 99 114
85 96 112
83 95 109
81 92 106
80 91 105
79 90 104
82 93 107
79 90 105
77 87 101
75 85 98
69 78 91
65 74 85
57 65 76
53 60 70
51 57 66
44 51 59
38 43 50
34 38 44
32 37 42
32 36 42
34 38 44
34 39 45
30 34 39
26 29 34
18 20 23
15 17 19
14 16 18
23 26 30
34 39 45
41 47 54
45 51 59
47 54 62
49 55 64
47 53 62
45 51 60
41 46 54
36 41 48
31 35 40
23 26 30
16 18 21
16 18 21
21 24 28
25 28 33
23 26 31
27 31 35
27 30 35
27 31 36
28 31 36
24 27 31
22 25 29
24 28 32
21 25 29
23 26 30
29 33 38
30 34 40
30 34 39
25 29 33
16 18 21
21 24 28
22 25 29
19 21 25
16 18 21
14 16 19
24 28 32
34 38 44
47 53 61
57 64 74
63 72 83
68 78 90
71 81 94
80 91 105
86 97 112
89 102 117
96 110 128
104 118 136
109 123 142
110 124 144
115 130 150
115 130 151
115 131 152
116 131 152
116 132 152
116 131 152
118 134 156
117 132 152
117 132 153
118 134 154
115 130 151
113 128 148
108 124 144
108 122 141
103 117 136
101 115 134
100 114 131
96 109 126
92 104 120
87 99 114
84 95 110
81 92 106
80 92 106
80 91 105
76 87 100
76 87 100
76 86 100
77 87 101
73 83 96
69 79 91
66 75 87
61 70 81
57 65 75
56 64 73
51 59 68
47 54 62
46 52 61
48 54 63
45 51 59
42 47 54
41 46 53
35 40 46
28 31 37
19 21 25
22 25 29
32 36 42
37 42 48
43 49 56
48 54 63
50 58 67
53 60 70
56 64 73
59 66 77
59 67 78
60 68 79
57 65 75
56 64 74
50 57 66
45 51 59
37 42 48
31 36 41
33 37 43
34 39 45
37 42 48
41 47 54
43 49 56
48 55 63
50 57 66
51 58 67
50 57 66
48 55 63
41 46 54
34 39 45
31 36 41
30 34 39
21 24 28
13 15 17
16 18 21
11 13 15
10 12 13
11 12 14
19 22 25
28 32 36
35 40 46
40 45 52
46 52 60
50 57 66
55 62 72
55 62 72
56 63 73
54 61 70
50 58 67
49 56 65
51 58 67
56 64 74
60 68 78
60 68 79
63 71 83
60 68 78
61 70 80
61 69 80
62 70 81
63 72 83
66 74 85
66 75 87
70 81 94
80 90 104
86 98 113
89 102 118
94 107 124
96 109 126
95 108 125
94 108 125
96 109 125
99 112 130
97 111 129
99 112 129
102 115 133
106 120 139
104 119 138
108 123 142
106 121 140
107 122 141
109 123 142
110 125 144
109 123 142
108 123 141
109 124 144
110 125 144
112 127 147
112 127 147
112 127 147
110 125 145
111 126 146
31 35 40
17 20 23
14 16 19
18 20 23
20 23 27
19 22 25
20 23 26
24 27 31
29 32 38
31 35 41
34 39 45
39 44 51
43 49 57
42 48 56
39 44 51
38 43 50
30 34 40
25 28 33
25 28 33
23 27 31
24 28 32
28 32 36
25 29 33
18 20 24
19 22 25
31 35 41
38 44 50
43 49 56
45 51 59
44 50 58
44 50 58
47 54 62
52 58 68
52 59 69
55 62 72
63 72 83
68 76 88
67 77 89
68 78 90
66 75 86
63 72 83
62 70 81
63 72 83
64 73 84
64 72 84
66 74 86
66 75 86
69 78 90
68 78 90
67 76 88
64 72 84
63 71 83
61 70 81
57 64 74
54 61 71
54 61 70
51 58 67
48 54 63
49 55 64
51 58 67
48 54 63
42 48 55
38 43 50
29 33 38
17 20 23
26 30 35
36 40 47
41 47 54
47 53 62
54 62 71
60 68 79
65 74 85
65 73 85
62 70 81
60 68 79
59 67 77
55 63 73
52 59 69
47 54 62
41 46 53
39 44 51
39 45 52
39 44 51
31 35 41
20 22 26
22 25 29
26 29 34
25 28 33
27 31 36
31 35 41
30 34 40
32 36 42
35 39 46
43 49 56
47 53 62
53 60 69
59 67 77
62 70 81
60 68 79
56 64 74
58 66 76
62 71 82
66 75 87
67 76 88
69 79 91
70 79 92
72 82 95
72 82 95
74 84 97
74 83 96
71 80 93
69 78 90
69 78 90
68 77 89
68 77 88
65 75 87
67 77 89
69 79 92
68 77 89
70 78 90
70 80 92
70 79 91
68 77 89
67 76 87
67 76 88
68 78 90
70 80 93
70 80 92
71 80 92
69 78 90
65 74 86
63 72 84
60 68 79
55 63 73
48 55 64
44 50 58
39 45 52
36 41 48
37 42 49
36 41 48
28 32 36
21 24 28
32 36 42
39 44 51
48 54 63
53 60 69
59 67 78
62 71 82
67 76 88
70 80 92
71 81 93
70 80 92
70 80 92
70 80 93
74 84 97
77 88 101
79 89 103
77 88 102
77 87 100
74 84 97
77 87 101
77 88 102
79 90 104
81 92 107
82 93 108
83 94 109
80 91 106
81 91 106
80 91 105
81 92 106
81 92 107
84 96 111
90 102 119
92 104 120
93 107 124
97 111 128
100 113 131
98 112 129
95 108 125
94 107 123
93 105 122
92 105 122
94 107 124
95 108 124
94 107 123
92 105 122
92 105 121
89 102 118
89 101 117
91 103 119
91 104 120
88 101 117
86 98 114
84 95 110
83 94 109
83 95 109
84 95 110
85 97 112
85 96 111
80 91 105
74 84 98
69 79 92
64 73 84
58 66 76
51 58 67
46 53 61
39 45 52
33 38 44
33 38 44
33 38 44
37 42 49
37 42 49
30 35 40
30 34 40
27 31 36
18 21 24
24 27 31
33 37 43
43 49 57
48 55 64
49 56 64
44 50 58
36 41 47
33 37 43
34 39 45
36 41 47
33 38 44
22 25 29
14 16 19
19 21 25
24 28 32
34 39 45
45 51 59
50 57 66
50 57 66
53 61 70
55 63 73
55 62 72
53 60 70
51 57 66
46 52 60
39 44 51
30 34 39
23 27 31
21 24 27
16 18 21
19 21 25
17 20 23
16 18 21
17 20 23
15 18 21
17 19 22
18 20 23
32 36 42
44 50 58
54 61 71
60 67 78
68 77 89
73 84 97
78 88 102
82 93 108
87 99 115
93 106 122
96 109 127
101 114 132
103 117 136
106 121 140
109 123 143
111 126 146
115 130 150
116 132 154
116 131 151
114 129 149
111 126 146
112 127 146
112 128 147
110 124 143
109 124 142
103 118 136
102 116 134
98 111 128
96 109 125
93 105 122
90 103 119
87 99 114
88 100 116
85 97 113
85 97 112
86 98 113
86 98 113
85 96 111
83 94 109
80 91 106
82 94 108
78 88 102
74 85 98
74 84 96
72 82 95
72 81 94
72 81 94
69 78 91
69 78 91
67 76 88
62 71 82
57 65 76
53 60 70
51 58 66
45 52 60
39 45 52
27 31 36
14 16 19
26 29 34
37 42 48
45 51 59
48 54 63
49 56 65
57 65 75
64 73 84
64 73 84
64 73 84
60 68 79
59 67 78
58 66 77
59 67 78
55 63 73
51 58 67
45 51 59
37 42 49
26 29 34
21 23 27
20 22 26
22 25 28
28 32 37
36 41 48
41 47 54
39 45 52
34 39 44
30 34 40
26 29 34
17 19 22
11 12 14
12 14 16
16 18 21
19 22 25
26 30 34
29 33 38
31 35 41
42 48 55
48 55 63
52 59 68
54 61 71
53 60 70
57 65 75
59 67 78
63 72 83
67 76 88
69 78 90
70 79 92
70 80 92
71 80 93
73 83 96
73 83 96
75 85 99
76 86 100
77 87 101
75 86 100
79 90 104
84 95 110
82 93 108
81 92 107
83 95 110
84 95 111
88 100 115
90 102 119
96 108 125
99 113 131
103 117 135
104 118 136
108 122 140
109 124 144
107 122 141
111 126 145
111 125 145
111 127 146
111 126 146
115 131 152
117 133 153
116 132 153
117 132 152
115 132 153
117 133 154
113 129 149
118 133 154
116 131 152
115 131 152
116 132 153
114 130 151
116 132 153
116 132 154
119 135 155
31 35 40
29 33 38
29 32 37
29 33 39
30 34 39
31 36 41
35 40 46
38 43 50
39 44 52
42 48 56
43 49 57
45 51 59
46 52 60
44 50 58
40 46 53
42 48 55
44 50 58
44 50 58
47 53 61
49 55 64
47 54 63
44 49 57
36 41 47
26 29 34
16 18 21
19 21 25
30 34 40
38 43 50
42 47 55
49 56 64
52 59 69
58 66 77
63 71 82
68 77 89
71 81 94
76 86 100
82 93 108
86 97 112
86 97 112
79 90 104
81 91 105
84 95 110
82 93 107
82 93 108
81 92 106
80 91 106
78 89 103
75 86 99
69 78 90
66 75 87
64 73 85
65 74 86
64 72 84
63 71 82
61 69 80
61 70 81
63 72 83
62 71 83
59 68 79
58 65 75
54 61 71
53 59 69
49 55 64
40 46 53
31 35 40
16 18 21
31 35 41
43 49 57
53 60 69
60 68 79
66 74 86
68 78 91
69 78 90
67 76 87
65 74 86
65 74 86
65 74 85
64 73 84
61 70 81
60 69 80
61 69 80
63 71 82
62 70 81
59 67 77
53 60 70
50 56 64
48 54 62
46 53 62
50 57 65
51 58 68
49 56 65
41 46 54
35 39 45
30 34 39
25 28 33
25 28 33
34 39 45
46 53 61
48 55 64
52 58 67
53 61 70
59 66 77
60 69 79
63 71 82
66 75 87
65 74 86
65 74 86
64 73 85
60 69 80
59 67 77
57 65 75
56 64 74
57 65 75
56 64 74
57 65 75
52 60 70
51 58 67
50 57 67
50 57 66
48 55 64
50 57 66
48 55 64
49 56 64
45 51 59
45 51 59
48 54 62
49 56 65
50 56 65
50 57 66
50 57 66
45 52 60
37 42 49
30 34 40
27 31 36
25 28 33
27 31 36
25 29 33
27 31 36
25 28 33
27 31 36
34 38 44
43 49 57
49 56 65
53 60 69
53 60 70
54 61 71
58 65 75
62 70 81
68 77 89
72 82 94
76 87 101
79 90 105
81 92 107
85 96 111
88 99 114
88 100 115
86 97 112
84 95 110
86 97 112
87 99 115
88 101 117
88 100 116
89 101 116
88 100 116
90 102 118
91 104 120
96 108 125
97 110 127
98 112 129
99 113 131
101 115 132
102 117 136
104 118 136
104 118 137
107 122 140
110 125 144
109 123 142
110 124 143
105 119 138
100 113 131
95 108 125
98 111 128
97 110 127
96 109 127
94 107 124
92 105 121
90 102 118
88 101 116
89 101 117
87 99 114
85 96 111
81 93 108
77 87 101
76 86 100
75 84 97
71 81 94
73 83 97
71 81 93
71 81 94
71 80 93
68 77 89
69 78 90
66 75 87
63 71 82
58 66 77
50 57 66
40 45 52
29 33 38
19 21 25
12 14 16
18 21 24
24 27 32
22 25 29
15 17 20
22 25 29
34 39 45
44 50 57
47 53 62
46 53 61
45 51 59
45 51 59
44 49 57
41 46 53
38 44 51
38 43 50
34 39 45
29 33 38
21 24 28
15 18 20
28 32 38
36 41 47
47 54 62
55 63 73
60 69 79
61 69 81
61 69 79
62 71 81
61 70 81
61 70 81
64 73 84
65 74 85
65 74 85
59 68 78
52 59 68
46 52 60
40 46 53
37 43 50
38 43 49
38 43 50
34 39 45
33 38 44
32 37 43
25 29 33
18 21 24
26 30 34
39 44 52
46 52 61
52 59 68
61 69 80
64 72 83
70 80 92
76 87 101
80 91 105
85 96 112
89 101 117
91 103 120
94 106 123
95 109 126
99 112 130
101 115 132
104 118 137
104 118 136
104 118 137
107 121 139
105 120 139
104 118 136
102 117 135
102 115 133
98 111 129
96 109 126
92 105 121
90 102 118
88 100 115
88 100 115
87 98 114
85 96 112
82 94 109
83 94 109
81 92 107
82 93 107
80 91 105
77 87 101
73 83 96
73 84 97
72 82 94
70 79 91
70 80 93
73 82 95
74 84 97
75 85 99
75 85 98
75 85 99
79 90 104
77 88 102
74 83 96
70 80 92
65 74 86
57 65 75
47 53 62
39 44 51
23 26 30
17 19 22
29 33 39
40 46 53
45 51 59
48 54 63
50 57 66
51 58 67
55 62 72
55 62 72
52 60 69
47 54 62
45 51 60
47 54 62
47 53 61
44 50 57
40 45 53
36 41 47
26 30 35
15 17 20
10 11 13
13 15 17
14 16 19
22 25 29
31 35 41
33 37 43
30 34 39
30 34 39
27 31 35
25 29 33
26 30 35
35 40 46
43 48 56
48 55 63
51 58 67
55 62 72
60 67 78
64 73 85
68 77 90
69 79 91
67 76 88
69 78 90
74 84 97
75 86 99
76 87 100
79 90 104
81 92 106
82 94 109
86 97 111
84 95 109
80 91 106
81 92 106
84 95 110
87 99 114
89 101 118
91 103 118
93 106 122
94 107 124
96 108 125
95 108 125
94 107 123
98 111 128
99 113 131
102 116 134
103 117 135
102 116 134
102 116 135
105 119 138
107 121 140
108 123 142
110 125 145
113 129 149
115 131 151
113 128 148
114 130 150
113 128 147
114 130 150
111 126 146
113 129 149
112 127 146
115 130 150
114 129 149
113 128 148
115 130 150
113 128 149
113 129 149
111 127 147
112 128 147
110 126 146
113 129 149
25 28 33
30 34 40
35 40 46
34 39 45
34 38 44
33 37 43
35 40 46
38 43 50
38 44 51
39 45 52
42 48 55
41 46 53
39 44 51
40 46 53
43 49 57
43 49 57
44 50 58
45 51 59
45 51 59
42 48 55
38 44 51
32 36 41
25 28 32
22 25 29
34 38 44
45 52 59
54 61 71
59 67 78
61 69 80
62 70 81
65 74 85
68 77 89
70 80 92
76 86 100
82 93 107
88 100 115
94 106 123
98 111 129
97 110 127
100 113 131
100 113 131
102 116 133
101 114 132
97 111 128
96 109 126
92 105 122
90 102 118
84 96 111
82 93 107
75 86 99
72 82 94
68 78 90
64 73 84
63 72 82
60 69 80
62 70 82
65 73 85
65 74 85
64 72 84
57 65 75
50 56 65
41 46 54
32 36 42
20 23 27
21 24 27
35 39 46
47 53 62
55 62 72
60 69 80
63 72 84
68 77 89
69 78 91
66 75 87
67 76 88
67 76 89
67 76 88
66 75 86
65 74 86
65 74 86
66 76 87
67 76 88
70 79 91
69 79 91
69 78 90
65 74 85
61 69 79
57 65 75
54 62 72
52 59 69
55 63 73
56 64 74
51 58 68
45 51 59
40 45 52
34 39 45
24 28 32
18 20 23
28 32 37
38 43 50
45 51 59
50 57 66
55 62 72
54 61 71
51 58 67
52 59 68
51 59 68
52 59 68
45 51 59
38 43 49
28 32 37
25 28 33
28 31 36
29 33 38
28 32 38
28 32 37
28 32 37
28 32 37
26 30 35
23 26 30
22 25 29
24 27 32
28 32 37
30 34 39
29 33 38
33 37 43
34 39 45
38 43 50
39 44 52
36 41 47
31 36 42
25 28 33
29 33 38
32 37 43
32 37 42
33 38 44
40 45 52
43 49 57
42 48 56
43 49 57
46 52 60
50 57 66
54 61 71
54 62 72
54 62 72
52 60 69
51 58 67
55 63 72
62 71 81
70 79 92
74 85 98
79 90 104
85 96 110
87 98 113
88 100 116
94 107 123
95 108 125
99 112 128
97 110 127
96 109 126
94 106 123
93 106 122
91 104 121
93 105 122
96 108 125
96 108 125
97 111 128
102 116 134
106 120 139
108 122 141
111 126 146
113 128 147
113 128 148
109 124 144
111 125 144
105 119 138
108 122 141
106 120 138
108 123 142
107 122 142
107 121 140
101 116 135
102 116 134
101 115 133
97 110 127
99 113 130
97 110 128
96 109 126
94 106 122
92 104 120
86 98 114
84 95 110
75 86 100
68 78 90
64 73 85
59 67 78
56 63 74
58 66 76
58 66 76
58 66 76
59 66 76
53 60 69
49 55 64
48 54 63
45 51 59
42 47 55
33 37 43
26 30 35
15 18 21
16 18 21
19 22 25
17 19 22
17 20 23
16 18 21
15 17 20
21 24 27
30 35 40
39 45 52
42 47 54
42 48 56
41 46 54
42 47 54
43 49 57
43 49 57
39 44 51
32 36 42
24 27 32
26 29 34
34 38 44
42 48 56
53 61 70
59 68 78
64 72 83
66 75 87
70 80 92
69 78 91
65 74 86
63 72 83
61 70 81
64 73 84
65 74 85
67 76 88
67 76 88
70 79 90
67 76 88
62 71 83
61 69 80
58 66 77
54 62 71
48 55 63
43 48 56
41 46 54
40 46 53
38 43 49
34 39 45
31 35 40
23 26 30
21 24 28
30 35 40
39 45 52
47 53 62
60 68 79
68 77 89
71 81 93
73 83 97
75 86 99
80 90 104
83 95 109
83 95 110
84 95 110
85 97 113
86 97 112
88 100 116
89 102 118
94 107 124
95 107 124
97 110 128
97 109 126
94 107 124
95 108 124
93 106 123
91 103 119
90 103 119
89 101 117
86 98 113
83 94 109
81 92 107
81 92 106
80 91 105
76 87 101
73 83 95
68 77 90
69 78 91
66 75 87
62 70 81
62 70 81
64 73 84
66 75 86
69 79 91
73 83 96
77 87 101
78 89 102
80 91 105
84 95 109
86 98 113
85 97 112
86 97 112
80 91 106
76 86 100
71 81 94
63 71 82
57 65 75
53 60 69
46 52 60
37 43 49
34 39 45
29 32 37
28 32 38
28 32 37
32 37 42
32 36 41
31 35 41
22 24 28
21 23 27
24 27 32
25 28 33
23 27 31
29 33 39
32 36 42
32 36 42
32 36 42
27 31 36
19 22 25
10 12 14
11 12 15
8 10 11
12 13 16
26 29 34
36 41 47
47 53 61
53 60 70
57 65 76
61 69 80
63 71 83
65 74 85
66 75 87
68 78 90
74 84 97
78 89 103
81 92 107
84 95 109
84 95 110
84 95 110
85 97 112
85 96 111
84 95 110
85 96 111
85 97 112
87 99 115
90 103 119
92 104 120
92 104 121
94 107 123
94 106 123
92 105 122
93 105 122
96 109 126
98 111 128
98 112 129
97 110 127
101 114 131
101 115 133
101 114 131
101 115 134
103 117 136
102 116 134
101 115 134
103 116 134
103 117 136
102 116 135
106 120 139
109 124 143
111 125 145
113 127 147
112 127 147
113 128 147
111 126 147
111 126 146
112 127 147
110 125 144
110 124 143
109 124 144
107 122 141
107 122 140
108 123 142
107 121 140
107 122 141
106 121 140
105 120 139
104 118 136
105 119 137
22 25 29
18 21 24
20 22 26
23 26 30
27 31 35
33 38 43
41 47 54
45 51 59
49 55 64
49 55 64
48 54 63
43 49 57
41 46 53
39 44 51
37 42 49
36 41 47
33 38 43
24 27 31
18 20 24
11 12 14
15 17 20
26 29 34
35 39 45
44 50 58
48 54 62
51 58 67
55 63 73
60 68 79
64 73 84
67 76 87
69 79 91
75 85 98
79 90 105
85 97 112
87 99 115
92 104 120
95 108 125
97 110 127
99 113 130
102 116 134
104 118 136
109 123 143
105 120 139
105 119 137
103 117 135
98 111 128
95 108 125
91 103 120
88 100 116
84 95 111
81 92 106
78 89 102
73 83 96
64 73 85
60 68 78
57 64 74
54 62 72
52 58 67
44 50 58
32 37 42
23 26 30
26 30 34
34 39 46
40 46 53
45 52 60
57 64 75
62 70 81
67 76 89
75 85 98
76 86 99
76 86 99
78 88 102
75 85 99
72 82 94
68 77 89
67 76 88
68 77 89
70 79 92
74 84 97
74 84 97
72 82 95
76 86 99
76 86 100
73 83 96
71 81 94
68 77 89
63 72 83
58 66 76
56 63 73
56 64 74
55 63 73
51 57 66
42 48 55
33 37 43
22 25 29
15 17 20
26 30 34
33 37 43
38 43 50
44 50 58
48 54 63
50 56 65
50 56 65
50 57 66
51 58 68
51 58 67
48 55 63
46 52 60
38 44 51
31 35 41
22 25 29
17 20 23
24 27 32
34 38 44
38 43 50
43 50 58
49 55 64
51 57 66
51 58 67
48 55 64
44 49 57
36 41 47
32 36 42
26 30 34
30 33 39
26 30 34
24 27 32
24 27 32
25 28 33
36 41 47
41 47 54
42 48 55
43 49 56
48 55 63
49 56 64
52 59 68
56 63 73
60 68 79
62 70 81
65 74 85
67 76 88
69 78 90
65 74 86
63 71 82
59 67 78
60 68 79
61 69 80
65 74 86
72 82 95
76 87 100
81 92 107
87 99 114
92 104 121
95 108 125
98 112 129
99 113 131
96 110 127
92 104 120
90 101 117
88 100 116
88 100 116
89 101 116
93 106 123
96 108 125
98 111 128
100 114 132
101 115 134
104 118 137
105 120 139
109 124 144
111 127 146
113 128 147
112 127 146
112 128 148
111 126 146
111 125 145
106 120 139
107 121 140
105 119 138
102 116 134
100 113 131
100 114 132
102 116 134
101 115 133
103 118 136
106 120 138
106 120 138
104 117 135
99 112 130
92 105 122
87 99 114
79 90 104
72 82 95
62 70 80
55 63 73
50 57 66
45 52 60
40 46 53
36 41 47
32 36 42
24 28 32
22 25 29
31 35 41
32 36 42
24 28 32
23 27 31
25 28 33
29 33 39
29 33 38
32 36 42
31 35 41
24 27 31
22 25 28
24 28 32
25 29 33
30 34 39
37 42 49
44 50 58
46 53 61
46 52 61
45 51 59
45 51 60
46 52 61
42 48 55
31 35 41
23 26 30
33 37 43
46 52 60
55 62 72
62 70 81
68 77 90
72 82 95
73 82 95
73 83 96
74 84 98
74 85 98
75 86 99
73 84 97
73 82 95
72 82 94
71 81 94
73 83 97
70 80 93
68 77 89
65 74 85
64 73 84
65 73 85
62 70 81
55 63 72
48 54 62
42 48 55
38 43 50
33 38 44
30 34 39
22 25 28
18 21 24
16 18 21
20 23 27
30 34 40
40 46 53
51 58 67
58 66 76
60 68 79
60 68 79
60 68 78
62 70 81
61 69 80
61 69 80
64 73 84
68 77 88
71 81 94
76 87 100
79 90 104
81 92 107
83 95 109
84 96 111
86 98 113
89 101 116
88 100 115
86 98 113
85 97 112
85 96 111
82 93 108
79 90 104
79 89 102
75 85 99
74 84 97
72 82 95
74 84 97
70 79 92
64 73 84
62 71 81
57 65 75
52 59 68
50 57 66
50 56 65
51 58 67
55 62 71
59 67 78
65 73 85
66 75 87
65 75 86
67 76 88
71 81 94
73 82 95
73 83 96
76 86 99
73 84 97
76 86 100
75 85 98
72 82 95
70 79 92
68 78 90
64 72 84
56 64 75
49 56 65
45 51 59
42 48 55
40 45 52
40 45 52
39 45 52
39 44 50
36 41 47
36 41 47
33 37 43
32 36 42
33 38 44
32 36 42
31 36 42
33 38 44
32 37 42
27 31 36
25 29 33
20 22 26
14 16 19
16 18 22
29 34 39
41 47 54
50 57 66
58 66 76
63 71 82
62 71 82
62 71 83
64 73 85
70 80 92
77 87 100
82 94 108
85 97 112
89 100 115
86 98 113
85 97 112
87 99 114
86 98 114
84 96 111
85 97 112
87 99 114
86 98 113
87 99 115
87 99 115
88 100 116
90 103 119
92 104 120
92 104 121
94 107 124
95 108 125
98 111 128
99 112 129
99 112 130
100 114 132
100 114 131
102 116 134
104 117 135
100 113 132
99 112 130
100 113 130
100 114 132
100 114 131
103 117 135
103 117 136
105 119 138
106 121 140
109 124 143
108 124 143
114 129 149
113 129 149
112 127 147
114 129 149
114 129 149
111 126 146
113 128 148
112 127 146
109 124 142
107 122 141
103 117 135
101 114 132
99 112 129
94 107 123
92 105 122
93 106 122
97 109 126
13 14 17
9 11 12
10 11 13
10 11 13
11 13 15
21 24 28
33 38 44
41 46 54
45 51 59
46 53 61
51 58 67
52 59 67
49 55 64
46 52 60
37 42 49
24 28 32
13 15 17
17 19 22
21 24 28
24 28 32
30 34 39
40 46 53
47 53 61
51 58 68
54 61 71
56 63 74
53 60 69
53 60 70
54 61 71
56 63 73
63 72 83
67 76 87
74 84 97
79 89 103
83 95 109
86 98 113
89 102 118
93 106 122
97 110 127
98 112 130
103 116 134
101 115 133
102 115 133
99 112 129
97 110 127
97 110 127
92 105 121
86 98 113
84 96 111
79 90 105
76 86 100
72 82 94
66 75 86
60 68 78
53 61 70
50 57 65
44 50 58
39 44 52
25 29 34
25 29 33
37 42 48
47 53 62
57 64 74
62 71 82
65 74 85
69 78 90
73 83 96
79 90 104
82 93 107
84 95 110
87 99 114
86 97 113
81 92 106
81 92 107
82 93 108
80 91 105
81 93 108
82 93 108
83 94 109
86 97 112
87 99 114
85 96 111
84 95 109
82 94 108
82 94 109
79 89 104
72 82 95
68 78 91
69 78 90
68 77 89
63 72 84
64 73 84
60 69 80
58 65 76
51 58 67
45 51 59
44 50 58
39 45 52
38 44 51
37 42 49
31 35 41
30 34 39
29 33 39
29 33 38
31 35 41
33 37 43
31 35 41
28 32 37
29 33 39
37 42 49
45 51 59
49 56 64
53 60 70
59 66 77
60 68 79
61 70 81
63 71 83
64 72 84
64 73 85
64 73 84
64 73 85
63 72 83
60 69 80
58 66 76
54 61 71
55 62 72
56 64 74
57 65 75
57 65 76
60 68 79
65 74 85
66 75 87
67 76 88
68 78 90
69 78 91
71 81 93
76 86 99
78 89 103
81 92 107
84 96 111
87 99 114
85 96 111
81 91 106
81 92 106
80 91 105
77 87 100
74 85 99
73 83 97
75 85 99
79 90 104
82 93 108
83 95 110
85 97 112
88 100 115
85 97 113
87 99 114
86 97 113
85 97 113
87 98 113
88 100 116
88 100 116
88 100 115
87 99 114
85 97 112
86 98 114
91 103 119
92 106 123
97 111 128
101 115 133
105 119 138
104 117 136
101 116 135
104 117 136
103 117 135
102 116 134
103 117 135
101 115 133
98 112 130
96 109 127
94 107 124
95 108 124
95 108 124
98 110 127
98 111 129
97 110 127
97 110 127
93 106 123
92 104 119
89 101 117
85 96 110
80 91 104
77 87 101
70 79 91
64 73 84
57 65 75
54 61 71
47 53 62
42 48 55
33 37 43
23 26 30
17 20 23
33 37 43
46 52 60
50 57 65
50 57 66
46 52 60
43 49 56
40 46 53
38 44 50
40 45 52
40 46 54
40 46 53
42 47 54
46 52 61
48 55 64
49 56 65
49 56 65
54 61 70
55 62 72
56 63 73
53 60 70
47 54 62
42 48 55
38 43 49
31 36 41
21 24 28
15 17 20
25 28 32
40 45 52
53 59 68
59 67 77
61 69 79
60 68 79
64 72 83
65 74 85
69 79 91
72 82 95
72 82 95
70 79 92
67 76 88
67 77 89
69 78 90
65 74 86
64 72 83
59 67 78
54 62 72
48 55 64
44 50 57
42 47 55
37 42 49
33 38 44
34 38 44
29 33 38
19 21 25
17 19 22
27 31 36
28 32 37
27 31 35
29 33 38
35 40 47
39 44 51
45 51 59
49 55 64
44 51 59
42 48 55
41 46 54
41 47 54
44 50 58
47 54 62
53 61 70
58 65 75
61 70 80
63 72 84
64 73 85
65 74 86
67 77 89
67 76 88
66 76 88
67 76 88
67 76 87
69 78 91
68 77 90
71 81 94
71 81 93
71 80 93
70 79 92
67 76 89
68 77 89
68 77 89
68 78 90
68 77 88
65 74 86
65 73 85
62 70 81
59 67 77
55 62 72
54 61 71
55 62 71
52 59 69
51 58 67
52 59 69
51 58 67
53 61 71
58 65 76
62 71 82
65 74 86
68 77 89
68 78 90
69 78 90
68 77 89
66 75 87
63 72 83
56 63 73
49 55 64
45 51 59
41 46 54
38 44 51
40 45 53
39 44 51
37 42 49
37 42 48
36 41 48
35 40 46
34 39 45
34 38 45
32 36 42
30 34 39
29 33 38
28 32 37
26 30 35
24 27 31
18 20 24
17 19 22
19 22 25
25 29 33
32 36 41
40 46 53
50 57 66
52 60 69
54 62 71
56 63 73
59 67 77
64 72 83
67 76 88
69 79 92
73 83 96
76 87 100
80 91 105
82 93 107
83 94 109
84 95 110
84 95 111
87 98 114
87 99 114
86 98 113
83 94 110
86 98 114
88 100 116
89 101 117
90 103 119
94 106 123
95 108 125
94 106 123
93 106 123
94 107 123
95 108 125
96 109 126
99 111 128
95 108 126
96 110 128
100 114 132
100 114 131
102 115 132
98 112 130
99 112 130
102 116 134
102 116 134
105 120 139
107 122 142
107 122 140
107 121 141
108 124 144
109 123 142
112 128 149
114 130 151
113 129 150
116 132 153
118 134 154
116 131 151
117 132 153
117 132 153
116 132 153
114 130 150
113 128 148
112 127 147
107 121 140
100 114 131
98 111 129
96 109 127
96 109 126
22 25 29
27 31 35
23 26 30
19 21 25
18 20 23
25 28 32
35 40 47
37 42 49
37 42 49
39 44 51
45 51 59
44 50 58
43 48 56
38 43 49
29 32 38
21 24 28
28 32 36
36 41 47
40 45 52
44 50 58
44 50 59
45 52 60
44 50 58
43 49 57
47 53 62
51 58 67
55 62 72
56 63 73
60 68 79
60 69 80
64 73 84
68 78 90
74 84 97
79 90 103
82 93 107
81 92 107
82 93 107
87 99 114
92 104 121
94 107 123
96 109 126
96 110 127
97 110 127
95 108 126
94 107 124
92 104 120
89 101 117
82 94 109
77 87 101
70 79 91
67 76 87
60 68 79
53 60 70
53 60 70
50 57 66
44 50 58
35 39 46
25 28 32
15 18 20
31 35 40
45 51 59
55 62 72
63 72 83
69 78 91
72 82 94
78 89 103
80 91 105
82 93 107
83 95 110
85 97 112
88 100 115
89 102 118
90 103 119
90 102 118
87 99 115
86 97 113
90 102 118
92 104 120
91 103 119
93 105 122
93 106 122
93 106 123
94 107 124
92 105 121
91 104 121
92 106 123
92 105 121
93 105 121
90 102 118
90 102 119
89 101 117
90 101 116
83 94 109
78 88 102
75 85 99
73 83 96
74 83 96
71 80 92
69 78 90
66 75 87
65 73 84
62 70 81
57 65 75
57 65 75
57 65 75
54 61 71
54 61 71
51 58 67
51 58 67
57 64 74
58 66 77
60 69 80
64 72 84
66 75 86
66 75 86
66 75 87
65 74 85
64 73 85
66 74 86
67 76 89
71 81 94
74 84 97
75 85 98
75 85 99
76 87 100
77 87 100
75 85 99
75 85 98
72 82 95
70 80 92
69 78 91
68 77 89
70 79 91
69 79 91
71 81 94
73 83 95
78 89 104
84 95 110
86 97 112
89 101 117
90 102 118
89 101 118
87 99 115
86 98 114
83 94 109
81 92 106
81 91 106
80 91 105
76 86 100
77 87 101
78 88 101
77 88 101
77 87 100
78 88 102
78 88 102
79 89 103
80 91 105
79 91 105
80 91 105
79 90 104
78 88 102
77 87 102
75 85 99
76 87 100
78 89 103
81 92 107
87 98 113
91 103 119
95 108 125
97 110 127
97 109 126
95 107 124
96 110 127
96 109 126
94 106 122
91 104 120
89 102 118
91 103 119
90 103 119
89 101 116
84 96 111
82 94 108
80 91 105
80 91 105
80 91 105
80 91 105
77 88 101
75 86 99
76 86 99
74 84 97
70 79 92
63 71 82
61 69 79
57 65 75
57 64 74
54 61 71
45 52 60
38 43 50
27 31 35
20 23 26
10 11 13
16 19 21
29 33 38
35 40 46
42 47 55
45 51 59
50 56 65
48 54 63
44 49 57
43 48 56
46 52 60
48 55 63
50 57 66
50 57 66
49 56 65
51 58 67
55 62 72
60 68 78
62 71 82
62 71 82
60 68 79
59 67 78
59 67 77
58 66 76
54 61 70
57 65 74
49 56 65
44 49 57
35 39 45
30 35 40
29 33 39
31 35 40
35 40 47
39 44 51
39 44 51
45 52 60
52 59 68
55 62 72
52 59 68
49 56 65
53 61 71
52 60 69
51 58 67
48 54 62
43 49 57
37 42 48
34 39 46
35 40 46
39 44 51
37 42 49
37 42 48
34 39 45
32 36 42
31 36 42
27 31 36
20 23 26
19 22 25
30 34 40
36 41 48
40 46 53
42 48 56
42 48 56
43 49 56
41 46 54
37 42 49
38 43 50
36 41 48
38 43 49
40 46 53
47 53 62
53 59 68
52 59 68
50 57 67
50 57 66
53 60 69
53 60 69
51 58 67
48 55 64
46 52 60
44 50 58
43 49 57
46 52 61
49 56 65
49 56 65
52 59 68
50 57 66
51 58 67
56 63 73
59 67 78
59 67 78
61 70 81
61 69 80
60 69 80
60 69 80
58 67 77
55 63 73
51 58 68
49 56 65
47 54 62
46 53 61
49 55 63
50 57 67
50 56 65
48 54 63
52 59 68
56 64 73
58 66 77
56 63 73
50 57 65
49 56 64
46 52 60
39 44 51
33 37 43
26 30 35
26 29 34
31 36 41
29 34 39
28 32 37
30 34 39
31 35 41
30 34 40
27 31 36
25 29 33
25 28 33
28 32 37
32 36 41
36 41 48
39 44 51
39 44 51
37 42 49
39 44 51
34 39 45
33 37 43
31 35 40
36 41 48
43 49 57
49 56 65
57 65 75
63 71 83
66 75 87
70 79 92
72 82 94
73 84 97
75 85 98
74 84 96
72 82 94
73 83 96
72 82 95
72 82 95
75 85 98
76 87 101
81 92 107
82 94 108
83 94 108
82 93 108
82 93 107
83 94 109
85 96 111
87 99 114
86 97 112
85 97 112
85 97 112
87 99 114
87 99 114
87 99 114
89 101 117
93 105 120
94 107 124
95 108 125
99 113 130
99 113 131
100 113 131
100 114 132
101 115 132
103 117 135
104 118 136
107 121 140
110 125 145
111 127 147
114 129 150
117 132 153
119 135 155
116 132 153
119 135 156
120 136 157
122 138 160
119 136 157
121 136 157
123 139 160
122 138 160
122 139 160
121 139 161
121 137 159
116 131 151
115 130 151
111 125 145
105 119 138
101 116 134
102 116 134
102 115 133
35 40 46
32 36 42
27 30 35
22 25 28
20 23 27
23 26 31
35 40 46
41 47 54
40 46 53
33 38 44
26 30 35
22 25 29
18 21 24
30 33 39
37 42 49
39 45 52
41 47 55
48 54 63
49 56 65
53 60 70
56 63 73
55 62 71
52 59 68
52 59 68
54 61 71
57 65 75
62 70 81
66 75 86
68 77 89
69 78 90
69 78 90
69 79 91
72 81 94
74 85 98
76 87 101
76 86 99
76 86 100
79 90 104
84 95 110
87 98 114
87 99 115
87 99 114
88 100 116
89 101 117
89 101 116
89 101 117
86 97 113
81 92 106
75 86 99
73 82 95
65 74 86
60 68 79
54 62 71
45 52 60
39 44 51
31 35 41
28 32 37
27 31 36
36 41 48
44 50 58
51 58 67
58 66 77
66 75 87
71 81 93
75 86 99
80 91 106
85 97 112
89 101 117
91 103 119
92 105 122
93 105 122
98 111 128
98 111 129
97 110 128
96 109 126
96 109 126
98 111 129
98 111 128
99 113 131
99 113 131
100 113 131
100 114 133
104 118 136
105 119 137
105 119 137
104 118 137
102 116 135
103 117 135
100 113 130
101 114 132
97 111 129
95 108 125
91 104 120
91 104 120
88 99 115
84 95 111
83 94 109
81 93 108
81 91 106
78 88 102
76 87 100
77 87 100
74 84 97
73 82 95
71 81 93
70 80 92
70 79 91
67 76 88
67 76 88
66 75 87
67 76 88
70 79 91
67 76 88
64 73 84
64 73 85
64 73 85
62 71 82
60 68 79
60 68 79
62 70 81
66 75 87
71 80 92
72 82 94
69 78 91
71 81 93
73 83 95
72 82 95
69 78 91
66 75 87
64 73 84
62 71 83
57 65 75
59 67 78
61 70 81
63 71 83
67 76 88
72 81 94
75 86 99
77 88 102
78 89 103
81 92 106
80 91 105
79 90 104
79 90 104
78 88 102
79 90 104
78 89 104
79 90 104
81 91 105
77 87 101
79 90 104
78 89 102
74 84 97
70 80 93
72 82 94
71 81 93
71 81 93
75 85 98
79 90 104
81 92 106
80 92 106
83 95 109
82 93 108
82 93 108
84 96 111
81 92 107
83 94 109
85 96 111
86 98 113
86 98 114
89 100 115
90 102 119
90 103 119
90 103 119
91 103 119
88 100 115
85 96 111
84 96 111
84 96 111
83 94 109
79 90 104
75 85 99
72 82 96
68 77 90
63 71 82
55 63 73
49 56 65
41 46 54
41 46 54
36 41 47
37 42 48
38 43 50
39 44 52
40 45 53
37 42 49
37 42 49
36 41 48
34 39 45
30 34 39
23 26 30
15 17 20
14 16 19
20 22 26
26 30 34
29 33 38
35 40 47
41 47 54
46 53 61
52 59 68
54 61 71
54 61 71
55 63 73
57 65 75
57 64 74
60 68 78
64 73 85
66 75 87
68 77 89
70 79 91
72 82 95
77 88 102
80 91 105
81 92 106
81 92 107
78 89 103
73 83 96
70 80 93
65 74 86
58 66 77
56 63 73
56 64 74
57 65 75
55 62 72
51 58 67
42 48 55
34 38 44
31 35 40
27 31 35
24 28 32
36 41 48
43 48 56
44 50 58
43 48 56
37 42 49
36 41 47
30 34 39
25 29 33
29 33 39
35 39 46
38 43 50
43 48 56
43 49 56
36 41 48
32 37 43
27 31 35
21 24 28
15 17 19
21 24 27
30 34 40
35 40 46
37 42 49
37 42 48
34 38 44
24 27 32
22 25 29
22 26 30
31 35 40
32 36 42
31 35 41
30 34 40
31 36 41
39 44 51
45 51 58
48 55 64
49 55 64
53 61 70
52 59 69
48 55 63
43 49 56
38 43 50
36 41 48
37 43 50
36 41 48
34 39 45
32 37 43
28 32 37
29 32 38
31 35 40
30 35 40
33 38 44
42 48 55
45 51 59
45 51 59
46 53 61
52 59 68
58 66 76
58 66 76
58 65 75
57 65 76
56 63 73
55 62 71
52 60 69
50 57 66
48 54 62
45 52 60
44 50 58
41 47 54
37 42 48
24 27 31
28 33 38
37 42 49
42 47 54
48 54 62
48 55 64
52 59 68
51 58 67
50 57 66
52 59 69
53 61 70
53 61 70
52 59 68
49 55 63
45 51 59
44 50 58
47 53 61
48 55 64
51 58 67
54 61 71
53 61 70
54 62 72
55 63 72
55 62 72
53 60 70
54 61 71
53 60 69
56 63 73
61 69 80
65 73 85
71 81 93
75 85 98
77 87 101
77 87 101
80 90 104
79 90 105
76 86 100
70 80 92
64 73 84
60 68 79
62 70 81
62 71 82
64 72 84
69 79 91
74 84 97
76 86 99
76 87 100
79 90 105
82 93 108
84 95 111
84 95 110
84 96 112
85 96 111
86 97 112
86 98 113
85 97 112
85 97 112
86 98 113
87 100 116
90 103 119
93 106 122
95 109 126
100 113 130
105 120 138
109 124 144
114 129 148
112 127 147
112 127 147
113 128 148
116 131 152
118 133 153
120 136 157
119 136 157
120 137 158
122 138 159
120 137 158
119 135 157
117 134 155
119 135 155
117 134 155
119 135 156
120 136 157
121 137 159
118 135 156
120 136 156
116 133 154
114 129 150
110 126 145
108 123 142
105 119 138
103 117 136
104 119 138
31 36 42
36 41 47
35 40 46
34 38 44
27 31 36
20 23 27
23 27 31
24 27 31
23 26 31
22 25 29
23 26 30
23 26 30
31 36 42
43 48 56
51 58 67
55 62 72
61 70 81
65 74 85
67 76 89
68 77 89
70 79 91
71 80 93
71 81 93
71 81 94
73 84 97
75 85 99
75 85 98
74 84 97
75 84 97
73 83 96
72 82 95
72 82 95
71 80 93
70 80 92
67 76 88
65 73 85
63 72 83
65 74 85
69 79 91
71 81 93
69 79 91
70 79 92
70 80 92
74 83 96
79 89 103
76 87 100
75 86 99
72 82 94
67 76 88
61 69 80
51 58 67
39 44 51
28 32 37
22 26 30
31 36 41
42 48 55
51 58 66
55 63 73
60 68 79
65 74 85
68 77 89
70 79 91
70 79 91
69 79 91
74 84 97
78 89 103
82 93 108
81 92 106
84 95 110
87 99 115
90 103 119
93 105 122
99 112 130
103 117 135
102 116 134
105 119 137
106 121 140
107 122 141
105 119 138
107 122 141
108 123 143
108 122 141
108 122 142
108 123 142
107 121 140
107 122 140
107 121 140
106 120 139
103 117 135
103 117 135
100 114 132
101 115 133
102 116 134
100 114 132
100 113 131
96 109 126
90 103 119
89 100 116
86 98 113
85 97 112
88 99 115
89 100 116
89 101 117
87 99 114
85 97 112
80 92 107
77 87 101
76 87 100
79 89 103
76 86 100
72 82 94
68 77 89
63 72 83
61 70 81
63 72 83
62 70 81
58 66 77
56 64 74
53 60 69
50 57 66
48 54 63
48 54 63
45 51 60
44 50 57
47 53 61
47 53 61
43 48 56
40 46 53
35 39 45
30 34 39
28 32 37
23 26 30
25 28 32
31 36 41
43 48 56
53 60 70
62 70 80
65 74 86
65 75 87
70 79 91
69 79 91
69 78 91
67 76 89
66 75 87
68 78 90
70 80 92
75 86 99
79 90 104
79 90 104
80 90 104
78 88 102
75 86 99
74 85 98
73 83 96
72 82 95
70 80 92
72 81 94
73 83 96
73 84 97
73 83 96
74 84 97
77 87 101
75 86 99
79 90 104
76 87 101
74 84 97
72 82 94
72 81 94
73 84 97
77 88 102
80 91 105
87 99 114
89 101 117
90 102 118
92 104 120
87 100 115
85 96 112
83 94 109
79 90 104
77 88 102
73 83 95
67 76 89
60 69 80
54 62 71
47 54 62
37 42 49
27 31 36
16 18 21
15 17 20
11 13 15
11 13 15
11 13 15
8 9 10
8 10 11
13 14 17
11 12 14
12 14 16
19 22 25
21 24 28
16 18 21
10 12 14
15 17 20
20 23 27
26 29 34
26 29 34
33 38 43
44 50 58
53 60 69
55 63 73
57 64 75
58 66 77
58 65 75
59 67 77
61 69 79
65 74 85
72 81 94
75 85 98
77 88 102
79 90 104
83 94 108
86 97 112
88 99 114
86 98 114
85 97 113
85 96 111
85 97 112
87 99 114
83 95 110
80 91 106
75 86 99
74 84 97
73 83 96
72 82 94
69 79 91
65 74 86
64 73 84
59 67 77
50 57 67
39 44 51
31 35 41
32 36 42
32 37 43
30 34 40
27 31 36
28 32 37
26 30 34
16 18 21
18 21 24
26 30 35
36 41 48
45 51 59
48 54 63
48 54 63
43 49 57
37 42 48
31 36 41
27 31 36
16 18 21
19 22 25
24 27 32
26 30 34
25 28 33
20 22 26
23 26 30
30 34 40
28 31 36
26 30 34
24 28 32
24 28 32
22 25 29
19 22 25
26 30 35
36 41 47
40 45 53
41 46 53
37 42 49
37 41 48
29 33 39
22 24 28
19 22 26
25 29 33
24 28 32
17 19 22
17 19 22
21 24 28
21 24 28
24 27 31
27 30 35
22 26 30
17 20 23
19 22 25
23 26 30
23 26 31
23 26 31
29 33 38
29 33 39
35 40 46
35 40 47
36 41 47
37 42 48
33 37 43
35 40 46
31 35 40
29 33 38
30 35 40
28 32 37
22 25 29
25 29 33
33 38 44
41 47 54
49 56 65
55 63 73
58 66 77
58 65 76
55 62 72
57 65 75
63 72 83
66 75 86
68 77 89
68 78 90
67 77 89
67 75 86
64 72 84
61 69 80
62 70 81
62 70 81
63 71 82
59 67 78
59 67 77
59 67 78
58 66 77
58 66 76
60 68 78
65 74 85
70 80 93
72 82 95
76 86 99
77 87 101
79 89 103
80 91 105
82 94 108
84 96 111
82 93 108
79 89 102
74 84 96
66 75 86
60 68 78
55 62 72
55 62 71
51 58 67
51 57 66
55 62 71
57 65 74
60 68 79
63 72 83
67 76 88
72 82 94
76 86 100
77 87 101
80 91 105
81 92 106
82 93 107
84 96 111
87 98 113
88 99 115
89 100 116
88 100 115
91 103 118
94 107 123
97 110 127
103 117 135
109 123 141
109 124 144
113 129 150
117 132 152
119 134 155
119 135 156
119 135 156
121 137 157
119 135 157
121 137 159
122 139 161
121 137 158
122 138 160
121 138 161
124 141 164
126 143 164
124 141 164
124 141 163
125 141 163
128 144 166
123 141 163
121 137 158
119 135 156
119 135 155
118 134 154
116 131 152
114 129 149
114 129 149
111 126 145
63 71 82
60 68 79
58 66 76
54 61 71
50 57 65
45 51 59
40 45 52
35 40 46
25 29 33
32 36 42
38 43 50
42 48 55
48 55 64
55 63 73
60 68 79
64 73 84
69 79 91
76 86 99
79 89 103
80 91 105
80 91 104
78 89 103
78 89 102
77 88 102
77 88 101
75 85 99
74 84 97
71 80 93
68 77 90
64 73 85
63 72 83
65 74 86
65 73 85
61 70 81
57 65 75
52 59 68
47 54 62
45 51 59
45 51 60
43 49 57
41 47 54
40 45 52
42 48 56
48 54 63
50 57 66
44 49 57
41 48 55
35 40 46
30 35 40
29 34 39
25 28 32
34 38 44
45 51 59
48 55 64
52 59 68
55 63 73
58 66 77
61 69 80
63 71 82
65 73 85
68 77 89
70 80 92
71 81 94
74 84 97
75 85 98
78 89 103
82 93 108
82 93 108
86 98 114
92 104 119
94 106 123
97 110 128
103 116 134
106 120 139
109 124 143
112 127 146
111 126 146
114 130 150
109 124 143
113 129 149
113 128 148
110 125 145
109 123 142
107 121 140
105 119 138
104 119 137
104 118 136
103 117 135
104 119 138
104 119 137
106 120 138
106 120 139
109 123 142
107 122 141
106 120 138
104 118 136
100 113 131
95 109 126
91 104 120
91 103 119
92 104 121
91 104 120
92 105 122
92 104 121
88 100 116
85 97 113
84 96 111
82 93 107
78 89 104
74 85 99
71 81 95
67 76 88
62 71 83
56 64 73
54 61 71
54 62 71
51 58 67
43 49 57
31 35 40
19 21 24
21 24 28
22 25 29
24 27 31
24 28 32
25 28 33
23 26 30
26 29 34
27 30 35
25 28 33
18 20 24
12 13 15
15 17 19
20 22 26
28 32 37
39 44 51
49 56 65
56 64 74
57 65 75
56 64 74
56 63 73
60 68 79
63 71 82
64 72 84
64 72 83
63 71 82
66 75 87
70 79 92
74 84 98
75 85 99
74 84 98
72 82 95
68 78 90
65 74 86
65 74 86
60 68 79
57 65 76
58 66 77
58 66 77
56 64 74
54 62 72
56 64 74
57 65 75
57 65 75
61 69 80
60 68 79
58 65 76
59 67 78
61 70 80
59 67 78
62 71 82
69 78 90
72 82 96
78 89 103
81 92 107
83 94 108
80 91 106
80 91 106
79 90 104
76 86 100
71 81 93
67 76 88
65 74 85
58 66 77
50 57 66
41 47 55
30 34 39
21 24 28
17 19 22
19 22 25
16 18 21
12 14 16
17 19 22
15 17 20
12 13 15
21 24 28
28 32 37
30 34 39
25 28 33
22 25 29
15 17 20
18 20 24
19 22 26
24 27 31
29 33 38
31 35 41
36 40 47
42 48 55
50 56 65
55 63 73
59 67 77
62 70 82
61 69 80
60 68 79
60 68 79
66 76 88
71 81 94
75 85 99
79 90 105
82 93 107
85 97 112
87 99 114
87 99 114
90 102 118
88 100 116
88 100 116
89 101 116
87 99 115
86 98 113
85 97 111
86 98 113
84 95 110
85 96 112
84 96 111
81 92 106
80 91 105
77 88 102
76 86 99
73 83 97
69 79 91
67 76 88
64 73 85
62 70 81
60 68 78
57 64 75
54 62 71
50 56 65
43 49 57
36 41 47
24 27 32
20 23 26
29 33 38
35 39 46
32 36 42
30 34 40
32 36 42
35 40 46
35 39 45
27 31 36
23 26 30
29 33 38
33 37 43
33 38 44
36 41 47
40 45 53
38 44 50
38 43 50
38 44 51
36 40 46
28 32 38
23 26 30
15 17 20
13 15 18
28 32 37
38 43 50
42 48 55
44 50 57
41 46 54
37 42 48
31 35 40
20 23 26
19 21 24
23 27 31
27 31 36
34 39 45
35 40 47
36 41 48
35 40 46
39 45 52
37 42 49
34 39 45
30 34 39
19 21 25
16 18 21
23 26 30
27 30 35
31 35 41
32 37 42
38 44 51
39 44 51
39 44 52
41 47 54
45 51 59
43 48 56
45 51 59
47 53 61
50 57 66
49 56 65
45 51 58
38 44 51
38 44 51
40 46 53
44 50 57
48 55 63
53 60 69
53 61 70
56 63 73
61 69 80
64 72 84
66 75 87
69 79 92
70 80 92
70 79 92
66 76 88
67 76 88
70 79 92
68 78 90
68 77 89
69 78 91
69 78 89
65 74 85
64 73 84
63 72 83
65 74 86
69 78 90
74 84 97
75 86 99
78 88 102
79 90 104
82 93 108
82 93 107
81 92 106
81 92 106
79 89 103
75 85 99
73 82 95
66 74 86
59 67 77
50 57 65
42 48 55
35 40 46
31 35 41
34 39 46
40 45 52
43 49 57
49 56 64
50 57 67
55 63 73
58 66 76
62 71 82
66 75 87
72 82 94
73 83 97
77 88 101
80 91 105
82 93 108
84 96 111
88 100 116
90 103 120
95 108 125
101 114 132
104 118 136
105 120 138
106 120 139
111 126 146
112 128 148
112 126 146
113 128 149
113 128 149
116 131 151
119 135 156
119 135 156
117 134 155
122 138 159
120 136 157
124 140 162
125 141 163
126 143 166
127 144 166
125 142 164
126 144 167
125 142 165
126 143 165
126 143 165
125 142 164
125 142 164
119 135 157
120 136 158
117 133 154
118 135 156
117 133 154
79 90 104
78 88 102
74 83 96
70 80 92
69 78 90
68 77 89
64 72 83
57 65 75
56 64 74
57 65 75
58 66 76
62 70 81
69 78 90
70 80 93
76 86 99
81 92 106
85 97 112
89 101 117
90 102 118
91 103 120
89 101 117
88 100 116
87 99 115
82 93 108
85 96 111
81 93 107
79 90 103
72 82 95
69 78 91
68 77 90
66 75 86
64 73 84
65 74 86
65 74 86
62 70 81
57 64 74
47 54 62
40 45 52
35 39 45
30 34 40
23 26 30
25 29 33
30 35 40
33 38 44
36 41 47
34 38 44
34 39 45
33 38 43
34 39 45
42 47 54
48 55 64
53 60 69
58 66 76
61 69 80
65 74 86
68 77 89
67 76 88
69 79 91
70 79 91
69 79 91
71 80 93
75 85 99
79 90 104
81 92 106
83 94 109
86 97 112
85 97 112
89 102 118
93 105 122
95 108 124
99 113 130
102 116 134
104 118 137
106 120 139
110 125 144
111 126 146
115 130 150
115 131 152
114 129 150
115 131 151
114 128 148
112 128 148
110 124 144
108 123 142
107 122 141
106 120 139
107 121 139
109 123 142
108 124 144
113 128 148
112 127 147
111 126 146
112 127 146
109 124 143
105 120 139
102 116 134
99 112 129
97 110 127
93 106 123
93 106 123
91 103 119
90 103 119
89 101 118
89 101 117
88 100 115
84 96 110
78 89 103
76 87 100
73 83 95
67 76 89
61 69 80
55 63 72
49 55 64
41 47 54
37 42 49
34 39 45
31 35 41
27 31 36
24 27 31
32 36 42
38 43 50
41 46 54
40 45 52
31 35 41
25 28 33
26 30 34
27 31 35
23 26 30
20 23 26
16 18 21
25 29 33
27 31 36
27 31 36
32 37 42
35 40 46
39 44 51
44 50 58
44 50 58
41 47 55
41 46 53
45 51 59
48 55 64
46 53 62
50 57 65
51 58 68
54 61 71
57 65 75
56 64 74
56 64 74
55 62 72
50 57 65
42 48 56
40 46 53
40 46 53
35 40 47
31 35 41
28 32 37
33 37 43
33 38 44
34 39 45
35 40 46
37 42 48
33 38 43
32 37 43
39 44 51
43 49 57
45 51 59
48 55 64
53 60 70
58 65 75
61 70 81
66 75 87
69 79 92
70 80 92
69 79 91
69 78 91
66 75 87
64 72 84
57 66 76
49 56 64
43 49 57
38 43 50
34 38 44
31 36 41
34 39 45
40 45 52
42 48 55
40 45 52
39 44 51
32 36 42
19 22 25
18 21 24
17 20 23
16 18 21
14 16 18
23 27 31
32 37 43
35 40 46
34 38 44
36 41 47
39 44 51
39 44 52
39 44 51
40 46 53
40 46 53
44 50 57
47 54 63
53 60 69
59 67 77
65 74 85
69 78 90
74 84 97
76 85 98
76 86 99
78 89 103
81 92 106
84 96 111
85 97 112
87 98 114
91 103 119
91 103 119
92 105 121
93 105 122
93 106 123
91 104 120
89 101 117
87 99 114
86 97 112
84 95 111
85 97 112
83 94 109
85 96 112
88 101 117
89 102 118
90 102 118
89 101 117
87 99 115
82 93 107
79 89 103
74 84 98
72 81 94
72 81 94
71 81 94
71 80 92
69 78 90
68 77 89
64 73 85
59 67 78
51 57 66
38 44 51
28 32 37
21 24 27
13 15 18
12 13 16
18 20 23
22 25 30
26 30 35
30 34 40
31 35 41
33 38 44
36 41 47
32 37 42
27 31 35
26 30 35
24 28 32
24 27 32
25 28 33
22 25 30
23 26 30
26 30 34
26 29 34
24 28 32
28 32 36
33 38 44
37 42 49
40 45 52
36 41 47
32 36 42
29 33 38
26 30 35
28 32 37
33 38 44
36 41 48
36 41 48
36 41 48
35 39 46
34 39 44
21 24 28
14 16 18
17 20 23
19 22 26
19 22 26
18 21 24
24 27 31
33 37 43
38 44 51
43 49 57
48 54 63
51 58 67
54 61 71
57 65 76
58 65 76
59 67 77
59 67 78
61 70 81
61 70 81
58 66 77
55 63 73
51 57 66
44 50 58
43 48 56
41 47 55
40 46 53
39 44 51
40 45 52
40 45 52
38 44 51
48 54 63
54 61 71
58 65 75
61 69 79
60 68 79
63 71 83
63 72 83
66 75 87
67 76 88
69 79 91
69 78 91
69 77 89
67 76 87
65 74 86
64 73 84
62 70 81
63 72 83
68 77 89
73 83 97
76 86 100
77 88 102
80 91 106
83 94 108
81 92 106
79 90 104
75 86 99
70 79 91
64 73 84
59 67 77
49 56 64
38 43 50
34 39 45
32 36 42
32 36 42
36 41 47
40 45 53
45 51 59
50 57 66
54 61 70
54 62 71
55 62 72
56 64 74
57 65 76
59 67 78
63 72 84
65 74 86
72 82 94
75 85 99
78 88 102
82 93 108
88 100 116
92 105 122
97 110 127
103 117 135
105 120 139
109 124 144
114 129 149
115 130 149
116 132 153
115 130 151
118 134 156
120 136 158
122 138 160
122 139 161
125 142 165
127 143 165
128 145 168
126 143 165
130 146 168
130 147 169
129 147 170
126 144 167
129 146 169
129 146 169
129 147 170
127 144 167
130 147 168
126 143 166
127 144 167
124 140 162
124 140 161
120 136 158
121 137 158
92 105 121
92 104 120
89 101 116
81 92 107
80 91 105
78 88 102
77 87 101
74 84 98
73 83 96
74 84 98
80 91 105
82 94 109
86 98 114
91 104 120
92 105 121
97 110 128
97 110 126
98 111 129
100 113 131
103 117 134
103 116 134
100 114 132
96 110 127
96 109 125
91 104 121
88 100 116
85 97 113
83 94 109
81 92 106
77 87 100
74 84 98
72 81 94
71 81 93
71 81 93
67 76 88
60 68 79
55 63 73
48 55 64
43 48 56
27 31 36
21 23 27
31 35 41
39 44 51
41 47 54
43 48 56
46 52 60
52 59 68
53 60 69
52 59 69
58 65 75
59 68 79
63 72 83
66 74 86
68 77 89
72 81 94
75 85 99
79 90 104
81 92 107
82 93 107
83 94 109
86 98 113
88 100 116
87 99 115
85 97 112
86 98 113
87 99 115
87 99 115
90 102 118
92 104 120
95 108 125
98 111 127
100 114 131
103 117 135
104 118 137
107 121 140
108 123 143
112 127 147
114 129 150
114 130 150
115 130 150
116 131 151
113 128 148
111 126 146
112 127 146
112 128 148
113 129 149
112 128 148
110 125 145
114 129 150
114 130 151
113 128 148
113 128 149
110 124 142
107 121 139
103 116 134
97 109 126
94 108 124
91 103 119
89 101 117
89 100 115
86 98 113
86 98 112
88 100 116
88 100 116
85 97 112
80 91 106
76 87 100
71 81 94
63 72 83
55 62 72
47 53 62
37 43 50
25 28 33
17 19 22
18 20 24
20 23 27
28 32 37
30 34 40
32 37 42
34 39 45
35 40 46
31 35 41
22 25 29
20 23 27
19 22 26
23 26 30
29 33 38
32 36 42
26 30 35
25 28 33
22 25 29
23 27 31
24 27 32
22 24 28
23 26 30
29 33 38
29 33 38
28 32 37
27 30 35
23 26 30
24 27 31
18 21 24
19 22 25
24 27 31
29 33 39
28 32 38
26 30 35
27 31 36
24 28 32
19 21 25
15 16 19
13 15 17
15 17 20
19 22 25
20 23 26
16 18 21
17 20 23
18 21 24
20 22 26
17 19 22
22 25 29
24 27 32
29 33 38
31 35 41
30 34 39
25 29 33
20 23 26
20 23 26
24 27 32
34 38 44
41 47 55
46 52 60
47 53 62
46 53 61
39 44 50
33 38 44
32 37 42
37 42 48
36 41 48
44 50 58
47 53 61
48 55 63
54 61 71
59 67 77
65 74 85
70 79 92
68 77 89
66 74 86
64 73 84
62 70 81
60 68 79
50 57 65
47 54 62
46 53 61
46 52 61
48 55 63
47 54 63
50 57 66
54 62 72
57 65 75
59 67 77
57 64 74
55 63 73
55 63 73
58 66 77
60 69 79
63 72 83
69 78 90
74 83 96
77 88 101
81 92 106
82 93 108
84 95 109
83 95 110
84 95 110
88 100 114
88 100 115
88 99 114
90 102 118
94 107 124
94 107 123
92 104 120
94 107 124
93 106 123
93 106 123
89 101 117
91 103 119
91 104 120
92 105 121
91 103 119
89 101 117
90 102 118
91 103 119
92 105 122
96 109 126
92 105 121
89 101 116
86 97 112
85 96 111
81 92 106
77 87 101
76 86 99
74 84 97
72 82 96
72 82 94
68 77 89
65 74 85
61 69 79
53 60 69
46 52 60
42 47 55
34 39 45
35 39 45
39 44 51
36 41 47
34 39 45
32 37 43
30 34 39
22 26 29
24 27 31
23 26 31
26 29 34
27 31 36
22 25 29
26 30 34
34 39 46
40 46 53
43 48 56
48 54 63
49 55 64
45 52 60
41 46 53
37 42 49
40 45 53
42 47 55
39 44 51
33 37 43
28 31 36
25 29 33
24 27 32
24 28 32
27 31 35
27 30 35
22 26 30
17 19 22
13 15 17
17 20 23
17 19 23
20 22 26
26 30 35
32 37 42
36 41 47
37 41 48
40 45 52
46 53 61
52 59 68
55 62 72
53 60 69
50 57 66
53 60 70
51 58 67
51 57 66
49 56 65
49 55 64
47 54 62
47 53 61
48 54 62
46 52 60
43 49 57
38 43 50
37 42 49
36 41 47
36 41 48
38 43 49
39 44 51
37 42 49
32 37 43
34 38 44
42 48 55
49 56 65
52 60 69
55 63 73
55 62 71
52 60 69
53 61 71
55 62 72
58 66 76
59 67 77
58 65 76
56 63 73
58 66 76
59 66 77
58 66 76
60 68 79
63 72 83
68 77 89
70 80 92
75 85 97
76 86 100
77 88 102
79 89 102
78 88 102
74 84 97
66 76 88
62 70 81
55 62 72
46 52 60
36 41 47
31 35 41
29 33 38
32 36 42
38 43 50
43 49 57
45 51 59
50 57 66
53 60 70
54 61 71
51 58 67
50 57 65
52 59 68
56 63 73
61 69 80
65 73 85
69 78 91
74 83 96
77 87 100
80 91 105
84 95 109
89 101 117
94 107 124
100 114 132
108 122 141
110 124 144
115 131 151
118 134 155
120 136 157
122 138 160
126 143 165
126 144 167
128 146 169
129 147 169
130 148 172
132 150 174
134 152 176
134 152 176
135 153 177
135 154 178
134 152 176
131 149 172
132 149 172
131 149 172
130 148 172
129 146 169
129 147 170
129 145 167
126 143 166
126 143 164
125 141 164
126 143 164
123 140 163
107 122 140
103 116 134
100 114 132
98 112 130
96 110 127
95 108 125
96 108 125
93 106 122
93 106 123
93 106 123
96 109 127
103 116 134
105 119 137
104 119 137
108 122 141
108 123 142
111 126 146
112 127 147
113 128 148
114 130 151
114 129 149
111 126 145
105 119 138
102 115 133
102 116 133
100 114 132
100 114 131
96 109 126
92 103 119
90 102 118
84 95 110
80 91 105
79 89 103
75 85 98
75 85 98
70 79 92
66 75 87
59 66 77
48 54 63
34 39 45
21 25 28
18 21 24
29 33 38
40 46 53
48 55 63
57 65 74
61 69 80
64 73 84
65 74 85
67 76 88
68 77 89
69 79 91
74 84 97
77 86 99
78 88 102
82 93 108
84 96 111
84 95 110
87 98 113
88 100 116
86 98 113
84 96 111
82 93 108
80 91 104
80 91 105
79 89 104
79 90 104
80 91 106
84 95 110
86 98 113
90 102 118
94 107 123
98 111 128
102 115 134
105 119 137
108 122 142
112 127 147
112 127 147
114 130 150
114 130 150
114 129 150
113 129 149
114 130 150
113 129 149
111 127 147
116 131 150
115 130 149
115 130 151
116 132 151
111 127 147
112 127 146
109 124 143
107 121 140
103 117 136
99 112 129
96 109 126
93 106 123
91 103 119
90 102 118
86 98 113
85 96 111
84 96 111
84 95 110
83 94 109
83 94 109
80 91 106
78 88 102
74 84 98
70 79 92
63 71 82
54 62 71
48 54 63
39 44 51
34 38 44
30 34 40
19 21 24
25 28 33
33 37 43
35 40 47
36 41 47
26 30 35
22 25 29
27 31 35
22 25 29
20 23 27
23 26 30
26 29 34
21 24 28
16 19 22
17 19 22
26 30 35
33 37 43
36 42 48
39 44 51
41 47 54
45 51 59
45 50 58
42 48 55
38 43 50
32 36 42
32 36 42
37 42 49
39 44 51
39 44 51
33 37 43
21 24 28
14 16 18
14 16 18
13 15 18
16 18 21
19 22 25
16 18 21
15 17 20
19 22 26
13 15 17
13 15 17
16 18 21
19 22 26
30 34 39
37 42 48
41 47 55
47 54 62
49 55 64
51 58 67
50 57 66
46 52 61
43 49 57
45 51 59
47 53 61
39 45 52
38 43 49
39 44 51
45 51 59
50 57 65
57 65 75
59 67 77
64 73 84
66 75 87
67 76 88
67 76 88
66 76 87
66 76 88
71 80 93
74 84 97
78 89 103
84 96 111
89 100 115
89 101 116
89 101 117
90 103 119
88 100 116
87 99 114
81 92 106
78 88 102
77 87 101
75 85 98
77 87 101
79 90 104
78 89 102
78 89 102
80 90 104
77 88 101
77 87 100
76 87 100
74 85 98
77 87 101
80 91 105
86 98 113
90 102 118
92 105 122
96 109 126
99 113 130
102 116 134
101 114 132
99 113 131
99 112 130
100 113 131
98 111 128
97 110 127
96 109 126
96 109 126
98 111 128
98 112 130
98 111 127
98 111 128
96 109 127
100 113 130
99 112 130
97 110 127
97 110 127
97 110 126
96 109 125
94 107 124
93 106 123
95 108 124
95 107 124
91 104 121
88 100 116
87 99 114
86 98 113
86 97 113
84 95 109
78 89 103
74 84 98
71 81 93
68 78 90
66 75 87
61 69 80
56 63 73
52 59 68
50 57 67
50 56 65
50 56 65
52 59 69
53 60 69
52 59 69
52 60 69
48 54 63
44 51 59
47 53 62
49 56 64
49 55 64
50 57 66
50 57 66
52 59 69
53 60 70
54 62 72
56 63 73
55 62 72
52 59 68
45 51 59
40 46 53
35 40 46
36 41 47
41 47 54
36 41 48
31 36 41
25 28 32
13 15 17
16 18 21
17 20 23
18 20 23
18 21 24
15 17 20
12 14 16
11 13 15
19 22 26
30 34 39
36 41 47
40 45 52
43 49 57
43 49 57
42 48 55
44 49 57
49 55 64
56 63 73
59 67 78
59 67 78
58 66 76
55 63 73
54 62 71
50 57 67
45 51 59
39 44 51
33 38 44
28 31 36
23 26 31
21 24 28
24 27 32
32 37 43
32 36 42
29 33 38
35 40 46
40 45 52
38 43 50
35 40 47
33 37 42
31 35 41
32 36 42
39 44 51
48 54 63
53 61 70
56 64 73
59 67 77
59 67 77
59 67 77
56 64 74
55 62 72
55 63 72
56 64 74
55 63 73
56 64 74
60 68 79
64 73 84
67 76 88
68 78 90
71 80 93
71 81 93
71 81 94
72 82 95
73 83 96
71 80 93
69 78 90
62 71 82
59 67 78
57 65 75
53 61 70
50 57 66
48 55 63
48 54 63
45 51 59
44 50 58
49 55 63
49 56 64
47 53 61
47 54 62
49 56 65
51 58 67
51 58 67
50 57 65
51 58 67
58 66 77
67 76 88
72 82 95
75 85 98
76 86 99
80 92 106
84 96 111
88 100 116
92 105 122
99 113 130
105 119 138
111 125 144
111 126 146
118 133 154
121 138 160
127 144 166
130 147 170
134 152 176
134 153 177
135 153 176
135 153 177
134 152 176
133 151 175
132 150 173
136 154 179
135 153 177
137 156 181
139 158 182
138 156 180
135 154 179
136 154 177
135 153 177
132 150 173
132 150 174
134 152 175
131 149 172
131 149 173
127 145 167
129 146 169
117 132 153
114 130 150
113 128 148
109 124 143
107 121 140
108 123 143
109 123 142
108 122 141
107 122 141
108 122 141
108 123 142
113 128 149
114 130 151
115 131 152
113 129 149
115 131 151
117 132 152
116 132 152
114 130 150
118 133 153
115 130 151
111 127 146
111 126 145
109 124 144
109 124 143
107 122 141
105 118 136
103 117 135
99 113 130
97 110 128
93 106 122
93 105 122
92 104 120
90 102 118
89 102 118
88 99 115
79 90 104
75 85 98
64 73 84
52 59 68
36 41 48
23 26 30
17 20 23
36 41 47
51 58 67
57 65 75
59 67 78
64 73 84
66 76 88
70 79 91
73 82 95
75 86 99
78 88 102
79 90 104
81 92 106
82 93 107
82 93 108
82 93 108
80 92 106
79 90 104
76 86 99
70 79 92
67 76 88
69 78 90
67 76 89
66 75 86
67 76 87
70 79 92
72 82 94
76 86 99
82 93 107
86 97 112
88 100 115
92 104 121
97 110 127
100 113 131
101 115 133
104 118 137
101 115 133
104 118 136
105 119 137
106 120 140
105 120 140
105 119 138
106 121 140
106 121 139
109 124 143
109 123 143
110 125 144
108 123 143
107 121 140
105 119 137
103 117 134
102 115 133
100 113 130
96 109 126
93 106 122
89 101 117
85 96 111
86 98 113
84 96 111
84 95 110
82 93 108
81 92 106
81 92 106
81 92 106
78 88 102
73 83 96
68 77 89
62 70 81
53 60 70
46 52 60
36 41 47
22 25 29
16 18 21
21 23 27
30 34 39
36 40 47
43 49 57
50 57 66
53 60 70
51 58 67
49 56 65
47 54 63
44 50 58
45 50 58
37 43 50
36 41 47
35 40 47
30 35 41
30 34 39
32 36 42
36 41 48
39 44 51
43 49 56
48 54 63
50 57 66
51 58 67
52 59 69
54 62 71
56 64 74
56 64 74
56 64 74
52 59 68
47 53 62
42 48 56
41 46 54
41 46 53
44 50 57
45 51 58
45 51 59
42 48 56
43 49 56
42 48 56
41 47 54
42 48 55
45 51 59
52 59 68
57 65 75
62 70 81
66 76 87
73 83 96
74 84 97
73 83 96
74 84 97
76 86 99
76 86 100
75 85 99
76 87 100
77 87 100
79 90 104
81 92 106
81 93 108
84 96 110
87 99 115
88 101 116
89 101 118
90 102 118
89 101 116
92 104 120
89 101 117
89 101 117
92 105 121
95 108 125
98 112 130
95 108 125
101 114 131
100 114 132
103 117 135
102 115 133
106 120 139
108 122 140
105 119 138
103 117 136
100 114 133
101 114 133
95 109 127
96 109 126
96 109 126
95 108 125
94 107 124
93 106 122
95 107 124
96 109 126
94 107 124
94 107 124
97 110 128
98 111 128
102 116 134
104 118 136
108 122 141
109 123 143
109 124 143
112 127 147
112 128 148
112 128 149
111 126 145
111 125 143
108 122 141
105 119 137
103 117 136
106 120 138
109 124 143
108 123 142
106 121 141
107 122 141
106 120 139
103 117 136
103 117 135
102 116 135
101 114 132
99 113 130
98 112 130
100 114 133
101 115 133
102 115 133
100 114 132
98 112 129
96 109 126
97 110 127
95 107 124
90 103 119
87 98 113
83 94 109
80 91 105
74 84 97
68 77 89
62 71 82
58 67 77
57 65 75
59 67 77
59 67 77
54 61 71
51 58 67
47 53 62
47 54 62
49 56 64
51 58 67
50 57 66
52 59 68
53 60 70
59 67 78
62 70 81
61 70 81
62 71 82
62 70 81
57 65 75
57 64 74
55 62 72
51 58 67
43 49 56
34 39 46
22 25 29
19 21 25
21 24 27
18 21 24
13 15 18
20 23 26
26 29 34
21 24 27
21 24 28
21 24 28
22 25 29
20 23 27
20 23 26
19 22 25
21 24 27
19 22 25
13 15 17
19 22 26
26 29 34
32 37 42
36 40 47
36 41 48
40 46 53
44 50 58
47 54 63
50 57 65
49 56 65
47 53 61
45 51 58
42 48 55
41 46 53
41 47 54
37 43 49
31 35 41
22 25 29
17 19 23
11 13 15
16 18 21
20 22 25
20 22 26
20 23 27
19 22 25
19 21 25
18 20 23
12 14 16
12 14 16
21 24 28
28 32 37
41 46 54
51 57 66
54 62 71
58 66 76
62 70 81
65 74 85
65 73 84
62 70 82
62 70 81
62 71 81
60 69 79
57 64 74
57 65 75
60 69 80
65 74 86
72 81 94
74 84 97
74 85 98
76 86 99
74 85 98
76 86 100
75 86 99
75 86 99
74 85 98
70 80 93
67 76 88
68 77 88
71 80 93
69 78 91
69 79 91
66 75 87
65 73 84
64 73 85
63 72 83
62 71 82
57 65 75
55 62 72
54 62 72
59 67 78
62 70 81
64 73 84
67 76 88
70 80 92
75 85 98
77 88 102
81 92 107
85 97 111
87 98 114
87 99 114
97 110 127
103 117 135
110 125 145
113 129 150
117 133 154
119 135 156
121 138 160
125 141 164
131 148 172
134 152 176
133 152 177
137 154 178
134 153 177
135 154 179
135 152 175
137 155 179
136 154 178
139 157 181
136 154 179
136 155 180
136 154 178
138 157 181
136 155 179
138 157 181
137 156 180
136 155 179
137 155 179
136 154 178
137 156 181
134 152 176
131 149 172
120 136 157
117 134 155
116 132 153
115 131 151
114 130 150
114 129 148
111 126 146
110 125 144
110 125 144
109 125 145
111 126 146
113 128 148
114 129 149
111 127 146
115 130 150
114 130 150
117 132 152
114 129 149
115 130 151
115 130 150
113 128 148
114 129 148
113 128 148
110 125 145
108 123 143
108 122 141
106 120 139
103 117 136
99 113 131
100 113 131
101 114 132
102 116 134
101 115 132
98 111 129
94 107 123
89 101 117
82 93 108
77 87 100
69 78 90
60 68 79
51 58 68
42 48 56
34 39 45
28 32 37
29 33 38
31 35 41
39 45 52
46 53 61
52 59 69
61 70 80
67 75 87
68 78 90
71 80 93
72 82 95
75 85 98
74 84 96
71 80 93
69 78 90
68 78 90
65 74 85
67 76 88
67 76 88
68 77 89
67 76 88
67 76 88
67 76 88
69 79 91
72 82 95
77 87 100
78 88 102
81 92 106
82 93 108
84 95 110
87 99 115
88 100 117
88 101 117
87 99 115
87 98 114
88 100 115
90 102 118
92 105 121
95 107 124
96 110 127
99 113 130
101 114 132
103 117 135
104 118 136
105 119 137
105 118 136
101 115 133
98 112 130
99 113 130
98 112 129
97 111 128
97 110 127
95 107 123
91 104 121
89 101 117
86 97 113
81 92 106
77 87 101
74 84 98
74 85 98
71 80 92
68 77 89
65 74 85
61 70 81
58 66 77
54 61 71
46 52 61
38 43 50
30 34 40
29 33 38
32 36 42
42 48 55
50 57 66
54 62 72
58 66 76
59 67 77
63 71 82
66 75 87
68 78 90
70 80 92
69 78 90
66 75 87
63 72 83
63 71 83
61 70 81
61 69 80
57 64 74
57 64 74
51 58 66
45 51 59
45 52 60
46 53 61
49 56 65
55 63 73
60 69 79
63 72 83
67 77 88
68 78 90
71 81 94
72 81 93
67 76 87
64 73 84
62 70 81
58 66 77
58 66 77
61 69 79
62 70 82
63 71 82
60 68 79
60 68 78
59 67 78
58 66 77
62 71 82
64 73 84
72 82 94
76 87 100
82 92 107
87 99 115
90 103 119
96 109 127
98 111 129
102 116 134
100 113 131
101 114 132
100 114 132
100 114 131
101 115 133
103 117 136
107 122 141
108 123 143
109 124 144
111 126 146
111 126 146
111 126 146
111 126 146
113 128 148
108 123 142
111 125 145
109 125 144
111 126 146
113 129 149
114 130 150
117 133 153
116 131 151
115 130 150
113 128 148
118 133 154
116 132 153
115 131 152
116 133 154
116 132 153
116 132 153
115 130 151
112 127 147
108 123 143
107 122 141
107 121 140
105 119 138
106 120 139
106 121 140
104 119 138
106 121 140
108 123 142
112 126 146
112 127 146
112 127 145
114 130 150
115 131 151
117 133 153
119 135 156
121 137 158
119 135 156
120 136 157
119 136 157
117 133 153
117 132 153
115 130 150
114 130 150
116 133 154
119 135 157
118 134 155
117 133 154
116 132 152
114 129 149
112 127 148
110 125 144
110 124 144
108 122 141
108 122 142
104 119 138
108 123 142
110 126 145
109 124 143
110 125 144
111 126 145
109 124 143
110 124 144
109 124 143
103 117 135
100 114 132
93 106 123
90 102 118
86 97 112
81 92 106
78 88 102
76 86 100
74 85 98
76 86 99
71 81 94
70 80 92
65 74 85
62 71 82
61 69 79
62 71 82
62 70 81
63 72 83
64 72 84
64 72 84
65 74 85
66 75 87
67 77 89
67 76 88
62 70 81
56 63 73
51 59 68
50 56 65
48 54 63
40 46 53
30 35 40
20 23 27
26 30 35
28 32 37
25 28 32
21 24 28
14 16 18
19 22 25
22 25 29
26 30 34
36 40 47
42 47 55
43 48 56
44 50 58
43 48 56
38 43 50
31 35 40
19 21 25
14 16 19
11 13 15
22 25 29
29 33 38
33 37 43
39 45 52
41 47 54
43 49 57
44 50 58
47 54 62
46 53 61
45 51 58
39 45 52
35 39 46
33 38 44
28 33 38
22 25 29
12 13 16
12 14 16
11 12 14
14 15 18
16 18 21
19 21 25
23 26 30
26 30 34
27 31 36
22 25 29
12 14 16
17 20 23
27 30 35
33 38 44
38 43 49
44 50 58
51 58 67
55 62 72
59 67 78
62 71 82
63 72 84
67 76 88
68 77 90
68 77 90
67 76 88
64 73 84
64 73 84
67 76 88
69 78 91
73 83 96
76 87 100
78 89 103
81 91 105
82 94 108
82 94 109
84 95 111
82 93 108
81 93 107
80 91 105
79 90 104
77 88 102
78 89 102
75 85 98
72 82 95
74 83 96
74 84 97
71 81 93
73 82 95
73 82 95
68 78 90
65 74 85
63 71 82
64 73 84
66 75 87
68 77 90
73 83 96
75 86 99
79 89 103
80 92 107
85 96 111
89 101 117
92 105 121
98 110 127
100 113 131
104 118 137
107 122 141
110 125 145
114 129 150
116 131 151
118 134 155
121 137 158
125 141 163
127 144 167
128 146 169
133 151 174
137 154 177
134 152 177
134 152 177
134 153 177
136 154 178
135 154 178
138 156 180
136 155 180
138 157 181
136 154 178
137 155 180
135 153 177
134 153 177
135 154 178
134 153 177
134 152 175
130 148 172
128 145 168
127 144 166
119 135 156
118 134 155
116 132 153
115 130 151
110 125 144
108 123 142
106 120 139
103 118 136
104 118 137
102 116 135
101 114 132
102 115 133
100 113 131
100 114 133
102 116 134
103 117 135
107 121 139
108 123 143
110 125 144
111 127 147
112 127 147
111 127 147
109 124 143
107 121 140
106 119 138
101 115 133
100 114 132
100 114 131
98 111 128
99 113 130
100 114 133
100 114 131
99 112 130
96 108 125
90 102 118
85 97 111
82 93 108
77 88 101
74 85 98
74 84 97
75 85 98
72 82 95
67 75 87
54 61 71
43 48 56
34 38 44
26 29 34
25 28 33
27 31 35
35 40 46
45 51 58
54 62 72
58 66 77
62 71 82
61 69 80
58 66 77
59 67 77
61 69 79
60 68 79
58 65 76
59 67 78
62 70 81
64 73 84
66 75 87
70 80 92
73 83 96
75 86 100
77 87 101
79 89 103
76 86 99
77 87 101
76 86 100
76 86 100
75 85 98
76 87 100
75 84 97
72 82 95
76 86 100
78 89 103
81 92 106
88 100 115
89 101 116
90 103 119
92 104 120
89 102 118
91 104 120
93 106 122
91 104 120
90 103 119
90 102 118
93 105 122
92 104 120
91 102 118
91 102 117
87 99 114
85 97 113
84 95 110
81 92 106
77 87 100
69 78 91
62 71 82
55 63 73
52 59 69
48 55 63
39 45 52
34 38 44
29 33 38
32 37 42
30 35 40
34 38 44
35 40 46
38 44 51
43 49 56
49 55 63
55 63 73
59 67 78
64 73 84
66 75 86
66 75 86
65 73 85
63 72 84
68 77 89
70 79 92
73 83 96
72 82 95
72 82 95
71 81 93
73 83 97
72 81 94
67 77 90
67 76 88
67 76 88
66 75 87
66 75 87
65 74 85
63 71 81
64 73 85
67 76 88
71 81 95
76 86 99
78 89 104
80 92 106
79 89 103
78 89 103
75 85 99
74 84 97
71 80 93
69 79 91
71 81 93
72 82 95
74 84 97
72 81 94
72 82 95
74 84 97
77 88 102
80 91 105
82 93 108
86 97 113
90 102 118
95 108 125
98 110 127
101 114 132
105 118 137
107 121 141
111 126 145
115 130 150
116 132 152
116 132 153
117 133 153
115 130 151
115 131 152
118 133 154
118 134 155
120 136 157
120 136 158
121 137 159
122 138 160
123 140 162
123 140 162
125 141 163
124 141 163
123 140 162
126 144 166
123 141 164
128 145 168
127 144 167
128 145 167
128 144 166
129 146 169
126 144 166
127 144 166
124 141 163
121 138 160
122 139 161
121 137 158
122 138 159
121 137 158
118 134 155
116 132 153
115 130 151
113 128 147
109 125 144
113 128 148
113 129 149
118 134 155
119 134 154
120 137 158
121 137 158
123 139 161
125 142 164
128 145 168
125 142 165
126 143 165
129 146 169
128 145 167
126 143 166
124 142 164
124 142 164
123 140 162
123 140 161
122 139 161
123 140 162
121 137 159
119 135 156
120 136 156
120 137 159
116 133 154
117 133 153
116 131 151
114 130 150
112 127 147
112 129 150
116 132 152
118 134 155
117 134 155
118 133 154
116 132 153
116 131 152
112 127 147
113 128 148
110 125 144
107 122 142
104 118 137
102 116 134
99 112 129
93 106 123
91 104 120
92 104 120
90 103 119
91 103 119
90 102 118
87 99 114
84 96 111
82 93 107
80 91 105
79 90 104
77 88 102
73 83 96
75 85 98
70 80 92
69 78 90
66 74 86
58 66 77
54 61 71
54 61 70
50 57 66
46 53 61
38 43 50
33 37 43
32 36 42
29 33 39
28 32 37
26 30 35
16 18 21
22 25 29
29 34 39
30 34 39
24 27 32
16 18 21
28 31 36
36 41 48
39 44 51
39 45 52
41 47 54
45 51 59
47 53 61
45 51 58
43 48 56
44 49 57
41 46 53
29 32 38
20 22 26
27 31 36
31 36 42
37 42 49
38 43 50
38 43 50
39 45 52
42 48 56
46 53 61
46 51 59
42 48 55
37 42 49
35 40 46
31 35 41
34 38 44
32 36 42
25 28 33
17 20 23
15 17 20
21 24 27
25 28 32
22 26 30
17 19 23
15 17 20
20 23 26
21 24 28
26 29 34
33 37 43
35 40 46
38 44 51
45 51 58
50 57 66
50 56 65
52 59 68
54 62 72
57 64 75
58 66 76
59 67 77
60 68 79
62 70 81
63 72 84
63 71 82
66 74 85
68 77 89
71 80 93
75 85 99
79 90 104
81 92 107
82 93 107
84 95 110
84 96 111
85 96 111
82 93 108
82 93 106
80 90 103
78 89 103
78 89 103
76 86 100
74 85 98
73 83 95
70 80 93
67 76 88
68 78 90
72 81 94
71 80 93
68 78 90
68 77 89
71 81 94
74 84 97
77 88 102
78 89 104
81 92 106
79 90 104
83 94 109
85 97 113
89 101 117
92 105 121
95 108 125
97 110 128
101 113 130
101 114 132
101 114 132
100 114 132
102 116 134
105 120 138
108 122 140
112 127 147
114 129 149
120 136 156
120 137 158
125 142 164
128 145 167
128 146 168
131 148 171
131 149 172
132 150 174
134 152 176
135 153 176
135 154 179
135 153 176
134 153 177
134 151 174
132 150 174
130 148 171
124 142 165
127 144 167
125 142 164
120 137 158
119 135 156
114 130 150
110 125 145
108 122 141
105 120 139
105 119 138
102 116 135
101 114 132
99 112 130
99 113 130
95 108 124
91 103 119
90 102 117
88 101 116
87 99 114
88 100 116
92 104 120
97 110 127
98 112 129
103 117 134
102 117 136
103 118 137
103 117 135
102 116 134
100 114 132
99 112 129
98 111 128
98 112 130
97 110 127
100 113 131
99 112 130
98 112 130
98 111 128
97 110 127
91 103 119
89 101 116
84 96 111
84 95 110
86 97 112
84 95 110
85 97 112
85 96 111
80 91 106
78 88 102
72 81 94
66 75 87
59 67 78
56 64 74
48 55 63
39 44 51
27 31 35
21 24 27
32 37 42
39 44 51
43 49 56
44 50 58
42 48 55
43 49 57
48 55 64
51 58 66
50 57 65
50 57 66
52 60 69
51 59 68
57 65 75
62 70 81
66 75 88
67 77 89
68 77 89
70 79 92
65 74 86
65 74 85
61 70 80
57 65 76
55 63 73
57 64 74
59 68 79
64 73 84
70 79 91
73 83 96
74 84 97
73 83 96
76 86 99
78 88 102
82 93 107
87 98 113
87 98 113
82 94 109
81 92 107
81 93 107
84 95 111
86 98 113
87 99 114
87 98 113
82 93 108
81 92 106
77 88 102
72 82 95
66 75 87
57 65 75
52 59 68
45 52 60
40 45 52
29 33 38
22 25 28
28 32 38
38 43 49
46 52 60
51 58 68
57 64 75
59 67 77
58 66 77
58 66 76
58 66 77
60 68 78
58 66 77
60 68 79
63 72 83
61 70 80
56 64 74
51 59 68
51 58 67
56 63 73
59 67 77
64 73 84
67 76 87
68 77 90
69 79 91
71 80 93
67 76 88
66 75 86
67 76 88
70 79 92
71 80 93
70 80 93
73 82 95
73 82 94
74 85 99
77 87 101
77 88 101
80 91 105
82 94 108
83 95 110
85 96 111
85 96 111
86 97 111
84 95 110
85 97 112
85 96 111
82 93 107
80 91 105
81 92 106
81 93 107
80 91 106
81 92 107
86 98 113
91 103 119
96 109 126
101 114 132
104 119 137
109 124 143
112 127 147
112 128 148
117 133 153
117 133 155
123 139 160
125 142 164
125 142 165
124 141 164
125 142 164
124 141 163
125 142 164
124 141 164
122 138 160
121 138 159
123 140 161
125 141 163
126 143 165
128 145 168
127 144 166
127 144 166
128 145 168
131 149 171
133 151 175
134 152 175
134 152 175
133 150 173
132 149 172
130 147 170
128 145 167
126 143 166
124 141 163
124 140 161
124 141 162
123 139 161
122 139 161
122 139 160
121 137 158
118 134 154
116 132 153
115 131 153
115 130 151
117 133 154
118 134 156
124 140 162
126 143 165
128 146 169
129 147 170
130 148 170
131 148 171
131 149 171
132 150 174
127 145 169
135 153 177
135 153 178
133 151 174
131 149 173
128 146 169
124 142 164
128 145 167
124 140 162
123 140 162
123 139 160
120 136 157
121 137 159
120 136 158
119 135 155
117 133 153
115 131 151
113 128 148
111 126 146
109 124 144
109 124 144
112 128 148
114 129 150
114 129 150
117 133 154
118 134 155
116 132 153
115 131 151
114 129 149
111 125 145
109 123 142
106 121 140
104 118 137
101 115 132
97 110 127
96 109 126
96 109 126
94 107 124
94 106 122
90 102 118
90 102 117
88 100 115
86 98 113
85 97 113
83 94 109
78 88 102
74 84 97
68 78 90
65 74 85
60 68 78
55 62 72
49 56 65
46 52 61
39 45 52
30 35 40
26 30 35
26 30 34
32 36 42
29 33 38
36 41 48
36 41 48
34 39 45
29 33 38
26 29 34
25 28 32
23 25 29
18 21 24
16 18 21
16 18 21
20 23 26
27 31 36
33 37 43
34 38 44
40 46 53
49 56 64
53 60 69
54 61 70
56 63 73
54 61 71
51 58 68
43 49 56
39 44 51
29 32 38
26 30 34
24 27 32
30 34 39
39 45 52
46 52 61
52 58 67
51 58 66
50 57 65
47 54 63
50 56 65
46 53 61
45 50 58
43 49 57
44 50 58
43 49 56
37 42 48
28 32 37
24 27 31
25 28 33
25 28 32
31 35 40
39 44 51
42 48 55
45 51 59
51 59 68
55 62 72
54 61 71
53 60 70
52 59 68
52 59 68
51 59 68
49 56 65
50 57 65
52 59 68
52 59 69
53 60 69
54 61 71
56 63 73
61 69 80
65 74 86
69 78 91
69 79 91
71 81 94
74 83 96
76 86 100
77 88 101
77 88 101
77 88 103
78 89 103
79 90 104
78 88 102
76 86 99
74 84 97
72 82 95
72 82 95
68 78 90
63 72 84
62 71 81
58 66 76
57 65 75
61 69 79
64 73 84
68 77 88
68 77 89
74 84 97
79 89 103
79 90 104
81 92 106
80 91 106
80 91 105
78 89 103
79 90 104
79 90 104
80 91 106
82 93 108
86 98 112
85 97 112
84 96 111
85 96 112
86 98 114
91 103 120
96 109 126
100 113 131
104 117 135
107 122 140
111 126 146
115 130 151
119 135 155
119 135 156
118 134 156
119 135 156
120 135 156
122 138 160
122 138 160
124 141 163
125 142 165
125 142 164
127 143 165
125 142 165
125 142 164
123 140 163
121 138 159
120 135 156
117 134 156
115 131 152
113 128 148
98 110 127
98 111 128
97 110 127
97 110 127
94 107 123
93 106 122
88 100 116
90 103 119
90 102 117
85 97 112
83 94 109
82 93 108
82 93 108
82 93 108
85 97 112
87 99 114
90 102 119
93 106 122
95 108 125
98 111 128
98 111 128
96 109 125
95 109 126
95 108 125
92 105 122
97 110 128
95 109 126
97 110 126
96 109 126
97 110 128
95 108 125
94 107 124
93 106 123
91 104 121
88 101 117
85 98 114
86 98 114
87 99 114
88 100 115
85 97 112
84 95 110
81 92 106
78 88 102
75 86 100
71 81 94
66 75 87
62 70 80
54 61 71
46 52 60
39 44 51
33 37 43
26 30 34
23 27 31
26 30 34
24 28 32
24 27 31
24 28 32
26 29 34
27 30 35
27 31 36
29 33 39
29 33 38
33 37 43
33 38 44
37 42 49
40 46 53
44 50 58
45 52 60
46 53 61
48 54 63
47 53 61
45 51 59
43 49 57
38 43 50
37 42 49
42 48 56
44 51 58
47 54 62
50 57 65
52 59 68
55 63 73
58 65 75
60 68 79
62 71 83
66 75 87
70 79 92
73 82 96
75 85 98
76 86 100
77 87 101
79 89 103
77 87 101
73 83 96
69 79 91
65 74 86
62 70 81
59 67 78
52 59 69
46 52 60
41 46 53
32 36 42
23 26 30
13 15 17
25 28 33
38 43 49
47 54 62
56 64 75
62 70 81
67 76 87
66 75 86
63 72 83
61 69 80
58 66 77
59 66 76
58 65 75
57 64 74
53 60 70
50 57 65
46 53 61
43 49 57
43 49 56
44 50 58
48 55 64
53 61 71
58 66 76
57 64 74
59 66 77
63 72 83
64 72 84
67 76 87
71 81 93
73 83 96
75 86 100
78 89 103
79 89 103
80 91 106
79 90 104
83 94 109
83 95 109
86 97 112
88 100 116
91 103 119
91 104 120
93 105 122
95 108 125
97 110 127
99 112 129
97 110 127
96 109 126
95 108 125
95 108 125
96 108 125
95 107 124
95 108 124
100 113 131
102 116 135
106 121 141
109 124 144
113 128 147
114 130 151
118 134 155
119 135 157
123 140 162
124 141 163
126 143 166
131 149 173
134 152 175
133 152 176
133 150 173
133 151 175
130 147 170
130 148 171
127 145 167
126 143 165
126 142 164
123 140 162
123 140 161
121 138 159
122 139 161
123 139 160
124 142 164
128 144 166
129 146 169
128 145 168
131 148 171
130 148 172
132 150 173
129 146 169
127 145 168
128 144 166
126 143 166
125 142 165
124 141 163
123 140 161
122 139 160
120 136 157
117 133 155
117 133 153
120 136 156
118 135 156
116 132 152
120 136 157
123 140 161
123 140 161
122 139 161
127 144 166
127 146 169
129 146 168
129 146 170
131 149 173
137 155 178
137 156 180
136 155 178
137 156 180
135 153 177
131 149 173
129 146 168
129 146 169
128 145 167
127 145 167
127 144 166
126 144 167
126 144 166
125 142 164
123 140 161
119 136 158
117 132 153
111 126 146
107 122 141
102 116 135
101 114 132
101 115 133
101 115 133
104 118 137
109 123 142
112 127 148
113 128 147
115 131 152
116 132 153
116 131 151
117 133 154
115 131 151
114 129 148
109 124 143
108 122 141
104 118 135
99 113 130
98 112 129
98 110 126
92 105 121
91 103 119
86 98 113
83 94 109
80 90 105
77 88 102
73 83 96
68 77 89
64 73 84
62 71 82
57 65 75
53 60 70
49 56 65
46 52 60
38 43 49
22 26 30
22 25 29
34 39 45
44 50 58
50 57 66
54 61 71
57 64 74
59 67 78
60 68 78
57 65 75
52 59 68
52 59 68
49 56 65
44 50 58
38 43 49
30 35 40
22 26 30
18 20 23
15 18 20
14 15 18
25 28 33
41 46 53
51 58 67
55 62 72
61 69 80
63 71 82
60 69 80
57 65 75
56 63 73
50 57 67
44 50 57
35 39 46
19 22 25
25 29 33
38 43 50
49 56 64
53 60 69
55 63 73
54 62 71
52 60 70
53 60 69
51 58 68
50 57 66
48 54 63
44 50 58
40 46 53
35 40 46
34 38 44
38 43 50
47 53 62
52 59 68
54 61 70
55 63 72
60 68 79
64 73 84
66 74 86
67 76 88
65 74 86
63 72 83
61 70 81
59 67 78
57 65 76
53 60 70
55 62 71
54 61 71
53 60 70
50 57 67
50 57 66
53 60 70
59 67 77
59 68 78
61 69 80
62 70 81
64 73 85
65 73 85
65 73 85
63 71 83
65 74 85
70 79 91
68 77 89
66 75 86
64 72 84
65 74 86
65 73 85
64 73 85
62 70 81
58 66 76
53 60 70
52 59 68
53 60 69
55 62 72
59 67 78
63 72 83
69 78 90
73 83 96
78 89 102
79 90 104
79 89 104
77 87 100
72 82 95
69 79 91
69 78 91
69 78 90
69 78 91
70 79 91
70 79 91
72 82 95
76 86 99
79 90 104
80 91 105
84 95 110
88 100 115
93 105 121
97 110 128
100 114 132
101 114 132
103 117 135
104 118 137
104 118 136
106 121 140
106 121 140
106 120 139
106 120 138
108 122 141
111 125 145
113 128 147
116 132 153
116 132 154
115 132 153
116 131 151
112 127 147
111 126 146
107 122 141
106 120 139
106 121 141
106 121 140
86 98 113
87 99 115
87 99 115
87 98 114
86 97 111
81 92 107
82 93 107
82 94 109
84 95 111
82 94 110
83 94 109
82 93 108
83 95 110
85 96 112
85 96 112
87 99 115
87 98 114
88 99 115
90 103 119
90 103 119
89 101 117
89 101 117
87 99 114
85 97 112
87 99 115
90 102 118
89 101 118
90 103 119
88 100 116
89 101 117
89 101 116
87 98 113
90 102 118
90 102 117
89 100 115
88 100 115
90 102 118
90 102 117
87 99 115
86 97 112
85 97 112
83 94 109
82 93 107
79 90 104
77 87 101
74 84 96
70 80 92
67 77 89
64 73 84
62 70 81
61 69 79
61 69 80
59 67 78
56 64 75
51 58 67
48 55 64
42 48 56
42 48 56
37 42 48
30 34 40
26 29 34
17 19 22
22 25 29
27 30 35
24 27 32
24 28 32
27 31 36
31 36 41
31 35 41
29 33 38
26 30 35
21 24 27
17 19 22
16 18 21
11 12 14
21 23 27
21 24 28
18 20 23
28 32 37
33 37 43
34 38 44
38 43 50
42 47 55
45 51 59
50 56 65
52 59 68
56 63 73
58 66 76
60 68 78
61 70 81
58 66 76
54 61 71
53 60 69
52 59 67
48 55 64
47 53 61
38 44 51
32 37 43
28 31 36
25 29 34
26 30 35
27 30 35
31 35 41
36 41 48
46 52 60
53 61 70
61 70 80
65 74 86
67 76 88
67 76 88
65 74 86
62 71 82
60 68 79
58 66 77
55 62 72
53 60 70
52 59 68
51 58 67
49 56 64
45 51 58
43 49 57
40 46 53
40 45 52
40 46 53
45 51 59
50 58 67
61 69 80
66 75 87
73 83 97
76 87 100
80 91 105
82 92 107
82 94 108
87 99 114
91 103 119
94 106 123
94 107 124
97 110 127
99 113 131
101 115 132
100 114 133
104 118 137
107 122 141
109 124 143
111 126 146
112 127 147
111 126 146
111 126 145
110 125 145
111 125 145
109 125 145
112 127 146
111 126 146
116 130 150
115 130 150
120 135 156
120 136 158
122 138 160
124 141 162
127 144 166
129 147 170
129 147 171
132 150 173
133 151 174
133 151 174
134 152 175
135 152 175
131 149 172
134 151 174
132 150 173
128 145 168
130 148 171
127 144 167
127 144 167
127 143 165
126 143 165
125 142 165
126 143 166
127 144 166
127 145 168
127 145 167
129 146 168
128 145 168
128 145 168
130 147 170
130 148 171
129 147 171
133 151 174
129 147 170
131 148 170
129 146 170
128 145 167
127 145 167
125 142 165
125 142 164
123 139 161
121 138 159
121 138 160
122 139 161
124 141 163
123 140 163
122 139 161
123 140 162
124 140 161
122 139 161
122 139 161
123 140 163
127 144 166
129 147 170
134 152 175
133 151 175
132 150 174
134 152 176
134 152 176
132 149 172
131 149 172
127 145 168
128 146 169
127 145 168
126 144 166
123 140 161
122 138 160
120 136 156
118 134 155
116 132 152
114 129 150
111 127 148
109 124 143
106 120 138
104 119 138
105 119 137
103 117 135
104 118 136
105 119 137
106 121 140
110 125 144
112 127 146
113 128 149
110 125 144
111 127 146
114 130 150
113 129 149
112 127 146
108 123 142
108 122 140
103 118 136
102 115 132
96 110 128
93 105 121
89 101 117
85 96 111
81 92 106
73 83 96
66 75 86
61 69 80
57 65 75
52 59 69
48 54 63
49 56 65
45 51 59
38 43 50
34 38 44
27 30 35
26 30 34
29 33 38
36 41 47
43 48 56
51 58 68
60 68 79
64 72 84
63 72 83
62 71 82
60 68 79
57 65 75
53 61 70
50 57 67
47 54 62
41 47 55
34 39 45
28 32 37
27 31 36
28 32 37
29 34 39
25 28 32
17 20 23
17 20 23
29 33 38
35 40 46
38 43 50
43 49 57
47 53 61
48 54 63
45 51 59
44 50 58
42 48 55
35 40 46
26 30 34
16 18 21
25 28 32
39 44 51
48 55 63
49 56 65
52 59 69
54 62 71
55 62 72
57 64 75
56 63 74
54 61 71
52 59 68
52 59 68
51 57 66
47 54 62
48 54 63
55 63 73
60 68 78
64 72 83
65 74 85
67 76 87
68 77 89
66 76 88
67 76 88
69 79 91
69 78 91
68 77 90
69 78 90
67 76 88
65 74 85
62 70 81
64 72 83
65 74 85
62 70 81
58 66 76
54 61 71
51 58 68
49 56 64
48 55 63
50 57 65
51 58 68
51 58 67
51 58 67
51 58 67
51 58 67
52 60 69
56 64 74
58 66 76
57 65 75
57 65 75
59 67 78
59 67 77
58 66 76
55 63 73
55 63 73
54 61 71
54 61 71
56 64 74
57 64 75
57 64 74
59 67 78
62 71 82
67 76 89
74 83 96
75 86 99
78 89 102
77 88 102
76 87 100
74 84 97
74 84 97
72 81 93
67 76 88
64 72 83
61 69 80
63 72 83
66 75 87
68 77 89
69 78 90
74 84 98
79 90 103
81 92 107
84 96 112
86 98 114
88 101 117
91 104 121
90 102 118
93 106 122
93 105 121
91 103 119
90 102 118
93 107 124
96 109 126
98 111 129
99 112 130
100 114 132
102 115 133
102 116 133
102 115 133
98 111 128
98 112 129
93 106 123
93 105 122
93 106 122
76 87 100
78 89 103
80 91 105
80 91 106
81 91 106
78 89 103
78 89 103
81 92 106
84 95 110
87 98 113
88 100 115
89 101 116
89 101 117
90 102 118
91 102 118
90 102 118
88 100 115
87 99 114
86 98 114
84 96 111
84 95 110
83 94 109
81 92 106
81 93 107
82 93 108
84 95 111
84 96 111
86 97 112
87 98 114
85 96 112
85 97 113
85 97 112
87 99 114
87 99 114
90 102 118
88 100 116
88 101 117
91 103 119
91 104 120
88 99 114
88 99 115
89 101 117
90 103 119
88 100 117
90 102 118
87 98 114
85 95 110
82 93 107
83 94 108
80 91 106
79 89 103
76 86 100
73 83 95
70 80 92
68 78 90
67 76 88
65 74 85
65 74 85
61 69 80
58 66 76
49 56 64
42 48 55
34 39 44
29 33 39
32 37 42
27 31 36
21 23 27
22 25 29
22 25 30
24 27 32
23 26 31
20 22 26
26 29 33
25 29 33
24 27 32
26 29 33
28 31 36
29 34 39
28 32 37
29 33 38
27 31 35
24 27 31
22 25 29
27 31 36
31 35 40
36 41 47
36 41 47
34 38 44
30 34 39
27 31 36
22 25 29
25 28 33
28 32 37
21 24 28
20 23 26
21 24 28
21 24 28
22 26 30
26 30 34
27 30 35
29 33 39
35 40 46
40 45 53
46 53 61
53 60 69
57 65 75
60 69 80
60 69 79
62 71 82
65 73 85
63 72 83
60 68 78
54 61 70
49 56 65
46 52 61
46 52 60
45 52 60
45 51 59
44 50 58
43 49 57
43 49 57
44 50 58
45 51 59
47 53 62
54 62 71
61 70 81
69 78 90
77 87 101
81 92 107
88 100 115
91 103 119
93 106 122
93 106 122
97 110 127
102 116 134
102 116 135
104 119 137
105 119 138
106 120 139
107 121 139
104 118 137
109 123 142
113 128 148
115 131 152
115 130 150
117 132 152
117 133 153
120 136 157
119 136 157
121 138 159
121 137 158
123 140 161
124 141 163
125 142 164
125 142 164
126 142 164
128 145 167
128 145 169
131 149 172
133 150 173
136 154 179
137 155 180
137 156 180
135 153 178
137 156 180
137 155 179
134 152 176
132 150 174
133 151 175
133 151 174
131 150 174
134 152 175
135 153 177
137 156 181
134 152 176
136 154 178
135 153 176
135 153 177
136 153 177
134 153 177
135 153 177
134 152 175
134 152 176
133 151 175
131 149 173
130 148 172
133 151 175
134 152 176
132 150 173
131 150 174
134 151 174
130 148 171
131 148 171
129 147 171
128 145 169
128 145 168
126 144 167
126 145 168
125 143 165
125 142 165
124 141 163
125 141 163
121 138 160
121 137 159
118 135 156
118 134 155
118 134 155
121 137 159
122 139 161
126 143 166
127 144 166
125 142 165
127 145 167
126 144 167
125 142 165
125 142 163
124 141 164
124 141 163
118 135 157
120 136 158
117 133 154
116 132 152
114 129 149
114 129 149
112 126 145
109 124 144
108 124 143
110 125 144
109 123 142
105 120 138
101 115 133
102 116 134
102 116 134
104 119 137
107 121 140
110 125 145
112 127 147
114 130 150
116 130 150
110 126 146
109 124 143
104 118 136
103 118 136
101 115 133
100 113 130
96 108 124
93 105 121
87 99 114
83 94 108
76 87 100
72 82 95
67 76 88
59 67 78
48 55 63
43 49 57
35 40 46
23 26 31
18 20 24
20 23 27
23 26 30
26 30 35
30 35 40
36 41 47
45 51 59
50 56 65
51 57 66
51 59 68
53 61 70
58 66 76
60 69 79
61 69 80
60 68 78
57 65 75
53 60 69
44 51 59
39 44 51
38 43 49
39 44 51
40 45 52
39 44 51
37 42 48
39 44 51
41 47 54
38 43 50
35 39 46
29 33 38
21 24 28
18 20 23
19 21 25
19 21 25
22 25 29
23 27 31
23 26 31
25 28 33
21 24 27
16 18 21
14 16 18
24 28 32
32 36 42
33 38 44
39 44 51
40 46 53
43 49 56
48 55 64
51 58 67
53 61 70
55 62 72
55 63 73
59 67 78
61 69 80
64 72 83
63 71 82
59 67 77
60 68 79
60 68 79
61 70 80
63 72 83
63 72 83
64 72 84
63 71 82
61 70 80
60 68 79
61 69 79
61 69 80
62 70 81
63 71 82
62 71 81
62 71 82
63 71 82
60 68 79
59 67 78
59 68 78
56 64 74
53 60 70
47 53 62
44 49 57
42 48 55
40 46 53
38 44 51
39 44 51
41 47 54
44 50 58
44 50 58
47 53 62
50 56 65
51 58 67
54 61 71
56 64 74
56 63 73
53 61 71
52 59 69
48 55 63
47 53 62
48 55 63
48 55 63
49 56 65
52 59 68
54 61 71
59 67 77
61 69 80
66 76 88
72 81 94
76 86 100
78 88 102
78 88 102
77 88 102
75 85 98
74 84 97
71 81 93
69 79 92
67 76 88
65 74 85
65 73 84
63 71 83
65 74 85
64 73 84
62 70 81
63 72 83
62 71 82
67 76 88
71 80 93
75 85 98
78 89 102
78 89 103
76 86 100
72 82 94
72 81 94
72 81 94
73 83 95
76 87 100
79 90 105
81 92 106
83 94 108
85 96 110
81 92 107
79 90 104
75 85 99
74 85 98
72 82 95
73 82 95
73 83 96
79 89 103
81 92 106
81 92 106
79 90 104
81 91 105
82 93 107
82 93 108
86 98 113
88 100 116
89 101 116
89 101 118
90 102 118
91 103 120
87 99 115
89 101 117
86 98 113
86 97 112
86 97 113
86 97 113
85 97 112
87 98 113
84 96 111
83 94 109
81 92 106
81 92 106
79 91 105
82 92 107
81 92 107
85 96 111
87 98 113
89 101 116
93 105 122
95 108 125
99 112 129
99 112 130
97 111 128
97 110 127
94 107 124
92 104 120
93 106 123
94 107 124
95 108 125
95 108 125
94 106 122
90 102 118
91 104 121
93 105 122
94 107 123
93 105 121
92 105 122
91 103 119
89 101 117
87 99 114
80 91 105
78 89 103
75 86 99
73 83 96
69 79 91
64 72 84
57 65 75
52 59 68
47 53 62
45 51 59
46 52 61
46 53 61
46 52 61
42 48 55
39 44 52
40 45 52
41 46 53
42 48 55
46 52 60
46 52 61
49 56 64
47 53 62
48 55 64
50 57 66
48 55 63
46 52 60
44 50 58
41 47 54
37 42 49
29 33 39
26 29 33
26 29 33
24 28 32
22 25 29
18 21 25
15 17 20
22 25 28
33 37 43
36 41 47
36 41 47
38 44 51
41 47 54
45 51 58
47 54 62
49 56 64
50 57 66
46 52 61
43 49 57
42 48 55
42 48 56
44 51 59
51 58 67
56 64 74
57 65 76
62 70 81
63 72 83
61 68 79
54 61 71
51 58 67
49 56 65
49 56 64
48 55 63
49 56 65
51 58 68
54 61 71
56 64 74
57 65 75
58 66 76
62 70 81
64 73 84
65 73 85
66 75 87
70 80 92
77 87 100
81 92 106
86 98 114
91 103 119
94 107 124
96 110 127
101 115 132
104 118 136
104 119 137
105 119 137
103 118 137
106 120 138
106 120 139
107 122 141
111 126 145
115 131 151
117 132 152
119 135 156
123 139 161
121 138 159
126 143 165
128 145 167
129 146 167
127 144 167
130 148 170
131 148 171
129 147 171
128 146 170
131 149 173
132 150 173
132 150 173
133 152 176
138 156 180
139 158 183
142 161 187
142 162 186
140 158 183
138 157 182
137 156 180
135 154 179
137 155 179
136 154 179
137 155 180
139 158 182
140 159 184
142 161 186
140 159 184
142 162 187
138 157 182
139 158 183
140 160 186
139 158 184
143 162 187
141 160 185
140 159 184
140 159 184
140 159 184
140 159 184
140 159 184
139 158 183
135 153 176
135 154 179
136 154 178
135 153 177
133 151 175
130 149 172
130 148 172
130 147 170
129 146 169
125 142 164
123 139 160
123 139 161
123 140 162
124 140 162
123 140 161
124 141 163
120 137 158
119 135 156
120 136 157
118 134 155
119 136 158
121 137 159
121 138 160
124 141 163
123 139 161
124 141 163
120 137 159
122 139 160
123 139 161
122 139 160
121 138 160
120 136 157
117 134 155
116 132 154
114 131 152
115 130 151
116 132 152
111 127 147
110 125 144
110 125 144
109 123 142
106 121 140
104 119 137
104 118 136
103 117 135
101 115 133
102 116 134
104 118 136
106 120 138
108 123 142
108 123 142
107 121 140
105 120 139
105 119 138
101 115 133
99 113 131
97 110 127
90 102 118
86 98 113
82 93 108
79 89 103
76 86 100
74 83 96
68 78 90
62 71 82
54 61 71
49 56 65
41 47 54
32 37 43
22 25 29
10 12 14
19 22 25
22 25 29
24 27 31
28 32 37
37 43 49
45 51 59
46 53 61
50 57 66
53 61 71
58 66 76
61 70 81
63 72 83
66 75 87
64 73 84
60 68 79
52 60 69
46 53 61
44 50 58
41 47 55
36 40 47
31 36 41
30 34 39
29 33 38
25 28 32
27 30 35
33 37 43
36 41 47
38 44 51
37 43 49
34 38 44
37 42 49
42 48 55
45 52 60
45 51 59
42 47 54
42 48 55
43 49 56
44 51 59
44 50 57
47 54 62
47 53 61
49 55 64
46 53 62
44 51 59
51 58 67
58 66 76
60 68 79
62 70 81
63 71 82
64 72 84
65 74 85
69 79 91
69 78 91
70 79 91
69 79 90
67 76 89
69 78 90
67 76 88
65 73 85
64 73 85
65 73 85
61 69 80
59 67 78
56 64 74
53 60 69
50 57 66
53 60 69
54 61 71
54 62 71
56 63 73
58 66 76
60 68 79
57 65 75
52 59 69
45 51 59
37 42 48
28 31 36
21 24 28
21 24 28
24 28 32
28 32 37
35 40 46
35 40 47
32 36 42
32 36 42
31 36 41
27 31 36
32 37 43
40 46 53
46 53 61
49 56 65
49 56 64
48 54 63
48 55 64
47 54 63
47 53 62
46 53 61
43 49 57
47 53 61
53 60 69
58 66 76
60 68 79
63 72 83
68 77 89
69 79 91
72 82 96
76 86 100
76 87 100
74 84 97
71 81 94
69 79 91
68 77 89
67 76 88
64 73 84
59 67 78
55 62 72
50 57 66
47 54 62
48 54 62
46 52 60
45 52 60
48 55 64
51 58 67
58 66 76
64 73 84
67 76 88
69 79 91
70 79 91
67 76 88
66 75 86
66 75 87
67 76 88
67 76 88
66 75 86
64 72 83
64 72 84
61 70 80
59 67 78
53 61 70
53 60 69
51 57 66
51 59 68
77 87 100
79 89 103
80 90 105
78 89 102
78 89 102
79 89 103
78 89 103
79 90 104
80 91 106
83 94 108
81 92 106
84 96 111
85 97 112
85 97 112
86 97 112
86 98 114
85 96 111
84 94 109
82 94 108
83 94 109
82 94 109
83 94 108
84 95 110
85 96 111
87 99 114
86 98 113
86 97 113
87 100 116
91 103 119
91 104 120
93 106 122
94 107 123
101 114 132
103 116 134
105 118 136
103 117 136
102 116 134
102 116 134
100 113 131
99 113 131
99 112 130
97 110 126
98 111 128
99 112 129
97 110 127
95 108 125
97 110 127
96 110 127
99 112 129
101 115 133
102 116 134
102 116 135
102 116 134
99 112 130
94 107 123
91 103 119
87 100 115
86 98 113
82 94 108
78 88 102
74 84 97
70 78 90
66 75 87
67 76 88
68 77 89
71 80 93
69 78 90
69 79 91
68 78 90
67 76 88
67 76 88
67 76 88
68 76 88
67 76 88
68 77 89
68 77 89
68 77 90
66 75 87
63 72 84
61 69 79
57 65 74
53 60 70
52 60 69
51 57 66
49 56 64
47 53 61
43 48 56
34 39 45
32 37 42
34 39 45
36 40 47
40 46 53
46 52 60
50 56 65
54 61 71
57 64 74
57 65 75
54 62 72
54 62 71
54 61 70
51 58 67
50 57 66
50 57 66
49 56 65
51 58 67
52 59 69
54 62 71
59 68 78
63 72 83
65 74 85
63 71 83
61 69 80
57 65 75
58 65 75
56 63 73
59 67 77
61 69 80
63 72 83
63 71 82
62 70 81
61 70 80
65 74 85
67 76 87
68 77 89
69 78 90
70 80 93
75 84 97
79 89 103
80 91 106
81 93 107
85 96 112
90 102 117
91 104 120
94 106 123
95 108 126
94 107 124
98 111 128
96 110 127
96 110 127
101 115 133
105 119 138
108 122 142
112 126 145
115 130 150
118 134 155
121 137 158
123 140 161
124 141 163
128 145 168
126 144 167
127 145 168
130 147 170
130 147 169
129 147 170
132 150 173
134 151 174
133 151 175
137 156 181
139 157 181
138 157 181
141 160 185
141 160 184
142 161 186
140 158 183
138 156 179
135 154 178
136 154 178
136 155 180
137 156 180
141 160 185
142 160 185
143 163 188
138 157 183
145 164 190
146 165 190
143 164 190
142 162 188
142 161 186
141 161 186
144 163 187
143 162 188
144 163 188
140 159 185
144 164 190
145 164 190
144 164 189
146 166 191
142 161 186
140 159 185
140 158 182
138 156 180
136 154 179
135 153 176
134 153 177
129 147 170
133 151 174
128 145 169
127 144 166
125 142 165
122 139 160
124 141 163
121 138 161
123 140 162
123 140 162
122 139 160
124 140 162
124 141 163
124 142 166
126 143 165
128 146 169
130 148 171
132 149 172
128 145 168
126 143 166
123 141 163
125 141 162
123 139 161
119 134 155
120 136 158
121 138 159
120 136 158
121 137 158
119 135 156
117 133 154
116 132 153
114 129 149
112 127 146
109 124 143
105 119 138
100 115 133
98 112 129
100 114 132
100 114 132
99 113 130
99 113 131
100 113 130
101 114 132
100 114 131
100 113 131
97 110 127
97 109 126
94 107 124
93 105 122
93 106 123
90 103 120
87 100 116
88 100 116
85 96 111
79 89 103
73 83 96
69 78 90
65 74 86
62 71 83
57 65 75
49 56 66
42 48 55
36 41 48
28 32 38
25 28 33
22 25 29
17 19 23
20 22 26
21 24 28
22 26 30
32 36 42
41 46 53
48 54 63
52 59 68
56 64 74
59 67 77
62 71 81
64 72 84
64 73 84
59 67 77
56 64 73
49 56 64
48 54 63
42 48 56
42 48 55
44 50 58
42 48 56
40 45 52
34 39 45
35 40 46
36 41 48
41 47 54
47 53 62
50 56 65
49 56 65
49 55 64
51 58 68
56 64 75
61 70 80
61 70 81
63 71 83
63 71 83
65 73 85
66 76 88
69 79 92
70 80 93
72 82 95
72 82 94
72 82 95
74 84 97
75 86 99
74 84 97
72 81 94
73 83 96
75 85 99
77 88 102
79 90 103
81 92 107
82 93 107
77 88 102
74 85 98
70 79 92
66 75 87
65 74 85
65 74 86
64 72 83
59 67 78
58 66 76
55 62 72
53 60 69
54 61 71
56 64 74
59 67 78
61 69 80
61 69 80
60 68 79
56 64 74
52 59 69
45 51 59
35 40 46
22 25 29
17 19 22
24 28 32
32 37 42
43 48 56
48 54 63
47 54 62
45 51 59
39 45 52
35 40 46
30 34 39
16 19 22
30 34 40
40 46 53
49 55 64
50 57 65
51 57 67
50 56 65
51 57 66
50 57 67
49 56 65
50 57 66
50 56 65
52 60 69
56 64 73
59 67 78
63 71 83
65 74 86
65 73 85
64 73 84
66 75 87
67 76 88
65 75 86
64 73 84
65 74 86
66 75 87
66 75 86
64 73 84
62 71 81
58 67 77
50 57 66
39 44 51
35 40 46
33 37 43
26 29 34
28 31 36
30 34 39
36 41 48
43 49 57
49 55 64
51 58 67
49 56 65
51 58 68
54 62 71
57 65 75
57 65 76
60 68 79
60 69 79
61 69 80
62 70 81
58 65 75
54 61 70
49 55 64
45 51 59
43 48 56
43 48 56
72 82 95
76 86 99
79 90 104
79 90 104
79 90 104
78 90 104
77 88 102
75 86 99
76 86 99
76 86 100
79 90 104
80 91 106
82 93 107
85 97 112
87 99 115
90 102 117
92 105 121
92 105 121
92 104 120
90 102 118
93 105 121
93 106 123
97 110 126
98 111 128
99 112 130
98 111 129
101 114 132
102 116 133
103 116 134
104 118 137
103 117 136
102 115 133
100 113 131
97 111 128
98 110 127
95 108 125
96 109 125
96 109 126
97 110 127
97 110 127
95 108 125
95 108 125
96 109 126
95 109 126
98 112 129
97 111 128
100 113 130
100 114 132
104 118 137
106 121 140
108 122 140
107 122 141
108 123 142
108 122 141
105 119 137
101 115 133
96 109 127
93 106 123
93 106 122
92 104 121
86 98 114
86 97 112
86 98 113
85 96 112
84 95 109
81 92 106
81 92 106
79 89 103
77 87 102
77 87 101
77 87 101
75 86 99
73 83 96
70 79 92
70 79 91
69 79 91
70 79 91
68 78 90
68 78 90
70 79 91
65 74 86
62 70 81
58 66 76
57 65 75
54 61 71
52 60 70
53 60 69
48 54 62
44 50 58
46 52 60
49 55 64
52 59 69
57 65 75
59 67 78
62 70 81
63 71 82
64 73 84
63 72 83
62 71 82
61 69 80
63 71 82
61 69 80
63 71 82
63 71 83
63 72 83
62 71 82
63 72 83
65 74 85
68 77 89
70 79 92
69 79 91
69 78 91
70 80 92
70 80 92
70 80 92
73 83 96
71 81 94
71 81 94
69 78 90
71 81 94
72 82 96
74 84 97
74 85 98
73 83 97
74 84 98
77 86 99
77 87 100
75 85 98
74 84 97
79 90 103
84 95 110
87 99 114
87 99 114
89 102 118
90 103 119
92 104 120
94 107 123
95 108 125
97 110 128
99 113 131
99 114 132
101 115 134
102 116 135
108 123 142
112 128 148
114 130 150
116 132 152
118 134 155
122 138 160
123 140 161
126 143 165
127 144 167
130 147 169
130 148 171
132 150 173
135 153 177
137 155 179
138 157 181
139 157 181
139 158 183
140 159 183
140 158 182
138 157 181
137 156 181
137 155 179
135 153 177
135 154 178
136 155 180
138 157 182
138 157 181
142 162 187
146 165 191
146 166 192
145 164 189
144 164 189
142 161 186
143 162 188
143 162 186
143 163 189
143 162 187
144 163 188
144 163 189
143 163 189
142 161 187
145 165 191
149 168 194
145 165 192
144 164 190
142 161 187
143 163 188
139 158 183
138 157 182
133 152 175
135 153 177
134 153 177
136 154 178
133 152 176
131 148 170
130 147 169
126 143 165
126 143 165
123 140 162
124 141 163
124 141 163
126 143 166
126 143 165
127 144 167
129 148 171
131 149 173
131 150 174
131 149 172
133 150 173
130 148 171
128 145 168
125 141 164
124 141 163
124 141 163
125 142 165
123 140 162
123 140 161
122 138 159
120 136 157
117 133 153
115 131 152
115 130 150
109 125 145
108 123 142
105 120 139
102 116 133
102 116 134
99 112 129
95 109 127
94 107 123
94 106 123
91 103 119
90 102 118
93 105 121
90 103 119
92 105 121
93 105 122
92 104 120
92 104 120
93 105 122
92 104 120
90 102 119
88 100 116
85 97 113
84 96 111
80 91 105
77 87 100
72 82 95
68 78 90
62 71 82
60 67 78
57 64 74
55 62 72
49 55 64
44 50 58
37 42 49
27 31 36
17 19 22
19 21 25
21 24 28
31 35 41
37 42 49
44 50 57
47 54 62
51 58 67
53 60 69
54 61 71
54 61 70
57 65 75
61 69 80
62 70 81
61 69 80
63 71 83
63 72 83
61 69 80
60 68 79
63 71 82
64 72 83
60 68 79
58 65 75
55 63 73
54 61 70
53 60 69
52 59 69
56 63 73
55 62 72
57 65 74
58 66 77
65 73 85
70 80 93
72 83 96
76 86 100
78 89 102
81 92 107
84 95 110
87 98 113
90 102 118
92 104 121
90 102 118
88 100 116
89 101 117
94 106 123
92 105 122
92 104 120
89 101 117
88 100 116
88 100 116
86 97 113
86 98 114
86 97 112
79 90 104
75 86 100
70 80 92
65 74 86
60 68 79
57 65 75
55 63 73
54 62 71
53 60 70
53 60 69
54 61 70
54 62 72
57 64 74
59 67 78
60 68 79
58 66 77
55 62 72
48 55 64
41 47 54
33 37 43
18 21 24
19 22 26
22 25 29
30 34 39
38 43 50
45 51 59
46 53 61
49 56 64
49 55 64
43 48 56
32 37 43
18 21 24
21 24 28
36 41 48
46 52 60
52 60 69
57 65 74
61 69 80
61 69 79
60 68 79
60 68 79
58 66 76
58 66 76
55 63 73
52 59 69
50 57 66
50 57 66
49 56 64
49 56 65
50 57 66
46 53 61
45 52 60
51 57 66
56 64 74
55 63 73
55 62 72
54 61 71
53 60 69
54 62 71
52 59 68
49 55 64
43 49 56
38 43 50
30 34 39
16 19 22
21 24 28
26 30 35
26 30 35
24 27 31
19 21 25
17 19 22
18 20 24
19 21 25
22 25 29
33 37 43
37 42 49
38 44 50
42 48 55
50 57 66
54 61 71
58 65 76
57 64 75
55 62 71
49 56 64
46 52 60
41 46 54
39 44 51
71 80 92
75 85 99
78 89 103
82 93 108
85 97 112
84 95 110
84 95 110
83 94 109
85 97 113
87 99 114
92 104 121
93 107 124
97 109 126
94 107 124
96 108 125
97 110 127
99 112 130
100 113 130
102 116 134
105 119 137
105 119 138
107 121 139
105 119 137
104 118 137
104 118 137
105 119 138
103 117 135
106 120 138
104 118 137
103 117 136
104 117 136
99 113 131
96 110 127
94 107 123
93 106 123
93 106 123
91 104 120
96 108 125
96 109 126
95 108 125
95 108 125
94 107 124
96 109 125
95 108 125
95 108 125
97 110 127
96 109 127
99 112 129
100 113 131
103 117 136
108 122 140
108 123 142
107 121 141
108 122 141
106 121 140
104 118 137
100 115 133
100 113 131
97 110 128
96 109 126
93 105 121
90 102 118
87 99 115
85 97 111
85 96 110
82 93 107
78 89 104
80 90 104
78 89 103
75 85 98
71 80 92
68 78 90
68 77 89
68 77 89
68 77 89
65 74 86
63 71 83
65 73 84
63 72 83
61 70 81
61 69 80
58 65 75
55 63 72
54 61 71
54 61 71
51 58 67
49 55 64
49 56 65
50 57 66
53 60 69
55 62 72
57 65 76
63 71 82
66 74 86
65 74 86
67 76 88
68 77 90
71 81 93
73 83 96
74 84 98
76 87 100
76 87 100
79 89 103
78 89 102
77 88 102
79 91 105
79 89 103
80 91 105
79 90 105
80 91 105
80 91 105
78 89 103
76 86 99
76 86 100
80 90 104
81 91 104
80 91 105
80 90 104
78 88 102
78 88 102
80 91 105
82 93 108
83 95 110
82 93 108
80 91 105
80 90 104
77 88 101
74 84 97
75 85 99
79 90 104
83 95 109
86 98 113
88 100 116
88 99 114
88 99 115
87 99 115
90 101 117
93 105 122
95 107 124
93 106 123
96 109 126
99 112 130
101 115 132
102 116 134
104 118 136
108 123 143
112 127 147
114 130 151
116 132 153
116 132 153
120 136 157
125 141 163
125 141 163
127 144 166
129 146 169
129 146 169
132 150 174
133 151 175
134 152 176
134 152 176
134 152 176
136 154 178
137 155 180
135 153 178
136 154 178
134 152 176
132 151 175
134 153 177
136 154 177
141 160 185
143 162 187
143 163 189
142 161 185
143 163 188
146 166 191
145 165 191
145 164 189
142 162 187
146 165 190
144 163 188
142 162 188
145 165 191
146 165 190
146 165 190
143 163 189
144 164 190
144 164 189
145 164 190
142 161 186
142 161 186
143 162 187
138 157 182
137 155 179
140 159 184
137 155 180
135 154 178
134 153 177
132 150 173
126 143 166
128 145 168
125 142 164
122 138 159
122 139 161
123 139 161
122 139 160
122 138 159
122 139 160
125 143 165
128 145 167
127 145 168
131 149 172
131 148 171
131 149 171
130 148 171
129 146 169
126 143 165
126 143 165
124 140 162
121 137 158
120 135 155
115 131 151
112 127 147
112 127 147
111 126 145
109 124 143
106 121 140
102 116 134
102 116 134
99 113 131
98 111 128
97 110 127
94 106 123
90 103 119
87 99 115
87 99 115
88 100 115
87 99 115
86 98 113
87 99 114
87 99 114
87 98 114
86 98 113
89 100 115
88 100 115
86 99 114
82 94 109
79 90 104
76 87 100
77 88 101
76 87 100
73 83 96
69 78 90
64 73 85
57 65 75
52 60 69
53 60 70
52 59 68
47 53 62
40 45 52
30 34 40
15 17 20
26 29 34
39 45 52
46 52 60
50 57 66
54 61 71
59 67 77
61 70 81
64 73 84
65 74 86
63 71 82
62 70 81
62 71 82
64 72 83
62 70 81
63 71 82
64 72 84
65 74 86
66 75 87
69 79 91
69 78 90
70 79 91
69 79 91
69 79 91
69 78 90
67 76 88
65 74 85
65 75 86
68 77 89
73 83 95
76 86 98
78 88 103
81 92 106
85 97 112
88 100 115
92 105 122
93 106 123
99 112 130
100 114 132
101 114 132
103 116 134
105 118 137
102 116 135
103 117 136
103 117 135
102 116 134
100 114 132
99 112 130
96 109 126
94 107 124
92 105 122
91 103 119
88 100 116
85 97 112
80 91 104
73 83 96
70 79 91
65 74 85
60 68 78
55 62 71
54 61 71
51 58 68
50 56 65
46 53 61
50 56 65
52 59 69
51 58 67
50 57 66
47 54 62
42 48 55
31 35 40
24 27 32
29 32 38
36 41 47
45 51 59
50 57 65
52 59 68
53 60 69
54 62 72
56 63 73
54 61 70
51 58 67
47 54 62
38 44 50
19 21 25
16 19 22
31 36 41
43 49 57
49 56 64
55 62 72
58 67 77
63 71 82
67 76 87
68 78 90
68 77 89
67 76 88
66 75 87
64 73 85
60 68 79
56 63 73
52 59 68
48 55 63
43 49 56
42 48 56
46 53 61
49 55 64
50 56 65
51 58 68
54 61 71
55 62 72
54 61 70
50 56 65
44 50 58
39 45 51
39 44 51
40 46 53
36 42 48
28 32 37
23 26 30
20 23 26
21 24 28
24 27 31
25 28 33
26 29 34
27 30 35
25 28 33
28 32 37
32 37 42
35 40 46
35 39 46
36 41 48
44 49 57
51 58 68
55 63 73
60 68 79
60 68 78
58 66 76
57 65 75
56 63 73
53 60 70
73 83 96
77 87 101
79 90 104
82 92 107
83 94 108
84 95 111
86 98 114
89 102 118
94 106 123
97 111 128
100 113 132
100 114 132
101 115 133
100 114 133
101 114 132
102 115 133
104 118 137
107 121 140
109 124 143
110 124 144
109 124 144
110 125 143
108 122 141
105 120 139
106 121 140
106 121 139
106 121 140
104 119 138
102 115 132
99 112 130
97 110 127
98 111 128
94 107 124
94 107 124
96 109 126
96 109 125
96 109 126
95 108 126
97 110 127
95 108 125
93 106 123
92 104 121
91 103 119
91 103 119
90 103 119
91 103 119
93 105 121
94 107 124
94 107 124
100 113 131
103 117 135
106 120 139
107 121 139
105 119 137
105 119 138
102 116 135
101 114 131
100 113 131
99 112 130
95 108 125
90 102 119
85 96 111
79 90 104
74 84 97
70 79 92
69 78 90
69 78 90
68 77 90
66 75 87
62 71 82
57 65 75
54 61 70
53 61 70
52 59 68
51 58 67
50 57 66
47 54 62
45 52 60
41 47 54
39 45 51
42 48 56
46 52 60
48 54 63
50 57 65
48 54 62
43 49 57
44 50 58
44 50 58
44 50 57
46 52 61
49 56 64
50 57 66
52 59 68
53 60 70
57 64 74
60 68 79
66 75 86
71 80 92
75 86 99
79 90 104
80 91 105
85 96 111
87 99 114
88 100 115
87 99 114
87 99 115
86 97 113
85 97 112
86 98 113
86 98 113
86 98 113
84 95 109
81 92 106
78 89 104
80 90 104
80 92 106
82 93 108
84 95 110
83 95 110
84 95 110
86 98 113
88 99 115
86 98 113
85 96 111
84 95 109
77 88 102
74 84 97
73 83 95
71 81 94
74 84 98
77 87 101
77 87 101
76 87 101
76 87 100
76 86 99
74 85 98
79 89 103
80 91 105
78 89 103
78 89 103
79 89 103
82 93 107
87 99 114
89 102 118
94 107 123
97 111 129
101 115 134
107 121 139
108 122 141
110 125 144
111 126 146
114 129 149
115 131 151
117 133 153
120 136 157
121 138 160
127 144 167
127 144 167
134 152 175
132 150 173
133 151 175
136 155 179
136 154 178
135 153 177
135 152 176
133 151 174
135 153 177
134 152 176
135 153 177
136 154 178
134 153 178
139 158 183
139 158 182
139 159 185
143 162 188
143 162 187
141 160 186
140 159 183
137 156 180
140 159 184
139 158 182
140 160 185
140 158 183
137 156 180
139 158 183
136 156 181
142 160 185
140 159 184
139 158 183
141 160 185
138 158 183
135 153 177
137 155 179
135 153 177
133 151 176
133 151 174
132 150 173
130 147 170
130 147 170
127 143 165
124 141 163
122 138 160
118 134 156
119 135 157
117 133 154
117 133 153
118 134 154
119 135 157
123 139 160
122 139 161
125 141 163
125 142 164
124 141 163
124 140 162
120 136 158
124 140 162
123 139 161
122 138 159
118 134 154
114 129 149
111 126 146
109 124 143
107 121 140
102 116 135
101 114 131
98 112 130
97 110 127
95 108 125
93 105 121
91 103 119
89 100 116
89 101 117
87 99 114
83 95 110
84 96 111
81 91 106
80 91 106
79 89 104
77 88 101
75 85 97
71 81 94
72 82 95
71 81 94
74 84 98
73 83 96
71 81 94
70 79 91
67 76 88
70 80 92
71 81 94
70 80 92
69 78 90
66 75 87
61 70 81
58 66 77
56 63 73
52 59 68
46 53 61
40 46 53
31 35 41
17 20 23
22 25 28
35 40 47
45 51 59
52 60 69
58 66 76
60 68 79
64 72 84
68 78 91
71 81 93
73 83 95
73 84 97
72 81 94
66 75 87
62 70 81
61 69 79
59 68 78
61 70 80
64 73 84
65 74 86
68 77 89
68 77 88
68 77 89
69 79 91
70 80 92
71 80 93
73 83 96
75 85 98
77 87 101
80 91 105
82 93 108
88 101 116
95 107 123
99 112 130
100 114 131
103 117 135
105 119 138
107 122 141
110 125 144
109 123 143
109 123 142
108 123 143
108 122 141
106 121 140
107 122 142
107 121 141
108 123 142
104 119 137
103 117 136
101 115 133
98 111 129
94 108 125
93 105 122
90 103 119
90 101 117
84 96 111
80 91 105
75 86 99
72 82 95
69 78 91
65 74 86
63 71 83
60 69 79
57 65 75
57 65 75
53 61 70
50 57 66
48 54 63
44 51 59
38 43 50
23 27 31
22 25 29
40 46 53
49 56 65
55 62 72
58 66 77
58 66 76
60 68 78
59 67 77
55 63 73
51 58 67
48 54 63
45 52 60
39 44 51
35 40 46
30 34 39
23 26 31
25 28 32
36 41 47
45 50 58
53 61 70
58 65 75
61 69 80
66 75 87
68 77 89
69 79 91
69 78 91
67 76 89
66 75 87
62 70 81
60 68 78
55 63 73
53 60 69
51 58 67
51 58 67
49 56 65
50 57 65
52 59 69
54 61 71
56 64 74
57 64 74
56 63 73
50 57 67
46 53 61
43 49 57
42 48 56
43 49 57
38 44 51
33 38 44
31 35 41
26 29 34
25 28 32
30 34 40
33 37 43
32 37 43
33 37 43
33 37 43
31 36 41
31 35 41
31 35 40
28 32 36
24 27 31
28 31 36
36 41 47
44 50 58
49 56 65
50 57 65
53 60 69
54 61 71
53 60 70
77 88 102
81 92 106
82 93 107
85 97 112
87 99 115
91 103 120
93 105 122
94 106 123
96 109 126
100 114 131
100 113 131
103 116 134
103 116 134
105 119 138
105 120 139
107 121 140
107 122 142
107 121 139
110 124 144
112 126 146
111 126 145
112 127 146
109 124 144
109 124 144
107 122 141
107 121 139
103 117 136
99 113 131
99 112 130
97 110 128
98 112 130
98 111 129
103 117 134
102 116 134
101 114 133
100 114 131
100 113 131
96 109 126
95 108 124
93 106 122
93 106 123
92 105 121
94 107 124
96 109 125
96 109 126
96 109 126
95 108 126
97 110 127
97 110 127
98 111 128
101 114 132
103 117 135
102 116 134
99 113 130
97 110 128
94 107 124
90 102 118
87 99 115
84 95 110
78 89 103
73 83 96
69 78 90
62 71 82
57 64 74
52 59 68
52 59 68
50 57 66
49 56 64
48 54 62
45 51 59
42 47 55
39 44 51
40 46 53
43 49 57
43 49 57
41 47 55
40 45 52
37 42 49
37 42 49
37 42 49
39 45 52
42 48 56
46 52 61
49 55 64
50 56 65
47 54 62
50 57 66
52 59 68
51 58 67
54 61 71
55 63 73
55 62 72
56 64 74
58 66 76
60 68 79
64 72 83
70 79 92
75 86 99
81 92 106
82 93 108
85 96 112
86 97 112
86 97 112
87 99 114
88 100 116
89 101 117
89 102 117
89 101 116
90 103 119
91 103 119
92 104 120
89 101 116
88 100 116
88 100 115
89 101 117
91 104 120
91 104 120
93 105 122
95 108 125
96 109 126
96 109 126
92 105 121
88 100 115
81 92 106
80 91 105
78 89 102
74 84 97
69 79 91
69 78 90
67 77 89
68 77 89
67 77 89
67 76 88
65 74 85
65 74 85
65 74 86
66 75 87
64 73 84
64 72 84
66 74 86
65 74 86
68 77 89
72 82 95
75 85 99
77 88 102
82 93 107
84 96 111
88 100 116
92 104 120
94 107 123
98 112 129
103 117 135
105 119 138
107 122 140
111 126 146
116 132 152
118 134 155
121 137 158
123 139 161
125 142 164
128 146 168
129 146 169
130 148 171
132 149 171
128 146 169
131 149 171
129 147 170
132 150 174
135 153 175
132 150 174
131 149 171
132 150 173
134 152 176
136 155 179
138 156 181
140 158 182
140 158 183
136 155 179
137 155 179
135 153 177
135 154 178
134 151 174
133 151 174
132 150 173
134 153 177
131 149 172
131 149 172
133 150 173
133 150 173
131 150 174
133 151 174
131 149 172
129 147 171
132 149 172
129 147 170
129 146 169
129 146 169
128 145 168
127 144 167
127 143 164
123 140 162
120 137 159
120 136 157
118 133 154
117 132 153
114 130 151
114 130 151
117 134 155
118 134 155
118 133 154
119 135 157
119 135 156
120 136 158
116 131 151
116 132 153
115 130 151
115 130 151
114 129 149
114 129 149
113 128 149
115 130 149
111 127 147
110 125 145
107 121 140
101 115 134
100 113 131
96 109 126
96 109 126
92 105 122
90 102 118
85 97 113
83 95 110
81 92 106
78 88 103
76 86 100
73 83 96
71 81 94
70 80 92
67 76 87
62 70 81
60 68 78
60 68 78
60 68 79
62 70 82
62 70 80
58 66 77
57 65 75
55 63 73
53 60 69
52 59 68
49 56 65
53 60 70
50 57 66
50 56 65
46 52 61
44 50 58
43 48 56
38 44 51
35 40 46
28 32 37
16 18 21
26 29 34
37 42 49
43 49 57
48 54 63
53 60 70
57 65 75
63 71 82
67 76 88
71 81 94
72 82 96
72 82 94
70 79 91
68 78 90
70 79 92
68 77 89
67 76 87
67 76 88
71 81 94
72 82 95
71 81 95
71 81 94
71 80 93
70 79 92
70 79 92
74 83 96
75 86 99
79 90 104
84 96 111
88 100 116
90 103 119
95 107 124
96 110 128
100 114 132
103 117 136
106 120 140
110 125 144
113 128 148
113 129 149
116 131 152
116 132 153
117 133 153
117 133 154
113 128 148
112 127 146
109 125 145
109 124 144
107 122 141
104 117 136
102 116 134
100 114 132
99 112 130
98 111 128
94 107 124
96 108 125
94 107 125
90 103 119
88 100 116
87 99 115
83 95 109
82 93 108
80 90 105
76 87 100
73 83 96
69 78 91
64 72 84
60 68 79
55 62 72
50 57 65
43 49 56
30 34 39
19 22 26
37 42 48
48 54 62
53 60 70
52 59 69
54 61 71
57 64 74
56 64 74
54 61 71
51 58 67
48 55 63
41 47 54
32 36 42
30 34 39
32 37 42
31 35 40
20 22 26
22 25 28
33 37 43
38 43 50
45 51 60
51 58 67
55 62 72
56 64 74
59 67 78
62 70 81
63 71 82
63 72 83
61 69 80
56 64 74
49 56 65
45 52 60
44 50 57
39 44 51
34 39 45
32 37 43
39 44 51
39 45 52
40 46 53
41 46 53
38 44 50
33 37 43
29 33 38
30 34 40
29 33 38
24 28 32
30 34 39
32 36 42
31 36 41
24 27 32
17 19 22
14 16 18
13 15 18
14 16 19
18 20 23
22 25 29
27 30 35
28 32 38
26 29 34
22 25 28
18 20 23
19 22 25
24 27 31
23 26 30
21 23 27
23 26 30
26 30 35
29 33 39
28 32 37
69 79 92
74 85 98
79 89 103
79 90 104
84 96 111
89 100 115
89 101 117
91 103 119
93 106 123
94 106 123
93 105 121
92 105 122
97 110 126
100 113 131
103 117 136
105 119 138
104 117 135
107 122 140
109 123 142
109 123 142
109 124 144
110 125 144
110 124 142
106 120 139
106 120 138
103 117 134
102 116 135
102 116 134
101 115 133
102 116 134
103 117 136
105 120 139
107 121 140
106 121 139
108 122 141
107 122 141
107 121 140
104 118 136
102 116 134
99 113 131
100 113 131
101 114 132
101 114 132
99 112 130
98 111 129
96 109 126
96 108 125
95 108 126
95 108 125
96 108 124
94 107 123
91 103 119
87 99 114
85 96 111
81 92 106
80 91 106
77 88 102
75 84 97
71 80 92
64 73 85
62 71 82
60 68 78
53 60 70
46 52 61
45 51 59
47 53 61
45 51 59
41 47 55
39 44 51
41 46 53
43 49 56
45 51 59
45 52 60
47 53 61
48 54 63
49 56 65
49 55 64
50 56 65
51 57 66
53 60 70
56 63 73
57 65 76
58 66 77
59 66 77
59 66 77
58 66 76
55 63 72
52 59 68
52 59 68
53 60 70
55 62 72
56 64 74
59 68 78
63 71 82
66 75 86
70 80 92
73 84 97
75 86 100
78 89 103
81 92 106
83 94 108
83 94 108
84 95 110
85 96 111
89 101 117
91 102 118
90 103 119
93 106 123
95 108 124
97 111 128
98 111 128
98 111 128
100 113 130
100 114 131
99 112 130
99 113 131
100 113 131
101 115 132
101 114 132
102 116 133
101 115 133
98 112 129
93 106 123
89 101 117
87 99 114
83 95 110
81 92 106
79 90 104
76 87 101
73 82 95
70 79 91
67 76 89
66 74 86
63 71 83
61 69 79
59 67 77
58 65 75
56 64 74
55 62 72
53 60 70
52 59 69
56 64 74
62 70 82
65 74 86
66 75 87
71 80 92
72 82 95
74 85 98
79 90 103
81 92 106
84 96 111
85 97 112
88 100 116
93 106 122
98 111 128
102 116 135
106 120 139
106 121 140
111 126 146
115 131 151
116 131 152
119 135 156
119 135 157
120 136 158
122 139 161
121 137 159
123 140 163
125 141 163
126 143 165
128 145 167
127 144 166
127 144 167
129 147 170
131 149 172
133 150 173
130 148 171
128 145 168
128 146 170
130 147 171
129 147 170
128 145 167
129 146 168
125 142 164
123 139 161
125 141 163
122 138 159
122 139 161
124 141 163
123 140 161
124 140 162
124 140 162
123 141 164
127 144 165
124 140 162
122 138 160
122 139 162
120 136 158
120 136 157
117 133 154
118 134 155
117 133 153
116 132 152
116 131 151
113 129 149
112 127 147
111 126 145
111 126 146
113 128 148
113 129 150
115 130 151
116 132 153
117 133 154
114 130 150
112 128 149
113 128 148
114 128 148
110 125 145
112 127 147
113 128 149
116 131 151
116 132 153
114 130 150
111 126 147
110 125 144
107 121 140
102 116 134
101 114 132
97 110 126
96 109 126
94 106 123
92 105 121
87 99 115
82 93 108
79 89 103
76 85 98
72 81 94
68 77 89
64 72 84
61 70 80
57 65 76
52 59 68
48 54 63
50 57 66
50 57 66
50 56 65
47 53 62
45 52 60
41 46 53
34 39 45
32 36 42
33 38 44
34 38 44
29 33 38
25 28 33
24 27 32
28 32 37
29 33 38
24 28 32
17 19 22
11 13 15
29 32 38
39 45 52
40 46 53
42 48 56
46 52 60
48 55 63
56 63 73
60 68 78
63 72 83
69 78 90
71 81 94
74 84 97
75 85 99
74 84 97
75 85 98
76 86 100
75 85 99
78 88 101
78 88 102
78 89 103
77 87 101
80 91 105
80 91 105
81 92 106
84 95 110
84 97 112
87 99 114
87 99 115
89 101 116
89 100 116
90 101 117
91 104 120
96 108 125
99 113 130
104 118 137
107 122 141
113 127 146
114 129 149
116 132 152
118 134 155
118 134 155
119 134 155
117 132 153
118 133 153
115 130 149
112 128 148
110 126 146
111 126 145
108 122 141
104 119 139
105 119 137
102 116 134
102 116 135
100 114 132
100 113 131
100 114 131
99 112 130
98 111 129
95 108 125
93 105 120
88 99 115
88 99 115
85 96 111
81 92 106
75 86 99
67 76 88
60 68 79
53 61 70
47 53 61
39 44 51
27 31 35
18 20 24
36 41 48
46 52 61
50 58 67
53 60 69
54 61 71
53 59 69
51 58 67
46 52 60
40 46 52
37 42 49
31 35 41
22 25 29
19 22 25
23 26 30
24 27 32
22 25 29
17 19 22
11 12 14
18 20 23
28 32 37
39 44 51
44 51 59
47 54 62
49 55 64
52 59 68
54 62 72
56 64 74
56 63 73
56 64 74
55 63 72
52 59 68
46 53 61
40 45 52
35 40 46
33 37 43
28 32 37
20 22 26
17 19 22
21 24 28
28 32 37
30 35 40
32 37 42
31 36 41
39 45 52
41 46 53
42 47 55
39 44 51
32 36 42
28 32 37
27 31 36
29 33 38
32 37 43
35 39 46
35 40 46
37 42 49
41 46 53
44 50 58
44 50 57
45 51 59
44 50 58
39 44 51
36 40 47
34 39 45
32 36 42
32 37 42
33 37 43
34 39 45
33 38 43
63 72 83
68 77 89
72 81 94
76 87 101
79 90 104
81 93 108
84 95 109
84 96 111
85 96 110
81 93 108
82 92 106
81 93 107
86 98 114
92 104 120
97 110 127
99 112 129
101 115 134
104 118 135
104 118 137
108 122 141
106 121 140
107 122 141
108 123 142
107 121 140
104 119 137
104 118 137
104 118 136
103 117 135
104 118 137
106 120 138
106 120 139
109 124 144
112 126 146
111 126 146
110 125 144
109 124 143
107 122 141
106 120 139
104 118 136
104 117 136
103 117 135
101 115 133
97 110 127
93 106 123
90 103 119
88 100 115
86 98 113
85 96 111
84 96 111
83 95 110
82 93 108
78 88 102
75 85 98
75 85 97
73 83 96
68 78 91
68 77 89
66 75 87
63 71 82
57 65 75
51 58 67
50 57 66
49 55 64
49 56 64
52 58 67
54 61 71
54 62 71
53 60 70
53 60 70
57 65 76
60 68 79
63 71 82
62 70 81
58 66 77
56 63 73
55 62 72
57 65 75
56 63 73
58 65 75
59 67 77
64 72 83
65 74 85
64 73 84
63 71 82
62 70 81
60 69 80
60 68 78
56 63 73
53 60 69
50 57 66
52 59 68
53 60 70
57 65 75
59 67 77
63 72 84
70 79 91
73 83 96
75 85 99
78 89 103
81 92 106
86 97 112
84 95 111
87 99 115
89 101 117
91 104 121
94 107 124
94 107 125
97 111 128
99 113 130
102 115 133
103 117 135
102 116 135
103 117 135
103 116 135
101 115 133
103 116 134
99 113 131
98 112 130
98 111 128
96 109 125
96 109 126
95 107 124
95 107 124
95 108 124
92 105 121
91 104 120
89 101 117
86 97 113
85 97 112
83 94 109
80 90 105
79 90 104
77 87 101
75 85 98
71 81 93
67 76 88
63 71 82
58 66 76
51 59 68
49 55 64
47 54 62
51 58 67
54 61 71
56 63 73
59 67 78
66 75 86
67 77 89
73 83 96
78 88 102
79 89 103
79 90 104
80 90 104
81 92 106
82 93 107
87 99 115
92 104 120
98 111 127
100 114 131
104 118 136
105 120 139
109 123 142
111 127 147
113 128 148
116 132 152
116 132 154
117 133 153
117 133 154
114 130 151
118 134 154
116 132 153
120 136 158
121 137 159
122 139 161
125 143 166
124 140 163
126 142 165
125 141 163
123 139 161
125 142 164
125 141 163
121 137 159
119 136 157
117 133 154
114 130 150
114 129 150
114 129 149
114 129 149
115 131 151
111 126 146
113 129 150
114 129 150
115 131 151
115 131 152
114 130 150
113 128 148
117 132 152
115 131 151
114 130 150
115 130 150
115 131 152
114 129 149
112 127 147
109 124 144
110 125 144
108 124 144
108 123 142
109 123 142
109 123 142
111 125 144
111 126 145
111 126 146
113 129 149
114 129 150
114 130 150
112 127 147
113 128 148
113 129 149
114 129 149
111 126 146
114 129 150
115 130 149
115 130 150
114 129 150
111 125 145
106 120 139
105 119 137
100 114 132
97 111 128
95 107 124
93 105 122
90 102 117
86 97 113
80 91 105
75 85 98
71 81 94
68 77 89
65 74 86
63 71 83
61 69 79
56 64 75
50 57 65
44 50 58
39 44 51
34 39 45
29 33 39
22 26 30
20 23 27
18 21 24
19 22 25
19 22 26
21 23 27
18 20 23
13 15 17
14 16 19
18 20 24
17 20 23
18 21 24
18 21 24
22 25 30
27 31 36
40 45 52
49 56 64
54 61 71
58 65 75
59 67 78
61 69 80
64 73 84
67 76 88
69 78 90
70 79 92
74 84 97
75 85 98
72 82 94
74 83 96
72 82 95
75 85 99
78 88 102
81 93 107
83 95 110
83 94 109
85 96 110
84 96 111
87 99 114
89 101 117
89 101 117
93 105 120
92 105 122
93 105 122
91 103 119
90 102 118
93 106 122
95 108 125
97 111 129
100 113 131
102 116 135
104 117 136
108 123 142
110 125 145
113 128 149
113 128 148
117 132 152
115 131 151
115 131 151
114 129 149
113 128 148
114 129 150
114 130 150
114 129 149
114 129 149
113 129 150
113 128 148
112 127 147
110 125 145
108 123 142
109 124 144
109 123 141
105 119 137
100 113 131
97 109 126
92 104 121
91 103 119
90 102 118
88 100 115
85 96 112
82 93 107
77 87 101
72 82 95
68 77 89
57 66 76
47 54 62
33 38 44
16 18 21
26 29 34
38 43 50
43 49 57
46 52 61
47 54 62
45 51 59
40 46 53
37 43 49
30 34 39
27 31 35
23 26 31
14 16 19
27 31 36
32 37 43
32 36 42
30 34 39
23 27 31
21 23 27
21 23 27
23 26 30
23 26 30
31 35 41
36 41 47
41 46 53
48 55 63
55 62 72
58 65 76
59 67 78
62 71 82
63 72 83
61 69 79
57 65 76
54 61 71
48 55 64
42 48 56
32 37 43
17 20 23
19 21 25
32 36 42
40 46 53
45 51 59
50 56 65
51 58 67
50 57 65
51 57 66
53 61 70
56 64 74
57 64 75
54 61 70
54 61 71
53 60 70
55 62 71
55 63 73
58 66 76
61 70 81
60 69 79
59 67 78
61 69 80
59 67 78
54 61 71
49 56 65
44 50 57
40 46 53
38 44 51
39 44 51
39 44 51
41 47 54
44 50 57
67 76 88
71 81 94
76 86 99
78 89 102
76 86 100
78 89 102
80 91 104
79 90 104
77 87 101
76 87 101
78 89 104
81 92 106
84 95 110
87 99 115
92 104 121
92 105 122
96 108 125
98 110 127
97 110 128
98 111 128
99 113 130
100 114 131
101 115 132
102 117 135
102 116 135
106 121 140
106 121 140
108 122 141
110 125 144
113 128 148
113 128 148
112 127 146
109 124 144
109 124 144
107 122 141
104 118 136
101 115 133
103 117 134
100 113 131
97 111 128
96 108 125
93 106 122
89 101 117
87 99 114
82 93 108
77 87 101
73 83 96
72 82 94
73 83 96
74 85 98
75 85 99
76 86 99
74 84 97
73 83 96
69 79 91
64 73 84
64 72 84
60 68 78
54 61 71
47 53 62
44 50 57
44 50 57
47 53 62
50 57 66
53 60 70
54 61 71
56 64 74
56 64 74
59 66 76
63 72 83
61 70 81
61 70 81
59 67 78
56 64 74
51 59 68
51 59 68
53 61 70
55 62 72
60 68 78
66 74 86
67 76 88
69 78 90
71 80 92
69 78 90
67 77 89
65 74 85
62 70 81
60 68 78
57 65 75
56 64 74
55 63 73
56 64 74
58 66 77
64 73 84
68 77 89
72 81 94
75 86 100
80 91 106
82 93 107
87 98 113
87 98 113
89 101 116
91 103 119
92 105 121
94 106 123
95 108 126
98 111 128
99 113 131
101 115 134
103 117 135
103 117 136
100 114 131
103 117 135
103 117 136
102 116 134
100 113 131
96 109 127
94 107 123
91 104 120
91 103 118
91 103 119
92 104 121
93 105 122
92 105 121
94 107 123
95 107 124
93 106 123
90 103 119
87 99 115
87 98 114
84 96 111
84 95 110
83 94 109
80 91 106
77 87 101
72 82 94
65 74 85
59 67 78
50 57 66
46 52 60
49 55 64
50 57 66
51 58 68
52 59 68
51 58 67
56 64 74
61 69 80
69 78 90
73 83 96
76 86 100
75 85 98
75 85 99
73 83 96
72 82 95
78 88 102
83 95 109
86 98 114
89 101 116
91 104 120
95 108 125
96 109 126
98 111 129
102 115 133
106 120 138
109 123 142
112 127 147
113 128 147
112 127 147
112 128 148
115 130 150
115 131 152
117 132 152
112 127 148
115 131 151
116 132 153
118 134 155
117 134 155
116 132 153
118 133 154
119 134 154
115 131 153
114 129 150
112 128 147
110 125 144
111 126 146
111 126 146
113 128 148
110 125 145
111 125 145
108 122 141
106 120 139
105 119 137
105 119 137
107 121 141
109 124 144
110 124 143
111 126 145
110 126 146
109 124 144
109 124 143
110 125 144
106 121 140
109 124 144
111 125 144
108 123 143
109 123 143
109 123 143
108 123 142
109 124 143
110 125 145
113 128 148
109 124 143
115 130 149
114 130 150
113 128 149
112 127 147
113 129 149
112 127 147
112 127 147
115 131 151
116 132 152
115 130 150
115 131 151
112 128 148
112 127 146
109 124 143
100 114 132
98 111 129
92 105 121
90 102 118
85 97 112
79 90 104
73 83 96
68 78 90
65 74 86
62 71 82
61 70 81
60 68 78
54 62 71
52 59 67
44 50 58
36 41 47
28 32 37
16 18 20
16 19 22
20 23 26
25 28 32
30 35 40
34 39 45
38 43 50
40 46 53
40 46 53
41 47 54
41 46 54
44 51 59
43 49 56
46 52 60
48 54 63
49 56 65
52 58 67
55 62 72
59 68 78
66 75 86
70 79 92
73 83 96
74 84 97
75 85 99
74 84 97
73 83 96
73 83 95
72 82 95
71 81 93
69 79 91
69 79 91
69 79 91
73 83 95
75 85 98
78 89 103
80 91 105
81 92 106
82 93 108
84 95 110
83 94 110
83 95 109
84 95 110
85 96 110
82 94 109
83 94 109
82 93 107
82 93 108
86 98 113
90 103 119
94 107 124
98 111 128
98 111 127
99 112 130
101 115 133
105 119 137
107 121 140
110 125 144
108 123 142
107 122 141
106 121 140
108 123 142
109 124 143
109 124 142
111 126 146
114 128 148
115 129 149
114 129 149
114 129 150
114 130 150
113 129 149
110 125 145
108 124 144
105 119 138
103 116 134
99 112 130
96 109 126
91 104 120
88 100 115
86 97 113
82 93 108
80 91 106
77 88 102
74 85 98
72 82 94
67 76 87
60 69 80
51 58 67
42 48 56
25 29 33
16 18 21
27 31 36
33 37 43
37 42 48
39 45 52
39 44 51
35 40 46
25 28 32
16 18 21
21 24 28
28 31 37
31 35 41
31 35 41
32 37 43
33 38 44
35 40 46
37 42 49
37 42 49
37 42 48
35 40 46
33 37 43
36 41 48
40 45 52
41 46 53
43 49 56
49 55 63
50 57 66
53 60 69
54 61 71
57 65 75
59 67 77
57 65 75
57 64 74
54 62 71
50 57 66
40 45 53
29 33 38
23 26 30
19 22 25
26 30 34
37 42 49
46 52 60
52 59 68
56 64 74
57 65 76
57 65 76
58 66 77
57 65 75
57 65 75
58 65 75
59 67 77
61 69 79
65 73 84
69 78 89
72 82 95
75 85 98
75 85 98
75 86 99
73 83 96
71 81 93
70 79 91
67 76 88
60 68 78
57 64 74
53 61 70
49 55 64
50 57 65
51 59 68
60 68 78
60 68 79
62 71 82
64 73 84
67 77 89
68 77 89
72 81 94
72 82 96
73 83 96
76 87 100
77 87 101
79 89 102
79 90 104
79 89 103
81 92 106
82 93 108
85 96 111
85 96 111
86 98 114
88 100 115
92 104 120
95 107 124
97 111 128
98 112 129
100 113 131
104 118 136
106 120 139
106 120 140
106 121 139
109 124 143
110 126 145
107 121 140
105 120 138
101 115 133
95 108 124
92 105 122
90 102 119
87 99 115
87 98 114
85 96 112
84 96 111
85 96 111
82 94 108
82 93 107
78 89 102
75 85 98
68 78 90
66 75 87
68 77 89
69 79 91
69 79 91
68 78 90
70 80 92
70 80 92
67 76 87
64 72 83
63 72 83
61 69 80
55 63 74
49 55 64
46 52 60
47 53 61
48 54 62
51 58 67
51 59 68
55 62 72
58 65 75
59 66 76
57 65 75
57 65 75
59 67 77
60 68 79
58 66 77
55 63 73
56 63 73
57 65 75
60 68 79
62 70 82
66 75 86
68 77 90
70 79 92
73 83 96
76 86 99
75 86 99
75 86 99
73 83 95
70 80 92
71 80 92
68 78 90
67 75 87
67 77 89
68 77 89
71 81 94
74 85 98
78 89 102
81 92 106
82 94 108
86 98 114
89 101 117
90 103 119
92 104 121
93 105 122
95 108 125
98 112 129
100 113 130
100 113 131
100 114 132
104 118 136
104 118 137
100 114 132
99 113 131
101 115 132
99 112 129
98 112 130
98 112 129
97 110 127
97 110 127
94 107 123
90 103 119
90 102 118
91 104 120
93 105 122
93 106 122
91 104 120
93 106 122
90 102 118
85 97 112
83 94 109
81 92 107
80 90 104
75 85 99
75 85 98
73 83 96
72 81 94
66 75 87
61 69 80
57 65 75
50 57 66
47 53 61
47 53 62
49 56 65
49 56 64
48 54 63
47 54 62
50 57 66
53 60 70
56 63 73
56 63 73
57 65 75
58 66 76
59 67 78
62 70 81
64 72 84
66 75 87
67 76 88
71 81 93
76 86 100
81 92 106
84 95 110
85 96 112
84 96 111
89 100 116
92 104 119
96 109 125
97 110 127
101 115 133
105 119 137
108 123 142
108 124 143
109 125 145
109 124 144
112 127 146
111 125 144
111 125 144
111 126 146
113 128 147
112 128 148
111 126 146
111 125 144
109 124 144
110 125 144
106 121 140
108 123 141
104 119 138
107 122 141
106 121 140
104 118 136
103 118 137
103 117 135
103 116 135
99 113 130
99 113 131
100 113 131
103 117 135
103 116 134
105 119 138
104 117 136
103 116 134
105 119 137
107 121 140
108 122 141
111 126 145
111 126 146
111 126 146
110 125 144
111 126 146
111 126 147
109 124 145
111 126 146
112 127 147
112 127 146
112 126 146
112 127 146
111 126 146
108 123 143
108 122 141
106 121 140
105 119 138
106 121 140
108 123 142
109 124 143
108 123 142
111 126 145
112 127 147
111 125 145
108 122 141
105 120 139
103 117 135
100 113 130
96 109 126
90 102 118
82 94 108
77 88 101
71 81 94
64 73 84
58 66 76
53 60 69
50 57 66
44 49 57
33 37 43
22 25 29
23 26 30
22 25 29
26 30 35
33 38 44
39 44 51
43 49 57
45 51 59
48 54 63
49 56 65
49 56 65
53 60 70
53 61 70
54 61 71
56 63 73
58 66 76
58 65 76
54 62 71
53 60 69
53 60 70
55 62 73
55 62 72
57 65 75
62 70 81
64 73 85
65 74 86
67 76 88
67 77 89
70 79 92
67 76 89
65 74 85
65 74 85
62 71 82
62 70 81
59 67 77
62 70 80
66 75 87
72 81 94
73 83 96
76 86 100
76 87 100
75 85 98
74 84 98
72 82 95
73 83 96
72 82 95
71 81 93
71 80 93
70 80 93
75 85 98
79 90 104
83 94 108
84 96 111
88 100 116
90 102 117
93 106 123
96 109 126
99 113 131
103 117 135
102 115 133
104 118 136
103 117 135
104 118 136
102 117 136
103 117 136
104 118 136
103 117 135
103 117 135
105 119 138
108 122 141
109 123 142
111 126 145
110 125 145
111 125 144
109 123 142
107 122 141
106 120 138
100 114 132
98 112 129
94 107 124
92 105 122
91 103 119
87 98 113
84 95 110
78 89 102
73 83 96
68 77 89
62 71 82
58 66 76
53 60 70
47 53 61
43 49 57
36 41 48
29 33 38
21 24 28
23 26 30
21 24 28
26 29 34
22 26 30
21 23 27
25 29 34
26 29 34
28 32 37
28 32 37
28 32 37
26 29 34
29 33 38
31 35 41
36 40 47
39 45 52
40 45 52
40 46 53
42 47 55
44 50 58
48 54 63
49 56 64
48 55 63
50 56 65
48 55 63
47 53 62
49 56 65
50 56 65
52 59 68
51 58 67
51 58 67
55 62 72
57 65 74
51 58 67
45 51 59
38 44 51
31 35 40
24 27 31
24 27 31
25 29 34
30 34 39
33 38 44
39 44 51
43 49 57
47 53 61
52 59 68
58 65 75
61 69 80
65 73 85
65 74 86
70 80 93
76 87 100
78 88 102
80 90 104
79 90 105
81 92 107
83 94 109
83 94 109
82 94 109
81 92 106
78 89 102
75 84 98
73 83 95
73 82 95
70 80 93
72 82 94
44 50 58
45 51 59
46 53 62
51 58 67
56 64 73
56 64 74
55 63 72
56 64 74
57 65 75
55 62 72
55 62 72
55 62 72
58 66 76
61 70 80
65 73 85
69 78 91
74 84 97
78 88 101
80 90 104
81 92 106
85 96 110
84 96 111
87 99 114
91 103 119
93 105 121
94 106 121
93 106 122
93 106 122
96 109 126
95 108 125
97 110 127
95 108 125
91 103 120
89 101 117
82 93 108
77 88 102
78 89 103
78 89 103
78 89 102
77 88 101
79 90 105
81 92 106
80 91 105
79 89 102
75 86 99
73 83 97
71 80 93
67 76 87
64 73 85
65 74 85
65 74 86
68 77 89
70 79 92
70 80 92
69 78 91
68 77 89
63 72 83
58 67 77
53 61 70
53 60 69
55 63 72
60 67 77
63 71 83
64 73 85
63 72 83
61 70 81
60 68 79
60 68 79
56 64 74
55 62 72
54 61 71
55 62 72
55 63 73
56 64 74
58 66 76
61 69 80
65 74 86
68 77 89
68 78 91
69 78 90
68 77 89
70 79 91
71 81 93
73 83 95
75 85 98
75 86 99
77 88 101
79 90 103
79 89 102
78 88 102
78 88 102
79 90 104
80 91 105
79 90 105
82 93 107
86 98 113
89 101 117
92 104 121
92 105 122
97 110 127
99 112 129
101 114 132
101 115 132
102 116 134
104 117 135
104 118 136
104 118 136
102 116 134
100 113 131
95 108 125
94 107 124
93 106 122
91 103 119
90 103 119
90 102 119
91 103 118
94 106 122
94 107 123
94 107 123
95 107 124
94 107 124
95 108 125
93 106 122
90 102 119
88 100 115
82 93 108
76 86 100
68 77 90
63 71 82
61 70 80
61 69 80
60 68 79
59 67 77
57 65 76
56 64 74
54 61 70
49 56 64
46 52 60
44 50 57
40 46 53
38 43 50
34 38 45
32 37 43
33 37 43
33 37 43
33 37 43
33 37 43
39 44 51
44 50 58
46 53 61
50 56 65
54 62 71
56 64 74
59 66 77
63 71 83
65 74 86
68 77 90
72 82 94
75 86 100
79 90 104
84 95 110
88 100 116
89 101 117
91 102 118
92 104 120
94 107 124
97 110 127
99 112 130
98 111 129
100 113 131
101 115 133
102 116 134
104 118 137
105 119 138
105 119 138
103 118 136
105 119 138
103 118 136
103 117 135
103 117 134
102 116 133
103 116 134
102 115 133
106 120 138
103 117 135
106 120 138
103 117 136
101 115 133
101 114 132
97 110 128
96 109 126
96 109 127
98 111 129
99 113 130
103 117 136
106 121 140
108 122 142
107 122 141
109 124 143
107 122 141
110 126 145
112 127 147
113 128 147
111 126 146
113 128 148
114 129 150
113 128 149
112 127 147
113 128 147
115 130 150
114 130 150
115 130 151
113 128 148
112 127 147
108 122 142
108 122 140
105 119 137
103 117 136
106 120 138
104 119 138
109 124 144
112 127 146
110 125 145
109 124 144
109 123 142
109 124 144
107 122 142
105 120 138
103 117 135
100 114 132
95 108 125
90 102 117
81 92 107
76 86 100
70 79 92
63 72 83
54 62 71
44 50 57
33 38 44
24 27 31
18 20 23
27 30 35
31 35 41
32 36 42
37 41 48
42 47 55
48 55 63
49 56 64
48 55 63
52 59 68
58 66 77
59 68 78
60 68 79
59 67 77
54 62 71
54 62 72
53 60 70
49 56 65
44 50 58
46 52 60
45 51 59
43 49 56
40 46 53
38 44 50
40 45 52
42 48 56
42 47 54
37 42 49
41 47 54
46 52 60
46 53 61
47 53 62
52 59 69
51 58 67
47 53 62
48 54 63
49 56 65
53 61 70
58 66 76
60 67 78
61 69 81
62 70 81
61 69 80
60 68 79
61 69 80
62 70 81
62 71 82
62 71 82
62 71 82
66 75 87
69 78 90
70 79 92
73 83 96
76 86 100
80 91 105
84 96 110
89 101 116
93 106 123
94 107 124
97 110 127
98 111 128
99 113 131
102 116 134
102 116 134
102 116 135
102 116 134
105 119 138
107 121 140
106 120 139
106 120 139
107 122 141
107 122 141
109 123 142
109 123 142
109 123 142
111 125 144
110 124 144
108 122 140
106 120 139
103 117 136
99 112 130
97 110 126
95 108 124
91 103 119
85 97 112
79 90 104
75 85 99
72 81 94
68 78 90
64 72 84
62 71 82
60 69 80
55 63 73
52 59 68
49 55 64
44 50 57
41 47 55
41 46 54
39 45 52
37 41 48
32 36 42
24 28 32
15 17 19
8 9 11
13 15 17
18 20 24
24 27 32
33 38 44
40 45 52
44 50 58
50 56 65
55 62 72
54 61 70
53 60 70
55 62 72
58 65 76
59 67 78
59 67 78
57 65 75
58 66 76
58 66 76
60 68 78
60 68 79
59 67 77
56 64 75
57 64 74
56 64 74
52 59 69
47 53 62
44 50 58
45 51 58
43 49 57
40 45 53
32 36 42
25 28 32
20 23 27
20 23 27
23 26 30
29 33 39
37 42 49
44 50 58
51 58 68
59 67 77
63 72 83
67 76 88
74 84 96
77 88 102
81 91 105
82 93 108
83 94 109
83 94 109
83 95 110
86 97 112
86 98 113
82 93 107
80 92 106
79 89 104
79 90 104
78 89 102
81 92 106
32 36 42
37 41 48
39 44 51
38 43 50
32 36 42
30 34 39
26 30 35
23 27 31
20 23 27
19 22 25
23 26 30
31 35 41
38 43 50
43 49 57
52 59 69
60 68 79
64 72 84
67 76 88
71 81 94
77 87 100
78 88 102
79 90 104
83 94 108
87 99 114
88 100 115
89 101 117
88 100 116
86 97 113
84 95 111
83 94 109
83 95 109
83 94 109
81 93 107
76 87 101
72 82 96
68 77 89
64 72 83
61 69 80
61 70 80
63 72 83
66 76 88
68 77 89
68 77 89
66 76 87
65 74 86
61 70 81
59 67 77
58 66 76
58 66 76
55 62 72
56 64 74
59 67 77
62 71 82
64 73 85
64 73 84
66 75 87
65 73 84
61 69 80
56 63 73
56 63 73
57 65 75
59 67 77
63 72 84
67 77 89
65 75 86
65 74 86
66 75 86
65 73 85
61 70 81
60 69 79
60 68 79
63 71 83
67 76 87
69 79 91
71 80 93
72 82 95
72 82 95
73 82 95
74 84 97
75 85 98
76 86 100
79 89 103
79 90 104
81 92 107
82 93 107
81 91 105
80 91 105
80 91 105
80 91 105
79 90 104
81 92 107
84 95 110
83 95 110
85 97 112
88 100 116
91 103 119
93 106 123
96 109 125
96 110 128
99 113 130
99 113 131
102 115 134
102 117 135
103 116 135
103 117 135
101 115 134
99 113 131
96 109 126
95 107 124
91 103 119
90 103 119
90 103 119
88 100 115
88 99 114
88 99 115
90 103 119
89 101 117
89 101 117
91 103 119
93 105 121
93 106 123
94 107 124
93 105 121
89 101 117
85 96 111
79 90 103
76 87 101
71 80 93
65 74 86
59 67 78
54 62 72
52 59 69
48 55 63
42 48 56
41 47 54
41 46 53
37 42 48
28 32 37
23 26 31
20 23 27
29 33 38
35 40 46
36 41 47
28 32 37
19 22 25
17 19 22
32 36 42
43 49 56
46 53 61
49 55 64
51 58 67
55 62 72
58 66 77
61 69 79
60 68 79
60 68 78
61 70 80
68 77 88
71 81 93
76 86 100
78 89 103
82 93 108
85 97 112
86 97 112
88 99 115
90 102 118
90 103 119
92 105 122
95 108 125
96 109 125
96 109 126
96 110 127
98 111 128
98 111 129
102 115 133
101 115 133
99 112 130
102 115 133
105 119 138
105 119 137
104 118 137
105 119 138
106 120 139
107 121 140
107 121 141
104 118 136
104 119 138
104 118 136
103 117 135
101 115 133
100 114 132
103 117 135
105 119 138
106 121 140
107 122 140
109 124 143
109 124 143
111 126 145
111 126 146
111 127 147
115 130 150
114 129 149
114 129 149
113 129 149
115 131 152
117 132 153
117 133 153
117 132 153
116 131 151
114 129 149
114 129 149
114 129 149
112 128 149
112 127 146
111 126 146
111 126 145
110 125 144
110 125 144
113 128 148
114 130 150
113 129 149
115 131 152
117 132 153
116 132 153
115 130 151
110 126 146
110 125 145
108 122 141
103 117 135
101 115 133
100 113 130
97 110 127
90 103 119
83 94 109
76 87 100
68 78 90
60 68 79
53 60 70
45 52 60
41 46 53
32 36 42
28 32 38
22 25 29
20 23 27
20 23 26
20 22 26
21 24 28
29 33 38
37 42 49
41 46 54
44 49 57
48 55 63
50 57 66
48 55 64
43 49 57
39 44 51
35 40 47
32 36 42
19 22 26
15 17 20
20 22 26
24 27 32
26 30 34
25 28 33
23 27 31
23 26 30
24 27 32
21 24 28
22 25 29
19 22 25
20 23 27
24 27 31
24 27 31
24 27 32
22 25 29
20 23 27
21 24 28
23 27 31
28 31 36
35 40 47
42 48 56
48 54 63
50 57 66
53 60 70
54 61 71
53 60 70
52 59 67
50 56 65
53 60 70
58 66 76
61 69 80
64 72 83
68 77 89
73 83 96
76 87 101
80 92 106
86 98 113
92 104 121
97 110 128
101 115 133
103 117 135
105 118 136
105 118 137
105 119 137
105 120 139
107 121 141
108 123 143
109 124 144
112 127 147
112 128 148
111 126 146
112 127 147
111 126 146
112 127 147
114 129 148
114 129 149
113 128 148
111 126 146
110 125 144
110 125 144
107 122 141
103 117 136
101 115 133
97 110 128
94 107 125
90 103 119
84 96 111
80 91 105
74 85 99
71 81 93
67 77 89
66 75 87
63 72 83
61 70 80
57 64 75
50 57 66
46 52 60
45 52 60
46 52 60
43 49 57
40 45 52
32 37 43
16 18 21
17 20 23
11 13 15
12 14 16
14 16 19
19 22 25
26 30 35
28 32 37
37 42 49
42 48 55
45 51 60
49 55 64
52 59 69
55 63 72
55 63 73
59 66 76
61 69 80
63 71 82
63 71 82
64 72 83
64 73 85
63 71 82
62 70 81
60 68 78
58 66 77
55 62 72
49 56 65
47 53 62
47 53 62
45 51 59
44 50 58
40 46 53
38 43 49
36 41 47
30 34 40
23 26 30
17 20 23
30 34 39
35 40 46
39 44 51
44 50 58
49 56 64
52 59 69
61 69 79
68 77 89
74 84 97
79 90 103
83 95 109
88 100 116
88 100 115
87 99 115
88 100 116
86 98 113
85 97 112
83 94 108
81 91 106
79 89 104
79 89 103
39 45 52
40 46 53
38 44 51
38 43 50
38 43 50
32 37 43
25 28 33
17 20 23
17 20 23
15 17 20
16 19 22
21 24 28
31 36 41
37 42 48
46 52 60
52 59 69
58 66 76
62 71 82
68 77 90
75 86 99
80 90 104
82 93 108
84 95 110
86 98 113
87 99 114
84 96 111
82 93 107
81 91 105
76 86 100
74 83 96
72 82 94
70 79 91
70 79 91
67 76 88
64 73 84
58 66 76
50 56 65
43 49 57
42 48 55
43 48 56
44 50 59
49 56 65
51 58 67
49 56 65
46 52 60
41 47 54
41 46 54
42 47 55
41 46 54
42 48 56
45 51 59
53 59 68
56 63 73
59 68 78
63 72 83
65 74 86
65 74 86
63 71 82
59 67 78
58 66 77
58 66 77
62 70 81
63 72 83
65 73 85
63 72 83
63 72 83
64 72 84
64 73 84
63 72 83
65 74 86
65 74 86
68 77 89
72 81 94
74 84 97
75 86 99
75 85 98
76 86 99
74 84 97
75 85 99
78 89 102
78 89 103
79 90 103
77 88 101
78 89 103
77 88 102
78 88 102
77 87 101
77 87 100
75 85 98
76 86 99
80 90 104
81 92 105
81 92 106
81 92 106
83 94 109
86 97 113
88 100 117
92 104 120
92 105 122
95 108 125
98 112 129
100 113 131
103 117 135
102 116 134
104 118 137
103 117 135
99 113 131
97 110 128
94 107 123
93 106 123
92 105 121
91 104 120
89 101 117
89 101 117
90 102 118
91 104 120
92 105 121
90 102 118
92 104 120
91 104 120
91 104 121
91 104 120
89 101 117
86 98 113
83 94 109
80 90 104
77 87 101
73 83 95
69 78 90
62 71 82
57 64 74
50 57 67
44 50 57
36 41 47
33 38 44
27 31 36
13 15 18
16 18 21
22 25 29
28 32 37
34 39 45
34 39 45
32 36 42
22 25 29
11 13 15
11 13 15
25 28 33
39 45 52
48 54 63
54 61 70
59 66 77
63 72 83
65 75 87
67 76 88
64 73 84
63 72 83
65 73 84
69 78 90
73 82 95
76 86 100
80 91 106
84 95 110
87 99 115
90 102 118
91 103 120
91 103 119
92 104 121
94 107 124
95 108 125
98 111 129
99 113 131
101 114 132
102 115 133
101 114 132
101 115 134
102 115 133
103 116 134
104 118 137
106 120 138
108 123 142
109 124 144
109 124 143
108 122 141
107 121 140
107 121 140
105 119 137
102 116 133
99 113 131
99 112 130
101 114 132
99 113 131
101 115 132
103 117 136
107 121 141
108 122 141
108 123 143
109 124 144
111 126 145
112 127 147
115 130 150
115 131 151
117 133 154
116 132 153
119 135 156
117 133 154
121 137 157
117 133 155
115 131 151
115 131 151
111 126 146
111 126 145
110 126 146
111 126 146
112 126 146
111 126 146
113 128 149
112 127 147
115 130 151
115 131 151
115 131 152
116 131 151
116 132 152
115 131 152
116 132 153
116 132 152
117 132 152
114 129 149
109 124 144
107 121 140
102 116 134
98 111 129
96 109 126
91 104 120
87 99 115
82 94 108
76 86 99
71 80 93
66 75 87
61 70 81
57 65 75
55 63 72
53 61 70
49 56 64
44 49 57
38 43 50
32 36 42
24 27 31
17 19 22
29 32 38
36 40 47
39 44 51
44 50 58
48 55 64
48 54 63
44 50 58
39 44 51
28 32 37
19 22 26
13 15 18
11 13 15
17 19 22
30 34 39
41 46 53
46 52 60
47 53 61
46 52 61
43 49 57
42 48 55
39 45 52
35 39 45
35 39 45
35 41 47
36 41 48
36 41 47
34 38 45
31 35 40
26 30 35
20 23 27
16 19 22
22 25 29
24 28 32
24 27 32
25 29 33
26 30 35
27 31 36
29 33 38
34 39 45
37 42 48
44 50 58
53 60 69
60 68 79
65 74 85
67 77 89
73 82 95
76 87 100
82 93 107
86 97 112
89 102 118
95 108 125
96 110 128
103 116 135
105 119 138
106 121 140
108 122 142
108 123 143
111 126 146
111 126 146
112 127 147
114 129 150
113 129 149
115 130 150
114 130 151
115 130 150
117 132 152
114 130 150
115 130 149
111 126 146
109 123 143
109 124 143
110 125 144
109 124 144
107 122 141
105 118 137
98 112 130
96 109 125
92 104 121
87 99 114
83 94 109
78 89 103
74 84 98
72 82 94
69 79 91
67 76 88
63 72 83
60 68 79
58 66 76
57 65 75
52 59 69
50 56 65
47 53 61
47 54 62
43 49 57
39 44 51
32 36 42
23 26 30
23 26 30
19 22 25
18 21 24
18 20 24
10 11 13
15 17 20
27 31 36
34 39 45
36 41 48
40 45 52
45 52 60
49 56 64
50 57 65
52 59 68
53 60 70
53 60 70
55 63 73
58 66 76
61 69 80
62 70 81
59 67 77
56 64 73
55 62 72
52 59 68
49 56 64
50 57 65
48 54 63
46 52 61
43 49 57
41 46 54
36 41 47
28 32 37
19 22 25
20 23 27
34 39 45
40 45 53
42 48 55
47 53 61
50 57 66
55 63 73
61 69 79
65 74 85
67 76 89
71 81 94
75 85 99
78 89 103
78 89 103
78 88 102
78 89 103
81 92 106
81 92 107
81 92 107
77 88 102
74 84 97
72 81 94
48 55 64
49 56 65
49 55 64
45 52 60
39 44 51
28 32 37
16 19 22
18 21 24
24 27 32
25 29 34
24 28 32
17 19 22
22 24 28
28 32 37
35 40 46
43 50 57
49 55 64
54 62 71
57 65 76
62 71 83
67 77 89
73 83 96
75 86 99
76 86 100
75 85 98
74 84 97
74 84 97
72 81 94
66 75 87
62 70 81
59 67 77
57 64 74
54 61 70
50 57 66
47 53 62
38 43 49
29 33 38
25 29 33
24 28 32
25 29 33
23 27 31
22 25 29
22 25 29
20 22 26
23 27 31
26 30 34
24 28 32
25 28 33
24 27 31
24 27 31
30 34 39
37 42 48
43 49 56
50 57 66
55 63 73
58 66 76
59 66 77
58 65 76
53 60 70
50 56 65
46 53 61
49 56 65
53 60 70
54 61 70
56 64 74
56 63 73
57 64 74
55 63 73
55 63 73
57 65 75
57 65 76
59 67 77
62 71 82
69 78 91
73 83 96
77 88 101
78 89 102
76 87 100
75 85 99
75 85 99
74 84 96
71 81 94
72 82 95
74 85 98
75 85 99
74 84 97
74 84 97
73 83 96
75 85 99
77 88 102
80 91 105
83 94 108
83 95 110
87 98 114
89 100 116
91 103 119
93 105 122
95 108 125
99 113 131
101 114 132
101 115 133
102 116 134
103 117 135
102 116 134
100 113 131
98 112 129
96 110 127
95 108 125
96 109 126
96 109 125
91 103 119
91 103 118
88 99 115
88 100 115
87 99 114
86 98 113
85 96 111
89 100 116
92 104 120
91 104 120
91 103 120
91 103 118
87 98 113
85 97 112
82 94 108
79 90 104
76 86 99
72 81 94
68 77 89
62 71 81
54 61 70
46 53 62
42 47 55
34 39 46
28 32 37
22 25 29
14 16 18
16 18 21
21 24 28
21 24 28
21 24 27
20 23 27
19 22 25
15 17 20
11 13 15
12 13 15
25 29 33
40 45 52
50 57 66
57 65 75
64 73 84
68 77 89
70 80 92
72 81 94
69 78 90
67 76 88
69 78 90
71 81 94
73 83 96
73 83 96
78 88 102
82 92 107
83 94 109
85 96 111
87 98 114
88 100 116
92 105 121
94 106 123
94 107 123
96 110 128
99 113 130
99 113 131
100 114 131
99 112 129
97 110 127
100 114 131
102 116 135
106 120 139
106 121 139
105 118 136
106 120 139
107 121 139
107 121 139
102 116 134
103 117 135
102 116 134
101 115 133
97 111 129
98 111 129
101 116 134
100 114 133
101 115 133
103 118 136
106 121 140
109 123 142
110 125 145
110 125 144
110 126 145
111 126 146
110 125 145
109 124 144
111 126 145
108 123 143
110 125 144
111 126 146
114 129 149
113 128 149
112 128 149
113 128 148
111 126 146
111 125 144
110 125 145
109 123 143
109 123 142
110 125 145
111 126 146
112 128 148
113 129 149
112 127 147
112 127 147
111 126 146
112 127 147
112 128 147
112 127 147
113 128 149
114 129 148
112 127 146
105 119 138
103 117 135
99 112 129
95 108 125
91 104 122
89 101 117
85 97 112
81 93 107
75 86 99
71 81 94
69 79 91
67 76 89
62 70 81
57 65 75
52 59 68
48 54 62
41 47 54
34 39 45
29 32 37
24 27 31
17 20 23
24 28 33
33 37 43
40 46 53
45 52 60
47 54 62
45 52 60
42 48 56
40 46 53
39 44 51
34 39 44
29 33 38
17 20 23
21 24 28
35 40 46
43 49 56
46 53 61
50 57 66
55 62 72
57 65 75
55 62 72
50 57 66
44 50 58
42 48 56
40 45 52
35 39 46
27 30 35
21 24 28
26 29 34
29 33 38
28 31 36
26 29 34
28 32 37
31 35 40
29 33 39
27 30 35
19 21 25
18 20 24
27 30 35
36 41 48
45 51 59
52 59 69
58 65 76
64 72 84
70 80 93
74 84 97
79 90 103
82 93 108
82 94 109
89 100 116
92 104 120
94 107 123
96 109 126
99 113 130
102 116 135
107 122 140
111 125 144
113 128 148
115 131 152
118 133 154
118 134 155
118 134 155
115 131 153
114 130 150
115 131 151
113 128 148
112 127 147
109 124 144
110 125 144
107 122 141
105 120 138
108 122 141
106 121 141
107 122 142
105 119 137
101 115 133
96 110 127
91 104 121
89 101 116
86 98 113
84 95 109
80 90 104
75 85 98
73 84 97
72 81 93
69 78 90
66 75 87
63 71 82
58 66 76
55 62 72
53 61 70
50 57 66
50 57 66
51 58 67
51 57 66
51 59 68
48 55 64
43 49 57
37 42 48
30 34 39
25 29 34
22 26 30
19 21 25
13 15 17
16 19 22
24 28 32
27 30 35
32 36 42
36 41 47
42 47 55
45 51 59
45 51 59
44 49 57
40 46 53
41 46 54
46 52 60
54 62 71
60 68 78
61 69 80
61 69 80
58 66 77
56 64 74
53 60 69
48 55 64
48 54 63
47 53 61
44 50 58
40 46 54
35 40 46
30 34 40
26 29 34
15 17 19
21 24 28
29 34 39
33 38 43
35 40 46
39 44 51
41 46 54
43 49 56
48 54 63
51 58 67
56 64 74
61 69 80
62 71 82
59 67 78
58 66 76
59 66 77
62 71 82
66 75 86
67 76 88
68 77 89
69 79 91
66 75 87
47 53 62
48 54 63
47 53 62
43 49 57
34 39 45
23 26 30
14 16 19
26 30 35
33 37 43
35 40 46
35 40 47
35 40 46
33 38 44
29 33 38
30 34 39
27 31 36
26 29 34
32 36 41
37 43 49
44 50 57
49 55 64
56 64 73
60 69 80
61 69 80
60 68 79
60 68 79
63 71 82
59 68 78
54 61 71
46 51 59
42 48 55
37 42 49
32 36 42
26 29 34
21 24 28
23 26 30
30 34 40
36 41 47
35 40 47
32 37 43
35 40 46
40 45 52
44 50 57
43 49 56
41 47 55
41 47 54
41 46 54
38 43 50
28 32 37
14 16 19
24 28 32
28 32 38
30 35 40
36 41 47
42 48 55
42 48 55
44 50 57
42 48 55
37 42 48
35 39 45
36 41 47
36 41 48
37 42 48
38 43 50
38 43 50
36 41 48
37 42 49
38 44 51
41 47 54
44 50 58
47 54 63
52 59 69
60 68 79
63 71 83
67 75 87
70 79 92
70 80 92
69 79 91
68 77 89
65 74 85
64 72 84
63 72 83
64 73 84
66 75 86
67 77 89
69 78 91
72 82 95
78 89 103
81 92 107
83 94 110
87 98 113
88 100 114
91 103 119
94 107 124
96 109 126
97 110 127
100 113 130
101 115 133
103 117 135
105 118 136
103 117 136
101 115 133
101 115 133
101 114 132
99 112 130
95 108 125
94 107 124
92 105 122
94 107 123
95 108 125
94 107 123
93 105 122
88 101 116
92 104 120
91 103 119
91 104 120
90 102 117
91 104 121
92 104 121
94 106 123
92 105 121
92 105 121
90 102 118
87 99 114
85 96 111
81 92 107
76 86 100
71 81 93
67 76 88
62 70 82
55 62 72
49 55 64
42 47 55
34 39 45
27 30 35
14 16 19
17 20 23
29 33 38
33 38 44
35 39 45
34 39 45
36 41 48
35 40 46
28 32 37
22 25 29
16 18 21
21 24 28
32 36 42
41 46 54
47 53 61
53 60 70
59 67 77
60 68 79
62 70 82
62 71 82
63 71 82
63 72 83
64 73 84
64 73 85
67 76 88
70 80 92
73 83 96
78 88 101
80 91 105
82 93 108
82 93 108
84 95 110
84 96 110
85 97 113
87 99 115
90 102 118
88 100 116
89 101 117
90 103 120
93 105 122
93 106 122
94 106 122
93 106 123
95 107 123
94 107 124
95 107 124
96 109 126
99 113 130
100 113 130
99 113 130
101 114 132
99 113 131
97 110 128
97 111 129
98 112 129
100 114 131
101 114 132
103 117 135
102 116 135
104 119 138
107 121 140
109 124 143
109 123 141
106 121 140
107 121 140
103 117 136
104 118 137
103 118 137
105 119 137
105 119 138
106 121 140
107 122 141
108 122 142
109 124 143
110 125 145
111 126 145
111 126 145
110 125 145
110 125 145
108 123 143
109 123 142
110 125 143
109 123 143
107 121 140
106 120 138
106 120 139
106 120 139
104 118 137
105 119 137
106 121 140
106 120 139
105 119 137
103 116 134
100 113 131
96 109 126
93 106 122
91 104 120
87 100 115
85 96 111
79 90 104
74 84 97
71 81 94
69 78 91
67 76 87
65 74 85
65 73 85
63 71 83
58 66 77
53 60 69
49 55 64
44 50 58
42 48 56
39 44 51
30 34 40
20 22 26
22 25 29
33 37 43
38 43 49
38 43 49
39 44 51
32 37 43
23 26 30
21 24 28
18 21 24
17 20 23
29 33 38
39 44 51
46 52 61
48 55 63
47 54 63
52 59 68
56 63 73
58 66 77
59 67 78
58 65 75
54 61 70
48 55 63
42 48 56
39 44 51
34 39 45
32 37 43
33 38 44
33 38 44
31 35 41
32 37 43
29 33 39
24 27 31
21 23 27
19 22 26
29 33 38
37 42 48
40 46 53
50 58 67
57 65 75
63 72 83
70 79 91
77 88 101
84 95 110
88 100 115
91 103 120
91 103 119
94 106 122
95 108 124
96 109 126
101 114 132
104 118 135
108 123 142
109 125 144
115 130 150
116 132 153
118 134 155
118 134 155
119 134 154
116 132 154
115 131 151
116 132 153
115 131 151
115 130 149
112 127 147
109 124 144
109 122 140
105 119 137
105 119 138
104 119 138
105 118 136
107 121 140
105 119 138
101 115 133
95 109 126
93 105 121
89 101 117
86 98 113
85 96 111
83 95 110
81 92 107
78 88 102
74 84 98
74 85 99
75 85 98
73 82 95
67 76 89
64 72 84
62 71 82
62 71 82
60 69 80
60 68 79
59 67 77
59 67 77
58 65 76
51 58 67
45 52 60
41 46 54
36 42 48
35 39 46
27 31 36
16 18 21
12 13 16
14 16 18
16 18 21
19 21 25
19 21 25
14 17 19
17 20 23
16 19 22
17 19 22
21 24 27
18 20 24
17 19 23
24 27 32
30 35 40
40 45 52
45 50 58
40 46 53
39 45 52
38 43 50
38 43 50
41 46 54
42 48 55
40 45 52
40 46 53
39 45 52
36 41 48
26 30 34
16 18 21
14 16 19
19 21 24
22 25 30
23 26 30
22 25 29
19 22 25
14 16 19
19 21 24
22 25 29
27 31 36
30 34 39
33 37 43
33 38 44
34 39 45
33 37 43
38 43 49
47 53 62
54 61 71
60 69 80
65 73 84
65 74 85
38 44 50
40 46 53
38 43 50
33 38 44
24 28 32
19 22 26
23 26 30
31 35 40
39 44 51
44 50 58
51 58 68
55 63 73
56 63 73
56 64 74
55 63 72
50 56 65
46 52 60
40 46 53
34 39 45
29 33 39
23 27 31
29 33 39
32 36 42
32 36 42
30 34 39
36 41 47
34 39 45
33 38 44
30 34 39
25 28 32
22 25 29
19 22 25
24 27 31
33 38 44
44 49 57
45 51 59
44 50 58
50 56 65
51 58 68
53 60 70
52 60 69
53 61 70
54 62 72
53 60 69
48 54 63
43 49 57
37 43 49
31 35 40
21 24 28
14 16 19
14 16 18
15 17 20
24 27 32
27 31 36
27 31 36
23 26 30
17 20 23
15 17 20
20 23 27
26 30 34
27 31 36
26 29 34
21 24 28
19 22 25
21 23 27
23 26 30
27 30 35
30 34 40
38 43 50
45 51 59
50 57 66
53 61 70
55 62 72
55 63 72
55 63 72
53 61 70
51 58 67
52 58 68
50 56 65
49 56 65
48 55 64
52 59 68
57 64 74
60 68 79
62 71 81
69 78 90
75 85 98
81 92 106
85 96 110
88 100 115
92 105 121
94 107 123
96 108 125
97 110 126
97 110 127
95 108 126
98 112 130
99 113 131
102 115 134
101 114 132
99 112 128
95 108 125
93 106 123
93 106 123
93 106 122
95 107 123
95 108 125
99 112 129
100 113 131
98 111 129
100 113 131
99 112 130
96 110 127
94 107 123
92 105 122
93 105 122
93 106 122
90 103 120
93 105 122
91 104 120
93 106 122
94 107 123
92 104 121
90 102 118
84 96 111
80 91 105
76 86 100
72 83 96
71 80 92
65 74 86
59 67 77
52 59 68
46 52 60
37 42 49
30 34 39
23 26 30
13 15 17
25 29 33
37 42 49
45 51 58
47 53 62
46 53 61
44 50 58
40 46 53
38 43 49
34 39 45
30 34 39
24 27 31
23 26 31
24 28 32
27 30 35
37 42 49
44 50 58
48 55 63
51 58 67
53 61 70
56 64 74
58 66 77
63 71 82
63 71 82
62 70 81
62 71 82
65 74 86
67 76 87
69 78 90
70 79 92
70 79 92
71 81 94
75 85 98
76 87 101
80 91 105
81 92 107
82 93 107
82 93 107
83 95 110
83 94 109
81 92 106
81 92 107
83 94 109
86 97 112
87 99 114
89 100 116
89 101 117
94 106 123
94 107 124
92 105 121
94 107 124
95 107 124
96 109 127
97 110 128
97 110 127
100 114 131
98 111 128
98 112 130
101 115 133
101 115 133
103 117 135
104 118 136
103 116 134
102 116 134
100 114 131
101 114 131
99 112 130
96 109 127
99 112 130
99 113 130
97 110 127
100 113 131
102 116 133
102 116 134
99 112 130
101 115 133
102 116 134
102 117 136
104 118 136
104 118 136
102 116 134
100 114 131
97 110 127
97 110 126
98 111 128
99 113 130
100 114 131
100 113 131
101 114 132
101 115 133
99 112 130
98 112 129
97 110 127
93 105 122
91 104 120
91 103 119
88 100 116
83 95 110
79 90 104
73 83 97
69 78 90
64 72 84
59 67 78
62 70 81
61 69 80
57 65 75
53 61 70
49 56 64
42 48 56
36 41 47
30 34 39
23 26 30
17 19 22
14 16 19
10 11 13
12 14 16
17 19 22
19 21 25
21 23 27
20 23 27
18 21 24
20 22 26
28 32 37
35 40 46
40 45 52
42 49 57
46 53 61
52 59 68
55 63 73
59 67 77
59 68 78
61 69 80
61 69 79
58 66 77
56 63 73
54 61 70
53 60 69
51 58 67
47 53 61
43 49 57
38 44 50
31 35 40
21 24 28
21 24 28
22 25 29
25 29 33
33 38 44
40 46 53
47 53 61
52 59 68
56 64 74
63 72 83
70 79 92
76 87 100
81 92 106
90 102 118
95 108 125
101 114 132
103 117 136
107 121 140
108 122 140
109 123 143
109 123 142
114 129 150
112 127 147
113 129 149
115 131 151
119 134 155
121 137 159
122 138 160
122 139 160
119 135 156
119 135 156
118 135 156
119 134 155
115 131 152
115 131 151
114 129 150
110 125 145
110 124 143
108 122 141
107 121 140
108 122 141
106 121 139
103 117 136
102 116 134
101 114 132
98 111 129
95 108 125
93 106 123
94 106 122
92 105 121
90 101 117
90 102 118
89 101 117
89 101 117
87 99 115
86 98 114
85 96 111
78 89 103
72 82 95
69 79 92
67 76 87
64 73 84
62 70 81
61 69 80
60 68 78
58 66 76
59 67 77
57 64 74
52 59 68
48 55 63
44 50 58
40 45 53
36 40 47
27 31 36
19 21 25
17 20 23
21 24 28
24 28 32
18 21 24
11 12 14
20 23 26
21 23 27
20 22 26
19 22 25
21 24 28
22 25 29
23 26 30
20 22 26
14 16 19
13 15 17
13 14 17
12 14 16
21 24 28
33 37 43
37 42 49
39 44 51
39 44 51
43 49 56
44 50 58
40 45 52
32 36 42
28 32 37
26 29 34
23 26 30
17 20 23
18 21 24
21 23 27
18 20 23
10 11 13
18 20 23
27 31 36
34 39 45
35 40 46
32 36 42
25 29 34
21 24 28
16 18 21
19 22 25
34 38 45
43 49 56
50 57 65
54 61 71
27 31 36
25 28 33
22 25 29
26 29 33
32 36 42
35 40 46
40 45 52
45 51 59
49 56 65
55 62 71
60 68 79
63 72 83
64 72 84
62 71 82
61 70 81
59 67 78
55 62 72
51 58 67
46 53 61
46 52 60
46 52 61
46 52 60
43 49 57
39 45 52
39 44 51
39 44 51
42 47 55
40 45 52
37 42 49
37 42 48
37 43 49
40 46 53
47 54 63
55 62 72
61 69 79
64 73 84
64 73 85
65 73 85
63 72 84
63 72 84
62 70 81
56 64 75
54 61 71
50 56 65
46 52 60
42 47 55
37 41 48
30 35 40
22 25 29
12 13 15
20 23 26
22 25 29
23 26 30
19 22 26
17 19 22
12 14 16
9 10 11
11 12 14
19 21 24
24 28 32
28 32 37
26 30 34
24 27 31
18 21 24
15 17 20
11 13 15
12 13 16
24 27 31
34 38 44
42 48 56
46 53 61
45 52 60
45 51 59
45 51 59
44 50 58
41 47 54
35 40 46
36 41 47
36 42 48
41 47 54
48 55 64
54 61 71
57 65 75
63 71 82
70 79 91
76 86 100
80 91 105
83 94 109
87 99 114
89 102 118
95 107 123
94 107 124
95 107 124
95 108 125
93 106 123
92 105 121
93 104 119
90 102 118
89 102 117
91 103 120
94 106 123
92 105 122
91 104 120
93 106 123
95 107 124
98 111 128
99 113 131
102 116 133
104 118 137
104 119 137
102 116 133
99 112 130
98 111 128
96 109 126
96 109 126
96 108 125
95 108 125
98 111 129
97 110 128
97 110 127
98 111 128
95 108 125
93 106 123
90 103 119
88 100 116
85 97 112
82 92 106
76 86 100
71 81 94
66 74 86
59 68 78
54 61 71
47 54 62
37 42 49
27 30 35
21 23 27
29 33 38
38 44 50
46 52 60
52 58 67
52 59 68
52 59 68
52 59 68
53 60 69
51 58 67
49 56 65
50 56 65
46 53 61
39 44 50
28 32 37
15 17 20
25 28 33
34 38 44
38 43 50
42 48 56
48 54 63
50 57 66
53 60 69
52 60 69
53 60 69
54 61 71
56 63 72
55 63 72
58 66 75
58 66 76
59 67 78
61 69 80
63 71 82
62 71 82
64 73 84
68 78 90
70 80 93
72 82 94
70 80 92
68 77 89
67 77 89
67 77 89
65 74 85
69 78 90
72 82 94
75 86 100
80 90 104
82 94 109
86 98 113
88 99 115
88 100 116
90 102 118
92 105 120
94 106 122
93 106 123
97 110 127
99 113 130
101 115 132
101 115 132
101 114 132
102 116 133
102 116 134
101 115 133
100 113 131
98 112 129
96 109 126
97 110 127
96 109 125
92 104 120
88 101 117
88 100 116
89 100 115
88 100 115
90 102 118
91 103 119
91 103 120
91 103 120
91 103 120
93 106 122
93 106 123
94 107 125
94 107 124
93 106 122
91 103 119
88 100 116
90 102 118
91 103 118
91 104 120
94 106 122
93 106 123
93 106 123
93 105 122
93 106 122
93 105 122
89 102 117
87 98 113
82 94 109
80 91 105
77 88 102
75 85 98
71 81 94
66 75 87
60 68 79
55 63 73
54 62 72
50 57 66
45 51 59
42 47 55
37 42 49
29 33 38
19 22 25
15 17 20
12 14 16
10 12 14
14 16 19
15 17 19
13 15 17
12 13 15
13 15 17
13 14 17
22 25 29
27 31 36
29 33 38
34 39 45
39 45 52
44 50 58
46 52 60
50 57 66
54 61 70
57 65 75
59 67 78
59 67 77
58 65 75
57 65 75
55 62 72
51 58 67
49 56 65
47 53 61
40 46 53
36 41 47
28 31 36
23 26 30
24 27 32
33 38 43
42 48 56
51 57 66
54 61 70
58 65 76
62 70 81
66 75 87
71 80 93
76 87 101
82 93 108
86 98 113
92 105 122
99 112 130
104 118 137
110 124 144
112 127 146
115 132 153
118 134 155
120 137 159
122 139 160
126 143 165
126 143 165
126 143 165
126 143 165
127 144 166
127 144 166
128 145 167
126 143 166
123 141 163
122 140 162
121 138 159
124 140 162
124 141 163
124 140 162
120 136 158
120 136 158
119 135 156
116 132 152
113 128 148
114 129 148
111 126 146
109 123 143
105 120 138
102 116 134
101 115 134
100 114 132
98 111 129
100 113 130
99 112 130
100 113 130
99 112 129
97 110 127
96 109 126
94 107 124
94 106 122
90 102 118
84 95 111
78 89 103
76 87 100
72 82 95
69 78 90
65 74 86
65 73 85
64 72 84
65 73 84
60 68 79
59 67 77
58 66 76
57 64 74
51 59 68
50 57 66
48 54 63
41 46 54
32 36 42
22 25 29
17 19 22
14 16 19
10 12 14
13 15 17
17 20 23
22 25 28
28 32 37
31 35 41
30 34 39
27 31 36
19 22 25
17 20 23
22 25 29
21 24 28
19 21 24
19 22 25
14 16 19
19 21 25
31 35 40
41 46 53
43 49 57
43 49 57
44 50 58
44 50 58
46 53 61
45 50 58
39 44 51
37 42 48
36 41 48
36 41 47
32 36 42
27 31 36
25 28 33
28 32 37
27 30 35
26 30 34
32 36 41
35 39 46
38 44 50
35 40 46
30 34 39
21 24 28
12 14 16
16 18 21
26 30 34
34 39 45
43 49 57
52 59 69
51 58 67
51 58 68
53 60 69
51 58 67
51 58 67
51 58 67
54 61 71
56 64 74
55 62 72
54 61 71
52 59 68
51 58 67
51 58 68
51 58 67
51 57 66
51 58 67
52 59 68
52 60 69
54 61 71
54 61 71
57 64 74
58 66 76
57 65 75
55 63 73
55 63 72
55 62 71
52 58 67
50 57 66
51 58 67
56 63 73
59 67 78
64 73 85
70 80 92
73 82 95
74 84 97
71 82 95
72 81 93
71 80 93
69 78 90
66 75 86
63 71 82
59 67 77
57 64 74
55 62 72
52 59 68
50 57 66
42 48 56
37 42 48
28 32 37
25 28 33
23 26 30
19 21 25
14 16 18
16 18 21
13 15 17
12 14 16
10 11 13
12 13 15
16 18 21
21 23 27
21 24 28
17 20 23
17 19 23
15 18 20
20 23 26
15 17 20
17 19 22
28 32 37
38 43 50
41 46 53
36 42 48
34 38 44
34 39 45
38 44 51
38 43 50
35 39 46
28 32 37
28 31 36
33 38 44
44 49 57
51 57 66
58 66 76
65 74 86
72 82 95
76 86 100
81 92 106
83 94 108
87 99 114
90 102 118
91 103 119
93 105 121
91 104 120
91 103 119
90 102 118
87 99 114
86 98 113
87 99 114
89 100 115
90 102 118
91 103 119
95 108 125
99 112 129
100 113 130
101 114 132
102 116 133
103 117 135
103 117 136
103 117 135
104 118 136
105 120 138
103 117 136
105 119 137
103 117 136
102 116 135
103 118 136
105 119 138
106 120 140
105 119 138
102 115 133
99 113 131
96 110 127
94 107 123
89 101 117
85 96 111
79 90 105
77 88 102
73 83 96
69 78 90
63 71 82
57 64 75
47 54 62
36 41 48
21 24 28
23 26 30
35 40 47
42 48 56
46 52 61
52 59 68
53 61 70
55 62 72
56 64 74
58 66 77
58 66 76
56 64 74
56 64 74
52 59 69
46 53 61
40 45 53
32 37 42
20 23 27
20 23 27
28 32 37
34 38 45
37 42 48
37 42 49
40 46 53
45 51 59
46 52 61
47 53 61
46 52 60
44 50 58
46 52 60
50 57 65
51 58 67
51 59 68
52 60 69
54 61 70
55 63 72
55 62 72
55 62 72
57 65 75
59 67 77
60 68 79
59 67 78
60 68 78
59 67 78
59 67 77
60 68 79
63 71 82
69 79 91
70 80 93
74 83 96
75 86 99
78 88 102
79 90 104
82 93 107
88 99 114
90 102 118
92 104 120
95 108 125
98 112 130
102 116 135
103 117 135
102 115 132
101 115 132
99 112 130
96 110 128
96 109 126
93 105 121
91 104 120
87 99 115
88 100 115
85 97 112
83 94 109
82 92 106
77 87 100
76 86 100
79 89 103
79 90 104
80 90 105
81 92 107
81 92 106
83 94 109
82 93 107
82 93 107
82 94 108
83 94 109
81 92 107
80 91 105
82 93 107
81 93 107
84 95 109
84 95 110
84 96 111
86 98 114
87 99 114
90 102 118
87 99 116
87 99 114
84 95 109
80 91 105
78 89 102
75 85 99
72 81 94
67 76 88
63 71 82
59 67 76
52 59 68
46 53 61
38 43 50
28 31 36
18 21 24
20 23 26
27 30 35
30 35 41
30 34 40
33 38 44
32 37 42
31 35 41
32 37 42
30 34 39
24 28 32
20 23 27
16 18 20
18 21 25
32 36 41
36 41 48
38 43 50
38 43 49
40 45 52
36 41 47
35 40 47
40 45 53
47 53 62
50 57 67
51 58 67
49 55 63
47 54 62
48 55 64
47 53 61
42 48 55
37 43 49
29 33 38
17 20 23
28 32 37
40 46 53
50 57 65
56 63 73
60 68 79
64 73 84
70 79 92
75 85 99
78 88 102
81 92 106
83 94 109
87 99 115
91 103 119
97 110 128
103 118 136
109 124 144
113 128 149
114 130 151
118 133 154
124 140 162
127 144 166
130 147 169
131 148 172
134 152 176
134 152 175
138 155 178
137 155 180
134 152 176
134 151 174
134 152 174
134 152 175
133 150 173
128 146 169
126 143 165
125 142 164
126 143 165
126 144 166
125 142 164
124 141 163
122 139 160
118 135 156
117 133 154
114 129 149
112 127 146
111 126 145
110 124 144
108 122 141
105 120 139
107 121 140
107 121 140
103 117 136
103 118 136
102 115 133
100 113 131
98 112 130
98 111 129
95 107 124
93 105 121
89 102 117
85 97 112
81 92 106
79 90 104
75 85 99
72 81 94
70 80 92
70 79 91
68 77 89
66 74 85
60 69 79
56 64 73
57 64 74
57 65 75
56 64 74
54 62 71
50 57 65
44 51 59
38 43 50
35 39 45
35 40 46
39 45 52
39 45 52
38 43 50
41 46 54
39 45 52
38 43 50
32 36 42
28 32 37
26 29 34
27 31 36
26 29 34
22 25 29
16 19 22
14 16 19
18 21 24
19 21 25
18 21 24
27 31 36
36 41 47
47 53 62
53 60 70
55 62 72
56 64 74
58 66 76
57 65 75
52 59 68
51 57 66
53 60 69
55 63 72
53 60 69
49 56 64
46 53 61
43 49 57
43 49 56
42 48 55
42 47 55
41 46 53
42 48 55
42 47 54
36 40 47
26 29 34
15 17 20
10 12 14
18 20 23
25 29 33
32 36 42
69 79 91
69 78 90
69 79 91
68 77 89
67 76 89
66 74 86
65 73 85
64 73 84
63 72 83
60 68 78
55 63 73
54 61 71
50 57 66
48 54 63
48 54 62
49 56 65
54 61 71
56 63 73
60 68 78
61 69 80
64 73 84
66 75 87
68 77 89
65 74 86
61 70 81
60 68 79
59 67 78
56 64 74
54 61 71
57 65 75
60 68 79
65 73 85
69 79 91
73 82 95
71 80 93
71 80 92
71 81 94
69 78 90
68 77 89
66 75 86
63 72 84
66 75 87
68 77 89
68 77 88
66 75 86
63 71 83
61 69 81
58 66 76
51 58 67
45 51 59
46 52 61
44 50 58
38 43 50
37 42 48
39 44 50
37 42 48
30 34 40
20 22 26
19 21 25
17 20 23
15 17 20
14 16 19
18 20 23
19 22 26
21 24 28
23 26 30
16 18 21
18 21 24
31 36 41
39 45 52
40 46 53
36 41 48
33 38 44
33 38 44
35 39 45
33 38 44
34 39 45
32 36 42
31 36 41
32 37 43
39 45 53
48 55 64
56 64 74
64 73 84
69 78 90
74 84 97
77 87 101
79 90 105
83 94 109
86 97 112
85 97 113
85 97 112
85 96 111
84 96 111
84 94 108
83 95 110
85 96 111
86 97 112
85 97 112
88 100 115
91 103 119
94 107 124
98 111 128
98 111 129
97 111 128
102 115 133
103 117 134
104 119 138
105 119 137
108 123 142
109 123 141
106 121 139
107 121 140
107 122 141
109 123 143
109 123 142
105 119 138
102 116 135
99 113 131
97 110 127
93 106 122
91 103 119
87 99 115
82 93 107
78 88 102
74 84 97
70 79 91
67 77 89
65 74 86
62 70 81
58 65 76
49 55 64
33 37 43
18 20 24
31 35 41
36 41 48
41 47 54
47 53 62
53 61 71
58 66 76
59 66 77
58 66 76
56 64 74
56 63 74
54 61 71
53 60 70
51 58 67
47 53 61
44 50 58
42 48 55
35 40 47
29 32 37
23 26 30
23 26 30
19 21 25
21 23 27
26 30 35
33 38 44
37 42 49
42 47 55
46 52 60
45 51 59
41 47 55
38 44 50
38 43 50
39 44 51
38 44 51
39 44 51
40 46 53
42 47 54
44 50 58
46 52 61
47 53 61
49 55 64
50 57 66
51 58 67
51 58 67
52 58 67
54 61 70
55 62 72
56 64 74
59 67 78
64 73 85
68 77 89
70 79 92
71 81 93
74 84 97
80 91 105
86 98 113
88 101 117
90 102 118
93 105 121
93 105 122
96 109 126
95 108 125
94 107 123
93 106 122
91 104 120
89 101 117
87 99 114
85 96 111
83 94 109
80 90 104
76 87 100
73 83 97
71 81 94
66 75 87
64 72 83
63 71 83
60 69 80
61 70 81
64 72 84
66 75 86
67 76 87
68 77 89
67 76 88
65 74 85
65 74 86
67 76 88
67 76 88
65 73 85
66 76 88
70 80 92
74 85 98
77 87 101
77 87 101
77 88 102
76 86 99
75 85 99
73 82 95
72 81 94
72 81 94
71 81 94
68 77 89
62 71 82
56 64 74
54 61 71
49 56 65
43 49 57
34 39 45
21 24 28
20 22 26
22 25 29
28 32 37
37 43 49
46 52 60
46 53 62
46 53 61
45 52 60
47 53 62
44 50 58
43 49 57
42 48 55
42 47 54
39 44 51
27 31 35
23 26 31
27 31 36
24 28 32
24 27 32
25 29 33
24 27 32
21 24 28
21 24 28
23 26 30
25 28 33
28 32 37
31 36 42
33 38 44
32 36 42
28 32 37
25 29 33
26 29 34
32 36 42
42 47 54
46 52 60
51 58 67
61 69 79
69 78 91
77 87 100
76 87 101
80 90 104
81 92 107
84 96 111
87 98 113
91 103 120
95 108 125
99 112 129
102 116 134
105 119 138
109 124 145
115 130 150
118 135 156
122 138 160
125 142 164
129 145 166
132 151 175
136 154 177
135 153 178
137 156 181
139 158 182
140 159 184
138 157 181
138 156 180
136 154 178
135 153 177
135 153 177
133 150 174
132 150 174
130 148 171
128 146 169
129 146 169
128 145 167
125 141 163
122 139 161
123 139 160
122 138 159
118 135 156
115 131 153
115 131 152
114 129 148
115 130 150
114 129 150
111 126 146
109 123 142
108 123 143
106 121 139
103 118 136
100 114 132
98 111 128
98 111 128
99 112 130
99 112 130
100 113 131
98 112 129
93 106 123
91 103 119
86 98 113
85 97 112
82 93 107
78 89 103
78 88 102
75 86 100
74 84 97
72 82 95
67 77 90
66 76 88
67 77 88
67 76 89
63 72 83
58 66 77
60 68 79
58 66 76
54 61 71
54 61 71
56 64 74
55 62 72
54 61 70
52 59 68
50 57 66
51 58 67
46 53 61
40 46 53
39 45 52
40 45 53
41 47 54
39 44 51
34 39 45
33 37 43
34 39 45
37 43 49
42 47 55
45 51 59
49 56 65
53 60 70
53 61 70
51 58 68
54 61 71
56 64 74
54 62 72
54 61 71
55 63 73
54 61 71
53 60 70
51 57 66
50 57 66
52 59 69
53 60 70
50 57 66
47 54 62
44 50 58
43 48 56
43 49 56
40 45 52
33 38 43
25 28 33
13 15 18
15 17 20
27 31 36
37 42 48
77 88 101
75 84 97
72 81 94
71 80 93
71 80 93
71 80 93
72 82 95
73 83 95
73 83 96
72 81 94
68 78 90
65 74 86
62 70 81
61 69 80
60 68 78
58 66 77
61 69 80
63 71 83
64 73 84
64 72 83
64 72 83
66 75 87
67 76 87
65 74 85
61 69 80
59 67 77
57 65 75
56 64 74
56 63 73
57 65 75
59 67 78
61 69 80
63 72 83
63 71 82
58 66 77
58 66 77
58 67 77
61 69 80
61 70 80
62 70 81
62 70 82
64 73 84
68 78 90
70 79 91
71 80 93
72 82 95
72 82 95
69 79 91
66 75 86
63 71 82
61 70 81
58 66 76
54 61 71
47 54 62
44 50 57
41 46 54
39 44 51
35 40 46
30 34 39
28 32 37
25 28 33
19 22 26
13 15 17
15 17 20
16 18 21
20 23 26
29 33 38
36 42 48
37 42 49
38 43 50
35 39 45
29 33 38
27 30 35
28 31 36
32 37 43
31 35 41
27 31 36
25 29 33
26 29 34
29 33 39
35 40 46
41 46 54
48 55 64
56 63 74
65 74 85
72 81 94
75 85 99
76 86 100
77 87 101
79 91 105
79 90 104
79 89 103
78 89 104
80 91 104
81 92 107
82 93 107
82 93 107
84 96 110
87 98 113
87 99 114
88 100 116
89 102 118
91 104 120
89 101 117
91 103 119
94 106 123
97 110 127
96 110 128
100 113 130
99 112 130
99 112 130
101 115 133
104 118 137
104 118 136
105 119 137
100 114 132
99 112 130
95 108 125
92 104 120
90 103 119
88 100 115
86 97 112
81 92 106
78 88 102
73 83 97
69 78 91
66 75 87
61 70 81
59 67 77
55 63 73
53 60 69
44 50 58
35 39 45
22 25 29
16 19 22
26 29 34
33 37 43
40 46 53
48 55 63
53 60 69
54 61 70
51 58 67
50 57 67
51 58 67
49 56 64
51 58 67
54 62 72
54 61 71
52 59 69
48 55 64
44 51 59
43 49 57
42 47 55
39 45 52
35 40 46
28 32 37
16 18 21
18 21 24
30 34 39
33 38 43
34 38 44
35 40 46
35 40 46
35 39 46
36 41 47
36 41 47
34 39 45
33 38 44
34 39 45
33 38 44
32 37 42
29 33 38
26 30 35
23 26 31
23 26 30
23 26 30
24 27 32
34 39 45
41 46 53
46 52 60
49 56 64
51 58 67
54 62 71
58 67 77
62 70 81
65 73 85
67 76 88
69 79 91
74 84 97
77 87 100
79 90 103
78 89 104
80 91 105
84 95 109
84 96 110
82 93 108
81 92 106
78 88 102
77 87 100
72 82 94
71 81 93
69 78 91
65 74 86
64 73 84
62 71 82
63 72 83
62 70 81
61 69 80
60 68 79
59 67 78
59 67 77
56 64 74
56 64 73
55 62 72
55 62 72
54 61 71
54 62 72
54 61 71
57 64 74
55 63 73
55 62 72
58 66 76
62 70 81
64 73 84
65 74 85
65 74 85
64 72 84
62 70 81
61 70 80
64 72 83
63 71 83
61 69 79
60 68 78
57 65 75
51 58 67
46 52 60
41 46 54
38 43 50
31 36 42
21 24 28
13 15 17
26 30 34
35 40 46
41 47 54
46 52 60
47 54 63
48 54 62
48 55 63
51 58 67
55 62 72
55 63 73
54 61 71
55 62 72
57 65 75
57 65 75
56 63 72
58 66 77
58 66 76
57 65 75
53 60 69
52 59 68
50 57 65
49 56 64
43 49 57
39 45 52
39 44 51
35 40 47
33 38 44
33 37 43
34 39 45
42 48 56
46 52 60
49 56 65
50 57 66
52 59 69
57 65 75
63 71 82
71 80 93
77 87 101
81 92 107
85 96 111
88 100 116
89 101 117
89 102 118
91 103 119
91 103 120
95 107 124
97 111 128
101 114 132
105 119 137
110 125 144
115 130 150
119 135 155
122 138 160
126 143 165
131 148 171
135 154 178
140 159 183
142 161 185
142 161 185
145 165 190
142 162 187
144 164 189
141 160 185
140 160 186
138 157 181
138 156 181
136 155 180
135 153 177
135 154 178
134 152 176
133 151 175
130 148 172
128 145 167
127 144 166
126 143 166
124 141 163
122 138 160
122 138 158
118 134 155
113 128 148
112 127 147
113 128 148
111 125 145
110 125 145
105 120 140
104 119 137
102 115 133
100 114 132
99 112 129
96 110 127
100 113 130
101 115 133
102 116 134
102 116 133
101 114 132
98 111 128
93 106 123
90 103 119
88 99 115
87 98 114
85 96 111
82 93 108
81 92 106
78 89 103
76 87 100
75 85 98
73 83 95
70 80 92
71 80 92
69 79 91
69 79 91
70 79 91
68 78 90
69 78 90
68 77 90
66 75 87
64 73 85
64 72 84
62 71 82
61 69 80
62 70 81
61 69 80
59 67 78
57 64 74
55 62 72
52 60 69
52 59 68
46 53 61
46 53 61
46 52 60
48 54 63
46 52 60
45 51 59
45 51 59
48 55 63
49 55 64
46 52 61
45 51 59
37 42 48
35 39 46
37 43 49
41 46 53
41 46 53
38 43 50
33 38 44
34 39 45
39 44 52
42 48 55
41 46 53
36 41 47
33 38 44
34 38 44
35 40 46
31 36 42
25 29 33
18 21 24
16 18 20
27 30 35
37 42 49
81 92 107
78 89 102
78 89 103
79 90 104
81 91 105
83 94 109
80 91 106
80 91 105
79 90 103
78 89 103
75 85 99
73 83 97
71 81 93
67 76 88
64 73 84
62 70 81
62 71 82
65 74 85
66 75 86
66 75 87
65 75 87
66 76 88
68 77 89
67 77 89
64 73 84
60 68 79
57 64 75
55 63 72
51 58 67
51 58 67
50 57 66
45 51 59
43 49 56
41 47 54
38 44 51
39 45 52
40 45 52
44 50 58
47 53 62
47 54 62
50 57 65
52 59 69
56 63 73
60 69 79
66 75 87
65 74 85
66 74 86
65 74 86
65 74 86
63 72 83
61 69 80
60 69 79
55 63 74
50 57 66
44 50 58
41 46 54
34 39 45
29 33 39
27 30 35
26 29 34
17 19 23
16 18 21
21 24 28
30 34 39
32 36 42
29 33 38
30 34 39
26 30 35
22 26 30
22 25 29
20 23 27
18 20 23
18 20 23
23 26 30
23 26 30
22 25 29
25 28 33
26 29 34
26 29 33
28 32 37
31 35 41
38 43 50
43 49 57
49 56 65
57 65 75
63 71 82
66 75 87
66 74 86
66 74 85
66 75 86
66 75 87
68 77 89
68 78 90
69 78 90
73 82 95
75 85 99
75 86 100
78 88 102
82 93 108
84 96 110
86 98 113
86 98 113
87 99 114
86 97 113
87 99 114
87 99 114
89 101 117
90 102 118
94 106 123
95 108 125
96 109 126
95 108 125
96 108 125
95 109 126
95 107 124
93 106 122
91 103 119
89 101 116
87 99 114
86 97 112
83 94 109
82 93 108
78 88 102
74 84 97
69 78 90
66 75 87
64 73 85
62 70 81
56 64 73
48 55 64
40 45 52
32 36 42
29 33 38
21 24 28
12 14 16
25 28 33
31 35 41
35 40 46
38 43 50
42 48 56
45 52 60
46 52 60
46 52 60
47 53 61
48 54 62
53 60 69
57 64 75
60 68 78
58 66 76
55 63 73
53 60 69
50 56 65
45 52 60
41 47 54
39 44 51
36 41 48
28 32 37
14 16 18
19 22 26
27 31 35
33 37 42
36 41 47
43 48 56
46 52 61
42 48 55
37 42 49
35 40 46
32 36 41
27 31 35
19 22 25
15 17 20
17 20 23
12 14 16
11 13 15
16 18 21
19 21 24
17 19 22
19 22 25
27 31 36
32 36 42
35 40 46
41 47 55
49 56 65
56 63 73
60 68 79
63 71 82
65 74 85
64 73 84
64 73 84
64 73 84
66 75 87
65 74 86
64 73 84
65 74 85
64 73 85
63 71 82
61 69 80
56 64 73
52 59 68
50 57 65
45 52 60
45 51 59
44 50 57
47 54 62
49 56 65
50 57 65
50 57 66
53 60 69
55 63 73
58 67 77
59 67 77
56 64 74
51 58 67
48 55 63
48 54 63
47 53 62
46 53 61
44 50 57
41 46 53
40 45 52
42 47 55
42 48 56
48 54 63
51 57 66
55 62 72
57 65 74
59 67 77
58 66 76
57 65 75
56 64 74
54 62 71
51 59 68
47 54 62
42 48 56
35 40 46
32 36 42
27 31 36
24 27 31
22 24 28
17 20 23
26 29 34
34 39 45
42 48 55
48 54 63
51 58 67
51 58 67
52 59 68
52 60 69
52 59 69
53 61 70
55 63 73
55 62 72
56 64 74
59 67 77
63 71 82
65 74 86
67 76 87
70 79 92
71 81 94
73 83 96
71 81 94
69 79 91
68 77 88
65 74 85
62 71 82
59 67 78
58 66 76
54 62 71
54 61 71
54 61 71
59 67 78
60 68 78
61 70 81
62 71 82
65 74 86
67 76 88
70 80 92
76 86 99
81 91 106
84 95 110
85 97 112
88 100 116
92 105 121
96 109 126
98 111 129
98 112 130
102 115 133
106 120 139
110 125 145
115 130 150
118 134 156
121 138 159
125 142 165
129 146 169
132 150 173
134 152 177
138 157 181
144 163 189
146 166 192
148 167 193
151 171 198
151 171 198
153 173 200
151 171 198
148 169 195
148 169 195
146 166 193
145 164 189
143 162 188
140 159 185
136 155 180
136 154 178
132 150 173
128 146 169
127 144 166
125 142 165
125 142 164
121 138 160
119 135 156
116 132 153
112 128 149
111 126 146
108 122 141
107 122 141
105 120 139
102 116 134
101 115 132
100 113 131
99 113 131
100 113 131
99 113 131
98 111 129
100 113 131
102 116 135
103 117 136
103 117 136
102 116 134
97 111 128
97 111 129
95 107 124
95 108 125
93 105 122
92 104 121
90 102 118
88 99 115
85 96 111
83 95 109
80 91 105
76 86 99
75 86 99
76 86 99
74 84 98
74 83 96
74 85 98
74 83 96
73 83 96
70 79 91
67 76 88
66 74 86
65 74 86
64 72 84
65 74 85
64 73 85
60 68 78
55 62 71
51 58 67
49 56 65
52 59 69
49 56 64
46 52 61
43 49 57
42 47 55
39 44 51
35 40 46
32 36 42
31 36 41
30 34 40
24 27 32
20 23 27
18 20 23
18 20 23
24 27 31
29 32 38
29 33 38
26 30 35
21 24 28
23 26 30
25 28 33
24 28 32
22 25 29
24 27 31
20 23 26
20 23 27
24 27 32
28 31 36
33 38 44
39 45 52
41 46 54
42 47 55
46 52 60
